/* XPM */
static char *_709b8fff74e46e1f0326556d7eecec1JDKt22HdvQViRrsI[] = {
/* columns rows colors chars-per-pixel */
"64 64 8 1 ",
"  c gray11",
". c gray13",
"X c gray18",
"o c #464646",
"O c gray34",
"+ c #797979",
"@ c #929292",
"# c #AAAAAA",
/* pixels */
"XOOOOOOXOOOOOOXOOOOOOXOOOOOOXOOOOOOXOOOOOOXOOOOOOXOOOOOOXOOOOOOX",
".X......X      X......X.     X O....X...   X   O..X..... X     O",
"..X..... X     OX......X      XO.....X..    X  O...X....  X    O",
"...X....  X    O.X......X      X......X.ooo  Xooo...ooo.  ooo  O",
"....X...   X   O..X..... X     OX......o   o oXO.o.o.X.o o  Xo O",
".....X..    X  O...X....  X    O.X.....oX    o X...o..X. o   X O",
"......X.     X O....X...   X   O..X.....oo    ooX...oo.X  oo  XO",
"X......X      XO.....X..    X  O...X.... oX    o.X...o..X  o   X",
" X      X......X      X .....X.O    X   ...X...O  X     .X.....O",
"  X     .X.....OX      X......XO     X  .o..X..o   X o  ..Xo...O",
"   X    ..X....O X      X......X      X .....X.O    X   ...X...O",
"    X   ...X...O  X     .X.....OX      X......XO     X  ....X..O",
"     X  ....X..O   X    ..X....O X      X......X      X .....X.O",
"      X .....X.O    X   ...X...O  X     .X.....OX      X......XO",
"X      X......XO     X  ....X..O   X    ..X....O X      X......X",
" X      X......X      X .....X.O    X   ...X...O  X     .X.....O",
"OOXOOOOOOXOOOOOOXOOOOOOXOOOOOOXOOOOOOXOOOOOOXOOOOOOXOOOOOOXOOOOO",
"...X....  X    O.X......X      X......X.     X O....X...   X   O",
"....X...   X   O..X..... X     OX......X      XO.....X..    X  O",
".....X..    X  O...X....  X    O.X......X      X......X.     X O",
"OOOOOOOOOOOOOOOOOOOOOOOOOOOOOOOOOOOOOOOOOOOOOOOOOOOOOOOOOOOOOOOO",
"X......X      XO.....X..    X  O...X....  X    O.X......X      X",
".X......X      X......X.     X O....X...   X   O..X..... X     O",
"..X..... X     OX......X      X@@@@..X..### X  O..@X....  X@   O",
"   X    ..X....O X      X.....@X      X#...#.X.O  @@X   ...@@..O",
"    X   ...X...O  X     .X....@OX      #......XO  @  X  ...@X..O",
"     X  ....X..O   X    ..X....@@@      ##.....X  @   X ...@.X.O",
"      X .....X.O    X   ...X..@O  X     .#.....OX @    X...@..XO",
"X      X......XO     X  ....X.@O   X    ..X....O X@     X..@...X",
" X      X......X      X .....X.@@@@ X   .#.X...O @@@    .X@@@..O",
"  X     .X.....OX      X......XO     X  ....X..O   X    ..X....O",
"   X    ..X....O X      X......X      X .....X.O    X   ...X...O",
"OOOOXOOOOOOXOOOOOOXOOOOOOXOOOOOOXOOOOOOXOOOOOOXOOOOOOXOOOOOOXOOO",
".....X..    X  O...X....  X    O.X......X      X......X.     X O",
"......X.     X O....X...   X   O..X..... X     OX......X      XO",
"X......X      XO.....X..    X  O...X....  X    O.X......X      X",
".X......X      X......X.     X O....X...   X   O..X..... X     O",
"..X..... X     OX......X      XO.....X..    X  O...X....  X    O",
"...X....  X    O.X......X      X......X.     X O....X...   X   O",
"....X...   X   O..X..... X     OX......X      XO.....X..    X  O",
"     X  ....X..O   X    ..X....O X      X......X      X .....X.O",
"      X .....X.O    X   ...X...O  X     .X.....OX      X......XO",
"OOOOOOOOOOOOOOOOOOOOOOOOOOOOOOOOOOOOOOOOOOOOOOOOOOOOOOOOOOOOOOOO",
" X      X......X      X .....X.O    X   ...X...O  X     .X.....O",
"  X     .X.....OX      X......XO     X  ....X..O   X    ..X....O",
"   X    ..X....O X      X......X  ++++X .+...X.O ###X   ..###..O",
"    X   ...X...O  X     .X.....OX+     X.++...XO#   #X  .#..X#.O",
"     X  ....X..O   X    ..X....O +      X+.....X#     X .#...X.O",
"OOOOOOXOOOOOOXOOOOOOXOOOOOOXOOOOOO+++OOOO+OOOOOOX##OOOOXOO##OOXO",
"X......X      XO.....X..    X  O.+.X.... +X    O.X#.....X  #   X",
".X......X      X......X.     X O.+..X... + X   O..X..... X     O",
"..X..... X     OX......X      XO..++++..+++ X  O..#X....  X#   O",
"...X....  X    O.X......X      X......X.     X O....X...   X   O",
"....X...   X   O..X..... X     OX......X      XO.....X..    X  O",
".....X..    X  O...X....  X    O.X......X      X......X.     X O",
"......X.     X O....X...   X   O..X..... X     OX......X      XO",
"X      X......XO     X  ....X..O   X    ..X....O X      X......X",
" X      X......X      X .....X.O    X   ...X...O  X     .X.....O",
"  X     .X.....OX      X......XO     X  ....X..O   X    ..X....O",
"   X    ..X....O X      X......X      X .....X.O    X   ...X...O",
"    X   ...X...O  X     .X.....OX      X......XO     X  ....X..O",
"     X  ....X..O   X    ..X....O X      X......X      X .....X.O",
"      X .....X.O    X   ...X...O  X     .X.....OX      X......XO",
"X      X......XO     X  ....X..O   X    ..X....O X      X......X"
};
