/* XPM */
static char *_eb9ae4c1ffc4acfa23a99243821fd87HIlZw8YNypbVXuqp[] = {
/* columns rows colors chars-per-pixel */
"64 64 2 1 ",
"  c black",
". c #22B14C",
/* pixels */
"                                                                ",
"                                                                ",
"   ... . ... ... ... . . ...       ... . ... ... . ... ... .    ",
"   . . . . . . . . . . . . .       . . . . . . . . . . . . .    ",
"   . . . . . . . . . . . . .       . . . . . . . . . . . . .    ",
"   . . . . . . . . . . . . .       . . . . . . . . . . . . .    ",
"   ... . ... ... ... . . ...       ... . ... ... . ... ... .    ",
"                                                                ",
"                                                                ",
"                                                                ",
"                 ... . ... ... ... ... . ...                    ",
"                 . . . . . . . . . . . . . .                    ",
"                 . . . . . . . . . . . . . .                    ",
"                 . . . . . . . . . . . . . .                    ",
"                 ... . ... ... ... ... . ...                    ",
"                                                                ",
"                                                                ",
"                                                                ",
"   ... . ... ... ... . . ...       ... . ... ... . ... ... .    ",
"   . . . . . . . . . . . . .       . . . . . . . . . . . . .    ",
"   . . . . . . . . . . . . .       . . . . . . . . . . . . .    ",
"   . . . . . . . . . . . . .       . . . . . . . . . . . . .    ",
"   ... . ... ... ... . . ...       ... . ... ... . ... ... .    ",
"                                                                ",
"                                                                ",
"                                                                ",
"                 ... . ... ... ... ... . ...                    ",
"                 . . . . . . . . . . . . . .                    ",
"                 . . . . . . . . . . . . . .                    ",
"                 . . . . . . . . . . . . . .                    ",
"                 ... . ... ... ... ... . ...                    ",
"                                                                ",
"                                                                ",
"                                                                ",
"                                                                ",
"   ... . ... ... ... . . ...       ... . ... ... . ... ... .    ",
"   . . . . . . . . . . . . .       . . . . . . . . . . . . .    ",
"   . . . . . . . . . . . . .       . . . . . . . . . . . . .    ",
"   . . . . . . . . . . . . .       . . . . . . . . . . . . .    ",
"   ... . ... ... ... . . ...       ... . ... ... . ... ... .    ",
"                                                                ",
"                                                                ",
"                                                                ",
"                 ... . ... ... ... ... . ...                    ",
"                 . . . . . . . . . . . . . .                    ",
"                 . . . . . . . . . . . . . .                    ",
"                 . . . . . . . . . . . . . .                    ",
"                 ... . ... ... ... ... . ...                    ",
"                                                                ",
"                                                                ",
"                                                                ",
"   ... . ... ... ... . . ...       ... . ... ... . ... ... .    ",
"   . . . . . . . . . . . . .       . . . . . . . . . . . . .    ",
"   . . . . . . . . . . . . .       . . . . . . . . . . . . .    ",
"   . . . . . . . . . . . . .       . . . . . . . . . . . . .    ",
"   ... . ... ... ... . . ...       ... . ... ... . ... ... .    ",
"                                                                ",
"                                                                ",
"                                                                ",
"                 ... . ... ... ... ... . ...                    ",
"                 . . . . . . . . . . . . . .                    ",
"                 . . . . . . . . . . . . . .                    ",
"                 . . . . . . . . . . . . . .                    ",
"                 ... . ... ... ... ... . ...                    "
};
