/* XPM */
static char *bookshelf_north[] = {
/* columns rows colors chars-per-pixel */
"64 64 22 1 ",
"W c #1A0F0A",
"w c #2E1A0E",
"S c #3D2B1A",
"s c #5C3D22",
"R c #6B1010",
"r c #AA1A1A",
"e c #CC3333",
"B c #0F2545",
"b c #1A3D7A",
"c c #2B5BAA",
"T c #0F3D20",
"t c #1A6B35",
"u c #2B9950",
"P c #2D0F45",
"p c #4A1A7A",
"q c #6B2BAA",
"Y c #4A3A0A",
"y c #7A5F10",
"z c #AA8820",
"N c #3A1F0A",
"n c #5C3010",
"m c #7A4520",
/* pixels */
"errrewcbbbbcwuttuwqpppqwzyyzwmnnnmwerrewcbbbcwutuwqppqWWWWWWWWWW",
"errrewcbbbbcwuttuwqpppqwzyyzwmnnnmwerrewcbbbcwutuwqppqWWWWWWWWWW",
"errrewcbbbbcwuttuwqpppqwzyyzwmnnnmwerrewcbbbcwutuwqppqWWWWWWWWWW",
"errrewcbbbbcwuttuwqpppqwzyyzwmnnnmwerrewcbbbcwutuwqppqWWWWWWWWWW",
"errrewcbbbbcwuttuwqpppqwzyyzwmnnnmwerrewcbbbcwutuwqppqWWWWWWWWWW",
"errrewcbbbbcwuttuwqpppqwzyyzwmnnnmwerrewcbbbcwutuwqppqWWWWWWWWWW",
"errrewcbbbbcwuttuwqpppqwzyyzwmnnnmwerrewcbbbcwutuwqppqWWWWWWWWWW",
"errrewcbbbbcwuttuwqpppqwzyyzwmnnnmwerrewcbbbcwutuwqppqWWWWWWWWWW",
"eeeeewccccccwuuuuwqqqqqwzzzzwmmmmmweeeewcccccwuuuwqqqqWWWWWWWWWW",
"errrewcbbbbcwuttuwqpppqwzyyzwmnnnmwerrewcbbbcwutuwqppqWWWWWWWWWW",
"errrewcbbbbcwuttuwqpppqwzyyzwmnnnmwerrewcbbbcwutuwqppqWWWWWWWWWW",
"errrewcbbbbcwuttuwqpppqwzyyzwmnnnmwerrewcbbbcwutuwqppqWWWWWWWWWW",
"errrewcbbbbcwuttuwqpppqwzyyzwmnnnmwerrewcbbbcwutuwqppqWWWWWWWWWW",
"errrewcbbbbcwuttuwqpppqwzyyzwmnnnmwerrewcbbbcwutuwqppqWWWWWWWWWW",
"errrewcbbbbcwuttuwqpppqwzyyzwmnnnmwerrewcbbbcwutuwqppqWWWWWWWWWW",
"errrewcbbbbcwuttuwqpppqwzyyzwmnnnmwerrewcbbbcwutuwqppqWWWWWWWWWW",
"errrewcbbbbcwuttuwqpppqwzyyzwmnnnmwerrewcbbbcwutuwqppqWWWWWWWWWW",
"errrewcbbbbcwuttuwqpppqwzyyzwmnnnmwerrewcbbbcwutuwqppqWWWWWWWWWW",
"errrewcbbbbcwuttuwqpppqwzyyzwmnnnmwerrewcbbbcwutuwqppqWWWWWWWWWW",
"errrewcbbbbcwuttuwqpppqwzyyzwmnnnmwerrewcbbbcwutuwqppqWWWWWWWWWW",
"errrewcbbbbcwuttuwqpppqwzyyzwmnnnmwerrewcbbbcwutuwqppqWWWWWWWWWW",
"errrewcbbbbcwuttuwqpppqwzyyzwmnnnmwerrewcbbbcwutuwqppqWWWWWWWWWW",
"errrewcbbbbcwuttuwqpppqwzyyzwmnnnmwerrewcbbbcwutuwqppqWWWWWWWWWW",
"errrewcbbbbcwuttuwqpppqwzyyzwmnnnmwerrewcbbbcwutuwqppqWWWWWWWWWW",
"errrewcbbbbcwuttuwqpppqwzyyzwmnnnmwerrewcbbbcwutuwqppqWWWWWWWWWW",
"errrewcbbbbcwuttuwqpppqwzyyzwmnnnmwerrewcbbbcwutuwqppqWWWWWWWWWW",
"errrewcbbbbcwuttuwqpppqwzyyzwmnnnmwerrewcbbbcwutuwqppqWWWWWWWWWW",
"errrewcbbbbcwuttuwqpppqwzyyzwmnnnmwerrewcbbbcwutuwqppqWWWWWWWWWW",
"sssSSsssSSsssSSsssSSsssSSsssSSsssSSsssSSsssSSsssSSsssSSsssSSssss",
"sssSSsssSSsssSSsssSSsssSSsssSSsssSSsssSSsssSSsssSSsssSSsssSSssss",
"WWWwwWWWwwWWWwwWWWwwWWWwwWWWwwWWWwwWWWwwWWWwwWWWwwWWWwwWWWwwWWWW",
"WWWwwWWWwwWWWwwWWWwwWWWwwWWWwwWWWwwWWWwwWWWwwWWWwwWWWwwWWWwwWWWW",
"mnnnnmwzyyzwqpppqwerrrrrewcbbcwutttuwzyyzwmnnmwerrreWWWWWWWWWWWW",
"mnnnnmwzyyzwqpppqwerrrrrewcbbcwutttuwzyyzwmnnmwerrreWWWWWWWWWWWW",
"mnnnnmwzyyzwqpppqwerrrrrewcbbcwutttuwzyyzwmnnmwerrreWWWWWWWWWWWW",
"mnnnnmwzyyzwqpppqwerrrrrewcbbcwutttuwzyyzwmnnmwerrreWWWWWWWWWWWW",
"mnnnnmwzyyzwqpppqwerrrrrewcbbcwutttuwzyyzwmnnmwerrreWWWWWWWWWWWW",
"mnnnnmwzyyzwqpppqwerrrrrewcbbcwutttuwzyyzwmnnmwerrreWWWWWWWWWWWW",
"mnnnnmwzyyzwqpppqwerrrrrewcbbcwutttuwzyyzwmnnmwerrreWWWWWWWWWWWW",
"mnnnnmwzyyzwqpppqwerrrrrewcbbcwutttuwzyyzwmnnmwerrreWWWWWWWWWWWW",
"mmmmmmwzzzzwqqqqqweeeeeeewccccwuuuuuwzzzzwmmmmweeeeeWWWWWWWWWWWW",
"mnnnnmwzyyzwqpppqwerrrrrewcbbcwutttuwzyyzwmnnmwerrreWWWWWWWWWWWW",
"mnnnnmwzyyzwqpppqwerrrrrewcbbcwutttuwzyyzwmnnmwerrreWWWWWWWWWWWW",
"mnnnnmwzyyzwqpppqwerrrrrewcbbcwutttuwzyyzwmnnmwerrreWWWWWWWWWWWW",
"mnnnnmwzyyzwqpppqwerrrrrewcbbcwutttuwzyyzwmnnmwerrreWWWWWWWWWWWW",
"mnnnnmwzyyzwqpppqwerrrrrewcbbcwutttuwzyyzwmnnmwerrreWWWWWWWWWWWW",
"mnnnnmwzyyzwqpppqwerrrrrewcbbcwutttuwzyyzwmnnmwerrreWWWWWWWWWWWW",
"mnnnnmwzyyzwqpppqwerrrrrewcbbcwutttuwzyyzwmnnmwerrreWWWWWWWWWWWW",
"mnnnnmwzyyzwqpppqwerrrrrewcbbcwutttuwzyyzwmnnmwerrreWWWWWWWWWWWW",
"mnnnnmwzyyzwqpppqwerrrrrewcbbcwutttuwzyyzwmnnmwerrreWWWWWWWWWWWW",
"mnnnnmwzyyzwqpppqwerrrrrewcbbcwutttuwzyyzwmnnmwerrreWWWWWWWWWWWW",
"mnnnnmwzyyzwqpppqwerrrrrewcbbcwutttuwzyyzwmnnmwerrreWWWWWWWWWWWW",
"mnnnnmwzyyzwqpppqwerrrrrewcbbcwutttuwzyyzwmnnmwerrreWWWWWWWWWWWW",
"mnnnnmwzyyzwqpppqwerrrrrewcbbcwutttuwzyyzwmnnmwerrreWWWWWWWWWWWW",
"mnnnnmwzyyzwqpppqwerrrrrewcbbcwutttuwzyyzwmnnmwerrreWWWWWWWWWWWW",
"mnnnnmwzyyzwqpppqwerrrrrewcbbcwutttuwzyyzwmnnmwerrreWWWWWWWWWWWW",
"mnnnnmwzyyzwqpppqwerrrrrewcbbcwutttuwzyyzwmnnmwerrreWWWWWWWWWWWW",
"mnnnnmwzyyzwqpppqwerrrrrewcbbcwutttuwzyyzwmnnmwerrreWWWWWWWWWWWW",
"mnnnnmwzyyzwqpppqwerrrrrewcbbcwutttuwzyyzwmnnmwerrreWWWWWWWWWWWW",
"mnnnnmwzyyzwqpppqwerrrrrewcbbcwutttuwzyyzwmnnmwerrreWWWWWWWWWWWW",
"sssSSsssSSsssSSsssSSsssSSsssSSsssSSsssSSsssSSsssSSsssSSsssSSssss",
"sssSSsssSSsssSSsssSSsssSSsssSSsssSSsssSSsssSSsssSSsssSSsssSSssss",
"WWWwwWWWwwWWWwwWWWwwWWWwwWWWwwWWWwwWWWwwWWWwwWWWwwWWWwwWWWwwWWWW",
"WWWwwWWWwwWWWwwWWWwwWWWwwWWWwwWWWwwWWWwwWWWwwWWWwwWWWwwWWWwwWWWW"
};