/* XPM */
static char *bf4a14a2e0484d4ce0d8ae17001b1200hpVjjKfPsc9FL1jn[] = {
/* columns rows colors chars-per-pixel */
"64 64 2 1 ",
"  c black",
". c #22B14C",
/* pixels */
"                                                                ",
"                                                                ",
"     ..         ..        .. .. ..  ..                          ",
" . .    .  . .     . . .               .                        ",
"                                                                ",
"                                                                ",
"                                                                ",
"                                                                ",
"      ..  ..   ..    ..   ..                                    ",
"    .        .    .     .    .  . .                             ",
"                                                                ",
"                                                                ",
"                                                                ",
"                           ..         ..        .. .. ..  ..    ",
"                       . .    .  . .     . . .               .  ",
"                                                                ",
"                                                                ",
"                                                                ",
"                                                                ",
"                            ..  ..   ..    ..   ..              ",
"                          .        .    .     .    .  . .       ",
"                                                                ",
"                                                                ",
"                                                                ",
"     ..         ..        .. .. ..  ..                          ",
" . .    .  . .     . . .               .                        ",
"                                                                ",
"                                                                ",
"                                                                ",
"                                                                ",
"      ..  ..   ..    ..   ..                                    ",
"    .        .    .     .    .  . .                             ",
"                                                                ",
"                                                                ",
"                                                                ",
"                           ..         ..        .. .. ..  ..    ",
"                       . .    .  . .     . . .               .  ",
"                                                                ",
"                                                                ",
"                                                                ",
"                                                                ",
"                            ..  ..   ..    ..   ..              ",
"                          .        .    .     .    .  . .       ",
"                                                                ",
"                                                                ",
"     ..         ..        .. .. ..  ..                          ",
" . .    .  . .     . . .               .                        ",
"                                                                ",
"                                                                ",
"                                                                ",
"                                                                ",
"      ..  ..   ..    ..   ..                                    ",
"    .        .    .     .    .  . .                             ",
"                                                                ",
"                                                                ",
"                           ..         ..        .. .. ..  ..    ",
"                       . .    .  . .     . . .               .  ",
"                                                                ",
"                                                                ",
"                                                                ",
"                                                                ",
"                            ..  ..   ..    ..   ..              ",
"                          .        .    .     .    .  . .       ",
"                                                                "
};
