/* XPM */
static char *_cb580aec48e40e7b6ae936a91502982EWZ0lEeCMi5fqCJH[] = {
/* columns rows colors chars-per-pixel */
"64 64 2 1 ",
"  c black",
". c #22B14C",
/* pixels */
"                                                                ",
"                                                                ",
"  . . ... ... ... . . .   . ... . .     ...                     ",
"  . . .   .    .  . . .   . . . . . .   . .  ...                ",
"  . . ... ...  .  . . . ... ... . . . . . .                     ",
"  . . .   .    .  . . . . . .   . . ..  ...  ...                ",
"  ... ... .    .  ... . ... .   ... . .  . .                    ",
"                                                                ",
"                                                                ",
"               ...     . ... ... ... ... ..  ...  ... .  .   .  ",
"               . . .   . .    .  . . .   . . . .  . . .  .   .  ",
"               ... . . . .    .  . . ... ..  . .  . . .. .   .  ",
"               ..  ..  . .    .  . .   . . . ...  . . . .. . .  ",
"               . . . . . ...  .  ... ... ..   . . ... .  . ...  ",
"                                                                ",
"                                                                ",
"                                                                ",
"  . . ... ... ... . . .   . ... . .     ...                     ",
"  . . .   .    .  . . .   . . . . . .   . .  ...                ",
"  . . ... ...  .  . . . ... ... . . . . . .                     ",
"  . . .   .    .  . . . . . .   . . ..  ...  ...                ",
"  ... ... .    .  ... . ... .   ... . .  . .                    ",
"                                                                ",
"                                                                ",
"               ...     . ... ... ... ... ..  ...  ... .  .   .  ",
"               . . .   . .    .  . . .   . . . .  . . .  .   .  ",
"               ... . . . .    .  . . ... ..  . .  . . .. .   .  ",
"               ..  ..  . .    .  . .   . . . ...  . . . .. . .  ",
"               . . . . . ...  .  ... ... ..   . . ... .  . ...  ",
"                                                                ",
"                                                                ",
"                                                                ",
"                                                                ",
"  . . ... ... ... . . .   . ... . .     ...                     ",
"  . . .   .    .  . . .   . . . . . .   . .  ...                ",
"  . . ... ...  .  . . . ... ... . . . . . .                     ",
"  . . .   .    .  . . . . . .   . . ..  ...  ...                ",
"  ... ... .    .  ... . ... .   ... . .  . .                    ",
"                                                                ",
"                                                                ",
"               ...     . ... ... ... ... ..  ...  ... .  .   .  ",
"               . . .   . .    .  . . .   . . . .  . . .  .   .  ",
"               ... . . . .    .  . . ... ..  . .  . . .. .   .  ",
"               ..  ..  . .    .  . .   . . . ...  . . . .. . .  ",
"               . . . . . ...  .  ... ... ..   . . ... .  . ...  ",
"                                                                ",
"                                                                ",
"                                                                ",
"  . . ... ... ... . . .   . ... . .     ...                     ",
"  . . .   .    .  . . .   . . . . . .   . .  ...                ",
"  . . ... ...  .  . . . ... ... . . . . . .                     ",
"  . . .   .    .  . . . . . .   . . ..  ...  ...                ",
"  ... ... .    .  ... . ... .   ... . .  . .                    ",
"                                                                ",
"                                                                ",
"               ...     . ... ... ... ... ..  ...  ... .  .   .  ",
"               . . .   . .    .  . . .   . . . .  . . .  .   .  ",
"               ... . . . .    .  . . ... ..  . .  . . .. .   .  ",
"               ..  ..  . .    .  . .   . . . ...  . . . .. . .  ",
"               . . . . . ...  .  ... ... ..   . . ... .  . ...  ",
"                                                                ",
"                                                                ",
"                                                                ",
"                                                                "
};
