/* XPM */
static char *c97a4e610d774488b45673a8ce9c71c3xwm1W3k5py263iPB[] = {
/* columns rows colors chars-per-pixel */
"256 455 256 2 ",
"   c #0A060A",
".  c #0D090D",
"X  c #0A0505",
"o  c #140C0A",
"O  c #0E0B11",
"+  c #120D12",
"@  c #180E16",
"#  c #151114",
"$  c #1B1618",
"%  c #19110D",
"&  c #26160B",
"*  c #271B16",
"=  c #321B0E",
"-  c #2A221B",
";  c #36251A",
":  c #3B230C",
">  c #231D22",
",  c #2A1E21",
"<  c #351E23",
"1  c #2A2525",
"2  c #362B25",
"3  c #38342A",
"4  c #3C3B35",
"5  c #383836",
"6  c #322D34",
"7  c #1D1C23",
"8  c #573818",
"9  c #4C3011",
"0  c #653B14",
"q  c #442D26",
"w  c #483629",
"e  c #573A28",
"r  c #463B34",
"t  c #563C34",
"y  c #643D2A",
"u  c #4B1E15",
"i  c #3D413A",
"p  c #5D4316",
"a  c #694809",
"s  c #795709",
"d  c #664A17",
"f  c #775917",
"g  c #705012",
"h  c #7D6214",
"j  c #474439",
"k  c #564738",
"l  c #574931",
"z  c #674629",
"x  c #734C29",
"c  c #785628",
"v  c #684935",
"b  c #6A533A",
"n  c #775639",
"m  c #714E32",
"M  c #7C632D",
"N  c #596702",
"B  c #3B3645",
"V  c #453C4C",
"C  c #3C4645",
"Z  c #484944",
"A  c #584C44",
"S  c #5B5348",
"D  c #4B5956",
"F  c #4C5B59",
"G  c #475655",
"H  c #525E5A",
"J  c #565956",
"K  c #4B4A57",
"L  c #665849",
"P  c #785A45",
"I  c #675C54",
"U  c #6E514B",
"Y  c #53615C",
"T  c #59635C",
"R  c #7A6349",
"E  c #6C6358",
"W  c #776858",
"Q  c #726951",
"!  c #51546A",
"~  c #596662",
"^  c #5A637B",
"/  c #776B64",
"(  c #7B7467",
")  c #787877",
"_  c #6A6D6E",
"`  c #675C63",
"'  c #845B09",
"]  c #896608",
"[  c #936C06",
"{  c #9A7408",
"}  c #886816",
"|  c #977517",
" . c #916E15",
".. c #A47B08",
"X. c #A47A14",
"o. c #845C37",
"O. c #87562A",
"+. c #89643A",
"@. c #956A38",
"#. c #916F2D",
"$. c #AB7734",
"%. c #B1531D",
"&. c #D36B18",
"*. c #D6712A",
"=. c #E57928",
"-. c #E97C30",
";. c #D96B1A",
":. c #845C46",
">. c #855A55",
",. c #886648",
"<. c #946B48",
"1. c #987349",
"2. c #886A55",
"3. c #956B56",
"4. c #87765A",
"5. c #997657",
"6. c #89734B",
"7. c #A37A58",
"8. c #A77949",
"9. c #877A67",
"0. c #867C74",
"q. c #947665",
"w. c #A67B66",
"e. c #A85C43",
"r. c #AF5429",
"t. c #78827C",
"y. c #7B8305",
"u. c #AB8309",
"i. c #B58B09",
"p. c #AA8416",
"a. c #B48C16",
"s. c #BC9311",
"d. c #B68831",
"f. c #948526",
"g. c #C59B17",
"h. c #C69A0B",
"j. c #CFA316",
"k. c #CE9535",
"l. c #E98935",
"z. c #D1A32C",
"x. c #F0AF37",
"c. c #A98359",
"v. c #B5894F",
"b. c #8C8368",
"n. c #97886B",
"m. c #8C8376",
"M. c #928574",
"N. c #958975",
"B. c #9C8C74",
"V. c #958A7B",
"C. c #9A8D7B",
"Z. c #938679",
"A. c #9D917D",
"S. c #9D9173",
"D. c #9A926D",
"F. c #A88668",
"G. c #A3926D",
"H. c #A39375",
"J. c #A4957B",
"K. c #AB9B7D",
"L. c #A89879",
"P. c #B38D73",
"I. c #A89872",
"U. c #D59947",
"Y. c #CD914B",
"T. c #E99648",
"R. c #DBA34C",
"E. c #EAAC4A",
"W. c #D59B6F",
"Q. c #FAC149",
"!. c #70768F",
"~. c #5A6993",
"^. c #827D8B",
"/. c #7B8786",
"(. c #7986A7",
"). c #868886",
"_. c #978D82",
"`. c #9D9283",
"'. c #9A958A",
"]. c #8D9692",
"[. c #A29683",
"{. c #A59984",
"}. c #AC9C83",
"|. c #A49B8B",
" X c #AA9E8A",
".X c #A39688",
"XX c #B19E83",
"oX c #A59D92",
"OX c #A69389",
"+X c #97A499",
"@X c #ADA18B",
"#X c #AEA083",
"$X c #B2A284",
"%X c #B3A48B",
"&X c #B9A88A",
"*X c #AAA496",
"=X c #B4A995",
"-X c #B7B39B",
";X c #9297A9",
":X c #9EA3B3",
">X c #9CA9A6",
",X c #AAA8A9",
"<X c #BAB5A9",
"1X c #A4A6BB",
"2X c #ABADBD",
"3X c #A5A8B9",
"4X c #AFB0BD",
"5X c #AAB8B3",
"6X c #B3B4BC",
"7X c #BBBABD",
"8X c #B8B5B6",
"9X c #B1AEAD",
"0X c #A59EA4",
"qX c #C3BDB9",
"wX c #C6B7AA",
"eX c #C8AC92",
"rX c #B7C6B3",
"tX c #C8C3BB",
"yX c #D5CBBA",
"uX c #D3CBB2",
"iX c #E4D6B9",
"pX c #DECFA7",
"aX c #ACACC2",
"sX c #A6AAC1",
"dX c #B3AEC3",
"fX c #AFB1C2",
"gX c #B2B4C3",
"hX c #BCBCC3",
"jX c #B5BACB",
"kX c #BBBDCB",
"lX c #B7B6C6",
"zX c #B9BED1",
"xX c #C4BBC4",
"cX c #CABBCB",
"vX c #BDC1CB",
"bX c #BBC2D3",
"nX c #BBC4D9",
"mX c #BFC9E0",
"MX c #C3C2C3",
"NX c #C3C4CB",
"BX c #CBC8C6",
"VX c #D3CCC6",
"CX c #D9D3C9",
"ZX c #C5C4D3",
"AX c #D8D4D1",
"SX c #E5DAC6",
"DX c #E3DDD2",
"FX c #EBE4D6",
"GX c #F5EBD8",
"HX c #FBF4DA",
"JX c #F0E5CA",
"KX c #FCF8E7",
"LX c #FDFBFC",
"PX c #FCFAF4",
"IX c #F0ECE3",
"UX c #CCD6D7",
/* pixels */
"4 5 1 4 4 5 5 5 5 5 5 i 4 5 5 5 5 4 i 5 5 5 4 i 4 5 4 5 5 j i 4 4 5 5 4 4 5 6 5 3 5 5 6 6 6 5 5 3 3 3 1 2 3 3 2 2 3 4 5 6 3 2 2 1 1 3 6 3 3 4 3 5 5 5 4 5 3 3 - $ $ - - - * 1 1 1 2 - - * - 3 j A A A j j j j j 4 3 3 3 3 3 4 3 3 3 3 j 3 3 3 3 w k k S I L b k L L I L S A j j 3 w 3 3 j l j j j k l l j j j k b l k b k b Q L L L Q b.H.D.n.n.D.D.b.b.4.b.b.b.b.b.b.b.n.n.b.b.n.D.N.n.n.n.S.N.b.D.b.n.n.b.b.b.b.b.b.b.b.b.4.b.b.N.b.n.b.D.b.b.b.b.b.9.9.9.9.( ( 4.4.W W W Q E E S S E W ( ( ( / E S A A S J J J J E J J J I I ",
"5 5 1 5 4 5 5 5 4 4 5 4 4 5 5 5 5 5 4 5 6 6 5 5 4 5 5 5 5 i 5 4 i 4 4 4 4 5 5 4 5 5 5 5 5 6 5 5 3 3 6 6 3 3 5 3 6 1 3 6 1 3 1 1 1 3 3 3 4 4 i 6 5 5 j 4 5 3 2 - $ * 1 - - - 1 1 1 1 - - 1 4 S S j 3 j j 4 4 4 4 3 2 - 2 1 3 4 2 w 3 3 j j j j l k S L L I L b b Q L k k j j 3 3 3 w 3 3 j w j l j j l w l k j k k l L b L L L Q I L L b ( b.S.D.b.D.D.D.b.b.n.b.b.b.b.b.b.b.9.b.b.b.b.b.b.b.b.b.b.b.b.4.n.n.n.M.b.b.b.b.b.b.n.M.b.n.n.n.D.b.b.b.b.9.9.9.9.b.b.b.9.( b.W W ( W W W I W W k S k j A A Z A S S J S J J J J J J J I ",
"5 5 1 5 5 5 5 5 4 4 4 5 5 5 5 4 5 6 5 4 5 6 4 4 4 4 4 5 5 5 4 4 5 4 5 4 5 i 4 4 4 5 4 5 4 4 5 5 5 4 4 5 3 3 6 6 5 2 3 6 2 2 1 1 1 3 3 1 3 4 i 4 4 4 4 4 4 3 1 3 - $ - - 1 1 - 1 1 - 2 3 2 3 j k j 3 3 - 2 3 3 3 2 - - 4 - 3 2 ; 3 3 4 j j j k k S S L l I L S k k l w j 3 3 3 w r w w w j l k k j l l j k k l l L b l L L k I L b l l w j j j Q Q D.S.D.D.n.D.D.n.D.n.b.b.b.b.9.9.9.b.b.9.9.9.4.9.9.4.4.b.b.N.b.M.n.b.b.b.M.n.n.9.9.b.b.n.D.n.n.b.b.b.9.b.N.b.b.9.4.4.( ( ( ( ( Q ( ( ( Q I I S S S S A A A A Z J J S S J S S J ",
"6 6 1 5 5 5 5 5 5 5 5 5 5 5 4 4 5 6 5 i 5 6 4 4 5 4 i 5 5 5 4 5 5 5 4 4 4 i 4 5 5 4 4 6 j 4 4 i 4 4 4 4 5 i 4 5 5 6 4 4 5 6 3 1 1 1 1 - 3 3 3 3 3 3 3 5 4 4 j 5 1 - - - 2 1 2 1 - 2 3 5 r r j A 2 r 4 3 - 2 2 - - 2 - j 2 2 3 3 3 j j j k k k S b l b L k j S l j w 4 3 j 3 3 3 r w 3 3 j l k k l j b k k b b L b b L b L k k j j w w w w w j w j l l l l L L L L Q 4.n.b.D.n.M.b.b.n.b.9.9.4.9.9.b.b.b.b.b.b.b.b.b.n.b.b.b.b.b.9.b.n.n.b.b.n.b.b.b.4.b.b.b.b.4.4.9.4.4.9.9.4.4.( ( W W W Q W E W W I A Z Z J G S S S S J S S S ",
"5 5 1 5 5 5 5 5 5 4 5 6 5 5 5 5 5 5 5 4 5 5 4 5 4 i i 5 5 5 5 5 5 5 4 4 4 4 4 5 5 4 5 5 5 4 4 i i 4 4 j i i 4 5 5 6 4 i 4 i j 4 5 1 1 3 3 1 1 1 1 - 3 1 1 1 4 3 1 - 1 - - 1 2 2 3 5 4 4 4 j j j 4 j 3 2 2 - - - - - - 2 3 3 3 r j j k k j S k S S j j j 3 3 3 l w w 3 3 j 4 j 3 j j j j j j j k b k L I L L L L L b l w j w w 3 l j l j w k w j l l l l l l L L b L L Q L Q b.S.G.S.S.b.b.b.b.b.( 9.b.b.b.b.D.D.n.b.b.b.b.b.b.b.b.b.b.b.b.b.n.D.D.D.n.b.b.b.b.4.b.9.9.b.b.b.( 4.4.9.W ( 9.( ( ( ( ( W E S r S A j A S J S S S A ",
"D G G Z Z 5 5 5 6 5 6 6 5 5 5 5 5 5 5 5 6 5 5 5 4 5 5 4 4 4 5 4 5 5 4 4 5 4 4 5 6 5 i 4 j 4 4 4 4 5 4 4 j j 4 5 4 5 4 4 i j j i 4 4 4 4 j 5 3 6 3 1 1 $ - - 3 1 6 1 3 1 1 1 2 4 4 r r 4 4 r j j 4 j j 2 - - - - - 2 2 3 2 4 2 j k k k A k k S k r 3 2 2 3 3 ; 3 w 3 3 3 w 4 j j j j j j l l j S L S L L I Q Q L k w w w j j j 3 l l j w j l l l k k b b b b L L L L Q Q b l l b b.H.H.D.D.b.b.b.b.b.D.n.b.b.b.n.n.N.n.n.M.b.b.b.b.b.b.b.4.b.b.b.b.n.n.N.N.n.D.b.b.b.b.b.b.9.b.b.b.4.4.4.4.9.( ( ( 9.W ( W E S E S S Z S S S A A ",
"F D F F F D G G Z Z i 5 5 5 6 6 5 5 6 6 6 6 5 5 5 5 5 i 4 4 4 4 5 6 5 4 4 5 5 4 4 4 5 5 4 4 4 i 4 5 4 Z j 5 5 4 4 i i 4 j j j i i i 4 j j j j r 4 5 3 1 1 - - * 1 6 1 1 2 3 3 4 4 4 j j 3 j r j j j j 2 - - - - 2 3 3 4 3 j 4 j k k j j A S j 2 3 3 2 1 - 2 - 2 j 3 3 3 j j j j j w k j j L L L k L L L L b k j w j w j w j j w j j r k b k l b b b L L L b b L L L l l l j l l l l Q b.n.D.b.n.b.D.D.D.N.S.S.D.n.D.N.M.M.n.n.b.4.b.9.4.4.b.b.b.b.b.n.b.M.M.n.n.b.b.b.b.b.b.b.b.b.n.b.9.9.( ( 9.9.( ( ( ( W W ( W E I S j j Z A ",
"G G G D D D F F D D D G G G Z C 5 5 5 5 5 5 5 6 6 6 5 5 5 4 4 5 5 5 5 4 4 4 4 4 i j 5 5 4 4 4 4 i 3 5 i j 4 5 5 i j i 4 j i i i j i j j j j j j i 5 5 5 3 4 3 1 1 1 * - 1 3 3 4 4 r j r 4 j 4 j j j j 3 - - 2 2 3 3 3 3 4 4 3 3 j j j j k 2 - - 4 3 - 2 - 3 2 3 j j 3 r j j j r k j j j b b L S j k j 3 3 w 3 w j j j j j k r l k S k b L L L L b L L b b k k j j l r l l j l l k j l l l ( ( W n.D.H.J.D.D.S.S.S.D.n.n.S.D.D.D.D.D.b.4.4.b.b.D.n.b.b.n.b.b.n.b.D.n.b.b.b.n.n.n.n.b.4.b.b.b.9.b.9.( ( 9.( W ( ( ( W W E J E Z j ",
"G G G D D D F F D D D D D D D D D G Z C i 4 5 5 6 6 5 5 5 5 5 5 5 5 5 4 5 5 5 5 i i 5 4 5 4 4 4 4 5 5 5 i 4 i j j j 5 4 4 4 i j j j j j 4 4 i i 5 3 5 4 5 5 3 6 5 3 3 3 3 3 1 1 3 3 4 r r r j j j j j 3 3 3 - r r 3 2 2 j j j j j j j j 4 - - - 3 2 - 1 - 3 3 3 j k 3 j S A j j k k j k k j r 3 3 3 4 3 w 3 r j r w l j j j k k L L S L L L b I L k S l j w j w j j l j l j l j k l b k l k b b L Q b.D.D.D.S.A.N.n.D.D.D.b.b.n.D.S.N.b.n.b.b.b.b.b.D.n.N.n.b.n.N.n.n.n.b.n.n.n.n.n.n.b.b.b.b.4.9.9.9.9.b.9.( ( ( ( ( ( W W L E ",
"G G G G D D F D D D D D D D D D D D G D D D G G Z C 5 5 1 1 6 6 5 5 5 4 5 5 6 5 4 4 6 5 5 j 4 4 4 4 5 4 Z j 5 j i i 4 i 4 i j j j j j j 4 j i i j 2 3 j j r 5 r 5 j 4 4 j 4 5 3 3 2 5 2 4 4 j j 4 4 r 3 4 3 2 j 4 3 r 4 j j j j j j j r 5 1 1 3 3 2 3 2 r 2 4 4 j j 4 j j A j A k j 3 3 2 1 2 2 3 ; r 3 w w r r 3 w k k k S I L I k L L L l l k k 3 w r w j j j j w k r l l k k L S b b b b b Q b b b k L 4.S.S.S.A.S.D.n.D.n.b.b.S.N.b.b.4.b.b.b.n.b.N.b.b.b.b.D.N.n.b.b.n.n.n.D.D.D.n.n.b.b.b.n.b.9.4.b.b.b.9.( ( ( ( ( ( ( ( ",
"D G G G G D D D D G G F D F D F D D D D F F F D D F D F G Z C 5 5 5 5 5 5 5 6 5 5 5 5 4 4 5 4 4 4 4 i 4 4 5 5 4 4 i 4 5 j j j j i i j j j j i i i 3 5 4 j 5 4 j 4 3 r j 4 4 5 5 4 3 3 5 3 3 3 j 3 4 r 2 3 4 4 j 3 4 j Z r j j j j j j r 4 - 1 4 3 2 3 3 r 4 4 j j j j k j j j 3 2 2 3 - 2 3 2 2 3 3 r 3 r j 4 r j j S k S S L S k k k j j 3 3 3 3 3 r j j j k w l w l l b l b L L b L L L b b S k w w r j l l l l Q n.D.S.D.D.4.b.b.n.D.b.b.b.b.( 4.b.b.4.b.b.b.b.M.n.n.n.n.b.n.D.D.N.N.D.N.n.n.n.b.b.b.b.b.b.b.9.9.b.b.9.b.9.m.",
"G G G G G G D G G G G D G D G G G D D D F F F F F F F F D D D G G G Z C 5 5 5 5 4 5 5 5 4 j 5 5 5 4 4 5 5 5 4 4 5 4 4 5 i j j j i j j j j j i 4 4 4 j j i 4 4 j j 4 4 4 5 j j 4 5 i j j j j 3 4 r j 4 2 3 3 3 j 5 4 r 4 r j j j j j j r 3 1 - 4 3 3 3 3 4 4 4 4 j r 4 4 2 3 3 1 - 4 3 - 3 2 3 2 r 3 3 j j j j j k j k k S k j j 3 3 3 3 w 3 ; 3 w 3 j r l k l j k l k b b L b L L b l k k j j j j w l j j l l l l l l W N.S.S.D.D.n.D.D.n.b.b.( b.9.9.9.4.4.9.b.b.b.9.9.b.b.b.b.b.b.b.n.D.N.D.n.n.b.b.b.b.n.n.n.D.n.n.n.b.b.n.b.",
"G G G G G G G D G G G G G G G D D G G D F F F F F F F G G D D D F F F F F D G Z Z 4 5 5 4 5 4 5 5 4 5 5 5 5 4 5 6 4 5 i j i 5 j j i i 5 4 j j 4 4 i 4 j j j 4 r j j j j 4 4 j j j r j Z Z j j j j j j j r 3 3 5 4 j r 3 3 r r r j r j j 3 4 1 3 3 3 4 4 r r 4 r r r 2 - 1 1 - - 3 3 3 2 3 2 3 3 r j 4 k j j j k A k j k j 3 3 4 3 3 r 3 w 3 4 j w l k j k k L S l b S L L b L b l j 3 l k w l j w j w w j l k l l l b l L Q D.S.D.S.D.S.D.D.b.W ( b.b.b.b.4.b.n.b.b.b.( b.4.n.b.b.b.b.b.n.b.n.n.n.D.n.b.b.n.b.b.n.n.N.n.N.n.n.n.",
"G G G G G G G G G G G G G G G G G G G G G D D F F F G G G D D F F F F F F F F F D D D G Z Z 4 5 6 5 6 5 4 4 4 5 5 4 5 4 j 4 j Z j j Z i j j 4 i j 5 i i j 4 i 4 j j j j i j j j j j j j j j i j A j r j r r j j j j j j 3 4 4 3 4 3 j j j 4 3 3 3 3 3 r 4 r r r r r 4 - 1 - * - 3 3 3 2 1 1 3 3 3 j r r j j j j j 4 2 3 2 2 2 3 2 3 3 r j 3 4 r w l k k k L L b k S L S k l j 3 j w 3 l j w l w 3 j w l L b k l b l b L L L L L ( b.S.H.S.S.D.n.n.n.b.b.b.n.n.b.b.b.b.b.b.b.b.b.n.n.N.N.b.n.D.b.n.n.D.n.b.b.4.b.b.b.9.b.b.b.n.n.",
"G G G D G G D G G G G G G D G G G G G G D F D F G G F F D D D D D F F D F F F F F D D F F D D D D G Z 4 5 4 4 5 5 5 5 4 5 4 4 j Z j 4 j j i 4 i j 4 5 j j j Z 4 i Z i j j j j 4 j j j j j j j i Z j j j j j j j j j A j j j j r 3 3 3 3 3 4 3 3 4 3 3 4 3 r r j r r 4 3 - - - - 2 2 3 3 - 1 3 1 2 3 2 j j 4 3 3 3 - 3 3 3 2 2 3 2 3 2 j j 3 r k k k k k S L S j k l w 3 j w 3 3 j 3 w j k j j l l k l b b b l l b L b b b l l l l l k n.L.D.D.D.n.D.S.D.D.D.D.D.b.9.4.b.b.b.b.b.n.b.n.b.b.b.b.b.b.b.n.b.b.b.4.9.9.4.9.9.9.b.9.n.",
"G G D G D G G G G G G G G G G G G G G G G D G G G G D D D D D D D F F D F F F F F F F F F F F F F F F F D G Z Z 5 Z 4 4 5 4 4 5 5 5 4 i j i j i j 4 5 j 4 Z i 4 i i j j Z Z 4 4 4 j r j j j j 3 Z j j j j j j Z Z Z Z j j Z j j j r r 4 4 r 4 3 4 4 4 4 r 3 j 4 j 4 4 4 1 - - - 3 2 2 2 3 3 3 3 r 2 3 A - 2 1 - 1 1 r r 3 2 2 3 ; 3 3 j j j k S k k S k j 3 3 - j w 3 r r 3 w 3 k j w j k k S k l L L k k b L k k l l l j j k l l l l l Q W n.( Q L b b.D.S.D.D.n.n.n.n.n.n.n.b.D.n.n.D.n.b.b.b.b.n.n.b.b.b.b.b.9.b.b.b.b.9.9.n.",
"G G D D D G G G G G G G G G G G G G G G G G G G G G D G G D D F D F F F F F F F F F F F F F F F F F F F F D F F H H G G Z C 5 6 4 4 4 4 5 4 4 4 4 4 j j 4 4 r 4 j j j j i 4 j 4 r j 4 j j Z j 4 j j j j j j j j j Z j j j Z j j j j j j r r r 4 4 4 4 3 3 2 3 3 4 r 4 5 3 2 - 2 3 1 1 1 2 3 r 4 3 2 3 4 1 - 3 - 1 - 3 3 3 2 2 3 4 3 j j j k k l j j j 2 1 2 2 - r j 3 j w 3 k w k j j k S k S k k k S k l l j k 3 j k j w k l l l k l l l l l l L L b b Q Q b.4.n.H.S.D.D.D.D.n.n.D.n.n.D.D.n.D.D.N.n.D.n.D.n.b.b.b.b.9.4.4.b.b.",
"G G D G G G G G G G G G G G G G G G G G G G G G G D G G G G D D G G D D F F F D F F F F F F F F F F F F F F F F F F F D F D D D G Z i 4 4 4 5 5 5 i j j j j 4 4 j Z j j j j j j 4 4 j j j j Z j j j j j j Z j Z Z j j j j j j Z j Z j r j j j j j j 4 4 3 3 3 3 3 3 1 3 5 1 2 3 3 3 3 3 3 3 4 3 4 3 3 1 2 - - 2 1 1 5 3 1 3 4 3 j r r j j j r 2 3 3 3 1 2 3 3 3 j j j r j w j S L k L k k S k l l j 3 3 w j l j r l l l j k l l l k l b b b b b L L L L Q L S k b Q W Q b.S.D.D.n.n.D.b.n.b.b.D.b.M.b.9.n.b.b.b.b.b.b.4.4.4.4.4.",
"G G G G G G G G G G G G G G G D G G G G G G G G G G G D D G G D G G D F F F F F F F F F F F F F F F F F F F F F F F F D D F F F H D D D D G G Z i 4 4 4 4 j 4 5 4 j 4 j Z Z Z j j j j Z Z Z Z j Z j j j j Z Z j Z j j j j j Z j j j j j j j j j j 4 4 j r 4 4 3 5 3 3 1 1 2 1 3 2 3 3 5 4 4 4 4 4 4 3 1 - - - 1 1 2 5 2 1 3 4 3 4 3 3 2 1 1 3 1 1 - 3 2 2 2 r r r j j j k j S S L S k j j w 3 3 j 3 2 2 r j j j j k w l k k l k S L L b b L L L b L L b k k k k k k k k k Q b.n.L.D.D.n.b.b.b.b.b.b.4.4.b.b.4.b.4.b.n.b.b.b.4.b.",
"G G G G G G G G G G G G G G G G G G G G G G G G G D G G G D G D G G G G D D D D F D G D F F F F F F F F F F F F F F F F F F F F F F F F H H H H D D G Z Z 4 i 4 4 4 4 j 4 j j j j j Z Z Z Z Z j Z j j j j j Z Z Z Z j j j Z Z Z j j Z j j j j j j 4 4 j 4 4 j r 4 4 5 4 3 3 3 3 5 5 3 3 2 2 3 3 4 4 3 2 - 1 - - - 1 3 1 2 3 3 5 3 - 1 1 - - 1 2 - - 4 1 3 3 r 3 3 j j S A S L k j j 2 3 r 2 w r 4 2 r j k j ; w j l l k b k b b L L L L L k l l j l j j l k k k k k k b k S S k I Q D.D.b.4.4.b.b.b.4.W 4.( W ( b.b.b.b.b.b.b.4.",
"F G G G G G G G G G G G G G G G G G G G G G G G G D G G G G G G G G G G D D D D F G G F D F F F F F F F F F D F F F F F F F F F F F F F F H H H H H H F F H J G Z Z i i j j 4 j Z Z Z j j Z Z j A j Z j j Z Z Z Z Z Z j Z j Z j j Z j j Z j 4 4 j 5 5 4 4 i j 4 j j 4 4 j 4 5 3 5 5 3 6 1 1 1 1 2 3 1 2 1 2 1 1 2 3 3 3 3 3 3 3 3 3 1 - 1 - 1 2 1 1 5 2 2 3 3 j 4 j j j j j j 2 r r 2 r r 3 w r 3 r w 3 k j j S b k S b k k k k k k A j 3 l j l j k k j j k k k k k k k k k j 3 - - ; 4.D.n.b.b.b.n.b.b.b.b.4.4.b.b.b.b.b.b.b.b.",
"G G G G G G G G G G G G G G G G G G G G G G G G G G G D G G G G G G G G D G D D G G F F D D F F F F F F D D D F F F F F F F F F F F F F F F F F F F F F F F H Y H H H F D G Z Z j Z Z j j j j i j j j j j Z j Z Z Z Z j j j j j Z j 4 j j j 4 4 j r j 4 4 4 j 4 4 4 4 j j 4 4 5 5 4 4 4 4 5 3 3 2 1 1 - 2 3 1 1 3 5 3 5 4 4 5 5 6 6 1 - 1 1 1 1 1 2 3 - 1 3 3 3 3 4 4 3 2 - - - r r 2 r r 3 3 r r j j j k k k k S k k L k k l 3 j j j j j k l j k S k k k k k k j j r 3 ; - $ $ $ * 3 j b b Q W b.D.D.D.n.b.4.4.b.4.b.b.n.b.b.b.",
"G G G G G G G G G G G G G G G G G G G G G G G G G G G G G G G G G G D D G G G G G G F D D D D F F F F F D F F F F F F F F F F F F F F F F F F F F F F F F H Y Y Y F H F Y H H H D J G Z j Z j 5 Z j Z j j j j Z Z j j j j j j j Z j 4 j j j j 4 j j j j j j i 4 4 j j 4 5 5 5 5 4 4 4 4 5 3 5 4 5 5 2 1 3 1 1 3 3 3 3 3 4 4 4 4 4 5 2 1 1 3 1 2 1 1 - 3 5 5 6 2 3 3 1 - 2 - - 1 j 3 - r 3 3 3 j A j S S j A j j j j w w r w r 3 r j j j j l l l j k l k j j 3 2 2 - - - - - * $ * 2 j l l l l l k W G.D.D.n.b.b.b.b.b.b.b.b.b.b.",
").) H G G G G G G G G G G G G G G G G G G G G G G G G G G G G G G G G G G G G G G G G G D D D D D D F F F F F F D D F F D F F F F F F F F F F F F F F F F F Y Y F F ~ ~ H H Y H H Y Y Y H F D G Z Z j j 4 4 j j Z j j j j j j j j j 4 4 j j j j j j 4 4 j j j r 4 4 4 r j j 5 5 4 4 4 4 5 5 4 4 4 5 2 1 3 3 1 3 3 3 3 3 2 1 5 3 5 5 6 6 6 6 6 2 6 3 3 3 3 3 6 1 1 1 6 - 1 - - 3 j 3 2 3 3 2 k S A S j k j j 2 - 3 r 3 3 r 3 r r j j j j k j j j j r 3 2 1 1 - - - - - - - - * * $ 2 j k S L L l l l W D.S.D.n.D.D.n.D.D.b.b.4.4.",
"5X5X5X>X+X).t._ Y G G G G G G G G G G G G G G G G G G G G G G G G G G G G G G G G G G G D D D D D D G F F F F D D D D F F F F D D F F F D D D D F F F F F F F H F H Y Y Y Y Y Y F Y Y F Y Y Y Y Y Y J D G j i j Z Z 4 j j j j 4 j j j j 4 j j j j j j 4 4 j j 4 4 4 5 r 4 4 5 4 j 4 4 5 4 4 4 4 4 5 5 1 5 4 3 3 3 3 3 3 3 3 5 3 3 2 2 6 3 3 5 3 5 5 5 5 5 6 2 - 1 - 1 1 1 - - 2 3 3 - 2 3 r S Z 4 r ; - - 5 - 2 r 3 r r j r r r j j j j j r 2 1 2 - - - - - - - - - - - - * $ $ # * j k k L S b l l w l Q b.n.( ( b.D.D.n.D.n.n.",
"5X5X5X5X5X5X5X,X>X>X+X).t._ T D C G G G G G G G G G G G G G G G G G G G G G G G G G G G D D D G D D D D D F D D F D D D D F D D D F D D D D D D F F F F F F F F F H Y F Y Y Y Y F F H H Y Y ~ ~ Y Y Y T Y Y Y J J G Z j i 4 4 j j j i i j j j j j Z Z j r i j 4 j j 4 j 4 4 i 4 4 4 4 5 5 4 j 4 5 5 5 1 5 5 5 5 4 4 5 6 6 2 3 5 3 6 3 1 2 1 1 6 6 5 5 5 5 5 3 - 1 1 - 1 1 1 - - - - - 2 4 A j - 2 3 - 2 1 3 - 3 r 3 j r j j r r r r 3 3 1 - - 1 1 1 1 - 1 1 - - - - - * $ $ # # % * 3 S S L L L b l j w - Q n.j X r ( b.M.D.D.n.",
"5X5X5X5X5X5X,X,X>X>X>X>X>X>X>X+X+X]./.) _ F G G G G G G G G G G G G G G G G G G G G G G G D D G G D D G G D D D F D D D D F D D D F F D D F F F F F F F F F F F F F F F F F H H H H F F ~ Y Y Y Y Y Y Y Y Y Y Y Y Y T J J J Z Z Z j i 4 i j j j 4 Z Z Z Z i j j j 5 j j 4 j 4 i 4 j j j 5 5 4 4 4 4 5 1 5 4 4 5 5 5 5 5 6 3 5 5 5 5 3 6 5 2 2 1 1 2 2 3 6 3 2 1 1 1 1 1 1 1 1 1 2 2 2 2 j J 5 $ - - - 3 2 5 1 3 4 3 r r r r 3 2 2 2 - - 1 1 2 2 1 1 1 - - - - - * $ $ $ # # + o o 1 k S L L k b b k w 3 $ 2 j X X X X X % b D.n.",
"5X5X5X5X5X5X5X,X,X>X>X>X>X>X>X+X+X+X+X+X+X+X].]./.) _ ~ F G G G G G G G G G G G G G G G G D D D G G D D D F D F F D D D D F F D D F D D D D F F F F F F F F F F F F F F F H H H F H F Y ~ ~ ~ ~ ~ Y Y Y Y Y Y Y Y Y Y Y Y Y T T T J J G Z Z j j 4 4 4 4 j j j i 4 5 j r 4 j Z j j j j r 4 4 5 5 4 4 4 6 4 4 4 4 5 5 4 5 5 5 5 5 3 5 5 5 5 6 3 2 2 1 1 6 2 2 1 1 1 1 1 1 1 1 6 1 1 6 2 1 4 A 1 $ 1 1 1 2 1 1 2 2 2 3 2 1 - - - - - 1 2 2 1 2 2 2 - 1 - - - * $ $ % % # + o o . o o $ k L L L L b b k j 3 $ X X X X X X X X X k b.",
"5X5X5X5X5X5X,X>X>X>X>X>X>X>X+X>X+X+X+X+X+X+X+X+X+X+X+X+X+X]././._ ~ G G G G G G G G G G G G G G G G D D D D D D D D D D D D F D D F D D D D F F F F F F F F F F F F F F F F H F Y ~ ~ ~ F F F Y Y Y Y Y Y Y Y ~ Y Y T Y T T T T T T Y T T T J D Z Z Z Z j j 4 4 i j j 4 4 j j 4 j 4 j j j 4 4 5 5 4 4 1 4 4 4 4 4 5 5 5 5 5 5 5 5 4 4 3 5 5 5 5 5 6 1 6 1 1 1 1 1 1 1 1 1 1 2 1 1 1 1 1 5 r - - - - 1 1 1 1 - - - - * $ - * - 1 1 1 1 2 1 1 1 * - * - * $ # # + o o o o o o o o + $ j S S L L L S k j 2 $ # # . X X X X X X X $ ",
"5X5X5X5X5X5X,X>X>X>X>X>X>X>X+X+X+X+X+X+X+X+X+X+X+X+X+X+X].].].].].+X+X]./.) _ ~ F G G G G G G G G D G D D G G G D D D D D D F D D D D D D D F F F F F F F F F F F F F F F F H F Y Y ~ ~ F F F ~ Y Y Y Y Y ~ Y Y T T T T Y T T T T T T T T T T T T ~ T T J J Z j j j j 4 4 i 4 4 4 5 4 i 4 4 4 i 4 j 4 5 5 4 4 5 5 5 5 5 5 5 5 5 5 5 5 5 5 5 5 6 3 6 3 6 5 6 6 6 3 6 1 6 2 1 1 1 1 1 1 1 3 5 1 1 - - - - - - - - - - * - 1 1 1 1 - - - 1 - - * $ $ # % % % % # # # % % # % o o o . $ j S L I I L S k j 3 - * - $ % o X X X X X X ",
"5X5X5X5X5X,X>X>X>X>X>X>X>X+X+X+X+X+X+X+X+X+X+X+X+X+X+X].].].].].].].].].].].].].].]./.) _ ~ F G G D G G D G G G G G G D D F D D D D D D D D F F D F F F F F F F F F F F H Y F F Y Y ~ Y H F ~ ~ Y Y Y Y Y Y Y Y T Y T T Y T T T T T T T T T T ~ ~ ~ ~ ~ T T T T H J G Z i 4 4 4 5 5 4 4 4 5 r j 5 4 5 4 4 4 4 5 4 4 5 5 4 4 5 5 5 5 5 5 5 5 5 5 5 6 6 5 3 6 2 3 2 6 6 6 2 1 1 1 1 2 1 1 3 4 1 1 - - - - - - - * - - * * * * - - - * * $ $ # # % # # # # % # # # # % + o o o . X . - k L I I Q L k k j 3 1 - - * # # o .     X X ",
">X>X>X>X>X>X>X>X>X>X+X+X+X+X+X+X+X+X+X+X+X+X+X+X+X].].].].].].].].].].].].].].].].].].].].].].]./.) _ ~ D G G G G G G D D D D D D D D D D D F D D F F F F F F F F F F F F F F Y Y H ~ F F F ~ ~ Y Y Y Y Y Y Y Y Y Y T T T Y T T T T T T T ~ T T ~ ~ ~ ~ ~ ~ ~ ~ T T T T Y J G Z j 4 4 r 5 5 5 5 5 5 5 5 6 4 4 4 4 5 5 4 5 4 5 5 5 5 5 5 5 5 5 5 6 6 5 5 6 2 6 6 2 1 6 6 6 6 6 3 2 1 1 1 4 2 1 1 1 1 - - - - - * * - * * * $ $ $ $ $ # # # # # # # # # # % # # % % # o . . X X X X % k S L L Q Q S k j 4 1 - - 1 # $ $ # .       ",
") /.].].].+X+X+X+X+X+X+X+X+X+X+X+X+X+X+X+X].].].].].].].].].].].].].].].].].].].].].].].].].].].].].].].]././.) ~ F D G G G G G D D D D D D F F D D F F F F F F F F F F F F F F Y Y Y ~ Y Y F ~ ~ Y Y Y Y Y Y Y T T ~ T T T T ~ ~ T ~ T T ~ ~ ~ ~ ~ ~ ~ ~ ~ ~ ~ ~ ~ ~ ~ ~ T T T Y H J J Z j 4 5 5 5 5 5 2 5 4 5 5 5 5 5 4 5 5 5 4 5 5 5 5 5 5 6 5 5 5 5 5 6 6 6 6 6 6 6 2 2 6 6 2 2 1 1 5 1 - 1 1 - 1 - - - * * - * * $ # # # $ $ # % # # # # % # # # # % % . . . . . X X X X X X   3 b L I E L S A j 2 1 1 2 1 $ $ $ + o . .   ",
"Y Z 5 C Z Y ~ ) /././.).].].].].].].].].].].].].].].].].].].].].].].).).).].].).].].].].].].).].].].].].].].].].].].]././.) _ ~ F G G G D D D D G D G D F F F F F F F F F F F F Y Y H ~ Y Y Y ~ Y Y Y Y Y ~ Y T T T Y ~ T T T T ~ T ~ ~ ~ ~ ~ ~ ~ ~ ~ ~ ~ ~ ~ ~ ~ ~ ~ ~ ~ ~ T Y Y Y Y Y Y T Y J G Z Z 4 1 6 5 5 5 5 5 5 5 5 5 5 5 5 5 5 5 5 5 6 5 5 5 5 5 5 6 2 6 6 6 3 3 6 3 3 6 3 1 3 5 2 1 - - - 1 - - * $ $ * * * $ $ $ $ $ $ # # % # # % % # % % % o X X X X X X X . . . . . . - k S L L S A Z j 3 2 1 3 * $ $ # + o + + . ",
"].].]././._ ~ H C 6 5 C D ~ _ ) ) /././././././.)././././././././././././././././.)./.)././././.).).).].].].].].].].].].].].].].].]./.t.) _ F G G G G D D F F F D F F F F F F H H Y Y H F Y Y Y Y Y Y Y Y Y Y Y Y Y T ~ ~ ~ ~ T ~ ~ ~ ~ ~ ~ ~ ~ ~ ~ ~ ~ ~ ~ ~ ~ T T T T Y T T T Y Y Y Y Y T ~ ~ T T Y H H J G Z i 5 2 6 5 4 5 5 6 5 5 5 3 5 5 5 5 5 5 5 5 6 6 6 6 6 5 5 6 6 6 5 6 6 2 3 5 2 1 1 1 1 - 1 - $ $ $ $ $ $ $ $ $ $ $ $ # # # # # % o . X X . X X . . . . . o o o o . . . % j S S S k j Z 4 3 3 3 3 $ # # # + + # + . ",
"+X+X+X].].].).).).)./.) _ ~ K 5 6 5 C G F ~ _ ) t.t.t././././././././././././././././././././././.).).).).].).).).].].].].].].].].].+X].].+X+X+X].)./._ ~ D D F F D F F F F F F H Y Y H F Y ~ ~ ~ Y ~ Y Y Y Y ~ ~ ~ ~ ~ ~ ~ ~ ~ ~ ~ ~ ~ ~ ~ ~ ~ ~ ~ ~ ~ ~ ~ ~ ~ ~ ~ ~ T ~ T T T T ~ T T T T ~ ~ T T Y Y T T ~ ~ Y H D G Z 4 5 5 6 6 6 6 6 5 5 5 5 5 5 6 5 5 5 3 5 5 5 5 3 3 5 6 6 6 6 2 5 1 1 1 1 - - 1 - - $ * * $ $ * $ # # % # # # % o o o . . o o o o o o o o o o o o o o o . . . 1 j k k k j j 4 3 3 3 1 $ $ # # + + % o o ",
",X>X*X+XoX+X].].].].].).).).).)./.t._ _ H Z 6 1 6 C C F ~ _ _ ) ) ) t.t./././././././././././././././././././././.).).).).].].].].].].].].].+X+X+X+X+X>X*X*X+X].).) ~ D F F F D H F H H H Y Y ~ ~ ~ ~ ~ Y Y ~ ~ ~ ~ ~ ~ ~ ~ ~ ~ ~ ~ ~ ~ ~ ~ ~ ~ ~ ~ ~ ~ ~ ~ ~ ~ ~ ~ ~ T T T T ~ T T Y T Y Y ~ ~ T Y Y Y Y Y T T Y Y Y Y Y T H H G Z i 5 2 6 6 5 6 6 5 6 6 5 6 5 6 5 5 5 3 5 3 6 6 6 6 2 6 2 1 1 1 1 - - - - * * * * $ $ $ $ # % o % # % o % + o # % % % + + % + + + % % o o o o . . . # 2 r j j j i 2 3 1 1 $ $ $ # + o + + . . ",
"Y _ ) ) ).).].].].].].].].].).).).)././.)./.)./.) _ ~ D C 1 7 5 C Z F Y ~ _ _ ) ) ) ) ) ) t.t././././././././././././.).)./.).].].].].].].].].].+X+X+X+X+X*X*X,X5X<X<XrX9X*X].)._ H F F Y Y Y Y Y ~ ~ Y ~ ~ ~ ~ ~ ~ ~ ~ ~ ~ ~ ~ _ ~ ~ _ _ _ _ _ _ _ _ ~ ~ ~ ~ ~ ~ ~ ~ ~ T T T T T Y Y Y Y Y ~ ~ Y Y Y Y Y Y Y T Y Y Y Y Y Y ~ ~ Y Y Y J J D Z i 5 6 6 6 6 6 6 6 6 6 6 6 6 3 5 5 6 2 1 1 6 2 1 1 - 1 1 - - - * * * * $ $ $ $ $ # # + % # % # % % % # # # % % + + + + + o o o o . . . . . o - 1 3 3 1 1 1 1 $ $ # # + o + + . o . ",
"^ ! ! ! ! ! ! ! ~ ~ _ ) !.).).].).).).).).).).).).).).).).).!.) _ T G 5 7 1 6 C G D ~ ~ _ _ _ ) ) ) /./.t./././././././././././.).).].].].].].].].+X+X+X+X+X*X*X*X-X<X<XwXtXtXuXyXyXtX<X+X)._ F H H ~ H Y Y T Y ~ ~ ~ ~ ~ ~ ~ ~ _ _ _ _ _ _ _ _ _ _ _ _ _ ~ ~ ~ ~ ~ ~ ~ ~ ~ Y Y Y Y Y Y Y Y ~ ~ Y Y Y Y Y Y Y Y Y Y Y Y Y Y Y Y Y Y Y Y Y Y Y Y H H D G Z Z i 6 1 1 1 1 1 6 1 2 6 1 1 1 5 1 1 - - - - * - * * * $ $ $ $ $ $ $ $ $ # % % # % # # # % # % % % + + % + o o o . . . . . .   . . $ - > > - - - # # + . . . . . . . . ",
"! ! ! ! ! ! ! ! ! ! ! ! ! ! K ! ~ ~ _ _ ) /./.).).).).).)././././.)./.)./.) _ ~ J Z 5 > 1 6 C Z D ~ ~ _ _ _ ) ) t.t.t./././././.)./.).).].].].].].].].+X+X+X+X*X*X-X-X<X<XtXtXuXuXuXuXiXiXiXSXSXyXtX-X'.) J T T ~ ~ ~ ~ ~ _ _ _ _ _ _ _ _ _ _ _ _ _ _ _ _ ~ ~ ~ ~ ~ ~ ~ ~ ~ Y Y Y Y Y Y Y Y ~ ~ Y Y Y Y Y Y Y Y Y Y Y Y Y Y Y Y Y Y Y Y Y H H Y Y Y Y Y Y H H H D D Z i 5 6 1 1 1 1 1 1 5 2 1 - - - - * - * * * $ $ $ $ $ $ $ $ $ # # # # # # # # % % % + + + + # + o o o . . . . .       . . # $ 7 7 # # + . . . .       X X # ",
").) ) _ ~ ~ ! ! ! ! ! ! ! ! ! ! ! F F K K K K F ! ~ ~ _ ) ) /./.)./.)./.).).).).).).).).) ) _ H Z 5 K C 5 C D H ~ _ _ ) ) ) ) t././././.).).].].].].].+X+X+X+X+X*X*X-X<X<X<XuXuXuXuXuXiXiXSXJXJXJXGXHXHXHXHXSXuX*X_./ T _ _ _ _ ) ) ) ) ) ) ) ) ) ) _ _ _ ~ ~ ~ ~ ~ ~ ~ ~ ~ ~ ~ Y Y Y Y Y ~ ~ Y Y Y Y Y Y F Y Y Y H Y H Y Y Y Y Y Y Y Y Y H H H H Y H H H Y H Y Y Y Y H H J D Z Z 5 6 1 6 1 - 1 - $ 1 - $ * * * * $ $ $ $ $ $ # # % # # $ # $ $ # # # % + + + + # + o . . . . . . . . . . . . X X . .     . X X X . $ 1 5 Z G D ",
"=X*X@X|.`._.m.) ) _ _ ~ ! ! ! ! ! ! ! ! F K ! K K K K K K K K F Y ~ _ _ ) ) /.).).).).).).).).).).) !./.).) _ ~ G Z 5 5 C G H ~ _ ) ) t.t./.).).).].].].].].+X+X+X*X*X-X<X<X<XtXuXuXuXuXiXiXSXJXJXGXHXHXHXHXHXHXHXHXHXJXCXBX8X+X].) ) ) ) ) ) ) ) ) ) _ _ _ ~ ~ ~ ~ ~ ~ ~ Y Y Y Y Y Y Y Y ~ Y H Y Y Y H H Y Y Y H H H H H H H Y Y H H H H H H H Y Y H H Y H H Y Y Y H H H H H H H J H J D Z 4 6 1 - $ 1 * $ * * * * $ $ $ * $ $ $ $ # # $ $ $ $ # # # # + + + # + + + o . . . . . . . .   X X   X   X   $ 1 5 C G D H Y Y Y Y H ",
"wX-X-X-X=X*XoX.X'._._.m.m.) ) _ _ ~ ~ Y ! F F ! F ! ! ! ! F K K K K K K K K K J H ` _ ) ) ).).).).) /./././.)./.).)././._ _ Y G C 5 Z Z H _ _ ) /./.).).].].].+X+X+X+X*X-X-X<XwXtXuXuXuXuXiXSXJXJXGXHXHXHXHXHXHXHXHXHXHXKXPXLXLXLXPXIXDXBX<X'.m.) ) ) ) _ _ ~ ~ ~ ~ ~ ~ ~ ~ ~ ~ ~ ~ Y Y Y Y Y Y Y Y Y Y F F F H F F H H H H H F H H H H H H H H Y Y Y H H H H H H H H H H H H H H H H H H H H H D D Z C 5 1 * $ * $ $ $ * * $ * $ $ $ $ $ $ $ $ $ # # # + + # + + + o o . . . . . . . . . X # 1 5 i Z D F Y Y Y Y Y Y Y Y Y Y H ",
"uXuXuXwX<X-X-X*X*X*XoX.X'.`._._.).m.0.) ) _ _ _ ~ Y ! ! F K K K K K K K K K K K C K K K K J T _ ) _ ) ) ) !./.)././.).).)./././.)./.) ) ~ H G C C Z H _ ) t.).).].].+X+X*X-X<X<X<XtXuXuXuXiXSXSXJXJXGXHXHXHXHXHXHXKXKXKXPXLXLXLXLXLXLXLXLXLXPXKXFXyX<X*X)._ ~ ~ ~ ~ ~ ~ ~ ~ ~ Y ~ ~ Y Y H Y Y Y Y Y F F F F F H H F H H H H H F F F H H H H H H H Y Y H H H F H H H H H H H H H H H H H H H H H H H Y H H H J G Z 4 5 1 $ $ * $ $ $ $ $ $ $ $ $ # # # # + + # + + o o . . . . . # 7 1 5 Z G F Y Y Y Y F F F Y Y Y Y Y Y Y Y Y H ",
"uXuXuXuXwXwX<X<X-X=X*X*XoXoX.X'.'.'._._._.m.m.m.0.) ) _ _ _ ~ T H F K K K K K K K K K K K K K K K K K K K ! ~ ~ _ ) ) !././.).).).).).).).)./././.) _ T J Z C Z D ~ ) t.].'.+X>X5X<XrXuXuXuXiXSXJXJXGXHXHXKXKXKXKXKXKXPXLXLXLXLXLXLXLXLXLXLXLXPXKXHXGXJXSXCXtX5X+X)._ ~ H ~ ~ Y Y Y Y Y H F H Y Y Y Y H H H F F H F H H H F H H H F F H H H J H H H H H H H H H H H H H H H H H H H H H H H H H H H Y Y H Y H H J H H J G Z 4 6 1 $ $ $ $ $ $ # # # # # + + + + o + . # 1 6 i Z G D F Y Y F F H H H F F F Y Y F F F Y Y Y Y Y Y ",
"iXuXuXuXtXwXwX<X-X-X-X=X*X*X*XoXoX'.'.'.'._._._._.m.m.m.m.0.0.) ) ) _ _ _ ` ~ Y J K K K K K K K K K K K K K K K K K F ! ~ ~ _ ) ) /.).).).).).).).).).).).).)./.) _ T J Z Z Y _ t.).+X*X<XrXuXyXiXSXJXGXHXHXKXKXPXPXPXLXLXLXLXLXLXLXLXLXLXLXLXLXPXKXHXGXJXSXyXyXtXrXrXrX5X>X].t.~ F F F F F F F Y Y F F F F F H H H H H H F H H H H F H H H H H H H H H H H H H H H H H H H H H H H H H H H H H H Y H H H Y H H H H H J J H H H D Z Z 4 1 - $ # # # # # + # $ 1 6 5 C Z G G D D D D F F F F F Y H F H F H H Y Y Y Y Y Y Y Y Y H ",
"iXiXyXuXuXtXwXwX<X<X-X-X=X*X*X*X*XoXoX'.'.'.'.'._._._._._.m._.m.m.m.m.m.0.) ) ) ) _ _ _ ~ ~ J J J K K K K K K K K K K F F F F ! F ! Y ~ _ ) ) ).).).)._._.).).).).).).).).).t.) _ ~ T T E _ t.].+X<XtXyXDXGXKXPXPXPXLXLXLXLXPXLXLXLXLXLXLXLXLXLXPXPXPXKXFXSXCXyXyXtXtXrXrXrXrXrX5X5X>X+X)./._ Y D F F F F H F F H H H H H F F F H H H H H H H H H H H H H H H H H H H H H H H H H H H H H H H H H H H H H H H J H H H H H H H H J H H D D G G C 5 > 1 6 5 i i C Z C G G G D D D D D F F F H H F F H H F H H Y Y Y Y Y Y Y Y Y H ",
"iXiXiXuXuXuXtXwXwXwX<X<X-X-X=X*X*X*XoXoXoX|.'.'.'.'.'.'._._._._._._.).).).).m.m.m.m.0.0.0.) ) ( _ _ _ _ ~ T H J J F K F F F ! ! ! Y ~ ~ ~ ~ ~ ~ ~ _ _ ) ).).].'.].+X+X'.'.'.].'.].'.'.'.]._.).) _ _ E ( m.*XrXAXIXPXLXLXPXIXPXLXLXLXLXLXLXLXLXLXLXLXLXLXPXFXyXyXVXBXtXtXrXrXrXrXrX5X5X5X5X5X5X5X>X+X).t._ ~ F F F F H H H F H H H H H H H H H J D H H H H H H H H H F H J H H H H H H H H F H H H H H H H H H J H H H H H H H H H J H F D D D G G C i i i i i C C G G G G D D D D F F F F H F F F F H H H Y Y Y Y Y Y Y H H Y Y ",
"JXiXiXuXuXuXuXtXwXwXwX<X-X-X=X*X=X*X*X*X*XoX'.'.'.'.'.'.'.'.'._._._._._._.).).).).).).m.m.m.m.m.m.m.m.0.) ) ) ) ( _ _ _ ~ ~ H H H H H ~ ~ ~ ~ ~ _ _ _ ) ) ) ) ) ) m.).'.*X*X*X*X*X*X,X*X*X<X<X<XrXtXtXCXAXBX7X9X,X9X7XAXPXLXLXLXLXLXLXLXLXLXLXLXLXLXLXLXLXPXHXAXUXVXtXrXrXrXrXrXrX5X5X5X5X5X5X5X>X>X>X>X>X>X+X]./.) _ ~ F D F F D D F H F F F D F F H F D J H F F H F F H H H H H H F H H H H H H H H H H H H H H J H H H H H H H H H F D D D G G C i i i i C Z G G G G D D D D D D D F F H H H Y Y Y Y Y Y Y Y Y Y Y Y Y Y Y Y ",
"JXSXiXiXuXuXuXuXuXwXwXwX<X-X-X=X=X*X*X*X*XoX|.|.'.'.'.'.'.'.'.'._._._._._._._._._.)._._._._._._._._.m.m.).m.m.m.m.m.m.m.m.0.) ) ) ) _ _ _ ~ ~ ~ ~ ~ ~ _ _ _ ) t.).'.+XoXoX'.'.'.'.'.=X<XtXtXuXyXCXFXKXLXLXLXLXLXLXLXPXPXIXPXLXLXLXLXLXLXLXLXLXLXLXLXLXLXPXIXDXAXCXBXBXrXrXrXrXrX5X5X5X5X5X>X>X>X>X>X>X>X>X>X>X>X>X+X+X+X+X].).t._ ~ D G D D D D D D D D D D H F H H F F D D H H H H F F J H H H H H H J H H H J H H Y Y Y H H H H H H H J D D G G C i i i C C Z Z Z G G D D D D D D D F F H Y Y Y Y Y Y H Y Y Y Y Y Y F Y Y Y Y ",
"JXJXSXiXiXyXuXuXuXuXwXwXwX<X-X-X-X=X*X*X*X*XoX|.oXoX'.'.'.'.'.'.'._._._._._._._._._.).).)._._._._._._._._._._._._._._._._._._._._._._.V.V._.).m.0.) ) ) _ _ _ _ _ _ ) m._.oX-X<XyXyXyXtXwX-X-X=X<XuXFXIXPXPXLXLXLXLXLXLXLXLXLXLXLXLXLXLXLXLXKXIXFXFXFXFXAXCXtXrXrXrXrXrXrX5X5X5X5X>X>X>X>X>X>X>X+X+X+X+X+X+X+X+X+X+X+X+X+X+X+X+X].].].].).t._ ~ H D G D G G D D F F D D D D D F J H D D J J H H H H H H H H Y Y Y Y Y T T T Y Y Y Y Y F H D F G G C i i C C C G G G G D D D D F F F F F H H Y Y Y Y Y Y H Y Y Y Y Y Y Y Y Y Y Y ",
"GXJXSXiXiXuXuXuXuXuXuXwXwX<X<X-X-X=X=X*X*X*X*XoXoXoXoX|.'.'.'.'.'.'._._._._._._._._._._._._._._._._._._._.'._._._._.'.'.'.'.'.'.'.'.'.'.'.'.'..X.X.X'.'..X'.'.`.V.Z.m.m.m.m.m.m.m.V.'.=X<XuXuXyXuXtX-X*X,X<XtXCXIXPXLXLXLXLXLXLXLXLXLXLXLXLXLXPXIXDXuX=X`.t._ ) t././.].].+X+X+X].+X+X+X+X+X+X+X+X].].].].].].].].].].].].].].].].].].].].].].].].].].)./.) _ Y D D D D D D D D D J D D J D H H H H H H H Y Y T T T T T T T T T T Y Y Y H D F D G i i C C C G G G D D D F F F F F F F F Y Y Y Y H Y Y Y Y Y Y Y Y Y Y Y Y Y T E ",
"GXJXJXSXiXiXuXuXuXuXuXwXwXwX<X<X-X-X-X=X*X*X*X*XoXoX'.'.'.'.'.'.'.'.'.'._._._._._._._._._._._._._._._._._._._.'.'.'.'.'.'.'.'..X.X|.|.|.|.*X*X@X*X*X*X=X=X-X-X-X-X-X-X-X-X-X-X-X=X*X@X`.C.C.V.C.`.'.oX*XoXoX'.'._._.'.,XtXIXLXLXLXLXLXLXLXLXLXLXPXPXPXHXCXyX<X*X].) _ H G Z G F ~ _ ) ) t./././././././././.)./.).).).).).).).).).).).).).).].].].].].].].].].+X+X].].).) _ D D G D D D D D H H H H H H T T ~ T T T T T ~ ~ ~ ~ T ~ ~ Y Y F D D G C i C C G G G D F D D F D H H H Y Y Y Y Y Y Y Y Y Y Y Y Y Y Y T E _ ( ( ( ( b.",
"HXGXJXJXiXiXiXuXuXuXuXuXwXwXwX<X<X<X-X=X=X*X*X*X*XoXoX|.'.'.|.'.'.'.'.'.'._.'.'._.'._._._._._._._._._._._.'.'.'.'.'.'.'.'.'..X.X|.oXoX*X*X*X=X=X=X-X-X-X-XwXwXwXuXuXuXuXuXiXiXiXSXJXJXJXJXFXDXCXyXuXtX-X*X'._.m.m.m.m.m.IXLXLXLXLXLXLXLXLXLXLXLXPXIXIXAXCXCXCXtX8X9X*X+X+X].).) _ ~ G C C Z D Y ~ _ _ ) ) ) ) ) t.t././././././././././.).).).).).).).].].].].].].+X+X+X*X*X<X<X*X+X'.m.( J D D H H H H T T T T T ~ ~ _ _ _ _ _ _ ~ ~ ~ T Y D D G C C C Z G D D D F F F F H Y H H Y Y Y Y Y Y H Y Y T E / ( 0.b.b.b.b.b.b.b.b.9.",
"HXGXJXJXJXiXiXiXuXuXuXuXuXuXwXwX<X<X-X-X=X*X*X*X*X*XoXoX'.'.'.'.'.'.'.'.'.'.'._.'._.'.'._._.'.'._._._.'.'.'.'.'.'.'.'.'..X.XoX|.|.*X*X*X*X=X=X-X-X-X-XwXwXwXuXuXuXuXiXiXiXJXJXGXHXKXPXPXLXLXLXPXLXLXLXLXPXPXIXGXSXuX-X*XPXLXLXLXLXLXLXLXLXLXLXLXLXLXLXLXPXFXyX<X<X*XoX'.oXoXoX].].].).].).) ) ` D G Z C C G H ~ ~ _ _ _ ) ) ) ) ) ) ) t.t././././.).).).).].'.].].].'.'.oX*X=X-X<X<XuXuXuXyXyXtX<X*X'.) T T T ~ ~ _ _ _ _ _ _ _ _ _ _ _ ~ ~ Y F G C C G G D F F H Y Y H H H H H H Y Y Y E _ ( b.b.N.D.D.n.n.n.n.b.b.b.b.b.b.9.9.",
"HXHXGXJXJXSXiXiXuXuXuXuXuXuXuXwX<X<X<X-X=X*X*X*X*X*X*XoXoX|.'.|.|.'.'.'.'.'.'.'.'.'._.'.'.'.'._.'.'.'.'.'.'.'.'.'.'.'..X.X|.oX|.@X*X*X*X=X=X-X-X-X-XwXwXwXuXuXuXuXiXiXSXJXGXHXKXKXPXLXLXLXLXLXLXLXLXLXLXLXLXLXLXLXPXFXSXPXLXLXLXKXIXIXPXPXPXLXLXLXLXLXLXPXPXKXGXDXCXtX<X,X'._.).).t.) /.).).).).).).)./.) _ _ J G Z C C Z H ~ _ _ _ _ _ _ ) ) ) t.t.t./.).).).].).].].'.+X*X*X*X-X<XuXuXuXuXiXSXJXHXPXLXPXFXCXtX,X_.( _ ( ) ) ) _ _ _ _ ~ ~ T Y G C G G D H Y H J H F D D T E ( 9.b.D.S.S.S.D.D.D.D.D.n.n.n.b.b.b.b.b.b.b.b.9.9.",
"HXHXGXJXJXSXSXiXuXuXuXuXuXuXuXwXwX<X<X-X-X=X=X*X*X*X*XoXoXoX|.oX|.'.'.'.'.'.'.'.'.'.'.'.'.'.'.'.'.'.'.'.'.'.'.'.'.|.'.|.|.*X*X*X*X*X*X=X=X-X-X-X-XwXwXwXuXuXuXuXiXiXSXJXGXHXKXPXPXLXLXLXLXLXLXLXLXLXLXLXLXLXLXLXLXLXPXGXPXLXLXLXHXSXiXuXwXuX9X,X9X8X8XtXBXBXtXtXtXtXtXtXqX8X9X,X,X*X+X].).) ) ) _ _ _ /./.).).).).).).) _ ` J J Z C C G H T _ _ _ _ _ ) ) t.t.m.m.).).'.'.+X*X*X-X-X<XuXuXuXiXJXGXKXLXLXLXLXLXLXLXLXPXIXAXuX-X'.m.( _ _ ~ ~ Y H G Z D H Y Y Y E W ( b.S.S.K.K.L.H.G.H.G.G.D.S.D.D.D.D.n.n.n.b.b.b.b.b.b.b.b.9.9.",
"KXHXHXGXJXJXSXiXuXyXyXuXuXuXuXuXwXwX<X-X-X-X=X*X*X*X*X*X*X*XoXoXoX|.|.'.'.'.'.'.'.'.'.'.'.'.'.'.'.'.'.'.'.'.'.'.'.oXoXoXoX*X*X*X*X*X=X=X-X-X-X-X-XwXwXuXuXuXuXyXiXSXJXJXHXHXKXPXLXLXLXLXLXLXLXLXLXLXLXLXLXLXLXLXLXLXPXHXLXLXLXLXPXPXKXGXCXuX*X!.!.) _ _ _ _ !.!././.).].].].].].].].].'.].].].].].].).) ) _ _ _ _ _ ) ) ).).).).)./.) ) _ E J Z Z Z G H ~ _ _ ) ) t.m.m.).'.+X+X*X-X-XuXuXuXiXJXHXKXLXLXLXLXLXLXLXLXLXLXPXKXHXGXSXiXuX-X'.m._ Y Y _ ( m.V.A.#X#XK.K.K.K.K.K.L.L.H.H.H.G.G.G.D.D.D.D.D.n.n.n.b.b.b.b.b.b.b.4.9.9.",
"KXKXHXGXGXJXJXSXiXyXyXyXuXuXuXuXtXwX<X<X<X-X=X=X*X*X*X*X*X*XoXoXoXoXoX|.'.'.'.'.'.'.'.'.'.'.'.'.'.'.'.'.'.'.'.|.'.'.oXoXoX*X*X*X*X*X=X=X=X-X-XwX-XwXuXuXuXuXyXiXiXSXJXGXHXKXPXLXLXLXLXLXLXLXLXLXLXLXLXLXLXLXLXLXLXLXPXPXLXLXLXLXLXLXLXLXLXLXPXFXAXhX0X)._ ^ ^ ^ ^ ^ ^ ^ ^ ^ ^ ^ !.!.!.!././././.).).).).).).).).).).) ) _ _ _ _ _ _ ) ).).).).m.).) ) _ ` J J S S T E ( ) t.m.).'.*X*X-XrXuXiXJXHXPXLXLXLXLXLXLXLXLXLXLXLXPXKXHXGXJXSXuXuXuXtX<X-X-X=X&X&X%XK.K.K.$X$XK.#XK.K.K.L.L.H.H.H.H.D.D.D.D.D.D.b.b.b.b.b.b.b.b.b.4.( ( ",
"KXKXHXHXGXFXJXSXSXCXCXyXyXyXyXtXtXtXtX<X<X<X-X-X-X=X*X*X*X*X*X*XoXoXoX|.|.|.'.'.'.'.'.'.'.'.'.'.'.'.'.'.'.'.'.|..XoXoX*X*X*X*X*X*X=X=X-X-X-X-XwXwXwXuXuXuXiXiXiXiXJXJXHXHXKXLXLXLXLXLXLXLXLXLXLXLXLXLXLXLXLXLXLXLXLXLXLXLXLXLXLXLXLXLXLXLXLXLXLXLXLXLXLXPXIXAXNX4X;X!.^ ^ ^ ^ ! ! ! ! ! ! ! ^ ~.~.!.!.!.!.!.!./././.).).).).).).).0.) _ _ _ ( ( _ ) t.m.m.m.m.m.m.) ( / E T T E _ t.m.+X*XwXuXSXGXPXLXLXLXLXLXLXLXLXLXLXLXLXPXPXPXKXGXSXuXuXuXrX<X-X-X-X-X&X&X&X&X&X$XK.K.K.K.K.H.L.H.H.G.S.D.D.D.n.n.n.b.b.9.9.4.4.4.6.6.6.n 5.",
"KXKXKXHXGXFXJXSXSXCXCXCXyXVXtXtXtXtXtXqXqX<X<X<X<X9X,X,X*X*X*X*X*XoXoXoXoX|.|.|.'.'.'.'.'.'.'.'.'.'.'.'.|.'.'.'.'.oX*X*X*X*X*X*X=X=X=X-X-X-X-XwXwXuXuXuXuXiXiXiXSXJXGXHXHXPXLXLXLXLXLXLXLXLXLXLXLXLXLXLXLXLXLXLXLXLXLXLXLXLXLXLXLXLXLXLXLXLXLXLXLXLXLXLXLXLXLXLXLXLXPXKXFXVX8X,X].!.^ ! ! ! ! ! ! ! ! ! ! ^ ^ ~.~.!.!.!.!.!.!.!.!.).).).).).).).).m.) ) _ _ ( ( ) m._._._._._._.m.m.( ( ( ( m.*XtXFXPXLXLXLXLXLXLXLXLXLXLXLXLXLXPXPXPXPXFXuXuXtXrXrX-X-X-X-X-X&X&X&X$XK.K.K.K.L.H.S.D.D.D.D.D.n.n.4.5.4.W L 6.1.1.1.1.@.$.$.+.v.",
"KXKXKXHXGXGXFXJXDXSXCXCXCXVXVXtXtXtXtXtXqX8X8X8X<X<X9X9X9X,X,X,X,X,X*X*X*XoXoXoX|.oX|.'.'.'.'.'.'.'.|.|.'.|.|.oXoX*X*X*X*X*X*X*X=X-X-X-X-X-X-XwXwXuXuXuXuXiXiXiXJXJXGXHXKXLXLXLXLXLXLXLXLXLXLXLXLXLXLXLXLXLXLXLXLXLXLXLXLXLXLXPXPXKXKXKXPXPXPXLXLXLXLXLXLXLXLXLXPXPXKXHXGXJXSXiXyXyXVXtX9X,X]./.!.^ ! ! ! ! ! ! ! ! ! ! ! ^ ^ ^ !.!.!.!.!.!.!./.).).).).)._._._._.m.m.m.m.m.m._.*X-X<X<XtXyXCXCXVXMXMXAXFXPXLXLXLXLXLXLXLXLXLXLXLXLXLXPXHXSXyXuXrXrX-X-X-X-X&X&X$X#X#XK.L.L.G.G.D.D.n.c.c.c.6.5.1.+.@.1.,.v @.$.$.$.$.$.d.d.+.v.",
"PXKXKXHXGXGXFXFXFXDXSXCXCXCXVXVXtXtXtXtXqX8X8X8X8X<X<X9X9X9X,X,X,X,X,X,X,X,X*X*XoX*X*XoXoXoXoXoXoXoXoXoXoXoXoX*X*X*X*X*X*X*X*X=X-X-X-X-X-XwX-XwXuXuXuXuXiXiXiXiXJXJXHXHXKXLXLXLXLXLXLXLXLXLXLXLXLXLXLXLXLXLXLXLXLXLXLXLXLXLXPXJXiXiXiXiXiXiXSXSXJXJXSXSXSXDXJXJXJXSXSXSXiXiXuXuXuXuXuXtXwX<X<X<X-X*X*X+X].].!.!.!.^ ^ ! ! ^ ^ ^ ^ ^ ^ ^ ^ ^ !.!.!.!.^.^.).).).).].'.'.*X*X*X-X-X-X-X-X<XVXFXIXLXLXLXLXLXLXLXLXLXLXLXLXLXLXLXPXPXPXPXKXFXCXyXrXrX-X-X=X@X@X#XK.K.K.L.H.G.n.n.c.c.+.1.v.$.$.d.1.v.@.@.d.v.1.m $.$.d.d.d.d.$.$.#.v.",
"PXKXKXKXHXGXGXFXFXDXDXSXCXCXCXVXVXtXtXtXtXqX7X8X8X8X<X8X9X9X9X,X,X,X,X,X,X,X,X,XoX,X0X0X,XoX,X,X*X*X*X*X*X*X*X*X*X*X*X*X*X=X=X=X-X-X-X-X-XwXwXwXuXuXuXuXiXiXiXSXJXGXHXHXKXLXLXLXLXLXLXLXLXLXLXLXLXLXLXLXLXLXLXLXLXLXLXLXPXPXJXpXpXpXwXwXwXeX&X%X{.@X%X=X-X-X-X-X-X-X-X-X-X=X&X&X=X=X=X=X=X=X*X*X*X*X*X*X*XoX|.oX+X'.].).).!.!.!.!.!.~.^ ^ ^ ^ ^ ^ !._ ) !.!.).).).).).].'.oX*X<X<XuXCXFXKXPXLXLXLXLXLXLXLXLXLXLXLXLXLXLXLXPXGXiXuX-X@X#X|.|.'.'.'.'.S.D.D.n.b.1.@.@.#.$.@.$.d.8.#.d.d.d.$.d.$.v.$.$.d.v.v.o.d.d.d.d.d.d.$.d.#.d.",
"PXKXKXKXHXGXGXFXFXDXDXDXCXCXCXVXVXBXtXtXtXqX7XqX7X8X8X8X<X9X9X9X9X,X,X,X,X,X,X,X,X,X,X,X,X,X,X,X,X,X,X,X,X,X,X,X,X,X,X,X9X9X9X<X<X<XwX<XwXwXuXuXuXuXyXyXiXiXiXSXJXGXHXKXPXLXLXLXLXLXLXLXLXLXLXLXLXLXLXLXLXLXLXLXLXLXLXLXKXPXPXKXFXJXiXuXwXeX%X}.{.{.`.`.`.C.C.V.V.V.C.`.`..X.X.X.X{.{..X.X.X.X'.'..X.X.X'.'.'.'.'.'.`.`.`.`.`._.'._.).).).).).)././.!./.) !.!.!.).).].].|.oX*X*X*X,X<XyXFXPXLXLXLXLXLXLXLXLXLXLXLXLXLXLXLXLXPXHXiXuX-X#XN.9.W Q E S v m z O.@.#.$.$.d.d.d.d.d.d.$.k.$.d.d.d.$.Y.8.v.U.Y.Y.@.d.d.d.d.d.v.d.d.#.d.",
"PXKXKXKXHXGXGXFXFXDXDXDXCXCXCXCXVXVXtXtXtXtXqXqX7X8X8X8X<X9X9X9X9X,X,X,X,X,X,X,X,X,X,X,X,X,X,X,X,X,X,X,X,X,X,X,X,X,X,X9X9X<X<X<X<X<XwXwXwXtXtXuXuXyXuXiXSXSXSXJXJXHXHXKXPXLXLXLXLXLXLXLXLXLXLXLXLXLXLXLXLXLXLXLXLXLXLXPXKXPXLXLXLXLXPXPXPXKXGXDXuX-X X[.A.V._.V.V.V.V.V.Z.Z.Z.Z.m.m.0.m.Z.Z.Z.V._._.`.`.C.`.`.`.`._._._._._._._.`._.`.`.`.`.`.`.'.'.'.'.'.oXoXoXoXoX'.'.'.'.'.|.oXoXoX*X=XqXCXIXPXLXLXLXLXLXLXLXLXLXLXLXLXPXIXFXiXwX=X{.}.{.A.C.0.v n #.O.$.$.$.d.k.k.k.k.k.Y.Y.$.k.$.d.k.k.d.d.Y.Y.R.U.Y.1.Y.k.d.d.d.v.$.d.$.d.",
"PXKXKXKXHXGXGXFXFXFXDXDXCXCXCXCXVXBXBXtXtXtXqXqXqX7X8X8X8X8X9X9X9X9X,X,X9X,X,X,X,X,X,X,X,X,X,X,X,X,X,X,X,X,X,X,X,X,X9X9X9X<X8X<X8XqXqXqXtXtXtXtXuXyXyXiXSXSXSXJXGXHXKXPXLXLXLXLXLXLXLXLXLXLXLXLXLXLXLXLXLXLXLXLXLXLXLXLXPXPXLXLXLXLXLXLXLXLXLXLXLXPXKXFXSXuXwX-X*X{.C._.Z.Z.Z.Z.m.m.m.m.m.m.m.m.0.m.0.0.m.m.Z.Z.m.Z.Z.V.V.V.V._.V.V.V.V.V.C.`.`.`.[.[.{.{. X@X*X&X-X-XwXuXuXuXwXwX<X*XoX'._._._.'.oX8XBXAXIXIXPXLXLXLXLXLXLXLXPXKXHXSXuX-X Xq.W W n #.$.@.d.k.k.k.k.k.R.k.k.U.Y.k.k.k.k.k.k.$.U.U.R.R.R.U.@.Y.k.k.k.k.Y.v.d.$.d.",
"PXKXKXKXKXGXGXFXFXFXDXDXAXCXCXCXVXVXBXtXtXtXtXqX7X7X8X8X8X8X8X9X8X9X9X9X,X,X,X,X,X,X,X,X,X,X,X,X,X,X,X,X,X,X,X,X9X9X9X<X<X8X<X<X8XqXqXqXtXtXtXtXyXyXyXCXSXSXJXJXGXHXKXPXLXLXLXLXLXLXLXLXLXLXLXLXLXLXLXLXLXLXLXLXLXLXLXLXPXPXLXLXLXLXLXLXLXLXLXLXLXLXLXLXPXKXHXJXSXiXuXwX=X*X|..X_._._._.Z.m.m.m.m.m.m.0.m.m.0.0.0.0.0.0.0.0.m.m.m.m.Z.Z.Z.V.C.V.C.C.B.C.C.J.{.{.@X&X-X-XuXpXpXiXJXHXPXPXPXIXIXAXCXBXqX8X9X=X|..XoX=X<XqXqXtXtXuXuXuXwXwX-X&XA.t t O.$.d.$.k.k.k.z.z.z.E.k.z.R.U.k.k.k.k.R.k.$.k.R.R.R.R.R.$.U.U.k.k.k.k.v.v.$.d.",
"PXKXKXKXKXHXGXGXFXFXFXDXDXCXCXCXCXVXVXtXtXtXtXqX7X7X7X8X8X8X9X9X8X9X9X9X9X,X,X,X,X,X,X,X,X,X,X,X,X,X,X,X,X,X9X9X9X9X9X8X8X8X8X8XqXqXtXtXtXtXtXyXyXVXVXSXSXSXJXGXHXHXKXPXLXLXLXLXLXLXLXLXLXLXLXLXLXLXLXLXLXLXLXLXLXLXLXLXLXLXLXLXLXLXLXLXLXLXLXLXLXLXLXLXLXLXPXKXHXGXJXSXiXuXuXwX<X-X=XoXoX.X|.'.'._._.V.Z.Z.Z.m.m.m.m.m.m.m.0.m.m.0.0.0.0.0.m.m.M.M.M.N.B.B.C.C.H.H.J.}.$X&XwXuXiXJXHXPXLXLXLXLXLXLXLXLXLXLXPXPXIXAXtX9X`.( E I E W _.'.%XiX-Xe l } $.k.$.k.z.x.x.E.E.E.z.E.E.k.k.z.x.z.z.k.$.U.E.E.E.R.R.v.k.k.k.k.U.k.Y.Y.$.k.",
"PXKXKXKXKXHXGXGXFXFXFXDXDXAXCXCXCXVXVXBXtXtXtXtXqX7X7X8X8X8X8X8X8X8X9X9X9X9X9X,X,X,X,X,X,X,X,X,X,X,X,X,X,X,X9X9X9X9X8X8X8X8X8XqXqXtXtXtXtXtXyXyXVXVXVXSXSXJXJXGXHXKXKXPXLXLXLXLXLXLXLXLXLXLXLXLXLXLXLXLXLXLXLXLXLXLXLXLXLXLXLXLXLXLXLXLXLXLXLXLXLXLXLXLXLXLXLXPXKXKXHXJXSXSXiXuXuXtXwX<X-X-X-X=X=X*XoXoX|.'.`.'.`._._._.Z.Z.Z.m.m.m.0.m.m.0.m.m.m.M.M.M.M.M.M.M.M.B.C.J.L.}.XXXX&XeXuXiXFXIXPXLXLXLXLXLXLXLXLXLXLXLXLXLXLXPXIXAXtX9X'.tXHXKX-Xe m #.k.k.$.z.x.x.x.x.x.E.z.x.x.k.k.x.z.x.z.R.d.E.E.E.E.E.R.$.z.k.k.U.R.U.U.Y.$.k.",
"PXKXKXKXKXIXGXGXFXFXFXDXDXAXCXCXCXVXVXBXtXtXtXtXqX7X7X8X7X8X8X8X8X6X6X4X4X9X9X,X,X,X,X,X,X,X,X9X,X,X9X9X9X9X9X9X9X8X8X8X8X7X8X8XqXtXtXtXtXtXyXyXVXVXVXCXSXFXFXGXHXKXKXPXLXLXLXLXLXLXLXLXLXLXLXLXLXLXLXLXLXLXLXLXLXLXLXLXLXLXLXLXLXLXLXLXLXLXLXLXLXLXLXLXLXLXLXLXPXKXHXGXJXJXSXiXyXuXuXwXwXwXwX<X<X<X=X*X*XoXoXoX.X'.'.'.`.'._._._.V.V._.Z.Z.Z.Z.M.M.M.M.M.M.M.M.M.M.N.N.N.n.B.J.}.$X&XeXwXpXiXSXGXKXPXPXLXLXLXLXLXLXLXLXLXLXLXLXLXLXLXPXPXKX&Xe O.$.k.k.d.x.x.x.x.x.x.E.x.x.x.k.k.x.k.k.E.U.d.E.E.E.E.E.R.v.x.z.k.k.R.U.k.Y.d.k.",
"PXKXKXKXKXIXGXGXFXFXFXFXDXAXCXCXCXVXVXBXBXBXtXtXtXqX7X7X7X8X8X8X8X8X8X6X4X4X9X,X,X,X,X,X,X9X,X9X9X9X9X9X9X9X4X4X8X8X8X8X8X8X7XqXqXtXtXtXtXtXtXyXVXVXVXCXSXFXGXGXHXKXKXPXLXLXLXLXLXLXLXLXLXLXLXLXLXLXLXLXLXLXLXLXLXLXLXLXLXLXLXLXLXLXLXLXLXLXLXLXLXLXLXLXLXLXLXLXLXPXKXHXGXGXJXSXiXyXuXtXtXtXtXwXwX<X-X=X*X*X*X*XoXoXoX|..X.X.X|..X.X.X.X.X.X.X.X`.`.`.`.A.`.A.C.V.N.N.M.M.N.B.B.B.H.J.L.K.K.$XeXwXpXpXSXFXIXPXPXPXPXPXPXPXPXPXPXPXLXPXKXHXKXwXz @.$.k.z.d.x.x.x.x.x.x.E.x.x.x.k.x.x.E.x.z.k.k.E.E.E.R.E.E.d.x.z.z.R.R.k.k.U.d.k.",
"PXKXKXKXKXIXGXFXFXFXFXDXDXAXAXCXCXCXVXVXBXBXBXtXtXqX7X7X7X7X8X8X8X8X8X6X4X4X9X9X,X,X,X,X,X9X9X9X9X9X9X9X9X9X9X9X9X8X8X8X8X7X7XqXtXtXtXtXtXtXtXVXVXVXVXVXCXJXGXGXHXKXPXLXLXLXLXLXLXLXLXLXLXLXLXLXLXLXLXLXLXLXLXLXLXLXLXLXLXLXLXLXLXLXLXLXLXLXLXLXLXLXLXLXLXLXLXLXLXPXKXHXHXGXJXSXSXyXuXuXuXuXuXtXwXwX<X<X=X=X*X*X*X*XoXoXoXoXoXoXoXoXoXoXoXoX*X*X@X*X@X%X%X=X=X=X=X=X&X&X&X=X&X&X=X=X&X&X$XK.}.$X&X&X&XeXeXeXeXwXuXuXuXuXpXiXiXiXiXiXpXpXpXHX%Xx @.$.k.l.k.x.x.x.x.x.x.x.x.x.x.k.z.x.E.x.x.R.k.E.E.R.E.E.E.d.x.z.x.R.R.U.k.U.d.U.",
"PXKXKXKXKXHXGXGXFXFXFXDXDXAXCXCXCXVXVXVXBXBXtXtXtXqX7X7X7X7X7X8X8X8X8X8X6X9X9X9X9X,X9X9X9X9X9X9X9X9X9X4X9X9X9X8X8X8X8X8X8X7XqXqXtXtXtXtXtXtXyXVXVXVXVXVXCXDXGXHXHXKXPXLXLXLXLXLXLXLXLXLXLXLXLXLXLXLXLXLXLXLXLXLXLXLXLXLXLXLXLXLXLXLXLXLXLXLXLXLXLXLXLXLXLXLXLXLXLXPXPXKXHXGXFXJXSXyXyXyXuXyXtXtXtXqX<X<X<X9X=X=X*X*X*X*X*X*XoXoX*XoXoX*X*X=X-X=X=X=X-X-X-X-XwXuXuXuXpXpXpXiXiXJXJXHXKXKXKXIXFXFXSXSXyXyXuXuXwXeX&X&X&X$XXXK.K.K.K.K.K.K.pXKX$Xv #.k.z.x.k.x.x.x.x.x.x.x.x.x.x.k.x.x.x.x.x.k.z.E.E.E.E.E.E.$.x.z.z.R.R.R.k.U.d.U.",
"KXKXKXKXKXIXGXGXFXFXFXDXDXDXAXAXCXVXVXVXBXBXBXtXtXqXqX7X7X7X7X8X8X8X8X8X8X9X9X9X9X,X,X9X9X9X9X9X9X9X9X4X9X9X6X8X8X8X8X8X7X7XqXqXtXtXtXtXtXtXyXVXVXVXVXVXVXSXJXGXKXKXPXLXLXLXLXLXLXLXLXLXLXLXLXLXLXLXLXLXLXLXLXLXLXLXLXLXLXLXLXLXLXLXLXLXLXLXLXLXLXLXLXLXLXLXLXLXLXPXPXKXHXHXGXJXSXCXyXyXyXyXyXyXtXqXwX<X<X<X9X=X,X*X*X*X*X*X*X*X*X*X*X*X=X=X-X-X-X-X-XwXwXwXuXuXpXpXiXiXJXJXGXHXKXPXLXLXLXLXLXLXLXLXLXLXLXPXPXPXKXFXSXuXwXeXK.K.K.K.F.eXHXPXR x #.k.x.x.k.x.x.x.x.Q.x.x.x.x.x.z.x.x.z.x.x.U.z.E.E.E.E.E.E.$.z.x.z.x.R.R.k.Y.d.k.",
"KXKXKXKXIXGXGXGXFXFXFXFXDXDXAXAXCXCXVXVXBXBXBXtXMXtXtXqX7X7X7X7X7X8X8X8X8X6X6X9X9X,X,X9X9X9X9X9X9X6X9X6X6X4X8X8X8X8X8X8X7XqXqXqXtXtXtXtXtXtXVXVXVXVXVXVXVXCXJXGXHXKXPXLXLXLXLXLXLXLXLXLXLXLXLXLXLXLXLXLXLXLXLXLXLXLXLXLXLXLXLXLXLXLXLXLXLXLXLXLXLXLXLXLXLXLXLXLXLXPXPXKXKXHXGXJXSXCXVXyXyXyXyXyXtXtXqX<X<X<X9X,X,X*X*X*X,X,X,X,X*X*X*X*X=X-X-X<X<X<XwXwXwXuXuXuXiXiXiXiXJXHXHXKXPXLXLXLXLXLXLXLXLXLXLXLXLXLXLXLXLXLXLXPXPXKXHXJXiXpX$X&Xb.tXv c $.k.x.x.k.x.x.x.x.x.x.x.x.x.x.z.x.l.k.x.x.k.z.x.E.E.E.E.E.$.z.z.z.z.E.R.k.Y.k.U.",
"KXKXKXKXHXGXGXFXFXFXFXFXDXDXAXAXCXVXVXVXBXBXBXtXtXtXtXqX7X7X7X7X8X8X8X8X8X6X8X9X9X,X,X9X9X9X9X9X9X4X4X9X9X8X6X8X8X8X8X8X7X7XqXtXtXtXBXtXBXVXVXVXVXVXVXVXVXCXDXJXHXKXPXPXLXLXLXLXLXLXLXLXLXLXLXLXLXLXLXLXLXLXLXLXLXLXLXLXLXLXLXLXLXLXLXLXLXLXLXLXLXLXLXLXLXLXLXLXLXPXPXKXKXHXGXFXJXSXCXVXVXVXVXyXyXtXtXqX<X8X9X9X=X,X,X,X,X,X,X,X,X,X*X*X-X-X<XwXwXwXwXwXwXuXuXiXiXiXSXJXGXHXHXPXLXLXLXLXLXLXLXLXLXLXLXLXLXLXLXLXLXLXLXLXLXLXLXPXKXHXwX-XP wXz c $.k.x.x.k.x.x.x.x.Q.x.x.x.x.x.z.x.l.z.x.x.k.x.x.Q.E.E.E.E.$.z.z.z.z.E.E.k.d.k.U.",
"KXKXKXKXIXGXGXGXFXFXFXFXDXDXAXAXCXCXVXVXBXBXBXtXMXtXqXxX7X7X7X7X8X8X8X8X8X8X8X6X9X,X,X9X9X9X9X6X6X6X6X6X9X8X8X8X8X8X7X7X7XqXqXtXtXtXtXtXBXBXVXVXVXVXVXCXCXCXDXJXGXKXPXPXLXLXLXLXLXLXLXLXLXLXLXLXLXLXLXLXLXLXLXLXLXLXLXLXLXLXLXLXLXLXLXLXLXLXLXLXLXLXLXLXLXLXLXLXLXPXPXKXKXHXGXFXJXSXCXVXVXVXVXyXyXtXtXqX8X<X<X9X9X,X=X,X,X=X=X=X,X=X=X=X-X<X<XwXwXwXwXwXuXuXuXiXiXSXJXJXGXHXHXPXLXLXLXLXLXLXLXLXLXLXLXLXLXLXLXLXLXLXLXLXLXLXLXLXPXKXuX-XL wXz O.d.k.x.x.k.x.x.x.x.x.x.x.x.x.x.z.E.l.z.x.x.k.x.x.Q.E.E.E.E.$.z.z.z.z.E.R.k.d.k.k.",
"KXKXKXKXIXGXGXFXFXFXFXFXDXDXDXAXCXCXVXVXVXBXBXBXMXMXtXMXqX7X7X7X8X8X8X8X8X8X8X6X9X9X,X9X9X9X9X6X6X6X6X6X8X8X8X8X8X8X7X7X7XqXtXtXtXtXBXBXBXVXVXVXVXVXCXCXCXCXSXJXGXHXKXPXLXLXLXLXLXLXLXLXLXLXLXLXLXLXLXLXLXLXLXLXLXLXLXLXLXLXLXLXLXLXLXLXLXLXLXLXLXLXLXLXLXLXLXLXLXPXPXKXKXHXGXFXJXSXCXVXVXVXVXVXyXtXtXqXqX<X<X9X9X,X,X,X,X,X,X,X,X,X,X9X<X<XwXwXwXwXwXwXuXuXyXiXiXSXJXJXGXHXKXPXLXLXLXLXLXLXLXLXLXLXLXLXLXLXLXLXLXLXLXLXLXLXLXLXLXPXuX-XP uX<.v.Y.k.x.E.k.x.x.x.x.x.x.x.x.x.x.z.Q.x.x.x.x.k.x.x.Q.E.E.E.E.d.z.x.z.x.E.R.k.d.U.U.",
"KXKXKXKXGXGXGXFXFXFXFXDXDXDXDXAXCXCXVXVXVXBXBXBXMXMXtXtXqXqX7X7X8X8X8X8X8X8X8X8X9X9X9X9X9X6X6X6X6X6X6X6X8X8X8X8X8X7X7X7XqXqXtXtXtXBXBXBXBXVXVXVXVXVXCXCXCXSXDXFXFXGXKXPXLXLXLXLXLXLXLXLXLXLXLXLXLXLXLXLXLXLXLXLXLXLXLXLXLXLXLXLXLXLXLXLXLXLXLXLXLXLXLXLXLXLXLXLXLXPXPXKXHXGXGXFXJXSXCXVXCXCXVXVXVXtXtXqXwX8X<X9X9X9X9X9X9X9X,X9X,X9X9X9X<X<XwXwXwXwXwXuXuXuXiXiXSXJXJXJXHXHXKXPXLXLXLXLXLXLXLXLXLXLXLXLXLXLXLXLXLXLXLXLXLXLXLXLXLXPXtXwX,.pXY.Y.Y.k.x.E.k.x.x.x.x.x.x.x.x.x.x.z.Q.E.x.x.x.k.x.x.E.E.E.E.E.k.z.x.z.z.E.R.k.d.U.U.",
"KXKXKXIXIXGXGXFXFXFXFXFXDXDXDXAXAXCXVXVXVXBXBXBXBXMXtXtXqXqX7X7X7X7X7X7X8X8X8X8X8X9X9X9X6X6X8X6X8X6X6X8X8X8X8X8X8X7X7X7XqXtXqXqXtXtXBXBXVXVXVXVXVXCXCXCXCXCXSXDXFXGXKXKXPXLXLXLXLXLXLXLXLXLXLXLXLXLXLXLXLXLXLXLXLXLXLXLXLXLXLXLXLXLXLXLXLXLXLXLXLXLXLXLXLXLXLXLXPXPXKXKXKXHXGXFXDXSXCXCXCXCXCXVXVXtXtXtXqX8X8X<X9X9X9X9X9X9X9X9X9X9X9X<X<XwXwXqXwXqXwXuXuXyXiXiXSXJXJXGXHXHXHXPXLXLXLXLXLXLXLXLXLXLXLXLXLXLXLXLXLXLXLXLXLXLXLXLXLXPXwXwX5.pXk.k.Y.k.x.E.k.x.x.x.x.x.x.x.x.x.x.k.x.Q.x.x.E.k.x.x.E.E.E.E.R.k.z.x.z.z.E.z.k.$.k.U.",
"KXKXKXIXIXGXFXFXFXFXFXFXDXAXAXAXAXCXCXVXVXBXBXBXBXMXMXMXtXqX7X7X7X7X7X7X8X8X8X8X8X9X9X6X6X6X8X8X8X8X8X8X8X8X8X8X7X7X7X7X7XtXtXtXtXBXBXBXVXVXVXVXVXCXCXCXCXCXSXDXFXGXHXKXPXLXLXLXLXLXLXLXLXLXLXLXLXLXLXLXLXLXLXLXLXLXLXLXLXLXLXLXLXLXLXLXLXLXLXLXLXLXLXLXLXLXLXLXLXPXKXKXHXHXGXFXJXSXCXCXCXCXCXCXVXyXtXtXqX8X8X<X9X9X9X9X9X9X9X9X,X9X<X<X<XwXwXqXqXqXtXuXuXyXiXSXSXJXJXGXHXHXHXPXLXLXLXLXLXLXLXLXLXLXLXLXLXLXLXLXLXLXLXLXLXLXLXLXLXPX<XuX5.pXk.k.Y.k.x.E.k.x.x.x.x.x.x.x.x.x.x.k.E.E.E.z.E.k.E.E.E.E.E.E.U.k.z.x.z.z.x.z.k.$.k.U.",
"KXKXKXIXGXGXFXFXFXFXFXFXDXDXDXAXCXCXCXVXVXBXBXBXBXMXMXMXMXhX7XqXhX7X7X7X8X8X8X8X9X9X9X9X6X6X8X8X8X8X8X8X8X8X7X8X7X7X7X7XqXtXtXtXtXtXBXBXVXVXVXVXCXCXCXCXCXCXSXDXJXGXHXKXPXLXLXLXLXLXLXLXLXLXLXLXLXLXLXLXLXLXLXLXLXLXLXLXLXPXLXLXLXLXLXLXLXLXLXLXLXLXLXLXLXLXLXLXLXPXKXKXHXHXGXFXFXSXCXCXCXCXCXCXVXVXtXtXqXqX8X<X9X<X<X<X9X9X9X9X9X9X<X<X<XwXqXwXtXtXtXuXuXyXiXSXSXJXJXGXGXHXHXKXLXLXLXLXLXLXLXLXLXLXLXLXLXLXLXLXLXLXLXLXLXLXLXLXLXPX<XuX7.iXY.U.Y.x.E.E.k.x.x.x.x.x.x.x.x.x.x.k.x.E.E.E.E.k.E.Q.E.E.E.E.U.k.l.x.z.z.z.z.k.$.U.U.",
"KXKXKXIXGXGXFXFXFXFXFXFXDXAXAXAXCXCXCXVXVXBXBXBXBXMXMXMXMXqXqXxX7X7X7X7X8X8X8X8X8X9X9X6X8X6X8X8X8X8X8X8X8X8X8X8X7X7X7XqXqXtXMXMXtXtXBXBXVXVXVXVXVXCXCXDXCXSXSXDXFXGXGXKXKXPXLXLXLXLXLXLXLXLXLXLXLXLXLXLXLXLXLXLXLXLXLXLXLXPXLXLXLXLXLXLXLXLXLXLXLXLXLXLXLXLXLXLXLXPXKXKXHXGXGXFXDXSXCXCXCXCXCXCXVXVXtXtXqXqX<X<X<X<X<X<X9X9X9X9X9X<X9X<X<XwXqXqXtXtXtXuXyXyXiXSXSXJXJXJXGXHXHXKXLXLXLXLXLXLXLXLXLXLXLXLXLXLXLXLXLXLXLXLXLXLXLXLXLXPX<XuXc.pXY.U.Y.x.x.E.k.x.x.x.x.x.x.x.x.x.x.k.x.z.E.E.E.k.E.Q.R.R.E.E.U.k.z.z.z.z.z.z.k.$.z.k.",
"KXKXGXGXGXFXFXFXFXDXDXDXDXDXAXAXAXCXVXVXVXVXBXBXBXMXMXMXMXtXqXqX7X7X7X7X7X8X8X8X8X8X9X6X8X8X8X8X8X8X8X8X8X8X8X7X7X7X7XqXqXMXMXMXtXBXBXBXVXVXVXVXCXCXCXDXDXDXDXDXFXFXGXKXKXPXPXLXLXLXLXLXLXLXLXLXLXLXLXLXLXLXLXLXLXLXLXLXLXPXLXLXLXLXLXLXLXLXLXLXLXLXLXLXLXLXLXLXPXPXKXKXHXGXGXFXDXSXCXCXCXCXCXCXCXVXtXtXqXqX8X<X<X<X<X8X8X9X9X9X<X<X9X<X<XwXqXqXtXtXtXtXyXyXiXSXSXSXJXJXGXHXHXKXPXLXLXLXLXLXLXLXLXLXLXLXLXLXLXLXLXLXLXLXLXLXLXLXLXPX=XuXc.pXY.U.U.E.x.E.k.x.x.x.x.x.x.x.x.x.x.k.Q.x.E.E.E.Y.E.k.E.E.E.E.k.k.z.z.z.z.z.z.z.$.z.k.",
"KXKXGXGXGXFXFXFXFXDXDXDXDXDXAXAXCXVXCXVXVXVXBXBXBXMXMXMXMXMXMX7X7X7X7X7X7X8X8X8X8X8X9X9X8X8X6X8X8X8X8X8X8X8X7X7X7X7X7XqXqXqXMXMXtXtXBXBXBXVXVXVXCXCXAXDXDXDXDXDXFXFXGXHXKXPXPXLXLXLXLXLXLXLXLXLXLXLXLXLXLXLXLXLXLXLXLXLXLXIXLXLXLXLXLXLXLXLXLXLXLXLXLXLXLXLXLXLXPXPXKXHXHXGXGXFXDXSXCXCXCXCXCXCXCXVXyXtXtXqX8X8X<X<X8X8X8X8X<X<X9X<X<X<X<XqXqXqXtXtXtXtXyXyXiXSXSXSXJXJXGXGXHXKXPXLXLXLXLXLXLXLXLXLXLXLXLXLXLXLXLXLXLXLXLXLXLXLXLXPX*XuXc.pXY.U.U.E.E.E.k.x.x.x.x.x.x.x.x.x.x.k.E.E.E.x.E.Y.x.x.E.E.E.E.k.k.z.z.z.z.z.z.U.$.x.k.",
"IXIXGXGXGXGXFXFXFXFXDXDXDXAXAXAXCXVXVXVXVXVXBXBXBXMXMXMXMXMXMXxX7X7X7X7X7X7X8X8X8X8X9X9X8X8X8X8X8X8X8X8X8X8X8X7X7X7X7XqXqXqXtXtXBXBXBXVXVXVXVXVXVXCXCXDXDXDXDXFXFXFXGXHXKXKXPXLXLXLXLXLXLXLXLXLXLXLXLXLXLXLXLXLXLXLXLXLXLXIXLXLXLXLXLXLXLXLXLXLXLXLXLXLXLXLXLXPXPXKXKXHXGXGXGXFXDXSXCXCXCXCXCXCXVXVXtXtXtXqX8X8X8X8X8X8X<X9X<X9X9X<X<X<X<XqXqXqXtXtXtXtXyXyXiXSXSXSXJXJXJXJXHXHXPXLXLXLXLXLXLXLXLXLXLXLXLXLXLXLXLXLXLXLXLXLXLXLXLXPX*XuXc.pXY.U.U.E.E.E.k.x.x.x.x.x.x.x.x.x.x.k.z.E.E.x.E.Y.x.x.E.E.E.x.k.k.z.z.z.k.z.z.R.$.z.k.",
"KXIXGXGXGXFXFXFXFXFXDXDXDXAXAXAXCXVXVXVXVXVXBXBXBXMXMXMXMXMXMXxX7X7X7X7X8X7X8X8X8X8X9X9X8X8X8X8X8X8X8X7X7X7X7X7X7X7XqXqXqXqXtXtXBXBXBXVXVXVXVXVXVXVXCXDXDXDXDXFXFXFXGXGXKXKXPXPXPXLXLXLXLXLXLXLXLXLXLXLXLXLXLXLXLXLXLXLXLXIXLXLXLXLXLXLXLXLXLXLXLXLXLXLXLXLXPXPXPXKXKXHXGXGXGXFXDXSXCXCXCXCXCXVXCXVXVXtXtXqX8X8X<X8X8X8X8X8X8X<X<X<X<X<X8XqXqXqXtXtXtXyXyXyXiXiXSXSXJXJXJXJXGXHXKXPXLXLXLXLXLXLXLXLXLXLXLXLXLXLXLXLXLXLXLXLXLXLXLXPXoXuXc.pXY.Y.U.E.E.T.k.x.x.x.x.x.x.x.x.x.x.U.z.x.x.E.E.Y.x.E.E.E.E.E.k.k.z.z.x.k.z.z.R.$.R.U.",
"GXGXGXFXGXFXFXFXFXFXDXDXDXAXAXAXCXCXCXVXVXVXBXBXBXBXMXMXMXMXMXqX7X7X7X7X7X7X8X8X8X8X9X6X8X8X8X8X8X8X7X7X7X7X7X7X7X7X7XtXtXMXtXMXBXBXBXBXBXBXVXVXVXVXCXCXDXDXDXDXFXFXGXGXKXKXKXPXPXLXLXLXLXLXLXLXLXLXLXLXLXLXLXLXLXLXLXLXLXIXPXLXLXLXLXLXLXLXLXLXLXLXLXLXLXLXPXPXKXKXKXHXGXGXFXFXDXDXCXCXCXCXCXCXCXVXVXtXtXqX7X8X<X8X8X8X8X8X8X<X8X8X8X<X<XqXqXqXqXtXtXuXuXyXiXiXSXSXSXJXJXJXGXHXKXPXLXLXLXLXLXLXLXLXLXLXLXLXLXLXLXLXLXLXLXLXLXLXPXKX.XuXF.pXY.Y.Y.E.E.T.k.x.x.x.x.x.x.x.x.x.x.k.x.k.x.E.E.k.x.E.x.E.E.E.k.k.k.z.z.k.z.z.R.d.R.k.",
"GXGXGXFXFXFXFXFXFXDXDXDXAXAXAXAXCXVXVXVXVXVXBXBXBXMXMXMXMXMXMXMX7X7XhX7X7X7X7X8X8X8X9X6X8X8X8X8X8X8X8X7X7X7X7X7X7X7X7XqXtXMXMXBXtXBXBXBXVXVXVXVXVXVXCXCXDXDXDXFXFXFXFXGXGXKXKXKXPXPXLXLXLXLXLXLXLXLXLXLXLXLXLXLXLXLXLXLXLXIXPXLXLXLXLXLXLXLXLXLXLXLXLXLXLXPXPXKXKXKXKXGXGXGXFXFXDXDXCXCXCXCXCXCXCXVXVXtXtXqX7X8X8X8X8X8X8X8X8X<X8X8X8X<X<XqXqXqXtXtXtXuXuXyXiXiXSXSXSXJXJXJXGXHXHXPXLXLXLXLXLXLXLXLXLXLXLXLXLXLXLXLXLXLXLXLXLXLXPXKX_.uXP.pXY.Y.Y.E.E.k.k.x.x.x.x.x.x.x.x.x.x.k.E.k.E.E.E.d.x.E.E.E.E.E.k.T.k.z.z.k.z.z.R.k.R.U.",
"IXIXIXFXFXFXFXFXDXDXDXDXDXAXAXCXCXCXVXVXVXVXBXBXBXMXMXtXMXMXMXMXtX7XhX7X7X7X7X8X8X8X9X6X8X8X8X8X8X7X8X8X7X7X7X7X7X7XqXqXMXMXMXBXBXBXBXBXBXVXVXVXVXVXCXCXAXDXDXDXFXFXFXGXGXGXKXKXKXPXLXLXLXLXLXLXLXLXLXLXLXLXLXLXLXLXLXLXLXFXPXLXLXLXLXLXLXLXLXLXLXLXLXPXPXPXPXKXKXKXKXGXGXFXFXDXDXDXCXCXCXCXCXCXCXVXBXtXtXtXqX8X8X8X8X8X8X8X8X<X8X8X8X<X<XwXwXqXtXtXtXuXyXyXyXiXSXSXSXSXSXJXJXHXHXKXPXLXLXLXLXLXLXLXLXLXLXLXLXLXLXLXLXLXLXLXLXLXPXKX_.uXK.pXY.Y.Y.E.E.U.k.x.x.x.x.x.x.x.x.x.x.k.Q.E.Q.E.E.d.x.x.x.E.E.E.k.k.k.z.z.z.z.z.R.d.R.U.",
"IXGXGXFXFXFXFXFXDXDXDXDXDXDXAXCXCXCXVXVXVXBXBXBXBXBXMXMXMXMXMXMXxXhX7X7X7X7X7X8X8X8X8X6X8X8X8X8X8X8X8X8X8X7X7X7X7X7XqXtXtXtXMXBXtXtXtXBXBXVXVXVXVXVXCXCXCXAXDXDXDXFXFXFXGXGXKXKXKXPXPXPXLXLXLXLXLXLXLXLXLXLXLXLXLXLXLXLXLXDXPXLXLXLXLXLXLXLXLXLXLXLXLXPXPXPXKXKXKXKXGXGXGXFXFXDXDXDXCXCXCXCXCXCXCXVXVXtXtXtXqXqX8X8X8X8X8X8X8X8X<X<X<X<X<XqXqXqXqXtXtXuXyXyXyXCXSXSXSXSXSXJXJXGXHXKXPXLXLXLXLXLXLXLXLXLXLXLXLXLXLXLXLXLXLXLXLXLXPXHXm.uX&XeXY.Y.Y.E.E.U.T.E.x.x.x.x.x.x.x.x.E.k.E.E.E.E.x.d.x.E.x.E.E.E.k.T.k.z.x.k.k.z.U.d.R.U.",
"FXFXFXFXFXFXDXDXDXDXDXDXDXAXAXCXCXCXVXVXVXBXBXBXBXBXMXMXMXMXMXxXMXhX7X7X7X7X7X8X8X8X8X8X8X8X8X8X8X8X7X8X8X7X7X7X7X7XqXtXtXtXMXBXBXBXBXBXBXVXVXVXVXVXCXCXCXAXDXDXDXFXFXFXGXGXHXKXKXKXPXPXLXLXLXLXLXLXLXLXLXLXLXLXLXLXLXLXLXDXPXLXLXLXLXLXLXLXLXLXLXLXPXPXPXKXKXKXKXKXGXGXFXFXFXDXDXSXAXCXCXCXCXCXCXVXVXtXtXtXqX7X8X8X8X8X8X8X8X8X8X<X<X<X<XqXwXqXtXtXtXyXyXyXVXCXSXSXSXSXSXJXJXGXHXHXKXPXLXLXLXLXLXLXLXLXLXLXLXLXLXLXLXLXLXLXLXPXKXHX0.uXW.eXY.Y.v.E.E.U.T.E.E.x.x.x.x.x.x.x.E.R.R.E.E.E.z.d.x.E.x.x.x.E.k.k.k.z.z.z.z.z.U.$.R.d.",
"FXFXFXFXFXFXDXDXDXDXDXAXDXAXCXCXCXCXVXVXBXBXBXBXBXMXMXMXMXMXMXMXhXhX7X7X7X7X7X8X7X8X8X8X6X8X8X8X8X7X7X8X8X7X7X7X7X7XqXtXtXMXMXMXtXBXBXBXBXVXVXVXCXVXCXCXCXAXDXDXFXFXFXFXGXGXGXKXKXKXKXPXPXPXLXLXLXLXLXLXLXLXLXLXLXLXLXLXLXAXPXLXLXLXLXLXLXLXLXLXPXPXPXPXKXKXKXKXKXGXGXGXGXFXFXDXDXAXCXCXCXCXCXCXCXVXVXBXtXqXqX7X8X8XwXqX8X8X8X8X8X<X<X<X8XqXqXqXqXtXtXyXyXyXVXCXCXSXSXSXSXSXJXJXGXHXKXPXLXLXLXLXLXLXLXLXLXLXLXLXLXLXLXLXLXLXLXPXKXHX0.pXW.eXY.Y.v.E.T.Y.E.E.E.x.E.x.x.x.x.x.E.R.k.E.k.E.E.k.x.E.x.x.x.x.d.k.k.k.z.k.k.k.U.$.U.k.",
"FXFXFXFXFXFXFXDXDXDXDXAXAXAXCXCXVXCXVXVXBXBXBXBXBXMXMXMXMXMXMXMXhXhX7X7X7X7X7X8X8X8X8X8X8X8X8X8X8X7X7X7X7X7X7X7X7X7X7XqXtXMXMXMXtXBXBXBXBXBXVXVXVXCXVXCXCXCXDXDXDXFXFXFXGXGXGXHXKXKXKXPXPXPXPXLXLXLXLXLXLXLXLXLXLXLXLXLXPXAXPXLXLXLXLXLXLXLXLXPXPXPXPXPXKXKXKXKXGXGXGXGXFXFXFXDXDXCXCXCXCXCXCXCXCXVXVXBXtXqXqXqX8XqXqXqX7X7X8X8X8X8X<X8X8XqXwXqXqXtXtXtXyXyXVXyXCXSXSXSXSXSXJXJXGXHXKXPXPXLXLXLXLXLXLXLXLXLXLXLXLXLXLXLXLXLXPXKXHXHX0.uXW.W.v.Y.Y.E.T.Y.E.E.E.x.E.E.x.x.x.x.E.U.k.k.R.R.R.k.x.E.x.z.x.R.$.k.k.k.z.k.k.z.U.$.k.U.",
"FXFXFXFXFXFXFXDXDXDXDXAXAXCXCXCXVXCXVXBXBXBXBXBXBXMXMXMXMXMXMXMXhXhX7X7X7X7X7X8X7X8X8X8X7X8X8X7X7X7X7X7X7X7X7X7X7X7X7XqXqXMXMXMXMXtXBXBXBXBXVXVXVXVXVXCXCXCXCXAXDXDXFXFXFXGXGXGXHXKXKXPXPXPXPXPXLXLXLXLXLXLXLXLXLXLXLXLXPXAXKXLXLXLXLXLXLXPXPXPXPXPXKXKXKXKXKXKXGXGXGXGXFXFXFXDXDXAXCXCXCXCXCXCXCXVXVXBXtXtXqXqXqXqXqXqX7X7X7X8X8X8X8X8X8XqXwXqXqXtXtXtXyXyXyXyXCXSXSXSXSXSXJXJXGXHXHXKXPXPXPXLXLXLXLXLXLXLXLXLXLXLXLXLXLXPXKXHXHXGX/ wX&XW.v.Y.v.R.T.k.E.E.E.x.E.E.x.E.E.U.E.k.E.k.E.R.R.d.E.E.x.x.R.R.$.k.k.k.k.k.k.k.k.$.k.R.",
"FXFXFXFXFXDXDXDXDXDXAXAXAXCXCXCXCXCXVXVXBXVXBXBXBXMXMXMXMXMXMXvXxXxX7X7X7X7X7X8X7X8X8X8X8X8X8X7X7X7X7X7X7X7X7X7X7X7X7XqXqXMXMXMXMXBXBXBXBXVXVXVXVXVXVXCXCXCXAXAXDXDXFXFXFXFXGXGXGXKXKXKXKXKXPXPXPXPXLXLXLXLXLXLXLXLXLXLXPXAXIXPXPXPXPXPXPXPXPXPXPXKXKXKXKXKXHXGXGXGXGXFXFXDXDXDXDXAXCXCXCXCXCXCXCXVXVXBXtXqXqXqXqXqX7X7X7X7X7X8X8X8X8X<XqXwXqXqXqXtXtXtXtXyXyXyXCXCXSXSXSXSXSXJXJXHXHXHXKXPXPXPXLXLXLXLXLXLXLXLXLXLXLXLXPXKXHXHXHXJX/ wXeXW.v.Y.v.U.R.Y.E.E.E.E.E.x.x.E.E.E.U.d.E.E.E.E.E.d.E.E.x.x.R.R.$.k.k.k.k.k.k.U.U.k.U.R.",
"FXFXFXFXFXDXDXDXDXDXAXAXCXCXCXCXCXCXVXVXBXBXBXBXBXMXMXMXMXMXMX7XhXxX7X7X7X7X7X7X7X8X8X8X7X8X8X7X7X7X7X7X7X7X7X7X7X7XqXqXtXMXMXtXtXBXBXBXBXBXVXVXVXVXVXCXCXCXAXAXDXDXDXFXFXFXGXGXGXGXKXKXKXKXKXKXPXPXPXLXLXLXLXLXLXLXLXLXPXAXIXPXPXPXKXKXKXKXKXKXKXKXKXKXKXHXGXGXGXFXFXFXDXSXDXDXCXCXCXCXCXCXCXCXCXVXVXBXtXtXqXqXqXqXqX7X7X7XqX8X8X8X8X<XqXwXqXqXqXtXtXtXtXyXyXyXiXyXCXSXSXSXSXSXJXGXHXHXKXKXKXPXPXPXLXLXLXLXLXLXLXLXPXPXKXKXHXHXHXJX/ wXeXW.v.v.v.U.R.v.R.E.E.T.E.E.x.E.E.E.R.d.E.E.R.R.E.k.x.E.x.k.R.R.$.k.k.k.z.k.k.k.U.k.U.U.",
"FXFXDXDXDXDXAXDXDXDXAXAXAXAXCXVXVXVXBXBXBXBXBXBXBXMXMXMXMXMXxXxXhXMXhX7X7X7X7X8X7X8X8X8X8X8X8X7X7X7X7X7X7X7X7X7X7X7X7XqXtXtXMXMXMXBXBXBXBXBXBXVXVXVXCXCXCXCXAXAXDXDXDXFXFXFXFXGXGXGXIXHXKXKXKXKXKXPXPXPXPXLXLXLXLXLXLXLXPXAXIXKXKXKXKXKXKXKXKXKXKXKXKXKXKXGXGXGXFXFXFXDXVXCXCXCXCXVXVXVXCXCXCXCXCXVXVXBXtXtXtXqXqXqXqXqXqXqXqX8X7X8X8X8XqXqXqXqXqXtXtXtXtXyXyXyXyXyXCXCXSXSXSXSXJXGXGXHXHXHXKXKXPXPXPXLXLXLXLXPXPXPXPXKXKXHXHXHXHXJX/ wXeXP.v.v.8.Y.U.$.R.E.T.E.E.E.x.E.E.E.R.Y.R.E.U.U.E.k.E.E.R.T.R.U.$.k.k.k.k.k.k.k.k.k.k.Y.",
"FXFXDXDXDXDXDXDXDXAXAXAXCXCXCXCXVXVXVXBXBXBXBXBXBXMXMXMXMXMXMXMXvX7X7X7X7X7X7X8X8X8X8X8X8X7X8X8X8X8X8X7X7X7X7X7X7X7X7XqXqXqXtXMXMXBXBXBXBXBXBXBXVXVXCXCXCXCXAXAXAXDXDXDXFXFXFXGXGXGXIXGXKXKXKXKXKXKXPXPXPXPXPXLXLXLXLXLXPXAXGXKXHXHXHXHXKXKXKXKXKXHXGXGXFXGXGXFXFXFXDXCXyXqXyXyXwX*X<XyXyXVXVXVXVXVXBXBXMXtXqXqXqXqXqXqXqXqXqXqX7X8X8X8X8XqXqXqXqXtXtXtXtXtXyXyXyXyXiXCXCXSXSXSXJXJXGXHXHXHXHXKXKXKXKXKXPXPXPXPXPXKXKXHXHXHXHXHXHXiX/ wXeXF.8.8.8.Y.U.d.R.E.T.E.E.E.R.E.E.R.R.R.k.U.U.U.E.Y.E.E.z.U.U.U.$.k.k.k.k.k.k.k.d.U.k.k.",
"FXDXDXDXDXDXDXDXAXAXAXAXCXCXCXVXVXVXBXBXBXBXBXBXMXMXMXMXMXMXMXMXvXhX7X7X7X7X7X7X8X7X8X8X7X7X7X7X7X7X7X7X7X7X7X7X7X7XqXqXtXtXMXMXMXBXBXBXBXBXBXBXVXVXVXVXCXCXCXAXAXDXDXDXDXFXFXFXGXGXGXGXKXKXKXKXKXKXKXPXPXPXPXPXLXLXLXLXKXAXFXHXHXHXHXHXHXHXHXHXHXGXJXSXyXSXFXFXSXDXtX=XqXwX-X-X_..X0.<XqXtXVXVXVXVXBXBXMXtXtXqXqXqXqXqXqXqXqXqXqX8X8X8X8XqXqXqXqXqXtXtXtXtXyXyXyXyXyXyXyXiXSXSXSXJXJXGXHXHXHXHXKXHXKXKXKXKXKXKXKXKXKXHXHXHXHXGXJXiX/ wXeXF.7.8.8.Y.Y.$.R.E.E.E.E.E.R.E.E.R.R.U.k.k.R.k.E.Y.z.R.z.T.R.U.$.k.k.k.k.k.k.k.v.U.k.k.",
"DXDXDXDXDXDXAXAXAXAXAXCXCXVXVXVXVXVXBXBXBXBXBXBXMXMXMXMXMXMXMXMXvXhX7X7X7X7X7X7X8X8X8X8X7X7X7X7X7X7X7X7X7X7X7X7X7X7X7XqXtXtXMXMXMXBXBXBXBXBXBXBXVXVXVXVXCXCXCXAXAXAXDXDXDXFXFXFXFXFXGXGXGXKXKXKXKXKXKXKXKXPXPXPXPXPXLXLXIXUXJXHXHXHXHXHXGXGXGXFXGXFXiXwX-X=XwXVXVXCXwXoX-X-X*X*X0.I I / =XqXyXVXVXVXVXBXBXMXMXtXqXqXqXqXqXqXqXqX7X7X8X8X7XqXqXqXtXqXqXtXtXtXyXyXyXyXyXyXyXyXiXSXSXJXJXGXHXHXHXHXHXHXHXHXHXHXHXHXKXKXHXHXHXHXGXJXJXiX( wXeXF.v.v.8.Y.U.$.E.R.E.R.E.E.U.E.R.R.R.k.U.d.E.U.R.Y.z.z.R.T.U.U.$.k.k.k.k.k.k.k.v.k.U.k.",
"DXDXDXDXAXAXAXAXAXAXCXCXVXVXVXVXVXBXBXBXBXBXBXBXBXMXMXMXMXMXMXhXhXhXhX7X7X7X7X7X7X8X8X8X8X8X7X7X7X7X7X7X7X7X7X7X7X7X7XqXtXtXMXMXtXMXMXBXBXBXBXBXBXBXVXVXCXCXCXCXCXAXDXDXDXDXFXFXFXFXGXGXGXGXGXIXHXKXKXKXKXKXKXPXPXPXPXLXIXUXJXGXGXGXGXGXGXGXJXJXSXiXyX=X9.C.oX<X.X'..X`.0.-X<XOX( A A I 0.oX<X<XtXVXVXBXBXMXMXMXMXMXqXqXqXqXqXqXqXqX8XqX7X7XqXqXtXqXtXtXtXtXyXyXyXyXyXyXyXyXiXSXSXSXJXJXGXGXGXHXHXHXHXHXHXHXHXHXHXHXHXHXHXGXGXJXJXyX/ wXwXw.P.v.8.Y.U.8.R.R.E.E.R.E.R.R.R.R.R.k.E.E.E.U.k.U.k.R.z.k.U.U.$.k.k.k.k.k.k.k.d.k.U.U.",
"DXDXDXDXAXAXAXAXAXAXCXCXVXVXVXVXVXBXBXBXBXBXBXBXBXMXMXMXMXMXMXxXhXhX7X7X7X7X7X7X8X8X8X8X8X7X7X7X7X7X7X7X7X7X7X7X7X7X7XtXtXMXMXMXtXMXMXMXBXBXBXBXBXBXVXVXVXCXCXCXCXCXAXAXDXDXFXFXFXFXFXGXGXGXGXGXGXHXKXKXKXKXKXKXKXPXPXPXIXUXFXGXGXGXGXGXJXJXJXSXSXyXyX=X0.E Z.0.m.E A oX*XwX*X0.E I I / 0.m.9X9X*XqXBXBXMXMXMXMXMXMXMXMXqXqXqXqXqXqXqXqXqXqXqXqXqXqXtXtXtXtXtXyXyXyXyXyXyXyXiXSXSXSXJXJXGXGXGXGXGXGXGXHXHXHXHXHXHXHXHXHXGXGXJXJXJXuX/ wXwX7.c.v.8.Y.Y.$.R.R.R.E.R.E.U.R.R.R.U.d.E.E.U.R.k.U.T.T.z.k.U.R.$.k.k.k.U.U.U.k.d.d.k.U.",
"DXDXDXDXAXAXCXAXAXCXCXCXVXVXVXVXBXBXBXBXBXBXBXBXMXMXMXMXMXMXMXhXhXhX7X7X7X7X7X7X7X8X8X8X7X7X7X7X8X7X7X7X7X7X7X7X7X7X7X7XtXMXMXMXMXMXMXMXBXBXBXBXBXBXVXVXVXVXCXCXCXAXAXAXDXDXFXFXFXFXFXFXFXGXGXGXGXGXGXIXKXKXKXKXKXPXPXPXIXUXDXGXGXJXGXJXJXJXSXyX=X=X@X@X0./ / L W W r 0.`.-X.X( E L / A / 0.`.*X=X<X8XqXMXMXMXMXMXMXMXMXtXqXqXqXqXqXqXqXqXqXqXqXqXqXqXtXtXtXtXtXtXyXyXyXyXyXCXSXSXSXJXJXJXJXJXGXGXGXGXGXGXGXHXHXHXHXGXGXGXJXJXJXJXwX) wXwX7.v.v.8.Y.Y.$.R.U.U.R.R.E.U.R.U.R.Y.$.R.E.k.R.d.U.k.U.k.k.U.U.$.k.k.k.U.U.U.k.$.d.k.k.",
"AXAXAXAXAXAXCXCXAXCXCXCXVXVXVXVXBXBXBXBXBXBXMXMXMXMXMXMXMXMXvXhXhXhX7X7X7X7X7X7X7X8X8X8X8X7X7X7X7X7X7X7X7X7X7X7X7X7X7XtX7XxXMXMXMXMXMXMXBXMXBXBXBXBXBXVXVXVXVXCXCXAXAXAXAXDXFXFXFXFXFXFXFXGXGXGXGXGXGXIXIXKXKXKXKXKXPXPXIXUXDXGXJXJXJXJXSXSXSX=X.X0.V..X9.Z J I 5 Z w S 0.( E E E A S E A / 0._.|.<X8XqXqXqXMXMXMXMXMXtXtXtXqXqXqXqXqXqXqXqXqXqXqXqXqXtXtXtXtXtXyXyXyXyXyXyXyXCXSXSXJXJXJXJXJXJXGXGXGXGXJXGXGXGXGXGXGXGXJXJXJXJXSXwX) wXeX7.c.8.8.Y.Y.$.R.R.R.R.U.E.U.U.U.R.k.$.k.U.k.E.d.Y.k.U.k.k.k.U.$.k.k.k.U.U.Y.k.$.d.k.k.",
"DXAXAXAXAXCXCXCXCXCXCXCXVXVXVXBXBXBXBXBXBXBXMXMXMXMXMXMXMXMXvXhX7X7X7X7X7X7X7X7X7X8X8X8X8X7X8X7X7X7X7X7X7X7X7X7X7X7X7X7X7X7XMXMXMXMXMXMXMXBXBXBXBXBXBXVXVXVXVXCXCXCXAXAXAXDXDXDXDXFXFXFXFXFXGXGXGXGXGXGXGXIXIXKXKXKXKXPXIXUXSXJXJXiXSXiXuX-XC.C.9.W 9./ E j Z S 3 2 2 r k L A S V A r r S / ( _.oX*X,X8X9X9X8XMXMXMXMXMXqXqXqXqXqXqXqXqXqXqXqXqXqXqXtXtXtXtXtXtXtXyXyXyXyXyXyXyXSXSXSXJXJXJXJXJXJXJXJXJXJXJXGXGXGXJXGXJXJXJXJXJXSXwX) wXwX7.w.7.8.W.Y.8.R.R.R.R.U.E.U.U.U.R.Y.$.$.k.d.R.d.U.k.k.k.k.k.U.$.k.k.k.U.U.Y.k.8.d.k.k.",
"DXAXAXAXAXCXAXAXCXCXCXVXVXVXVXVXBXBXBXBXBXBXMXMXMXMXMXMXMXMXMXhXhXhXhX7X7X7X7X7X7X8X8X8X8X7X7X8X7X7X7X7X8X7X7X7X7X7X7X7X7XqXqXMXMXMXMXMXMXMXBXBXBXBXVXVXVXVXVXCXCXCXAXAXAXAXDXDXDXDXFXFXFXFXFXFXFXGXGXGXGXGXIXIXKXIXKXKXIXZXSXJXSXiXwXN.9.( 9.E j A I I E Z r Z 2 1 2 w 2 3 j r 5 V S E m.m./ 0.0.'._._._.).].,X,X<X9XqXqX8XqXqXqXqXqXqXqXqXqXqXqXqXtXtXtXtXtXtXtXyXyXtXyXyXyXyXCXSXSXSXSXSXJXJXJXJXJXJXJXJXJXJXJXJXJXJXJXJXJXSXiX<X) wXwX7.w.8.8.Y.v.@.U.R.R.U.U.R.k.R.Y.R.d.d.$.$.k.U.d.Y.k.k.k.k.k.Y.$.k.k.k.U.U.Y.k.8.d.k.d.",
"AXAXCXCXCXCXCXCXVXVXCXVXVXVXVXBXBXBXBXBXBXBXBXMXMXMXMXMXMXMXhXMXhXhX7X7X7X7X7X7X7X7X8X8X8X8X8X8X7X7X7X7X7X7X7X7X7X7X7X7XqXMXMXMXMXMXMXMXMXMXBXBXBXBXVXVXVXVXVXVXCXCXCXAXAXAXDXDXDXFXFXFXFXFXFXFXFXFXGXGXGXGXIXIXIXIXIXKXIXZXSXJXiXeX9.L k w Q L r j Z r j 5 6 2 1 1 1 1 1 1 3 3 , 1 j L E I / I A r Z S J I E / m._./ _.8X8X7XqXqXqXqXqXqXqXqXqXqXtXtXtXtXtXtXtXtXtXyXtXtXtXyXyXCXSXSXSXSXSXSXJXJXJXJXJXJXJXJXJXJXJXJXJXJXSXSXSXiX-X) wXeX7.w.7.8.Y.v.@.Y.R.R.R.U.R.k.R.Y.R.v.Y.$.$.U.Y.k.Y.k.k.k.k.k.U.$.k.d.k.k.U.k.k.8.d.k.$.",
"AXCXCXCXCXCXCXVXVXVXVXVXVXBXBXBXBXBXBXMXBXBXMXMXMXMXMXMXMXMXMXhXhX7X7X7X7X7X7X7X7X7X7X8X8X8X8X8X7X7X7X7X7X7X7X7X7X7X7XqX7XMXtXtXMXMXMXMXBXMXBXBXBXBXBXVXBXVXVXVXCXCXCXCXAXAXDXAXDXDXDXFXFXFXFXFXFXFXFXFXGXFXGXGXFXGXGXIXIXZXCXJXwXn.( k k L Q L r r 3 6 1 1 1 1 1 , * $ > > 1 1 , > 2 5 2 3 5 2 1 1 1 3 r 4 5 A I W L / oX,XqXqXqXqXqXqXqXqXqXqXqXtXqXtXtXtXtXtXtXtXtXtXtXtXtXyXCXSXSXSXSXSXSXSXJXSXSXJXJXJXJXJXJXJXJXJXSXSXSXSXiX=X) wXeXw.c.v.8.Y.v.8.W.R.R.R.R.R.U.U.Y.R.v.Y.$.$.E.k.Y.U.k.k.k.k.U.Y.$.d.d.k.k.U.k.Y.@.$.k.$.",
"AXCXCXCXCXCXVXVXVXVXVXBXBXBXBXBXBXBXBXMXMXMXMXMXMXMXMXMXMXMXMXvXhXhX7X7X7X7X7X7X7X8X8X8X8X7X7X7X7X7X7X7X7X7X7X7X7X7X7X7XMX7XxXMXMXMXMXMXMXBXMXBXBXBXBXBXBXBXBXVXVXCXCXCXCXAXCXAXDXDXDXFXDXDXDXFXFXFXFXFXFXFXFXFXDXFXFXGXAXZXCXiXwXN.M.W E 9.C.W L Z 6 1 1 > > , , > * $ $ , > > , * $ * * * * $ 1 , > > 1 2 1 2 r I S ` '.oX9XqXqXtXtXqXqXqXqXqXqXtXqXqXtXtXtXtXtXtXtXtXqXqXtXyXyXCXSXSXSXSXSXSXSXSXSXSXSXSXJXJXJXJXSXSXSXSXiXiXiX*X!.wXwXw.7.7.8.v.v.8.Y.R.R.R.R.R.U.U.Y.R.v.R.$.$.R.$.Y.Y.k.k.k.k.U.Y.$.$.d.k.k.U.k.Y.@.$.k.$.",
"AXCXCXCXCXCXVXVXVXVXVXBXBXBXBXBXBXBXBXBXMXMXMXMXMXMXMXMXMXhXhXhXhXhXhX7X7X7X7X7X7X7X8X8X8X7X7X7X7X7X7X7X7X7XhXhX7X7XhXhXvXvXxXMXMXMXMXMXMXMXBXBXBXBXBXBXBXBXVXVXVXVXCXCXCXAXAXDXDXDXDXDXDXDXDXDXDXFXFXFXFXFXFXDXyXVXVXtXtX2X8XwX-X9.9.9./ ( ( / S A 2 1 1 * * * , > > $ > , > > $ $ # $ $ $ $ $ 7 $ $ $ $ * $ 1 1 r 0./ ) oX,X8XqXtXtXqXqXqXqXqXqXtXqXqXtXtXtXtXtXtXtXqXqXqXtXyXyXCXSXSXSXSXSXSXSXSXSXSXSXSXSXSXSXSXSXSXSXSXiXSXiXoX) wXwXw.7.7.1.v.v.8.Y.Y.R.R.R.R.U.U.Y.U.8.R.$.k.R.$.Y.U.k.k.k.k.Y.Y.$.$.d.k.k.Y.k.Y.@.$.k.$.",
"AXCXVXVXVXVXVXVXVXVXBXBXBXBXBXBXBXBXBXMXMXMXMXMXMXMXMXMXMXvXMXvXMXhXhX7X7X7X7X7X7X7X7X8X8X7X7X7X7X7X7X7X7X7X7X7X7X7X7XhXtXtXxXMXMXMXMXMXMXBXBXMXBXBXBXBXBXBXVXVXVXCXCXAXCXAXAXDXDXDXDXDXDXDXDXDXDXFXFXFXDXFXSXVXwX-X,Xm._.0.m.0.9.L A w 2 5 r r 2 1 , > > 7 * > > > 7 7 $ > * $ $ @ @ @ # $ $ # # # $ $ $ $ $ * 1 2 j A 0.0.,X7XqXxXxXxXxXqXtXtXtXqXqXtXtXtXtXtXtXtXtXqXwXwXtXyXyXyXCXSXSXSXSXSXSXSXSXSXSXSXSXSXSXSXSXiXSXSXiXiXiXoX) -XwXq.7.7.1.v.8.1.Y.Y.R.R.R.R.U.U.k.Y.$.E.Y.U.U.$.v.U.U.k.k.k.k.v.$.$.k.k.k.U.d.Y.@.d.k.$.",
"CXCXVXVXVXVXVXVXVXBXBXBXBXBXBXBXBXBXBXMXMXMXMXMXMXMXMXMXMXMXMXMXMXhX7X7X7X7X7X7X7X7X7X7X8X7X7X7X7X7X7X7X7X7X7X7X7X7X7X7X7XxXqXMXMXMXMXMXMXMXMXMXBXBXBXBXBXBXVXVXVXCXCXAXCXAXAXAXAXDXDXDXDXDXDXDXDXDXFXDXDXCXCXuX X`._.( E A r r r 3 2 1 1 > > * > > $ $ > > > > > > $ $ $ $ $ $ $ # + + + + # + @ @ # # # # # $ - 2 S A / 0.9X8X7XxXqXMXMXqXtXtXqXqXqXqXtXtXtXtXtXtXqXqX8XwXtXtXyXyXiXCXiXiXSXSXSXSXSXSXSXSXSXSXSXSXSXSXSXiXiXiXiXoX!.wXwXq.7.7.1.v.8.8.Y.Y.R.R.R.R.U.Y.k.U.$.E.R.R.Y.d.v.k.U.k.k.k.Y.v.$.$.d.k.k.U.d.Y.+.d.k.#.",
"VXVXVXVXVXVXBXBXBXBXBXBXBXBXBXMXBXBXBXBXMXMXMXMXMXMXMXMXMXMXMXvXhXhXhX7X7X7X7X7X7X7X7X7X8X8X8X7X7X7X7X7XhX7X7XhXhX7X7XhXxXMXMXMXMXMXMXMXMXMXMXBXNXNXBXBXBXBXBXBXVXCXCXCXCXAXAXAXDXDXDXDXDXDXDXDXDXDXDXAXAXyX*XV.0.I L S r r r r r 3 1 1 > > $ $ $ $ $ $ > > > > > > 7 $ $ $ $ # # # + + + + + + + + @ # # # # $ 1 2 r A '.'.oXoX,X,X,X<XtXtXtXtXtXqXqXqXqXtXtXtXtXtXtXqX8XqXtXtXyXyXyXCXCXVXSXSXSXSXSXSXSXSXSXSXSXSXSXiXSXiXiXiXiX'.^.wXwXq.5.8.1.v.v.8.Y.Y.R.R.R.E.R.Y.Y.Y.$.R.R.R.k.d.v.k.U.k.k.Y.Y.$.$.$.d.k.k.Y.d.Y.o.k.d.@.",
"VXVXVXVXVXVXBXBXBXBXBXBXBXBXBXMXBXBXBXMXMXMXMXMXMXMXMXMXMXMXMXvXhXhXhXhX7X7X7X7X7X7X7X7X8X8X8X7X7X7X7X7XhX7X7XhXhX7X7XhXMXMXMXMXMXMXMXMXMXMXMXBXNXNXBXBXBXBXBXBXBXVXCXAXCXAXAXAXDXDXDXDXDXDXDXDXDXDXDXCXCX-XE W / r j A r r r r 5 1 1 1 > > $ $ $ $ $ $ > > 1 > > 7 $ # # # # @ + @ + + + + + + + + @ # # # # 1 r 2 r ) '.).0.( ).).'.'.qXMXMXtXtXtXtXqXtXqXtXtXtXtXtXVXBXtXtXyXyXVXyXCXCXCXCXSXSXCXSXSXSXiXSXSXSXSXSXSXiXiXiXiXiX].^.-XwXq.5.7.<.c.v.1.Y.Y.R.W.R.E.R.Y.Y.Y.$.R.R.R.k.v.v.k.U.k.k.k.Y.8.8.$.d.d.d.U.d.Y.+.k.d.$.",
"VXBXVXVXBXBXBXBXBXBXBXBXMXBXMXMXBXBXMXNXNXMXMXMXMXMXMXMXMXMXMXMXhXhXhXhX7X7X7X7X7X7X7X7X8X7X7X7X7X7X7XhXhX7X7XhXhXhXhXvXMXMXMXMXMXMXMXMXMXMXNXBXBXBXBXBXBXBXBXBXBXBXAXVXCXCXCXAXAXAXDXDXDXDXDXDXAXAXCXyX-X0./ k L A k A r V 5 5 6 , 1 , 1 > * $ $ $ $ $ > > > > > $ # @ # + + @ + + + + + + + + + + # # # # # * 6 6 I ` ` / ) ` ( 0.0.).qXMXMXMXMXtXtXqXtXqXtXtXtXtXtXVXVXtXtXyXVXVXVXVXCXCXVXCXCXCXSXiXSXSXSXSXSXSXSXSXSXiXiXiXiX].^.-XwXq.5.7.<.v.8.1.Y.Y.R.W.W.R.R.Y.k.Y.$.R.U.U.d.Y.$.k.Y.k.k.Y.Y.$.$.$.d.d.d.Y.d.Y.o.k.d.@.",
"VXBXVXBXBXBXBXBXBXBXBXMXMXMXMXMXMXMXBXNXNXMXMXNXMXMXMXMXMXMXvXxXxXhXvXvX7X7X7X7X7X7X8X7X8X7X7X7X7X7XhX7XhX7X7XhXhXhXhXvXvXMXMXvXMXMXMXMXNXNXNXNXNXBXBXBXBXBXBXBXBXBXBXVXVXVXCXCXCXAXDXDXDXDXDXDXAXAXVXtXC.E I A S I I S r 1 2 2 1 $ $ $ $ $ $ $ $ $ $ $ $ $ > $ $ $ # # # + + # # + + O . + + @ @ + + + + + # # $ > 3 6 6 I ` / S / ).'.9XMXMXMXMXtXtXqXqXqXtXtXtXtXtXVXVXtXtXtXVXVXVXCXCXCXVXCXCXVXCXCXCXSXSXSXSXSXSXSXiXiXyXyXyX).^.-XwXq.5.5.<.P.7.<.Y.Y.Y.R.Y.R.W.Y.d.Y.$.R.U.U.$.Y.8.k.Y.k.k.k.Y.8.$.$.d.d.d.Y.$.Y.O.$.v.$.",
"BXBXBXBXBXBXBXBXBXBXMXBXMXMXMXMXMXMXMXMXMXMXMXMXMXMXMXMXMXMXMXMXhXhXvXvXhXhX7X7X7X8X7X7X8X8X8X7X7X7X7X7X7X7X7XhXhXhXhXMXvXMXMXMXMXMXMXNXNXMXNXNXBXBXBXBXBXBXBXBXBXBXBXVXVXVXVXCXCXAXAXDXDXDXDXDXDXCXwX-X9.I A L A S S j 5 2 1 1 > $ $ $ $ # # # $ # # $ # # $ $ $ @ # # $ # # # @ + O O . + + @ + + + # + + + # # # $ 1 5 3 J / I ( _.oX9XqXMXMXtXMXMXqXqXqXqXqXtXtXBXBXBXtXtXtXyXyXVXVXVXVXVXVXVXVXVXVXCXCXCXCXSXCXCXiXiXyXyXyXyX).^.-XwXq.5.3.1.v.8.<.v.Y.Y.Y.Y.v.W.v.d.Y.8.U.U.Y.$.Y.$.Y.Y.d.k.k.Y.$.$.$.$.d.d.v.d.Y.O.d.v.@.",
"BXBXBXBXBXBXBXBXBXBXMXMXMXMXMXMXMXMXNXMXMXMXMXMXMXMXMXMXMXMXMXMXhXvXMXhXhX7X7X7X7X7X7X7X8X8X7X7X7X7X7X7X7X7X7XhXhXhXhXhXhXMXMXMXMXMXMXNXNXNXNXNXNXBXBXBXBXBXZXZXZXBXBXBXVXVXCXCXCXCXAXAXAXDXDXDXAXVX<XoX( 3 r j r 3 5 3 6 1 1 > 7 $ $ # # # # # # # + O + # $ $ $ $ $ $ $ $ $ # + + O O . . + # # + + + + + + + + # $ $ , 1 5 A / I ( 0.oX8XxXqXtXtXMXMXtXqXqXqXqXtXtXBXBXtXtXtXtXyXVXVXVXVXVXVXVXVXVXVXCXCXiXiXCXiXCXiXyXyXyXyXyX^.^.-XwXq.3.3.1.v.8.<.v.v.Y.Y.v.c 1.v.v.v.$.Y.Y.Y.$.U.$.k.Y.d.k.k.k.$.$.$.d.d.d.d.d.v.O.$.d.@.",
"BXBXBXBXBXBXBXBXBXBXMXMXMXMXMXMXMXMXMXNXNXMXMXMXMXMXMXMXMXMXMXMXhXhXxXhX7XhX7X7X7X7X7X7X7X7X7X7X7X7X7X7X7X7X7X7XhXhXhXhXhXMXMXMXMXMXNXNXNXNXNXBXNXBXBXBXBXBXBXBXZXZXBXBXBXBXBXAXAXAXAXAXAXDXDXCXVXoXoXI I A r 1 2 2 6 1 > > , 7 $ $ $ # + + + @ @ + O + . + # # $ 7 $ $ $ $ $ + + O . . . + + + # # + + . . + + + @ $ # $ * 1 r ` A A / _.,X8XqXqXqXqXMXtXtXtXqXqXtXMXBXBXBXtXtXtXyXVXVXVXVXVXVXVXVXVXVXVXyXCXCXCXiXCXiXiXyXiXiXVX!.^.-XeXq.3.3.<.c.8.<.v.v.Y.Y.v.o.@.v.v.v.$.Y.Y.d.$.U.$.Y.Y.d.d.k.Y.$.$.$.$.$.d.v.Y.v.x d.d.$.",
"BXBXBXBXMXMXMXBXBXBXMXMXMXMXMXMXMXMXMXNXMXMXMXMXMXMXMXMXMXMXMXvX7XhXhXhX7X7X7X7X7X7X7X7X7X7X7X7X7X7X7X7X7XhX7X7XhXhXhXhXhXMXMXMXMXMXMXNXMXNXNXNXNXBXBXBXBXBXBXBXBXZXZXBXBXBXBXVXAXAXAXAXAXAXAXVX*X/ A A r 3 1 , , > * > * $ * $ $ > $ # + + + # + + O + O + # $ $ $ # $ $ $ # + . .       . . . # + + + O . + + + # # + + # $ * 3 5 r A I ) ).9X9X,X8X7XqXtXtXtXqXtXtXtXtXtXtXtXtXBXVXVXVXVXVXVXVXVXVXVXVXVXVXyXyXyXCXyXiXyXyXyXyX!.).<X-Xq.3.3.<.c.8.<.v.v.Y.v.Y.v.@.v.v.v.@.k.k.$.d.U.$.d.Y.d.d.k.k.$.$.$.$.$.d.d.Y.v.9 @.v.$.",
"BXBXBXBXMXMXMXMXMXMXMXMXMXMXMXMXMXMXMXMXMXMXMXvXMXMXhXhXMXMXvXvXhXhXvXhX7X7X7X7X7X7X7X7X7X7X7X7X7X7XhX7X7XhX7XhXhXhXhXMXMXMXMXMXMXMXMXNXNXNXNXMXNXNXBXBXBXBXBXBXBXBXZXBXBXBXVXCXAXAXAXAXAXAXVXBXoX/ r 3 * 2 $ $ $ $ $ $ $ # $ # # $ $ # # # @ @ + + + + + + @ $ $ # + # # + + + . . . . . . . + + + + + . . . . . # # + o + $ * * 6 r r A ` _.).*X9X8X7XxXqXtXtXqXqXqXqXtXtXtXtXtXBXVXVXVXVXVXVXyXyXVXVXVXVXVXVXVXVXVXyXyXyXyXyXyX!.).9X-Xq.3.2.3.c.8.<.v.Y.Y.Y.Y.v.8.v.v.v.@.k.d.$.v.k.$.d.Y.k.k.$.k.$.$.$.$.$.k.d.Y.$.9 $.Y.$.",
"BXBXBXBXMXMXMXMXMXMXMXMXMXMXMXMXMXMXMXMXMXMXMXMXMXMXhXhXhXhXvXhXvXvXhXhXhXhX7X7X7X7X7X7X7X7X7X7X7X7XhX7X7XhXhXhXhXvXhXvXvXMXMXMXMXMXMXNXNXNXBXNXNXBXBXBXBXBXBXBXBXZXZXBXBXVXVXCXAXAXAXAXAXVXtXtXoXA r , $ $ $ $ > $ $ $ # # + + # $ $ $ # # + + # + + + . . + + # + + @ # @ + + . . . . . . . . + @ + + . + + . + + # . . # # $ * 1 Z I E ( )._.oX,X9X7XxXxXxXMXqXqXqXqXqXqXtXtXtXBXVXVXVXVXVXVXVXVXVXVXVXVXVXVXVXyXyXyXyXyXyXyXVX!.).,X=Xq.3.3.3.c.7.<.v.v.v.v.Y.v.v.v.v.Y.@.d.d.$.Y.Y.$.v.Y.d.k.$.d.$.$.$.$.$.Y.d.d.@.z d.k.$.",
"BXBXBXBXBXMXMXMXMXMXMXMXMXMXMXMXMXMXMXMXMXMXMXMXMXMXvXMXhXhXhXhXhXMXhXhXhX7XhX7X7X7X7X7X7X7X7X7X7X7X7X7X7XhXhXhXhXhXvXvXvXMXMXMXMXMXNXNXNXNXNXNXNXNXBXBXBXBXNXNXBXBXZXBXBXZXAXVXAXAXAXAXBX,XoX`.( r 1 , $ $ $ $ 7 $ $ # + + + . + # # # + + + + + . . . . . . + + + + @ # # + + + . . . . . . . + + @ + + + + . + + + + . + + # * 2 r I ( 0.0.'.*X,X7X7X7XtXMXMXxX7XxXqXqXqXqXtXtXBXyXVXVXVXBXVXVXVXVXVXVXVXVXVXVXVXVXyXyXyXyXyXVX!.].9X=Xq.3.2.3.c.7.<.v.v.v.v.Y.v.v.v.v.Y.@.d.v.$.Y.k.@.d.v.d.$.$.v.@.$.$.$.$.Y.$.v.O.@.Y.d.$.",
"BXBXMXMXMXMXMXMXMXMXMXMXMXMXMXMXMXMXMXMXMXMXMXMXMXMXhXhXhXhXhXhXhXhXhXMX7X7X7X7X7X7X7X7X7X7X7X7X7X7X7XhXhXhXhXhXhXhXvXhXvXMXMXMXMXMXNXMXNXNXMXNXNXNXNXBXBXBXBXBXBXBXBXBXBXZXAXAXAXAXAXAXBX,X_.0.S A 3 * $ $ $ $ $ $ # + O . + . + + + + + . . . . . . . . . . . . + + # # + + + + . . .     . . + + + + + + + + + + . + . + + $ $ 1 3 3 3 A ` m.'.,X7X8XqXMXMXMXxXxXxX7XqXqXqXqXtXtXBXBXBXBXBXBXVXVXVXVXVXVXVXVXVXVXVXVXVXyXyXyXBX!.].9X=Xq.3.2.3.7.7.<.v.v.v.v.v.v.v.v.v.Y.@.$.$.$.Y.k.@.d.Y.d.$.$.$.@.$.$.$.d.Y.$.v.+.8.Y.v.$.",
"MXMXMXMXMXMXMXMXMXMXMXMXMXMXMXMXMXMXMXMXMXMXMXMXMXhXhXMXhXhXhXhXhXhXMXhX7X7X7X7X7X7X7X7X7X7X7X7X7X7X7X7XhXhXhXhXvXhXvXvXvXMXMXvXMXNXNXMXNXNXMXNXNXNXNXNXBXBXBXBXBXBXBXBXZXZXAXAXCXAXAXAXBX,X'.0.j 1 3 , * $ $ $ $ $ # # . . . . + + + + + + + + . . .   . . . + + + + # # + + + + . . . . .   . . + + + + + + + + + + + + + + # $ * , * 2 r I ).).oX,X8XxXMXMXMXxXxXhX7XxXqXqXqXtXtXtXBXBXBXtXBXtXVXVXVXVXVXVXVXVXVXVXyXyXyXyXyXtX!.].<X=Xq.2.2.3.7.7.<.v.v.v.v.v.v.v.v.v.Y.@.$.$.$.Y.d.@.d.Y.d.$.$.8.@.$.$.$.d.v.$.d.+.#.d.Y.@.",
"MXMXMXMXMXMXMXMXMXMXMXMXMXMXMXMXxXMXMXMXMXMXMXhXhXhXhXhXhXhXhXhXhXhXhXhXhXhX7X7X7X7X7X7X7X7X7X7X7X7X7X7XhXhXhXhXvXhXhXvXvXvXvXvXMXMXNXNXNXNXNXNXNXNXNXNXBXBXBXBXBXBXBXZXZXAXAXAXAXAXAXAXVX8XoX0.S 1 1 * $ $ $ $ $ # @ + . . . . + + + + . . . + . . . . . . . . . + + + # # + + . . . . .     . + . . . + + + + . . . # # + + # $ $ * * 1 5 J S / / 0X9XMXMXMXMXxXxXhX7XqXqXqXqXtXtXtXBXtXBXBXBXBXVXVXVXVXVXyXyXVXVXVXyXyXyXyXyXqX!.].<XoXq.2.2.3.7.7.<.v.v.v.v.v.v.8.v.v.v.+.$.$.$.Y.d.@.d.Y.k.$.$.d.@.#.#.$.$.$.v.$.@.#.d.d.@.",
"MXMXMXMXMXMXMXMXMXMXMXMXMXMXMXMXvXMXMXMXMXMXMXMXhXMXhXvXvXMXhXhXhXhXhXhXhXhX7X7X7X7X7X7X7X7X7X7X7X7X7X7XhXhXhXhXhX7XhXvXvXvXvXvXMXMXMXNXNXNXMXMXMXMXMXNXNXNXBXBXBXBXBXBXBXAXAXAXAXAXAXAXBXMXqXoX/ 2 , $ # # $ $ + # + . + . . . + + + + . . . . . . . . . . . . . . . + + + + + + + . . . .     . . . . + + + + . . . + # + + # $ $ * , 1 r S S ` I ).0X7XMXMXMXxXxXhX7X7X7XqXqXqXtXMXBXBXBXBXBXBXBXtXBXVXVXVXyXyXyXVXyXyXyXyXyXqX!.;X<X|.9.2.2.3.7.7.,.c.v.v.v.v.v.8.8.v.v.+.$.$.$.Y.d.@.d.Y.d.$.$.d.O.#.#.$.$.$.v.$.@.$.$.$.O.",
"MXMXMXMXMXMXMXMXMXMXMXMXMXMXMXMXMXMXvXMXMXMXMXhXhXhXMXMXvXMXMXMXhXhXhXhX7X7X7X7XhX7X7X7X7X7X7XhX7X7X7XhXhXhXhXhXhXhXvXvXvXMXMXMXMXNXNXNXNXvXMXMXNXMXMXNXNXNXNXBXBXBXBXBXBXZXZXZXAXAXAXAXBXBX7X9X'.I 2 $ # + + + + @ + + + . . + + + + + + . . . . . . . . .   . . .     . . . + . + . . . .     . . . . . O . + . . + + + + + # # # * , 1 r Z / ) 0.'.,X7XxXxXxXxXhXhXhX7X7X7XqXqXtXtXBXBXBXBXBXBXBXtXtXVXVXVXyXyXyXyXyXyXVXyXyX7X!.;X7XOX9.2.,.3.7.7.<.c.v.v.v.v.v.8.8.v.v.@.#.$.$.Y.d.@.d.Y.$.$.$.d.O.#.#.$.$.$.$.d.+.$.d.@.O.",
"MXMXMXMXMXMXMXMXMXMXhXMXhXMXMXMXMXMXhXhXMXMXMXMXhXhXMXhXhXhXhXhXhXhXhXhXhXhX7X7X7X7X7X7X7X7X7X7X7X7X7XhXhXhXhXhXhX7XhXvXvXvXvXvXvXMXNXvXvXNXNXNXNXNXNXNXNXNXNXNXBXBXBXBXBXBXZXZXZXZXAXAXBXBX8X9XoXI 1 $ # + . + . + + @ + . . . + + + + + + . . . . . . . . . . . . . . + + . + . O . . . . . . . .   . O O O + . . . + + # # + # # $ * * 3 Z ` 0.).,X8XhXhXMXMXxXhXhX7X7X7X7XqXqXqXtXBXBXBXBXBXBXBXBXBXBXVXVXVXyXtXyXyXyXyXyXyX8X!.;X8X'.9.2.R q.F.w.,.c.v.v.v.v.v.8.8.v.v.@.#.$.$.Y.$.@.v.Y.$.$.$.d.O.@.@.$.$.v.$.d.n $.d.#.O.",
"MXMXMXMXMXMXMXMXMXhX7X7X7XhXMXxXhXMXhXhXhXhXhXvXhXhXhXhXhXhXhXhXhXhXhXhXhX7X7X7X7X7X7X7X7X7X7X7X7X7X7XhXhXhXhXhXhXhXhXvXhXvXvXMXvXvXvXvXvXvXMXMXMXMXNXNXNXNXMXNXBXBXBXBXBXBXZXZXZXZXAXAXBXBX8X'.` 3 1 $ # + . + . . + . + . . . . . . . O . . . . . . . . . . . . . . + + # . . . O O .   .   . . . . . . O + + . . . + # # # # # + % $ * 1 3 r I ) oX4XhXMXMXMXxXhXhXhX7X7X7XqXqXqXtXtXMXBXBXBXBXtXtXtXBXBXVXyXyXyXyXyXVXyXyXyX8X!.:X8X'.9.2.R q.F.F.+.c.v.v.v.v.v.8.8.v.v.@.#.$.$.k.$.@.d.d.$.$.$.d.O.#.@.$.$.$.$.$.q #.d.#.O.",
"MXMXMXxXhXhXhXhXhX7X7XhXhXhXMXhXhXhXhXhXMXhXhXMXhXMXhXhXhXhXhXhXhXhXhX7X7XhXhXhX7X7X7X7X7X7X7X7X7X7X7XhXhXhXhXhXhXhXhXvXvXvXvXMXvXvXNXNXNXNXMXMXMXMXMXNXNXNXNXNXNXBXBXBXBXZXZXZXBXBXBXBXVXBX,X/ 3 , $ $ # + . . . . . . .   . . .       . . . . . . . . . . . . . . . + + + .     . . .       .       . . + + # # + + # # # + # # + + # * * 5 Z 6 ` 0X,X7XMXMXMXxXhXxXhX7XhX7XqXqXqXtXtXMXMXMXMXBXtXBXtXtXtXBXtXtXVXVXVXVXyXtXtX8X!.;X8X_.9.2.2.w.F.F.,.c.v.v.v.8.v.8.8.v.v.@.#.$.$.k.$.@.$.d.$.$.$.$.O.$.@.8.8.$.d.@.q #.d.} O.",
"MXMXMXxXxXMXhXhXMXhXhXhXhXhXhXhXhXhXhXhXvXhXMXvXhXhXhXhXhXhXhXhXhXhXhXhX7XhX7X7X7X7X7X7X7X7X7X7X7XhXhXhXhXhXhXhXhXvXhXhXvXMXMXvXvXvXvXNXvXvXMXMXMXMXMXNXMXNXNXNXNXNXBXBXBXBXZXZXBXBXBXBXVXqX_.A * , 1 # # + + . . . . .   . . O . . .   . . . . . . . . . . . . . . . . .         .   .               . . . + # # # # # # $ + # # + + # $ * 1 , r / _.8XhXMXMXMXMXhXxXhXxXhX7XqXqXqXtXtXMXMXMXMXBXBXBXBXtXtXtXtXyXyXyXyXtXtXtXtX9X!.;XqX).9.4.2.w.P.F.,.7.v.v.v.v.v.8.v.v.v.8.@.$.$.d.$.@.$.d.$.$.$.$.O.@.$.8.8.@.$.n 9 $.d.#.O.",
"xXMXMXxXhXMXMXhXhXhXhXhXhXhXhXhXhXhXhXhXhXhXhXhXhXhXhXhXhXhXhXhX7X7XhXhXhX7X7X7X7X7X7X7X7X7X7X7X7XhXhXhXhXhXhXhXhXvXhXvXhXvXvXvXvXvXvXvXvXvXMXvXvXvXMXMXMXMXNXNXNXNXNXBXBXBXBXBXBXBXBXBX7XoXL 3 * $ > # # # + . . . . . . . . + + O . .   . . . . . . . . . . . .                 . . .         .     . . . + # + + + # # # . + # + + # # $ $ * r ) ].7XhXxXMXMXMXhXhX7X7XxXqX7XqXqXqXtXMXMXMXMXMXBXBXBXtXtXtXtXyXyXyXtXtXtXtXtX9X~.;XqX0.9.2.>.q.F.5.,.7.v.v.v.v.v.1.c.v.v.1.@.$.$.d.$.@.d.$.$.$.$.$.O.@.$.$.8.@.$.M l #.d.#.O.",
"hXhXxXxX7XxXMXhXhXhX7X7X7XhXhXhXhXhXhXhXhXhXhXhXhXvXhXhXhXhXhXhX7X7X7XhX7X7X7X7X7X8X7X7X7X7X7X7X7XlXhXhXhXhXhXhXhXhXhXhXhXvXvXvXvXvXvXhXhXhXMXvXMXMXMXNXMXMXNXNXNXNXNXBXBXBXBXBXBXBXBX7X8X'.Z * * $ $ # # + + . + + . .   . . + O O . O   .   . . . . . . . . . . .       .       . .         . .     . . . + + + + + # # + + + + . . # + # # $ 1 ) ,XhXxXhXMXMXxXhXhXhXhXhX7X7XqXqXqXqXtXMXMXMXMXBXBXtXtXtXtXtXtXyXyXtXtXtXtXtX,X~.;XqX0.9.2.2.5.w.<.,.7.c.c.v.c.c.1.v.v.c.8.#.@.@.v.@.@.v.d.$.$.$.$.O.@.$.$.v.#.d.+.8 #.$.O.O.",
"vXhXvXxXhXhXhXhX7X7XhXhX7XhXhXhXhX7XhXhXhXhXhXhXhXhXhXhXhXhX7X7X7X7X7X7X7X7X7X7X7X6X7X7X8X7X7X7X6X7XlXhXhXhXhXhXhXhXhXhXvXvXvXvXvXvXvXvXvXvXMXvXvXMXMXMXvXNXNXNXNXNXBXBXBXBXBXBXZXBXBXhX7X,X) Z 1 * $ + # # # . . . .       . . + + . . . . . . + . . . O . . . . . .     . + .     .         . .       .   . . + # # + o + . . . . . o o + + $ * Z 0X8XxXhXMXxXMXMXhXhX7X7X7X7XqXqXqXqXtXtXqXtXMXBXMXBXtXtXtXtXtXtXtXtXtXtXtXtX,X!.;X8X0.9.2.>.5.w.3.<.7.c.c.c.v.c.1.c.v.c.8.@.$.$.d.@.#.v.d.$.$.$.$.O.@.@.$.v.h h #.m #.$.O.O.",
"xX7X7X7X7XhXhX7X7X7X7XhXhXhXhXhXhXhXhXhXhXhXhXhXhXhXhXhX7X7X7X7X7X7X7X7X7X7X7X7X8X8X6X8X7X7X6X6X6X7XlXhXhXhXhXhXlXhXhXhXlXvXvXvXvXMXhXMXMXNXMXvXMXNXMXMXMXMXMXNXNXNXNXNXBXBXBXBXBXBXBXBXhX6X'.A * , * # # # + . . . . .   . # . O + . . . . + + + . . . . O . . . . .     . + + . . . O .   . .       .   . . . # # # + . . . . . + + + + + o $ 1 r ).,X4X7XhXxXMXMXhXhX7X7X7X7X7X7XqXqXqXqXqXtXxXMXMXBXBXBXBXtXtXtXtXtXtXtXtXBX,X!.;X8X0.9.2.2.q.n.3.<.c.c.c.c.v.c.1.v.v.1.@.O.$.@.d.@.#.v.$.$.O.O.O.O.#.@.8.f.N N d.b #.#.g c ",
"hX7XhX7X7X7XhXhX7X7X7XhXhXhXhXhXhX7X7XhX7XhXhXhXhXhXhX7X7X7X7X7X7X7X7X7X8X8X8X8X8X8X8X8X8X6X6X6X6X6X7XhXhXhXhXhXhXhXhXlXhXvXhXvXvXvXvXvXvXvXvXvXNXNXvXMXNXvXMXNXNXNXNXNXNXBXBXBXBXBXBXNXMX7XoX6 1 * $ + # # + .   .   . . $ $ O + + . . . + . . . .   . . .   . .           . + . . . . .   .         . . . O + # + . . . . . . . . + + + + # * 1 1 B ].0X;XMXMXMXhXhXhXhXhX7X7X7X7XqXqXqXqXqXqXMXMXMXMXtXBXBXBXMXBXBXtXtXtXtXtX0X!.:X8X0.0.2.P q.F.3.5.c.c.c.c.c.c.1.c.c.+.<.O.$.@.v.+.@.v.$.$.O.@.y O.#.@.$.h N f v.b #.#.g c ",
"7X7X7X7X7X7XhXhXhX7X7X7XhX7X7XhXhX7X7X7XhXhXhXhXhXhX7X7X7X7X7X7X7X7X7X7X8X8X8X8X6X6X8X8X8X6X6X6X6X6X7X7XhXhXhXhXhXhXhXlXhXvXvXhXhXvXvXvXvXMXvXvXvXMXMXMXNXNXMXMXNXNXNXNXNXNXBXBXBXBXBXNXMXMX,XZ 1 # + . o + + + .     . + > $ # . . .   . . . . .     . . .   . .           . . . . . .   .           . . . . + O # . . . . . + + + + # # # $ * 1 J r J ) ].hXMXvXhXhXhXhXhX7X7X7X7XqXqXqXxXxXxXMXMXMXMXMXBXBXBXMXMXMXtXtXtXtXtX;X!.;X8X0.9.2.R q.F.2.5.c.c.c.c.c.c.1.c.8.c @.+.$.#.d.O.1.v.v.$.$.v.n c @.#.#.v.v.v.v.v O.@.d c ",
"hXhXhX7X7X7XhXhXhXhXhXhXhXhXhXhXhX7X7X7XhXhXhXhXhXhXhX7X7X7X7X7X7X7X7X7X8X8X8X8X8X8X8X6X8X8X6X6X6X6X7X7XhXhXhXhXhXhXhXhXhXhXhXhXhXvXvXvXvXhXvXvXvXvXvXMXNXNXMXMXNXNXNXNXNXNXBXBXBXBXBXNXMX8XoXZ , $ o . . + + + . . . . + $ $ + O       . . .         . . + O .             . . .   . +   . .           . . . + + + . + . . . + # # # + + # * 1 J I ) ) 0X9XMXxXhXhXhXhXhXhXhX7X7X7X7XqXqXxXqXxXMXMXMXMXMXBXMXtXMXtXtXtXtXtXtXtX;X!.;X8X^.9.4.P q.q.2.5.c.c.c.c.c.c.1.c.1.c @.#.@.#.d.c c.v.v.8.$.$.1.O.@.$.v.v.v.v.$.z O.#.z c ",
"hXhX7X7X7XhXhXhXhXhXhXhXhXhXhXhXhX7X7X7X7XhXhXhXhXhXhX7X7X7X7X7X7X7X7X7X8X8X6X8X6X6X8X8X6X8X8X8X8X6X6X6X7XhX7X7XhXhXhXhXhXhXhXhXhXhXhXvXvXvXvXvXhXhXvXvXNXNXvXNXNXNXNXNXNXNXBXBXBXBXBXNXMX8X` E 1 # o . . o # # + O . . + # $ + +       . .         . . . + + + +       . . .   . . . + .     . .       . . . + $ # # + . . . . # % # + # $ $ 1 ` '.0X].2XhXNXxXxXhXhXhXhXhXhX7X7X7X7XxXxXxXxXMXMXMXMXMXMXMXMXMXMXMXtXtXtXtXtXtX;X!.;X<X^.9.2.P 3.n.,.5.c.c.c.c.7.c.@.c.+.+.@.#.$.#.$.c v.v.v.$.$.$.8.O.8.d.v.v.v.v.f.d #.#.x O.",
"hXhXhXhXhXhXhXhXhXhXhXhXhXhXhXhXhXhXhXhXhXhXhXhXhXhX7X7X6X6X7X7X7X7X6X6X6X6X8X6X6X8X6X6X6X6X8X8X8X8X8X6X7X7X7X7XhXhXhXhXhXhXhXhXvXvXvXvXvXvXvXvXhXhXvXvXNXvXNXNXNXNXNXNXNXNXBXBXBXBXBXNXMX6XJ A * # #   . + $ $ + + @ + # # # + .                   . . . + . . O       + + + . . . + + .         .     . .   . $ $ $ # . . . . + % # # $ $ $ $ J ,X8X6XhXNXMXMXhXhXhXhXhXhX7X7X7X7X7X7XqXxXxXxXMXMXMXMXMXMXMXMXMXtXtXtXtXtXtXqX].!.;X8X^.9.2.P q.F.,.5.c.c.c.c.7.c.1.c.+.+.@.@.$.@.$.x c.v.$.$.@.$.8.+.8.v.v.v. . .f.f.#.@.c O.",
"hXhXhXhXhXhXhXhX7XhX7XhXhX7XhXhXhXhXhXhXhXhXhXhXhXlX7X7X7X6X6X7X7X6X6X6X6X8X6X6X6X4X6X6X6X6X8X8X8X8X6X6X6X7X7XlXhXhXlXhXhXhXhXhXhXvXMXvXvXhXvXvXlXlXvXvXvXvXNXNXNXNXNXNXNXNXBXBXBXBXBXBXBXNX,X` r $ # . . # $ $ O . + . . # . . .   . X             . . . + . . O       O O . . . + . . . . . . . .   . . .     . + + o . . . . + # # $ 1 i * , J 8XxXxXNXNXMXxXhXhXhXhXhXhXhXhX7X7X7X7XhXhXxXxXxXMXMXMXMXMXtXMXMXtXtXtXtXtXtXtX].!.;X9X0.9.2.P q.F.,.5.c.c.c.c.8.7.1.v.+.+.@.$.$.O.8.c 8.v.$.$.@.$.1.#.v.d.f.f.y.y.f.f #.@.o.O.",
"hXhXhXhXhXhXhXhXhXhX7XhXhX7XhXhXhXhXhXhXhXhXhXhXhXlX7X6X7X7X7X7X6X6X6X6X6X6X6X6X6X6X6X8X8X6X6X6X8X8X6X6X6X6XhXlXhXhXhXhXlXlXhXhXhXkXhXhXhXhXvXvXvXvXvXvXMXNXNXNXNXNXNXNXNXNXNXNXZXBXBXBXBXNXhX'.Z $ + # # * $ + . .       . . . .     X               . O O   . . . . . # + .   . + .   . # # . . + . . + + + . . .   . + . . . + # # $ * J 1 6 / 8XkXvXvXvXkXkXhXhXhXhXhXhXhX7X7X7X7X7X7XhXhXxXMXMXMXMXMXtXtXMXMXMXMXtXtXqXqXqX).!.;X9X^.9.2.P q.n.,.7.c.c.c.c.1.c.1.c.@.+.+.8.v.c.v.c.I.v.#.#.@.$.<.#.f.u.u.f.y.y.} z #.$.c +.",
"hXhXhXhXhX7XhXhXhXhX7XhXlXhXhXhXlXhXhXhXhX7XhXlXlXlX7X6X6X7XhX7X7X6X6X6X6X8X6X6X6X6X6X6X8X6X6X6X6X6X6X6X6X6X6XlXlXlXlXhXhXlXlXlXhXhXhXlXhXhXhXhXvXvXhXhXvXMXNXNXNXNXNXNXNXNXNXNXNXBXBXBXZXBXhXJ / $ $ > # # + + . .       . . . .                       .   . .   . . . + + .       . . . $ O     + + . . # # . .       + . . + # # # # $ ` !.` 0XhXbXvXvXvXkXkXhXhXhXhXhXhXhX7X7X7X7X7X7XhXhXxXMXMXMXMXMXtXMXtXtXMXMXtXtXqXqXqX(.!.;X9X0.9.2.U q.n.,.5.c.c.c.c.1.c.1.1.1.6.G.G.I.I.M #.f.f.$.@.@.$.<.f.f.f.f.f.y.f.M d #.$.c +.",
"hXhX7X7X7X7XhXhXhXhX7X7XhX7XlXlXhXhXhXhX7X7X7X7X7X7X7X7X6X7X7X6X6X6X6X6X6X6X8X8X8X6X6X4X6X4X4X6X6X8X6X6X6X6X6XlXlXlXlXlXlXhXlXlXlXhXhXlXhXhXhXkXvXvXkXkXvXvXNXNXNXNXNXNXNXNXNXNXNXBXZXZXBXBXhXZ 6 $ $ $ # # + + . . . .     . .                       . .   . . .     . @ # #         . . + .   . + $ + + # # . . . . . . . . + # + + . $ J 0X6XNXNXNXNXNXvXhXhXhXhXhXhXhXhXhXlX7X7X7X7X7X7XhXxXxXMXMXMXMXtXMXtXtXtXtXtXtXtXqXxX!.!.;X9X0.9.W U q.n.R 5.7.c.c.c.1.c.1.1.5.c.6.6.v.@.@.x #.v.$.@.@.$.+.d.v.v.v.$.f.#.c d #.$.x #.",
"hXhX7X7X6X6X7X7XhXhX7X7XhXlX7XlX7XhXhX6X7X7X7X7X7X6X7X6X6X8X6X6X6X6X4X6X6X6X8X8X6X6X6X6X4X6X6X6X8X6X6X6X6X6X6XlXlXlXlXlXlXhXhXlXhXhXkXkXvXkXkXkXkXkXhXhXvXNXNXNXNXNXNXNXNXNXNXNXNXBXBXZXBXNX6X).Z * $ + $ + + + . + . .       .             .       . . O   . .       . + + . . .           . . . + $ @ + # + . . . . . . . + + # # + + > V ].hXkXNXNXNXNXvXkXhXkXhXhXhXhXhXhXlX6X7X8X8X7X7XhXhXxXxXMXMXMXxXMXqXtXMXMXtXqXqXqXqX!.!.0X,X0.9.W U q.n.,.5.c.c.c.c.1.c.1.5.6.+.@.v.v.8.1.c @.$.$.@.@.$.+.v.v.v.v.$.v.c.n d $.$.c #.",
"6X6X6X6X6X6X7X7X6X8X7X7X7X7X7XlXhXhXlX6X6X6X7X7X7X7X6X6X8X6X8X6X6X8X6X6X6X6X6X6X6X6X6X6X6X6X6X6X6X6X6X6X6X6X6XlX6XlXlXhXlXlXhXlXhXhXhXvXvXvXkXkXhXhXhXhXvXvXNXNXNXNXNXNXNXNXNXNXNXNXBXZXZXNXxX,X'.3 # + $ O . + $ + .         .           .         . . .     . .     . . . . . .   X X X     . . + # + . # + . . .       . . + # $ $ * 1 1 ) ) ).6XNXNXNXNXkXhXhXhXhXhXhXhXhXhX6X7X7X7X7XhXhXhXxXxXMXMXxXxXxXxXxXMXMXtXtXqXqXqX!.!.;X*X0./ W U q.q.P 5.c.7.c.c.5.7.1.<.1.+.c.v.v.v.@.+.c.$.$.@.@.$.+.v.v.v.8.$.v.c.+.x #.@.c @.",
"6X7X6X6X6X7X6X7X7X7X6X7X6X6X6XlXhXhXlX6X6X6X7XlXlX6X6X6X6X6X6X6X6X8X8X8X6X6X6X6X6X6X6X6X6X8X6X6X6X6X6X6X6X6X6X6X6X6XlXlXlXhXhXhXlXhXkXkXhXhXhXhXhXkXkXkXvXvXNXvXNXNXNXNXNXNXNXNXNXNXBXZXNXZXBXMXoXr $ + + . + # $ + .             . . .   .         . . .     .   . .   . . + + . .     X       . . + + + + # + . .       . . + # % * 1 > 5 ^._ ^.2XbXvXNXvXkXhXhXhXhXhXhXhXhXlX6X7XhXhXhXhXhXhXxXMXMXMXxXhXxXxXxXxXMXtXMXtXqXxX~.!.;X,X0./ W U q.q.P F.c.c.c.c.7.5.1.@.1.+.v.@.+.c.@.,.c.1.@.@.@.8.+.v.8.8.8.8.8.c.<.x #.@.x O.",
"7X7X6X6X6XlXlX6XlX6XlXlX6X6X6XlXlXlXlX6X6X6X6XlX6X6X6X6X6X6X6X6X6X8X8X8X6X6X6X6X6X6X6X6X6X6X4X6X6X6X6X6X6X6X6X6X6X6X6XlXlXhXhXhXhXhXhXhXhXkXhXkXhXhXkXkXvXvXNXNXNXNXNXNXNXNXNXNXNXNXBXZXZXZXZXBX9XZ A 5 $ + # # + . .     X X     . .   .     X               . . . +     . + .   .               . + + + + + . + . .   . + + # $ * * A I _ ).) ].hXkXkXvXkXkXhXhXhXhXhXhXhXhXlX6X6X7X7XhXhXhXhXMXxXxXMXhXhXxXxXqXxXxXMXMXqXqXqX~.!.0XoX0.9.2.U q.q.P c.c.c.c.7.7.5.1.+.1.+.c.O.o.8.@.+.8.1.$.@.@.$.+.8.8.$.8.@.1.8.1.f #.#.m O.",
"7X6X6X6XlXlXlXlX6X6XlXlXlX6XlXlXlXlX6X6X6X6X6X6X6X6X6X6X6X6X6X6X6X6X6X6X4X4X6X6X6X6X6X6X6X6X4X4X6X6X6X6X6X6X6X6X6X6X6X6XlXlXhXhXlXlXhXhXvXvXkXkXNXNXkXkXvXvXNXNXNXNXNXNXNXNXNXZXNXNXBXZXZXZXZXNXMXj A 5 # + # # + . .                   .                 . .   . O +     . .       .     .   X   . . + + + # . . . + . . + # $ $ 1 t >.q.8X2XhXhXkXkXkXkXkXkXhXhXhXhXhXhXhXhX6X6X8X6X7XhXhXhXhXMXxXxXhXhXhXhXxXxXxXxXMXxXxXqX7X~.!.0X0X0.9.2.U q.q.P c.5.c.c.c.c.7.1.+.1.+.@.8.1.@.@.o.8.1.@.@.@.8.+.$.1.@.@.1.1.$.@.#.#.@.m O.",
"7X6XlXlX6X6X6XlX6X6XlXlX6X6X6X6XlX6X6X6X6X6X6X6X6X6X6X6X6X6X6X6X6X6X4X4X6X6X6X6X6X6X6X6X6X6X6X6X6X6X6X6X6X6X6XlX6X6X6X6XlXlXhXlXhXhXhXhXhXkXvXvXvXvXhXkXhXvXNXNXNXNXNXNXNXNXZXZXBXBXNXZXZXZXZXZXhXZ r > + O + $ . . . .                                     .       .     . O . . .   . . + o     . . . . . # + .   . . . + # $ * 2 v 3.OXhXZXZXZXNXvXkXkXkXkXkXhXlXkXhXhXhXhX6X6X2X7X7XhXhXhXhXhXhXvXhXxXxX7X7XxXxXxXMXxXxXxX7X^ !.,X0X) 9.2.U q.q.P 5.7.c.c.c.c.7.5.,.5.n 8.v.v.@.v.c 8.1.@.@.@.$.n 8.@.@.@.<.1.$.M #.#.@.c O.",
"6XlX6X6X6X6X6X6X6X6XlX6X6X6X6X6XlX6X6X6X6X6X6X6X6X6X6X6X6X6X6X6X6X6X6X6X6X6X6X6X6X6X6X6X6X6X6X6X6X6X6X6X6X6X6X6X6X6X6XlXlXlXlXhXhXhXkXhXkXkXkXvXkXkXkXvXvXNXNXNXNXNXNXNXNXNXNXZXNXNXZXZXZXZXZXZX,Xr 1 1 , + $ $ # + . . .                                 .       . .   . + o . . . . . + # $ + . . . . o + # o . . .   . # % $ * q P 3.0XkXZXZXNXNXkXkXkXkXkXkXkXkXkXhXhXhX6X4X9X6X7XhXhXhXhXhXhXhXvXhXxXhXhX7X7XxXxXMXxXxXxX7X^ !.,X].) 9.W U q.q.U 5.5.c.F.7.c.5.7.+.1.,.c.@.@.8.8.o.8.1.@.@.#.$.c 8.@.@.@.1.@.$.M #.#.+.c O.",
"6XlX6X6X6X6X6X6XlXlXlXlXlX6X6X6X6X6X6X6X6X6X6X6X6X4X6X6X6X6X6X6X6X6X6X6X4X6X6X6X6X6X6X4X4X4X4X6X4X6X6X6X6X6X6X6X6X6X6X6XlXlXlXhXhXhXkXkXkXkXvXNXkXkXNXNXNXNXNXNXNXNXNXNXNXNXNXZXNXZXZXZXZXZXZX4X_ 5 1 $ $ $ $ # + + . . # + .                             .       . . o + # + + @ + + + $ - 2 $ # # + . + + + . . . + + + * $ $ & w q.q.6XZXZXZXZXvXkXkXkXkXkXkXkXkXkXhXhXhX6X4X9X6X6XhXhXhXhXhXhXMXvXvXhXxXhX7XhXxXMXMXxXxXhXhX^ !.,X].0./ 2.U 4.5.U 3.5.7.7.5.5.5.5.+.1.,.c.P.v.8.1.+.8.1.@.@.#.@.@.@.@.@.@.1.@.@.c c #.@.c O.",
"6X6XlX6X6X6X6X6X6XlXlX6X6X6X6X6X6X6X6X6X6X6X6X6X6X4X6X6X6X6X6X6X6X6X6X6X6X6X6X4X6X6X6X4X6X6X6X6X4X4X6X6X6X6X6X6X6XlX6XlXlXlXlXhXhXhXkXkXkXkXvXvXbXvXNXNXNXNXNXNXvXNXNXNXNXNXNXZXNXNXZXZXZXNX].i 1 6 1 1 $ $ $ # O . . . 1 1 # . .                         .     . . . % * * * # # + @ % 3 k l * * $ > $ $ # + + + # + $ & r 2 * * q q.w.NXZXZXZXNXNXkXkXkXkXkXkXkXkXkXkXhXhX6X2X2X6X6X6XhXhXhXhXhXMXMXvXhXhXhX7X7XhXhXxXxXxXhXlX^ !.,X).0.9.2.U q.q.P 5.5.5.5.5.c.5.5.<.7.,.8.@.@.8.1.n 8.1.@.$.@.@.c $.@.@.@.1.@.@.c x #.@.x c ",
"6X6X6X6X6X6X6X6X6X6X6X6X6X6X6X6X6X6X6X6X6X6X6X6X6X6X6X6X6X6X6X4X6X6X6X6X6X6X6X4X6X6X6X6X6X6X6X6X6X6X6X6X6XgX6XlX6XlXlXlXlXlXlXhXhXhXkXkXkXkXvXvXvXvXNXNXNXbXNXNXNXNXNXNXNXNXNXZXZXZXZXNXH 5 Z J J Z 5 6 5 > $ # O     + 6 # +   .             X   X   . . . + . + O + , r q r * * * * ; v U U w ; q t 2 * $ + % $ $ * r q A A 3 2 t ,.OXZXZXZXNXNXbXkXkXkXkXkXkXkXkXhXhXlXlX4X2X9X6X6X6XlXhXhXhXhXxXMXhXhXhXhXhX7XhXhXxXxXxXhXlX! !.,X).) 9.2.U 4.5.P 6.5.5.7.5.5.5.3.1.7.<.v.P.7.1.1.c 8.1.#.@.#.@.n @.@.$.@.@.+.@.m c #.@.c c ",
"6X6X6X6X6X6X6X6X6X6X6X6X6X6X6X6X6X6X6X6X6X6X6X6X6X4X6X6X6X6X6X6X6X6X6X6X6X6X4X6X6X6X6X6X6X6X4X6X6X6X6X6X6X6X6X6X6X6XlXlXlXlXlXhXhXhXlXkXlXkXvXvXvXvXkXvXbXbXbXNXNXNXNXNXNXNXNXZXZXZXZX).@ + O # 5 5 6 7 $ 6 1 $ + .     $ + + o . . . .           X . o # # $ $ @ @ $ 2 A k t * * < q v ,.3.2.P v y P P k k t r t w 2 t U W W W A v ,.,XZXZXZXNXNXbXkXkXkXkXkXkXkXkXlXhXlXlX6X4X6X6X6X6XlXhXhXhXhXxXMXhXhXhXhXhXhXxXxXxXxXxXhX6X! !.,X).) / 2.U q.q.P 3.5.5.5.5.5.5.5.5.7.,.@.@.c.7.8.n 8.@.#.@.@.1.n @.@.@.#.@.+.+.m c #.#.x c ",
"6X6X6X6X6X6X6X6X6X6XlXlX6XlX6X6X6X6X6X6X6X6X2X4X2X6X6X4X4X4X4X4X6X6X6X2X4X6X6X6X6X6X2X4X4X6X6X6X6X6X6XgX6X6X6X6X6X6XgXlXlXlXlXlXlXhXkXkXlXkXkXvXvXvXkXkXvXbXNXNXNXNXNXNXZXZXZXZXZXBX<Xj 1 O O .       O O # $ # O       # * , 1 $ $ + . .   .   .   + $ - < * * $ $ , w A U t * * w t P 3.q.w.q.:.:.5.w.3.P 2.v U t q q U >.2.3.q.2.3.hXZXZXZXNXNXbXkXkXkXkXkXkXkXkXlXhXhXlXgX6X6X6X6XlXlXhXhXhXhXhXhXxXxXvXhXhXhXhXhXxXhXxXhX4X! !.,X^.) / W U q.q.P 3.5.7.5.5.7.1.1.5.7.<.8.1.O.7.1.n 8.@.@.@.@.1.n @.@.@.+.@.+.+.v c +.#.x c ",
"6X6X6X6X6X6X6X6X6X6X6X6XlX6X6X6X6X6X6X6X6X6X6X4X4X6X6X2X4X4X4X4X2X6X6X4X4X4X6X6X6X6X6X4X6X6X6X6X6X6X4X6X6X6X6XgXgX6XlXgXgXgXgXlXlXlXkXkXlXkXvXvXvXvXkXkXvXbXbXNXNXNXNXNXNXNXZXNX,X@X1.z v l 2 ; - 2 -     . . O .       . * 1 1 1 * # + # $ , , * 1 2 2 2 2 , @ * * 3 U U U t * 2 t k P 3.w.P.w.<.3.F.P.w.,.5.P P U e v P :.2.w.w.3.q.ZXZXZXZXNXbXbXbXkXkXkXkXkXkXkXhXlXhXgXlX6X6X6XlXlXlXhXhXhXhXhXhXxXhXhXhXhXhXhXhXxXhXhXhX4X^ !.,X).) / 2.U q.q.P 5.5.c.5.5.c.1.1.1.5.,.c.c.1.1.@.m 8.@.@.$.@.1.n @.@.+.o.+.+.+.v c +.#.c m ",
"4X4X6X6X6X6X6X6X6X6X6X6X6X6X6X6X6X6X6X6X4X6X4X4X4X2X4X2X4X4X4X6X6X6X6X4X4X4X6X6X6X6X6X6X6X4X6X6X6X6X6X6X6X6X6XlXgX6XgXlXlXgXlXlXlXlXlXkXkXvXvXvXvXvXvXvXvXvXbXNXNXNXNXNXZXZXZX;X$ 9 d l z l 8 e 9 w l w ; $   .           $ 1 1 1 1 * * , 1 1 3 w w w w w w 2 , @ , t E U U t 2 t t v :.7.w.P.F.3.7.F.P.F.5.P.F.3.q.v 3.2.,.,.w.w.w.`.ZXNXZXZXbXbXbXbXbXkXkXkXkXkXkXhXkXhXhXlXlXgX6X6X6XlXhXhXhXhXhXhXhXhXhXhXhX7X7XhXhXhXhXhX2X^ !.,X).) / W U q.q.P 5.5.5.5.c.c.<.5.1.5.,.c.c.1.+.@.n 8.@.#.@.@.1.n <.@.+.+.+.+.+.v c +.#.o.m ",
"4X4X6X4X6X6X6X6X6X6X6X6X6X6X6X6XlXgX6X4X4X6X4X4X4X4X2X4X4X4X4X6X6X6X6X6X6X4X6X6X4X4X6X6X6X6X4X6X2X6X6X6X6X6X6XgX6X6XlXlXlXlXlXlXlXhXlXkXkXkXkXvXvXbXvXvXvXbXbXNXNXNXNXZXZXZXvX_ $ % 8 c p z z z v 9 ; 9 p e 3 * . o . # o . , 1 2 2 1 2 * * 2 w w r t t t r r 3 * * k W I U r r t t v :.3.7.P.w.3.7.7.P.P.P.P.P.P.P.P 5.5.2.,.w.w.5.oXZXZXZXZXbXbXbXbXbXvXvXkXkXkXkXkXkXkXhXlXlX6X6X6X6XlXhXhXhXhXhXxXhXhXxXMXxXhXhXhXhXhXhXhX3X~.!.,X).0./ W U 9.q.P 5.5.7.5.7.c.5.5.5.5.,.c.v.1.@.+.c 8.@.@.@.@.1.n @.+.+.+.+.+.+.v c +.+.#.n ",
"4X4X4X4X6X4X6X6X6X6XgX6X6X6XgX6XgXgX6X6X6X6X6X6X4X4X4X4X6X6X4X4X6X6X6X6X6X6X4X4X4X4X6X6X6X6X6X4X2X6X6X6X6X6X6XgX6X6X6XgXlXlXlXlXlXhXkXlXkXvXvXvXvXbXvXvXvXvXbXNXNXNXNXZXZX3Xi * b +.#.#.#.x p m M z 8 9 9 p p p e q 2 3 w * * 1 2 q * 2 * * 2 w w w w t k t t t r q t W I A w t t t v :.:.3.w.7.3.7.7.7.F.F.F.P.P.P.2.3.w.5.3.7.w.5.*XZXZXZXZXbXbXvXbXbXbXvXkXkXkXkXkXkXkXlXlXgX6XgXlXlXlXlXhXhXkXkXkXhXxXMXMXhXhXhXhXhXhXhXkX1X~.!.,X^.) / W U q.q.L 5.5.5.5.5.c.5.5.5.5.,.c.c.<.1.+.c 8.@.@.@.@.1.n 1.@.+.+.+.+.+.b c +.n #.+.",
"4X4X6X6X6X6X6X6X6X6XgXgX6X6X6X6X6X6X6X6X6X4X6X4X4X6X4X6X6X4X4X4X6X4X6X6X6X4X4X4X2X2X4X4X6X6X4X4X2X2X4X6X6XgXgXgXlX6XlXgXlXlXlXlXjXkXkXkXkXvXvXvXvXbXbXvXvXvXbXbXNXNXNXZXZXNXA n f.#.h } } #.z c d z z p 9 9 p d d d p e e w * * ; 2 2 ; 2 * 2 q q q q t t k A t r 2 q U U A t k t t v P o.<.7.3.1.7.7.7.7.w.w.F.F.P.3.,.w.F.w.5.5.3.P N.NXZXZXZXbXvXbXbXkXvXvXvXkXkXkXkXkXgXlXgXgXgX6XlXlXhXhXhXhXkXhXkXkXhXhXhXhXhXhXhXhXhXhX,X~.!.,X^.) / W U 9.q.U 5.5.5.5.F.F.5.5.5.5.m <.7.o.1.+.n 8.@.#.@.@.1.n 1.@.+.+.+.@.@.+.c #.n #.o.",
"6XgX6X6X6X6XgXgX6X6X6XgXgX6X6X6X6X6X4X4X4X2X2X4X2X2X4X2X4X4X2XgXgXfX6X6X6X4X4X4X2X2X4X4X4X4X4X6X4X4X4X4X6XgXlXlXgXlXlXlXlXlXlXlXjXjXkXkXkXvXvXvXbXbXbXvXvXvXbXbXZXZXZXZXZX<Xc.d.h h #.#.#.#.M 8 9 d z d p 8 9 9 z d p p p z w * * ; q * ; * * q 2 q q w w w w w 2 @ 2 t A k k k t t v n :.<.5.3.<.7.7.7.7.7.7.w.c.P.:.,.w.P.w.7.5.2.u y _.ZXbXNXbXbXbXbXvXbXvXvXvXkXkXkXkXlXlXgXgXgXlXlXlXlXhXlXkXkXkXkXvXkXxXhXhXhXhXhXhXhXhX,X~.!.,X^.) / W U 9.4.U 3.w.w.5.F.F.5.5.5.5.R +.c n 1.<.n 8.@.@.@.@.<.n <.<.<.@.+.@.1.b +.@.n f.O.",
"4XgX6X6X6X6X4XgX6X6X6X2X6X4X4X6X4X6X4X2X2X4X4X4X6X2X4X4X4X4X4X4X4XgX2X4X6X6X6X6X4X4X4X4X4X4X6X4X4X4X6X6XgXgXlXlXgXgXlXlXlXlXlXlXjXkXjXkXkXbXvXvXvXbXvXvXvXbXbXbXNXZXZXZXtXI.v.#.#.d.#.#.#.#.#.d 9 9 z d g d p 8 9 8 d p d z z w + * ; 2 * * * 2 * ; 2 ; ; = * ; * * 2 w k t t t t v v m o.3.5.3.3.7.7.7.7.7.F.F.F.F.m ,.5.F.w.5.3.R o & w hXbXbXbXbXbXbXvXvXvXvXvXvXkXjXlXlXgXgXgXgXgXgXlXhXhXlXkXkXhXkXxXkXkXhXhXhXhXhXhXhXhX:X~.!.0X^.) / W U 9.9.U 5.5.5.5.F.F.5.1.5.5.n 7.,.5.1.,.n 1.@.@.@.@.<.n @.@.<.1.+.1.1.b #.@.n f.+.",
"2X4X6X4X2X4XfX4XgXgXgX4XgX6X4X4X4X2X4X4X4X6X4X4X4X4X4X4X4X4X4X6XgXgX4X6X6X6X6X6X6X6X6X4X4X6X6X4X4X4X4X6XgXgXgXgXgXgXlXlXgXlXjXjXjXjXjXkXkXvXvXvXbXbXNXvXbXbXbXNXNXZXNXNXeXv.f.#.f #.f g f f g d 8 : : d g f d 8 9 d 0 d d z z p q 2 ; * * * & < & ; 2 ; < < * * * * < q w t t t t v v m o.<.5.3.3.7.7.w.w.w.F.F.F.,.x ,.5.F.w.5.3.P     & 0XZXbXbXbXbXbXbXvXvXkXvXkXkXkXjXlXgXgXgXgXlXgXlXhXhXkXkXhXlXhXhXhXkXhXhXhXhXhXhXhXhX:X~.!.0X^./ / W U 9.9.P 5.5.5.5.F.c.5.6.5.5.n <.c.1.<.o.n 1.@.+.@.@.,.n @.@.+.@.+.1.1.m O.@.6.#.#.",
"4X4X4X4X4X4XgX4XgXfX6X6XgXgXgX4X4X4X4X2X4X6X2X2X2X2X4X4X4X4X6XgX6X6X6X6X6X6X6X4X6X6X2X2X2X4X4X6X6X4X4X4XgXgXgXgXgXlXlXlXgXlXlXlXjXjXjXkXkXkXvXvXbXbXbXbXbXNXNXZXZXZXNXwXc.h 0 p a g h h f f d d p 8 9 : d f f a 8 9 d d c f c d x e 2 & * & & * * * ; 2 < < * * $ @ < q q t t w t t v m n :.5.<.5.7.7.F.7.F.F.F.F.P m o.3.w.5.3.,.P     o _.ZXZXbXbXbXbXbXbXbXkXvXkXjXjXjXlXgXgXgXgXgXgXlXlXlXhXkXhXlXhXhXhXxXhXhXhXhXhXhXhXhX:X~.!.0X^._ / / U q.9.U 5.w.5.5.F.F.5.6.5.5.,.+.+.o.<.+.n 1.@.+.@.@.,.o.@.@.+.@.+.@.1.x c @.c f.#.",
"4X2X2X4X4X6XgXgXgX4X4X4X4X4XgX4X4X6X6X6X6X6X2X2X2X4X6X6X6X6X6XgX6X6X6X6X6X6X4X2X4X4X4X2X2X2X4X4X2X2X4X6X6XgX6XgXgXgXgXlXlXlXlXlXlXkXkXkXkXvXbXbXbXbXbXbXvXNXNXZXZXZXwXc.#.#.#.#.#.#.M h h } h f d p p 8 9 d f g a a 0 8 d f f f d d ; r * * $ & * & ; q 2 < < 2 2 r < q q w t t t y v m m :.5.<.5.5.7.w.w.w.F.F.F.e z n ,.3.3.,.,.l     ; G.ZXZXbXbXbXbXvXvXvXvXvXkXkXjXjXlXgXfXgXgXgXgXlXlXhXlXkXhXlXhXhXhXxXhXhXhXhXhXhXhXhX;X~.!.,X!._ / W U 9.q.U 5.w.5.q.F.F.3.3.5.5.x 1.+.1.+.,.n 1.@.O.+.+.,.o.@.@.+.+.+.@.@.x O.+.+.#.f.",
"4X2X2X4XgX4XgXgXgX4X4XgX4X4XfXgX6XgX6X4X6X4X2X4X4X4X6X4X4X6XgX6XgXgX6XgX6X6X6X4X2X2X6X2X2X2X4X6X2X2X4X4X4XgXgXgXgXlXlXgXlXlXlXjXjXkXkXvXvXbXbXbXbXbXNXNXNXNXNXNXZXNXI.c.#.#.f.#.#.M f f } } c f f c f d a 8 d g a g g p 9 9 c c g d z ; * * * & * & & 2 2 2 2 2 r 1 * q q 2 t t t y v m m ,.3.,.5.5.w.w.F.F.c.F.5.e e v P ,.,.,.P q X % #.v.xXZXbXbXbXbXvXvXbXvXvXkXkXjXjXlXgXfXfXfXgXgXlXjXkXkXlXkXkXlXhXhXhXhXhXhXhXhXhXhXlX;X~.!.,X^./ / W U 9.9.U 5.5.q.5.F.5.6.5.5.5.m 1.c.<.o.+.,.1.@.O.+.+.o.+.@.@.+.@.O.@.<.x O.+.x M #.",
"2X2X2X2X4X4X6X4X4X4X4XfX6X6X6XgXgXgX4X2X4X4X2X2X2X2X2X2X2X2X6X4X4X4XgXgX6X6X4X4X4X4X6X4X2X6X6X4X2X6X2X6XgXgXgXgXgXlXgXlXlXlXlXjXjXkXkXbXvXvXbXbXbXbXbXbXbXbXbXNXNX&Xc.c.#.+.c g f f f f } f f f f g f f g g a g f f f f d d 9 d c d d p * * 2 ; q t w ; ; 2 2 * + X * q w q q v t t v m m :.3.<.5.5.w.F.w.F.F.F.P u q l v m n n z ; % } a.$.7XZXbXbXbXbXbXbXbXbXvXkXjXjXjXlXgXgXfXfXgXlXlXjXhXlXlXkXkXlXkXkXhXhXhXhXhXhXhXhXhX;X~.!.9X!./ ` W U 9.4.U 5.5.w.5.4.,.<.5.5.5.n +.7.+.+.,.,.1.@.O.o.+.+.+.@.@.+.1.+.@.6.x c @.m M M ",
"2X2X2X2X4X4X2X4X2X4X2X4X6X6X6XgXgXgX4X2X4X6X4X2X2X2X2X2X4X2X2X2X2X4X6XgX4X6X2X2X6X6X4X4X4X6X6X6X4XgX6XgXgXgXlXgXgXgXlXlXlXgXlXlXjXlXkXkXkXkXbXbXbXbXbXbXbXbXbXNX-Xc.f.#.#.g g g a g f f f f g f f f a a f f f f s f f f f f p 9 p d d d w % q e v U U U v t *   X X o q q * 2 t t t v m m ,.3.3.7.5.7.F.F.F.F.F.9 8 8 8 z z z z z p } p.a.$.<XZXbXbXbXbXbXbXbXbXvXkXkXjXjXlXgXfXfXgXfXlXlXjXhXhXjXkXkXkXkXkXkXhXhXhXhXhXhXhXhX;X~.!.9X!./ / W U 9.2.U 5.5.q.F.,.R 2.5.5.5.n m 1.c <.m ,.@.@.o.o.o.n +.@.@.<.1.#.@.1.5.F.F.n.6.M ",
"2X2X2X2X2X2X4X4X2X6XgX4X4X4XgXgX6X6XfX4X2X4X2X2X2X2X2X2X2X4X4X4X2X4XgXgX4X6X6X6X4X2X6X6X6X6XgX6XgXgXgXgX6X6XlXlXgXgXgXgXgXgXlXjXjXjXlXkXkXkXbXbXbXbXbXbXbXbXZXMXI.d.@.M c c M f s s s s g g s f f f f g a a f f f f h h f f f d 8 8 z d p * = n P P P b b w % X X X   m v   < w v v v v n 3.3.5.5.5.7.w.F.F.F.R 9 9 a a f g } }  .X.p.u.i.a.G.ZXNXbXbXbXbXbXbXbXbXkXkXjXjXjXgXfXgXgXgXlXlXlXhXlXlXkXkXkXkXkXkXhXhXhXkXhXhXjXlX].~.!.,X!./ ` / L 4.2.L 5.q.5.F.,.n ,.5.5.4.n x x o.@.z <.<.+.o.o.+.n o.o.+.+.+.O.+.n.w.,.P l 9 9 ",
"2X2X2X2X2X2X4X4X2X4XfXfXfXgXgXgX4X6X4X2X2X2X2X2X2X2X4X2X2XfX4XgX4X4XgXgX6XgXgXgX6X6XgX6X6X4X6X4XgXgX6XgXfX4XgXgXgXgXgXlXgXgXlXgXjXjXjXkXkXkXvXbXbXbXbXbXbXNXNX%Xf.#.f f M M M f f s s s f h } } h h f f g a 8 O.} } f h f f f f d 8 8 p p 9 * v ,.,.P b v ; X X X X X y y X < q v b v v n ,.<.3.<.7.7.w.F.F.q.: 9 9 a a s s ] [ | $.p.u.i.a.v.ZXNXbXbXbXbXbXbXbXvXvXkXjXjXjXlXgXgXgXgXlXlXjXhXhXlXkXhXlXkXhXkXhXhXhXkXhXkXlXjX(.~.!.9X) _ ` / L 4.2.P 5.q.5.F.,.,.,.5.c.4.n m z 1.+.z <.@.+.o.o.+.n O.o.+.o.+.c m z ,.n.B.H.D.D.",
"2X2X2X2X2X2X2X2X2XfXfXgXfXgXgXgX2XgXgXgXgXgXgXgXgX4X4X4X4X6X2XgX4X2X4X6XgXgXgX4X2X2X4X6X6X4X4X6XgX6X4XgXfX4XgXgXgXgXgXgXgXgXgXgXlXlXjXkXkXkXkXkXbXbXbXbXNXZX7Xc.f.+.M +.#.} M h g s s f h } } ] } ] ] ] f f c 8 } } } f f f f } h c 8 8 p 8 ; * ,.2.:.b e & X X X X X q v   < q t P n n ,.,.3.3.3.5.5.F.F.P.k : 9 9 0 a a s ] [ [ $.X.u.i.a.d.NXZXbXbXbXbXbXbXbXvXvXkXkXjXjXgXgXgXgXgXgXgXlXkXkXjXkXhXkXkXhXhXlXlXhXhXhXhXjXlX!.~.!.9X_ ) / / U 4.2.P 4.5.5.F.2.,.+.5.5.4.n n n 1.+.z <.@.o.o.o.+.n +.+.+.+.+.o.n z 8 8 8 z z z ",
"2X2X2X2X2X2X2X2X2XgXgXgXgXgXgXgXgXgXgXgXgX6X6XgXgX4X2X2X2X2X2X2X2X2X2X2X2X4X4X4X2X2X2X6X6X4XgX6XgX6XgX4XfX2XgXlXgXgXgXlXgXgXgXlXlXjXjXkXkXkXkXkXbXbXbXNXNXZX{.v.#.#.#.#.#.f g g g s h f h ] s s ] ] ] ] } } } #.8 } #.} } d f f } O.c 8 8 p 9 % w :.:.n w o X X X X X q >.@ $ 2 t P P <.<.<.3.3.5.w.F.P.P.,.& = u 9 0 a a ' s  .] | X.....u.a.L.xXZXbXbXbXbXbXbXvXvXkXkXjXlXgXgXgXgXgXgXlXlXjXlXjXkXkXkXkXkXkXhXhXhXhXhXhXhXgX!.~.!.,X_ 0.9.W U 4.2.P 4.5.5.5.2.6.,.c.c.2.n n ,.,.+.z <.+.o.+.o.+.m +.+.+.+.n n n m c x z z d 0 ",
"2X2X3X3X4X4XfX4XfXgXgXgXgXgXfXgXgX6X6X4X4X2X2X6X6X2X2X2X2X2X2X2X2X2X2X2X2X4X4X4X2X4XgXgXgX6X6X6X6X4X4X4X6XgXgXgXgXgXgXlXlXlXlXlXlXlXjXkXkXkXkXkXbXbXbXbXZXMXc.#.M M M M h g g g g f h h h h s s s ] } } ] ] ] } #.8 } #.} f g f h } M c 8 d z & o ; P n q X X X X X X q >.<   + * l :.3.<.,.,.3.7.7.P.K.F.9 = : : 9 9 0 a ' a  .]  .{ [ { { { X.n.ZXbXbXbXbXbXbXbXkXkXkXjXgXgXgXfXgXgXlXlXlXjXjXkXkXkXkXkXkXkXhXhXhXhXhXlXgXgX!.~.!.,X_ ( I U U 2.2.U 3.q.5.5.4.6.,.n.n.,.c ,.1.o.+.z 6.+.O.+.o.+.m +.+.+.+.o.o.z n O.O.c g c c ",
"2X2X2X2X4X2X2X2X2X2X2XfX4X4X4XfX4X4X2X2X2X2X2X2X2X2X2X2X4X2X2X2X2X2X2X2X4X6X6X6X4X4XfXgX4X4X2X4X2X2X4X4X4XgXgXgXgXgXgXlXlXlXlXlXlXlXjXjXkXkXkXvXbXbXbXbXbX9Xf.h M M M c f g g g g f h h h } } ] ] ] ] ] ] ] ]  . .#.d #.#. .h f g f o.M M p d e * o * q %   X X X X X < >.r . . + % ; w w w t v b R 4.n.b 9 = : 8 d a 0 a s a ' ' [ [ [ p.a.[ [ ] 8XbXbXbXbXbXbXbXkXkXkXjXlXgXgXgXgXgXlXlXlXjXjXjXkXkXkXkXkXkXkXhXhXhXhXlXgXlX!.~.!.,X_ / E U U 2.2.P 3.5.5.3.5.2.,.n.5.,.M c.5.m +.z 1.+.O.+.o.+.m +.+.+.+.+.<.+.+.+.O.O.O.O.O.",
"2X3X2X2X2X2X3X2X2X4X4X4X2X2X2X2X2X2X2X2X2X2X2X2X2X2X2X4X2X2X2X6X2X4X2X2X2X6X6X6X4X2X4XgX4X4X2X2X2X2X4X2X2X6XgXgXgXgXgXlXgXlXlXlXlXlXjXjXkXkXkXkXbXbXbXbXNXL.#.M M M M f g g g g g s h } } } } } } } ] } ] ] ] ]  . .} d #.| | } f x c h h f d p 9 * o X     X X X X   * U q . . + @ $ $ $ * * * * , 1 - n 9 : : 9 a } 0  .[ ' a ' ' [ u.u.a.{ { | 7XbXbXbXbXbXbXvXkXkXjXjXlXlXgXgXgXgXlXlXjXjXjXkXlXhXkXkXkXkXhXhXhXhXhXlXgXgX~.~.!.,X_ / E I U 2.W P 5.5.5.4.5.3.P n 4.2.+.c.5.c +.v 6.+.O.+.o.+.m +.+.+.+.+.+.+.+.+.@.#.#.O.O.",
"fX2X3X3X2X2X2X2X2X2X4X2X2X2X2X2X2X2X2X2X2X2X2X2X2X2X2X2X2X2X2X2X2X4X2X2X2X4X6X2X6X2X4X6X2X2X2X2X2X2X2X2X4X4XgXgXgXgXgXlXlXlXlXlXlXlXjXjXkXkXkXvXvXvXbXNXMXc.M M M M c d d g g g g s h } } } } } }  . . .] ] ] ]  . . .f d | | | | } f g f f h d 9 ; %     X   X X X X % t e * , 2 2 2 , % o % # $ $ * r e 8 : 9 9 a s a ' ] ] ' [ [ X.....u.a.a.d.vXbXbXbXbXbXbXvXkXkXjXjXlXgXgXgXfXfXgXjXjXjXjXjXlXlXkXkXkXkXhXhXhXhXlXlXgXfX~.~.(.,X_ / U U I 2.W P 3.5.q.3.5.5.n R 2.R <.1.5.n +.v <.+.O.o.o.+.m +.+.+.+.+.+.O.@.O.@.O.O.} O.",
"aX2X3X2X2X2X2X2X2X2X2X2X2X2X4X2X2X2X2X2X2X2X2X2X2X2X2X2X2X2X2X2X2X4X4X2X2X2X2X4X2X2X2X4X2X4X2X2X4X4X2X4XgXgXgXgXlXgXlXlXlXlXlXjXjXjXjXjXkXkXkXvXvXbXbXNX,X#.M M M c d d d g g g g s h } } } } } }  . . . .] ]  .]  .}  .d s  .| | f.#.f g f f c z 8 $           X X X % z x m v v U U U A r - $ # $ $ - : 9 d 9 u 9 9 0 0 0 s { ......{ { [ ..a.d.NXbXbXbXbXbXbXvXvXkXjXjXlXlXgXlXgXgXlXjXlXjXlXjXlXjXkXkXkXkXhXhXhXhXlXlX6X4X~.~.(.,X) / U U E 2.W W 3.3.5.2.5.5.,.4.,.R 5.y ,.n ,.z <.+.c o.o.+.m +.+.+.,.+.+.O.#.O.O.O.O.' ' ",
"2X2X3X2X3X2X2X2X2X2X2X2X2X2X2X2X2X2X2X2X2X2X2X2X2X2X2X2X2X2X2X2X4X4X4X2X2X2X2X4X4X2X2X4X2X4X6X2X2X2X6X4X4XgXgXgXlXgXlXlXlXlXlXjXjXjXjXjXkXkXkXkXbXbXNXNX.X+.M M M c d d d d f g g s h } } } } } }  . .|  .] ]  . .[ ]  .} a ] } | | | } f g f f x z ; .           X X q x f #.O.+.o.n :.,.2.,.P L L L : 9 9 a d a a 0 0 0 a s { { ....[ [ [ ..a.p.6XbXbXbXbXbXbXvXvXkXjXlXlXlXgXgXgXlXlXlXlXlXlXlXjXkXkXkXhXlXhXhXhXlX6XlX6XfX~.!.(.0X) / I L W 4.W W 2.3.5.,.5.5.6.5.R P n z ,.n ,.v <.o.o.o.n +.v +.+.o.,.o.o.O.#.O.x O.f f f ",
"aXfX2X2X2X2X2X2X3X2X2X2X2X2X2X2X2X2X2X2X2X2X2X2X2X2X2X2X2X2X2X2X2XgX4X4X6XgX4X4X4X2X2X2X2X6X2X2X2XgXgX4XfXgXgXgXgXgXlXlXlXlXlXjXlXjXlXjXkXkXkXkXbXbXNXNXn.M c c M c d d d d f f g g s f }  .} }  . . .|  . . .]  . . . . .h a ] { | | | f f 8 d d d p ; .           X c f f #.}  .#.#.+.,.2.2.3.5.F.P.p 8 9 0 9 0 a a a a s ' ' ' [ [ ] ] { a.p.[ ,XbXbXbXbXbXbXvXvXkXjXjXlXgXgXgXgXlXlXjXlXlXjXjXjXjXkXhXhXhXhXhXlXlX6X6X6XfX~.!.;X0X!./ U U / 4.W W 3.3.q.3.5.5.6.5.2.v z z o.o.+.v ,.o.o.o.n n m +.+.o.o.o.n O.O.x c x O.f O.",
"2XfX2X2X2X2X2X2X2X2X2X2X2X2X2X2X2X2X2X2X3X2X2X2X2X2X2X2X2X2X2X2X2XgX4X4XgXgX4X4X4X2X2X4X6X6X2X4X2XgX6X4X4XfXgXgXgXgXgXlXlXlXlXlXjXjXjXjXkXkXkXkXbXbXNXNX,.c c c M d d c d d f f g f s s s } } }  . . . .|  . . . . . . . .} f g [ | | p. .f c ; 8 d d 8 o           - @.#.} } } #.#.#.#.$.1.<.3.5.F.3.9 a a 0 0 0 0 0 0 0 a s ' ' ' ' ] { u.u. .[ 9XbXbXbXbXbXbXbXvXjXjXjXlXgXgXfXgXlXlXjXjXlXjXjXjXjXkXkXkXhXhXhXhXlX6X6X4X2X~.~.;X;X!./ U S / ( E W 2.5.q.5.5.5.3.5.4.l b n n n ,.v <.+.o.o.n +.m o.+.o.o.O.@.v.@.x d d x d x ",
"4X2X2X2X2X2X2X2X2X2X2X3X2X2X3X2X2X2X2X3X3X3X2X2X2X2X2X2X2X2X2X2XfXgX2X2XgX6XgX6XfX2X2X4X6XgX4X2X2XfX2XgXgXgXgXgXgXgXgXgXlXlXlXlXlXjXjXjXjXkXkXvXbXbXZXNX+.c c c c d p p d d g g f h } h h h ] } }  . . . . . . . . .] ]  . . .a ] { { | X.} h z o = p p ;           8  .} f s } } #.$.$.$.$.$.@.5.w.:.: 9 a a a a a a s s s ' ' ' ' [ ....u...' { 8XbXbXbXbXbXbXbXkXkXjXjXlXgXgXgXgXlXlXjXjXjXjXlXlXlXkXjXkXkXhXhXlXlX4X2X2X2X^ ~.;X;X!./ I A / 4.E W 2.4.4.5.5.5.2.5.4.l ,.<.m o.,.v <.o.O.o.o.+.m +.8.v.W.W.E.E.$.8 8 e z z z ",
"2X2X2X2X2X3X3X3X3X2X2X2X2X3X3X3X3X2X3X3X3X3X2X2X2X2X2X2X2X2X2X2XfXfX2X6XgXgXgX4XfX2X2X2X2X6X2X2X2X2X4XgXgXgXgXgXgXgXgXgXlXlXlXlXjXjXjXjXjXkXkXvXvXbXZXNX6.c c d c p p p d d g a a a f } } } ] ]  . . .| |  . . . . .[  .]  .} f s ] { X.X.| ] } 8 = o : p % 1       8 } f g g ' } }  .| $.X.X.X.d.c.o.p 9 9 a a s s s s ] [ { { { ........[ [ { p.xXbXbXbXbXbXbXvXkXjXjXlXgXfXgXgXgXjXjXjXjXjXlXlXlXlXjXlXkXkXhXlXlXgX6X2X2X3X! ~.;X;X!.` I A / / E 2.2.4.4.5.q.5.,.5.4.v 5.5.n ,.o.v ,.O.O.+.8.v.v.Y.Y.Y.Y.Y.Y.k.Y.c.8.8.8.1.<.",
"2X2X2X2X3X2X3X3X2X3X2X3X3X3X3X3X3X3X3X3X3X3X2X2X2X2X2X2X4X2X2X2X2X2X2X2X4X4X2X2XfX4XfX4X4XgX2X2XfXfXgXgX2XgXgXgXgXgXgXgXlXlXlXjXjXjXjXjXkXkXkXvXbXbXZXNX,.c c d c p p p d d d f g s a a g } } ]  . .|  .} ]  . . . . . . .] ] } a s [ | p.p.| } d 9 & o & - 5 r   & M } g s ] ] ] } }  . .X.X.p.d.d.d.#.g 9 0 a s s s ' p.| ' ' { ..{ ' ' ] { ..p.hXbXbXbXbXbXbXvXvXjXjXjXgXfXfXgXgXgXjXlXjXjXjXjXjXjXlXjXkXkXlXlXlX6X2X2X2X1X! !.;X;X!.` I A / ( I W 4.q.4.5.5.5.P 4.2.b c.5.n ,.n m P.W.W.E.E.E.E.E.R.R.R.U.U.Y.Y.Y.Y.U.U.R.R.",
"2X2X2X2X3X2X3X3X2X3X3X2X3X3X3X3X3X3X3X3X3X3X2X2X2X2X2X2X2X2X2X2X2X2X2X2X2XfX2XfXgX4XgX2X2XfX2X2X2XfXgXfX2XgXgXgXgXgXgXgXlXlXlXjXjXjXjXjXkXkXkXvXbXbXbXMXn d c f c p p p d d f f g s h } } g g } }  .| | | | } ] ]  . . . . .} ] d s ] { X.X.#.} f p 9 % o % # 5 1 z #.#.} ' s ] | X. .}  . .X.a.d.| d.p.a.$.a s s s s s ] a.u.......[ [ [ ..u.a.a.7XbXbXbXbXbXvXvXvXjXjXgXgXfXfXfXfXgXlXjXjXlXjXjXjXlXlXlXkXhXlXlXlX6X2X2X2X:X! !.;X;X) ` I A / ( I 2.4.q.2.5.5.5.R 4.2.b m ,.+.:.n :.Y.Y.U.U.R.R.R.R.W.W.E.E.E.E.E.E.E.R.E.E.E.",
"2X2XaX2X2X2X3X2X3X2X2X2X2X2X3X3X3X3X3X3X3X3X3X3X2X2X2X2X2X2X2X2X2X2X2X2X2X2XfXfXgXgXgX2X2X2XfXfX2XfXgXgXgXgXgXgXgXgXgXgXlXjXjXjXjXjXjXjXkXkXkXkXvXbXbXhXn d c c c d p p d a a g g f } #.#. .} f s a f } | | |  .] ] ]  . . .} h f 8 s [ | | #.} M d 8 : % o . j k M } f f ] ] [ [ X.X.X. .[ p.a.a.X.p.s.s.| a ] ] ' s ' ' ] ..i.s.a.a.i.a.i.s.a.d.8XnXbXbXbXbXvXvXkXjXlXgXfXfXgXfXgXlXjXjXjXjXjXjXlXlXlXjXkXkXlXlXlXgX2X2X2X:X! !.;X;X) ` I A / / U 2.2.q.2.q.5.5.R 4.2.v z m <.P n +.Y.U.Y.Y.Y.Y.Y.Y.Y.Y.Y.Y.Y.Y.U.U.U.U.R.R.R.",
"2XaXfXaX2X2X2X2X2X3X3X3X3X3X3X3X3X3X3X3X3X3X3X2X2X2X2X2X2X2X2X2X2X2X4X2X2X2XfXfXgXgXgX2X4X4XgXgXgXgXgXgXgXgXgXgXgXgXgXgXjXjXjXjXjXjXjXjXjXkXkXzXbXbXbX8Xc c c c n p p p d d a g g s f #.#.| |  . .} f f f f | [ s s ] ] ] ] ] ] g 8 p ] | |  .#.f c d 9 = & % o p h #.#.} ] | | X.X.X...X.X.a.a.{ u.u.s.s.a s ' ' ] ' ' ] ] ] [ { X...........a.d.hXZXbXbXbXvXvXvXkXjXlXgXfXfXgXgXgXjXjXjXjXjXjXjXjXjXjXjXlXkXlXlXlX6X2X2X3X:X^ !.;X;X) I I A / / U R 2.4.2.q.4.5.,.6.,.v m d <.n n +.U.U.U.Y.Y.Y.Y.Y.Y.Y.Y.Y.Y.Y.Y.Y.Y.Y.Y.Y.Y.",
"aXaXaXaX2X2X2X3X3X3X3X3X3X3X3X3X3X3X3X3X3X3X3X2X2X2X2X2X2XaXaXfX2X2XaX2XfXgXgX4XgXgXgXgXgXgXgXgXgX4XgXgXgXgXgXgXgXgXgXgXlXjXjXjXjXjXjXkXkXkXkXbXbXbXbXhXc c c M n d p p p d a g g s s f h }  .| | | | } f f a h  .s s s s ] ] s s 9 u d } } } } f h f 8 : : & & d #. .} h ] ] { { X.p.X...X...a.s.i.i.i.X.0 ] [ ] ] ] ] ] [ [ [ [ [ [ [ { { [ a.v.ZXbXbXbXbXbXvXvXkXjXjXgXfXgXgXgXgXjXjXjXjXjXjXjXjXjXjXlXlXlXgXlXlX6X2X3X:X;X~.!.;X;X) ` U A / / U 2.2.4.4.4.P 5.R 4.2.b <.n ,.n n @.R.U.Y.Y.Y.Y.Y.Y.Y.Y.Y.Y.Y.Y.Y.Y.Y.Y.Y.Y.Y.",
"aXsXaXaX2X2X3X3X3X3X3X3X3X3X3X1X3X3X3X3X3X2X2X2X2X2X2X2X2XaXaXaXaXaXfXfX2XgXgXfXfXfX2XgXgXgXgXgXgXgXfXgXgXgXgXgXgXjXlXgXlXjXjXjXjXjXjXjXkXkXkXzXbXbXbXNXR c c +.c d p p d d a g g s s h s h ] }  .| | f.f.$.$.| | | { { |  . .} } f 8 9 f f f h h g #.d : = & : f } f f #. .| | { ..u.u.u.s.s.s.s.i.s.i.{ p.} ] { ......u...................[ a.-XnXbXbXbXbXbXvXvXkXjXjXjXgXgXgXgXgXjXjXjXjXjXjXjXjXjXlXlXlXlXlXgXgX6X2X3X3X;X^ !.;X;X) ` I A / / U ,.2.2.4.2.P 5.R 4.2.P 5.<.n n m @.U.U.Y.Y.Y.Y.Y.Y.Y.Y.Y.Y.Y.Y.Y.Y.Y.Y.Y.Y.Y.",
"sX2XaXaXaXaXsX3X3X3X2X2X2X3X3X3X3X3X2X3X2X2X3X2X2XaX2X2XaXfXgXfX2XfXfXgXfXfX4X4X4X4XfXgXgXfXgXgXgXgX4XgXgXgXgXgXgXlXlXjXjXlXlXjXjXjXjXkXkXkXzXzXbXbXbXZX9.z c +.z p p p p d d g g f h } } } } }  .| | | | | | | | | | | | |  . .] ] } d 9 s s s h g p c p : & : c g f } } s X.p.X...u.i.i.s.i.i.i.i.i.s.g.z.f.g s [ u.i.u.i.i.u.u.u.u.u.u.....a.wXZXbXbXbXbXbXbXkXjXjXjXjXjXgXgXgXgXjXjXjXjXjXjXjXjXlXlXlXlXlXgXlX6X6X2X3X3X;X^ !.;X;X) ` I A ( W L 2.2.2.4.2.,.3.R 2.2.b ,.3.b n m @.Y.Y.Y.Y.Y.Y.Y.Y.Y.Y.Y.Y.Y.Y.Y.Y.Y.Y.Y.Y.Y.",
"sXsXsXaXaXaXaX2X3X3X2X3X3X3X3X3X3X3X2X2X2X2X2X2X2X2XaX2XaXaXfX2XfX4XfXaXgXfX2XfXfXfXgXgXgXfXgXgX4XgX2XgXgXgXgXgXgXgXlXlXlXlXjXjXjXjXjXjXkXkXzXzXbXbXZXZX4.d M +.c d p p d d d g g s h f h ] } } }  . . .| | | | | | | | |  .] ] ] ] ] } a a s f a g 9 p d p & 9 9 u 9 8 a } X.p.p.p.p.i.s.i.i.s.h.s.h.h.g.j.#.9 a s ] u.u.i.i.s.i.i.u.u.u.u.u.a.K.ZXbXbXbXbXbXbXvXjXjXjXjXjXgXgXgXgXjXjXjXjXjXjXlXlXlXgXlXlXgXlXgXgX6X2X3X3X;X~.~.;X;X) ` I A ( / U W 2.2.3.2.R 2.R 2.2.l z R n n m <.U.Y.Y.Y.Y.Y.Y.Y.Y.Y.Y.Y.Y.Y.Y.Y.Y.Y.Y.Y.Y.",
"aXaXaXaXaXaXaXaX2X2X2X3X2X3X3X3X3X2X3X2X3X2X2X2X2X2X2X2XaXaXaXaXaXaXaXfXaXaXaXfXfXfXgXgXfXfXfXfXfXgX4XgXgXgXgXgXgXgXgXlXlXlXjXjXjXjXjXjXjXkXkXkXbXbXZXZXQ p c +.c d p p d d d g g f h } } ] ] }  .| | | | | | | | |  .{ [ ] ] ] ] s s s a 0 a f 9 g 9 9 p p 8 d c c c f } | { X.p.p.d.a.a.i.i.i.s.s.h.h.g.z.g d 9 a [ { { ....u.i.i.u.u.u.u.i.a.d.7XnXbXbXbXbXbXbXjXjXjXjXjXgXgXgXgXjXjXjXjXjXjXgXgXgXgXlXgXgXgXlXgXgX3X3X3X;X~.~.;X;X) ` I A / / U 2.2.2.4.2.2.,.P 2.2.e z m R n m 1.U.U.U.Y.Y.Y.Y.Y.Y.Y.Y.Y.Y.Y.Y.Y.Y.Y.Y.Y.Y.",
"aXaXaXfXfXfXaXaXaX2X3X3X3X3X3X1X3X3X3X3X3X3X3X3X2X2X2X2X2XaXaXaXfXgXaXaXaXaXfXfXfXfXgXfXfXfXfX2X2X4X2X2XfXgXgXgXgXgXgXgXlXjXjXjXjXjXjXjXjXkXkXkXbXbXZXZXR p c M d p p p d d d g g s f } } } } }  . .| | | | | | |  .[ [ ] ] ] s ] ] ] ] s a 9 a 9 0 9 : p p 9 p g | } } ' ' ] ]  .| p.a.a.s.g.i.i.i.h.s.g.g.9 g 0 s { [ [ { ......u.u.......u.a.a.K.nXbXbXbXbXbXbXkXjXjXjXjXjXjXjXjXjXjXjXjXjXjXlXlXlXlXgXgXgXgXgX4X4X2X3X3X;X! ~.;X;X) ` I A / W U 2.2.2.4.2.2.R P R 4.L P z ,.n m 1.W.W.U.U.Y.Y.Y.Y.Y.Y.Y.Y.Y.Y.Y.Y.Y.Y.Y.Y.Y.",
"aXaXfXaXaXaXfXaXaX3X3X1X1X1X3X1X3X3X3X3X3X3X3X2X2X2X2X2X2XaX2X2XaXaX2X2XfXaXfXfXfXfXfXfXfXfXfX2X2X2X2X2XfXgXgXgXgXgXgXgXjXjXjXjXjXjXjXjXkXkXkXzXzXbXZXZXL p x m z p p p d d d g s s s h h ] ] } } } | |  . . . .] ] ] ] ] ] ] ] ] ] ] ] s a 9 9 9 9 p : 9 d 9 9 8 #.#.| | [ ] ] s s [ X.u.s.g.h.i.i.h.h.h.s.g 9 a } ] [ [ { { ........u.u.u.u.u.a.d.ZXnXbXbXbXbXbXbXjXjXjXjXjXjXjXjXjXjXjXjXjXjXgXgXgXgXgXfXfX4X4X2X2X2X3X3X;X! ~.;X;X) ` I A / / L 2.2.2.4.2.4.R R R 2.L 6.m R P m v O.O.o.@.8.8.v.Y.Y.Y.Y.Y.Y.Y.Y.Y.Y.Y.Y.Y.Y.",
"fXfXfXaXaXaXfXaXaX3X3X3X1X1X3X3X3X3X3X3X3X3X3X3X3X2X2X2XaXaXaXaXaXaXaX2XfXfXaXfXaXaXfXaXaX2X4X4X4X4X4XfXgXgXgXgXgXlXlXlXjXjXjXjXjXjXjXjXkXkXzXzXbXbXZXZX( p z z z p p d d d a g g s s s s h ] ] ] ] ] ]  . .] ] ] ] ] [ ] ] [ [ [ [ ] s s a 9 : 9 9 p = : p d d a 9 0 f  .| { |  .] ' ] [ g.j.g.i.s.h.g.g.d.s g a a s ] [ [ { i.u.......i.i.u.u.p.p.NXnXbXbXbXbXbXbXjXjXjXjXjXjXjXjXjXjXjXjXjXjXgXfXfXfX4X4X4X2X2X2X2X2X3X3X;X! ~.;X;X_ ` I A / / L W 2.R 4.2.4.R R R W q ,.,.n n v m c c z x c n o.,.o.o.+.@.8.8.8.v.Y.Y.Y.Y.Y.",
"aXfXaXaXaXaXfXaXaX3X3X3X1X1X1X1X1X3X3X3X3X3X3X3X3X2X2X2X2X2XaXaXaXaXaXaXfXgXgXfXaXaXfXaXaX2X2XfXfX2X4X2XfXgXgXgXgXlXlXlXlXjXjXjXjXjXjXjXkXkXzXzXbXbXZXZX_.9 p z p p p d d d a a g g g s g s s h ] ] s ] ] ] ] ]  .| | [ [ ] ] ] ] ] s s s a = o : 9 9 : & 9 d } f p g a 0 0 p.a.X.{ [ ' ' { g.j.j.h.i.i.g.p.s s s s a a ' ......a.u.....u.u.u.u.p.d.hXnXbXbXbXbXbXzXjXjXjXjXjXjXgXjXjXjXjXjXjXjXfX4X2X4X2X2X2X2X2X2X2X2X3X3X;X! ~.;X;X_ ` I A / / L W 2.W 2.4.4.R R R R q v 2.n n b m c x 0 x n P ,.,.o.n n ,.n e z x z : 8 x O.",
"aXaXaXaXaXaXaXaXaX3X3X1X1X1X1X1X3X3X3X3X3X1X1X3X3X3X3X2X2XaXaXaXaXaXaXfXfXfXfXfXaXaXfXgXaX2X2XgX4X2XfX2XfXgXgXgXgXgXgXgXlXjXjXjXjXkXkXjXkXkXzXzXbXbXbXZX`.9 9 z z d p d d d g g a f } } g a s s s s s }  . .[ | | | | [ [ [ [ [ ] ] ] ] s 9 : & & 9 : & : 9 c #.h d f f g d a | a.p.p.{ [ ] { s.j.j.h.h.h.| a s ' ' s s s ' u.i.i.i.....i.u.u.i.a.d.vXbXbXbXbXbXbXkXjXjXjXjXjXjXjXjXjXjXjXjXjXjX2X2X2X3X3X3X2X2X2X2X2X3X3X:X(.! ~.;X;X_ ` I A / / U 2.2.2.2.q.4.R R R R z v n n n v m x x 8 0 n n ,.,.,.n ,.,.n e v z v ; 9 9 q ",
"aXaXaXaXaXaXaXsXaX3X1X1X3X1X1X3X3X1X3X3X3X1X1X3X3X2X2X2X2X2X2XaXfXfXgXgXfXfXgXfXfXfXaXaX2XfXgXgXgX2XaX2XgXgXgXgXgXlXgXgXlXjXjXjXjXjXjXjXjXjXkXzXbXbXbXZX.Xz 9 8 z z d d d d d g f h } } h h f } }  .}  . .| ] | | |  . .| | | | | [ [ ] } p 8 9 : : : : 9 9 d #.#.f a M c p 9 a { s.s.s.i...[ [ s.j.j.h.j.} a s s ' ] ' s ' { ..u.i.u.u.u.i.i.i.a.v.ZXbXbXbXbXbXbXkXzXjXjXjXjXjXjXjXjXjXjXjXjXgX2X2X2X3X3X3X2X2X2X2X2X3X3X:X(.! ~.;X;X_ ` I A / / L 2.4.2.2.q.4.R R R W P ,.v P R v R n o.x x z v R ,.,.R ,.,.b e m z v q 9 q q ",
"sXaXaXaXaXaXaXsXaXsX3X1X1X1X1X1X1X3X3X3X1X3X3X1X2X3X2X3X2X2XaX2XfXfXgXgXgXgXfXfXaXfXaXaXfXfXgXfXaXaXaXfXfXgXgXgXgXgXgXlXlXlXjXjXjXkXjXjXjXjXkXkXzXbXbXZX.Xn 8 9 9 p d d d d d f h f h h h h } } } } } ]  .] ] | |  .| | | | | | | [ [ [ ] s p 8 9 9 9 8 p 8 9 f | } g d z m c f s { g.g.s.a.d. ...h.j.h.j.0 s s s s ' ' ' { { ....i.i.i.u.i.i.i.a.K.nXbXbXbXbXbXbXkXzXjXjXjXjXjXjXjXjXjXjXjXjXgX3X2X3X3X3X3X3X2X3X3X3X3X3X:X(.! ~.;X;X_ ` I A / / L W 2.4.4.q.q.R 2.R 2.P 3.n P R L 6.,.o.n o.n v ,.,.,.R ,.,.b t m z m w w q q ",
"sXsXaXaXaXaXaXaXaX3X3X1X3X1X1X1X1X1X1X1X1X3X3X3X3X3X3X3X2X2XaXaXaXaXfXgXgXfXfXfXaXaXfXfXfXfXgXfXfXgXaXgXfXgXgXgXgXgXgXlXlXlXjXjXjXlXkXkXjXjXkXkXzXzXbXZX9XM p 9 : 9 p p d a a g g f h h f h s f f h f s ] s ] | | | | | | | [ | ] [ [ { [ ] a p 9 9 : d d p d 8 | | f d 9 c } } ] ' p.s.g.g.g.p.u.s.h.h.a.a a ' s s s ' ] [ { ....i.i.i.a.i.i.a.a.=XnXbXbXbXbXbXbXbXjXjXgXjXjXjXjXjXjXjXjXjXjXfX3X3X3X2X3X3X3X3X3X3X3X3X1X:X(.! ~.;X;X_ I I A ` / L W 4.4.4.q.q.2.2.R W e b ,.P P v 4.,.o.c n R v ,.6.6.,.,.,.n v n z v e e q q ",
"aXsXsXsXaXaXaXaXaX3X3X1X1X1X1X1X1X1X1X1X1X1X3X1X1X3X3X3X2X2X2XaX2XaXaXaXaXaXfXfXfXaXaXfXfXfXgXgXgXgXfXfXfXgXgXgXgXgXgXlXlXlXjXlXjXlXjXkXkXjXzXzXzXzXbXbXZX6.8 8 9 : 9 p p d a a g f f f f f s s h } h s s s  .| | | | | |  .[ [ ] ] { { [ ] s p : = 9 d p d c d g | } x 8 c } ] } ] ..u.s.g.g.g.i.i.h.h.| a 0 s ] ' s s ' [ ..u.u.i.s.s.s.s.a.a.a.8XbXbXbXbXbXbXbXbXzXjXjXjXjXjXjXjXjXjXjXjXjXfX3X3X3X3X3X3X3X:X:X3X3X3X1X:X!.! ~.;X;X_ I I A ` / L W 2.2.q.U P 4.2.R 2.w z ,.n n v 4.,.c m n n v ,.6.6.,.,.,.m v n m m z l e w ",
"sXsXsXaXaXaXaXaX3X3X3X1X1X1X1X1X1X1X1X1X3X3X3X3X1X1X3X2XaX2X2X2X2XaXaXaXaXaXfXfXfXfXfXfXfXgXgXgXgXgXaXgXgXgXgXgXgXgXgXlXlXlXlXlXlXlXlXlXkXjXkXzXzXzXbXZXZXoXz 8 8 : 9 9 8 d a g f f f d f a a s f f f s ] ]  .| | | | | |  .[ ] ] [ { { [ ] h 9 : = p h a h f f 0 { } 8 p p } ] ] | ....u.i.i.h.g.h.h.s.a a a a ] ] ' ' s [ p.i.i.i.s.s.s.s.a.a.d.bXbXbXbXbXbXbXzXzXzXjXgXgXjXjXjXjXjXjXjXjXjXfX3X3X3X:X:X3X3X:X:X:X:X:X:X:X!.! ~.;X;X_ ` I S ` E L W W 4.q.R W 2.2.R W l m R b n l 6.2.n n m n U ,.,.2.,.,.,.m v n x v z v e e ",
"sXsXaXaXaXaXaX2X3X1X1X1X1X1X1X:X1X1X1X1X3X3X3X3X3X1X2X2XaXaXaXaXaXaXaXaXaXaXfXaXfXfXgXgXfXgXgXgXgXgXgXfXfXgXgXgXgXgXgXgXgXlXlXlXlXlXlXjXkXkXkXkXzXzXZXZXZXNXL 8 p 9 : : 9 p d d f f f d d d a g f f f h }  . .[ f.| |  . . .] ] ] [ { { [ ] a : : 9 g } f } } c d s | #.} a s  .[ { ....i.i.i.i.i.h.j.X.a a a a s [ ] ' ' ' [ a.s.s.s.s.a.a.a.i.I.nXbXbXbXbXbXbXzXzXjXjXjXjXjXjXjXjXjXjXjXjXjX2X3X:X3X3X3X:X3X3X3X3X3X:X:X:X!.! !.;X]._ ` I J ` / L W W 4.q.4.4.P 4.R W b n P b b l ,.6.c c m n b ,.,.6.,.R ,.m v n m v z v e w ",
"aXaXaXaXaXaXaXaX3X3X1X1X1X1X1X:X1X1X1X1X3X3X3X3X1X1X1X2X2XaXaXaXaXaXaXaXaXfXfXaXfXgXgXgXgXgXgXgXgXgXgXgXgXgXgXgXgXgXgXgXlXlXlXlXlXlXlXjXkXkXkXkXkXkXbXZXZXZX].8 p p 9 : : 9 d d g f f f d d d a f f f h } ]  .| p.|  .| } ] ] ] ] { { { { [ a 9 9 8 h  .} } } O.f a X.X. .f a  .{ { ..u.i.i.i.i.i.h.j.' a a a s a ] { [ ] ] ' [ ....u.u.u.u.u.u.=XbXbXbXbXbXbXbXzXzXjXjXjXjXjXjXjXjXjXjXjXjXjX2X3X3X:X3X:X:X3X3X3X3X:X:X:X:X!.! !.(.;X` ` I J ` E L W W 2.4.4.4.P 4.R W b n P P b l 2.2.n n m n b ,.,.2.,.R n b k n m z z m e w ",
"3XaXaXaXaXaXaXaXaX3X3X3X1X1X1X1X1X1X1X1X1X3X1X1X3X1X1X1X1X2XaXaX2XaXaXaXaXaXfXfXfXgXgXgXgXgXgXgXgXgXgXfXfXgXgXgXgXgXgXgXgXgXlXlXlXlXlXjXkXkXkXkXkXzXzXZXZXZXlXl p p p : 9 9 9 d d f f f d d d d g s f } } ]  .p.p.| ] [ ] ] ] ] ] ..u.{ | } p 8 9 8 }  . . . .} O.a { u.| f a s { { ....u.i.i.i.i.h.g.a s a s s s s ] [ ] ] ' ' [ [ ..u.u.u.u.p.hXbXbXbXbXbXbXbXzXzXjXjXjXjXjXjXjXjXjXjXjXjXjX2X3X3X:X3X3X:X:X:X3X3X:X:X:X:X~.! !.(.].` I S J ` E L W W 4.2.4.2.P 4.R W b n P b n l 2.,.m x m n b ,.6.2.,.,.n n v b n v z m t w ",
"sXaXsXaXaXaXaXaXsX2X3X1X1X1X1X1X1X3X3X1X3X3X3X3X1X3X1X1X2X2X2X2X2X2XaX2X2XaXaXaXfXgXgXgXgXgXgXgXgXgXgXfXfXgXgXgXgXgXgXgXgXlXlXlXlXlXlXjXjXkXkXkXkXzXzXzXZXZXZXW p p p 8 : 9 9 8 d d c g d d a d a g s } s s | | p.] s  .] }  .] [ u.p.X. .9 d d 0 8  .]  .|  .|  .f ] s.X.} s a | { ......i.i.h.h.h.p.0 s s s s s s [ [ [ [ ] ] ] ] { u.u.u.u.XXbXbXbXbXbXnXbXbXzXzXzXjXjXjXjXjXjXjXjXjXjXjXjX2X3X:X:X:X3X3X3X3X3X3X3X:X:X:X~.! !.!.].^ ` S J ` / L W W 4.W 4.P P 4.R Q n n P P n e 2.,.n x m b L ,.6.6.6.6.n n v m n v z m e e ",
"sXaXsXaXaXaXaXaXsXaX2X1X2X3X1X3X1X1X1X3X3X1X3X1X1X1X1X1X1X2X3X3X2X2X3X2XaXaXaXaXfXfXfXgXfXgXgXgXgXgXaXfXfXgXfXgXgXgXgXgXgXgXgXlXlXlXlXjXjXjXkXkXkXzXzXzXZXZXZX_.z p z p 9 9 9 9 p g d d d d d d a g f h s ] | |  .s }  .] ] } ] { p.p.] s 9 g d d p  .] ] | | | | ] | a.a.{ s a } p.i.u.u.i.i.s.g.g.| 0 s s s ' ' s ] { { ....{ [ [ ] [ ..u.d.MXnXbXbXbXnXbXbXbXzXjXjXjXjXjXjXjXjXjXjXjXjXjXjX2X3X:X:X3X3X3X:X:X3X:X3X:X:X:X~.! (.!.].^ ` A J E / A W W 9.W R P L Q W Q n b n P n l R ,.c x m n b ,.6.6.6.6.n R b m n z v m z e ",
"sXsXsXsXaXaXaXaXsXaXaX2X1X3X1X1X3X3X3X3X3X1X3X3X3X3X1X1X1X1X3X1X3X2X2X2XaXaXaXaXaXaXaXgXfXgXgXgXgXgXgXaXaXfXaXgXgXgXgXgXgXgXgXgXlXlXlXlXjXkXkXkXkXzXzXzXbXZXZX,Xv z z p p 9 9 9 9 d d d c d d d d a f f s } |  .] s |  .h h }  .p.p.[ s g 9 s p d d } { ] | p.] ] | a.| a.X.} s g p.s.i.i.i.i.i.s.g.} 0 a ] s ' ' ' ' ] [ { ....X...[ [ [ p.<XnXbXbXbXbXbXbXbXbXzXzXjXjXjXjXjXjXjXjXjXjXjXjXgX3X:X:X3X3X:X3X3X:X3X:X3X1X:X:X~.! (.!.].^ J S A E / A W W 9.R R P P L W L b m b P n l 2.,.x x x n b ,.6.6.,.,.n R b m R l m b v l ",
"sXsXsXsXaXaXaXfXaXaXaX2X3X2X3X1X1X3X1X3X3X3X1X3X1X1X3X3X3X1X1X1X3X1X2X2XaXaXaXaXaXfXaXfXgXgXgXgXgXfXaXaX2XaXgXgXgXgXgXgXgXgXgXgXlXlXlXlXjXkXkXkXkXzXzXbXbXZXZX7Xv z z p p p 9 9 9 9 d d f d d d a a g g g } | ] s  .| | s f f | a.{ s } g 8 f f 8 d } u.[ { p.| ] ] a.{ { a.{ ' g  .s.s.i.h.i.i.g.z.f a 0 [ ' ' ] ' ' ' ' [ ..X.X.X.....X.K.ZXbXbXbXbXbXbXbXbXbXbXzXjXjXjXjXjXjXjXjXjXjXjXjXgX3X:X:X:X:X:X:X:X:X3X3X3X:X:X:X~.~.(.!.].^ J A A E / A W W 9.W W L P L W L n v b n n v 2.,.x x z n v R 2.2.,.,.n ,.b m ,.q m b z l ",
"sXaXsXsXaXaXaXaXaXaX2X2X1X1X3X3X1X1X1X1X3X1X1X1X1X1X3X3X3X1X3X1X1X1X3XaXaXaXaXaXaXaXfXfXgXgXgXgXgXfXaXaXfXfXgXgXgXgXgXgXgXgXgXgXgXgXjXlXlXkXkXkXkXkXzXZXZXZXZXNXL p 8 p p p 8 9 9 9 9 d g d d d d d a g g } | s }  .|  .f f f p.u.{ s } ] p f } g 8 g u.| [ a.d.X.[ p.p.] X.p.] s s s.s.i.h.i.i.g.z.a a a ' { ' ' ] ' ' ' ] [ { ........v.NXnXnXbXbXbXbXbXbXbXbXbXzXjXjXjXjXjXjXjXjXjXjXjXjXfX3X3X:X:X:X:X:X:X:X:X:X:X:X:X:X~.~.(.!.;X_ ` A A I E A W W 9.P W L R b Q L P b n n b b R R x z z n v 2.2.2.,.6.n ,.P b ,.q m m m l ",
"sXsXsXsXsXaXaXaXaXaXaXaX2X3X1X3X1X1X1X3X1X3X1X3X3X3X1X1X1X1X1X3X1X1X1XaXaXaXaX2XaXaXaXfXgXgXgXgXgXfXaXaXfXgXfXgXgXgXgXgXgXgXgXgXgXgXlXlXlXjXkXkXkXkXzXZXZXZXZXZX9.p p 8 8 8 p p 9 9 9 8 d d d d d d g g g f } } }  .|  .} g } a.u.[ s | s g g | ] f 8 [ p.[ p.d.d.p.a.s.{ ' p.{ } s a.g.s.g.g.s.g.d.9 a a a { { ' ' ' ] ] ] [ ] [ { ..p.8XnXnXbXbXbXbXbXbXbXbXbXzXzXjXjXjXjXjXjXjXjXjXjXjXjXfX3X3X:X:X3X:X:X:X:X:X:X:X:X:X:X~.! (.!.]._ ` A A I E A W W 2.P 2.L W b Q L n b b b b b R R m z z n v 2.3.4.6.6.b ,.P n n w m m m v ",
"sXsXsXsXaXaXaXaXaXaXaXaX2X3X1X3X1X1X1X1X1X3X3X3X3X3X1X3X1X1X1X1X1X1X3XaX2X2XaXaXaXaXaXaXgXgXfXgXgXfXaXfXaXfXgXfXgXgXgXgXgXgXgXgXgXgXlXlXlXkXkXkXkXkXzXzXZXZXZXZX_.z p p p 8 8 8 8 8 8 9 8 d d d d d d g g s s } }  . .| h a { i.u.[ ] } } f f | } } f a p...a.a.X.p.s.s.p.' ] p. .s ..g.g.g.g.h.g.| 0 0 a a ' X.[ ' ' ] ] ] [ [ [ { p.%XnXnXnXbXbXbXbXbXbXbXbXbXzXzXzXzXjXjXjXjXjXjXjXjXjXjXfX3X:X:X:X:X:X:X:X:X:X:X:X:X:X:X~.! (.!.;X_ J A A I E A W W 2.Q 2.L Q L R L v P b b b b R R x z z R v ,.2.6.6.6.n ,.v b n w m m m m ",
"sXsXsXsXaXaXaXaXaXaXaXaXaXaX2X3X3X1X1X1X1X1X3X1X3X3X1X3X3X3X1X1X1X1X3X3X2X2X2X2XaXaXaXaXaXgXfXgXgXfXfXaXaXaXgXfXgXgXgXgXgXgXgXgXgXgXgXlXkXkXkXkXkXzXzXcXZXZXZXZX,Xz p p p p p 9 8 8 8 8 9 p d d g f d d g a g f }  . . .f a p.s.u.[ | f #.d } }  .} } a ] ..g.g.{ ..a.s.p. .s { X.s ..g.g.s.s.g.g.a d 9 a s a { { [ ] ' ' ] ] [ { p.K.ZXnXnXnXbXbXbXbXbXbXbXbXbXzXzXzXzXjXjXjXjXjXjXjXjXjXjXfX3X3X:X:X:X:X3X:X:X:X:X:X:X:X;X~.! ].!.;X^ J A A I I A W E W Q W Q P L P k t P b b b k R R x z z R v R ,.,.R ,.n R v b b w m m m m ",
"aXsXaXaXaXaXaXaXaXaXaXaXaXaXsX1X3X1X1X1X1X1X3X1X3X1X1X1X1X3X3X1X3X3X3X3X2X2XaXaXaXaXaXaXfXgXfXfXgXfXfX2XaXfXfXfXfXgXgXgXgXgXgXgXgXgXgXlXkXkXkXkXzXzXzXbXZXZXZXZXxXb p p p p p p 8 8 8 8 8 9 p d d f g d d d g f ]  . .#.a g { s.u.[ } } #.g } f p.f #.} a p.s.g.p.{ a.g.a.| ' s p.] ..g.g.i.s.g.{ g 9 d 0 a s s X.{ ] ] ' ] ] [ p.G.ZXnXnXbXbXbXbXnXbXbXbXbXbXbXzXzXjXjXjXjXjXjXjXjXjXjXjXjXfX3X:X:X:X:X:X:X:X:X3X3X:X3X:X;X~.K ^.!.;X^ J A A I I A I E W W W Q L L R k w P b b P k R P z z x R l R ,.R R R n ,.l P v w m v m n ",
"sXsXaXaXaXaXaXaXaXaXaXaXaXaXsX1X3X1X1X1X1X1X3X3X3X3X1X1X1X3X1X1X3X3X1X3X2X2XaXaX2XaXaXaXfXgXfXfXgXgXgXaXaXfXgXfXfXfXfXaXgXgXgXgXgXgXlXlXjXkXkXkXzXzXzXbXzXZXZXZXZXW d d p d p d p 8 8 8 9 8 8 d g f d d d d g g }  .} c a f  .s.u.| f #.f #.| f a.| g | s  .s.g.a.{ u.g.a.p.] s [ { u.g.z.g.g. .[ ' 9 d a a s s ] | |  .] ' ' | c.NXnXnXnXbXbXbXbXbXbXbXbXbXbXbXzXzXjXjXjXjXjXjXjXjXjXjXjXjX4X3X:X:X:X:X:X:X3X3X3X:X:X:X:X;X~.K !.^ ;X) J A S I I A I I Q Q 2.Q L P R k w U v b b k P n z z m R e m n R ,.n R R v P v e m v b n ",
"aXaXsXsXaXaXaXaXaXaXaXaXaXaXsX1X1X3X3X3X1X1X1X3X3X1X1X1X1X1X1X1X3X1X3X3X1X1X1X2X3X2X2XaXaXfXgXgXgXgXgXgXaXfXaXfXfXaXaXaXaXgXgXgXgXgXlXlXjXjXkXzXzXzXzXzXzXZXZXZXZX`.z d d d d d d p 8 9 9 9 8 8 d c f d d d g g s } } g g } s a.u.| f f.d | d.' p.p.} s | s g.g.s.u.u.s.s.p.| ' s [ ..s.a.s.X.a ] [ @.A.g a a a s ] |  . .' } G.vXnXnXnXnXbXbXbXbXbXbXbXbXbXbXbXzXjXjXjXjXjXjXjXjXjXjXjXjXlX2X3X:X:X:X:X:X3X3X:X:X:X:X:X:X;X~.V ).` ].) J A A I I A I I Q W W W L P Q k w b b b b l P n z z m P l n P R ,.n R P l P l e z z m b ",
"aXsXaXaXaXaXaXaXaXaXaXaXaXaXaXaXsX3X3X3X1X1X1X3X3X1X1X3X1X1X1X1X1X1X3X3X1X2X1X2X3X2XaXaXaXfXfXgXgXgXgXgXaXaXgXfXfXfXaXaXaXgXgXgXgXgXlXlXjXjXkXzXzXzXzXzXbXZXZXZXZX9Xv d d d d d d d 8 9 9 9 8 9 p x x g d g g g a h } g h } g X.a.| g | d | a.p.[ p.X.} f } a.g.g.i.u.i.s.p.X.] s s [ a.u.s.] g ] | #.wX9X5.f g a s ]  .| #.J.ZXZXnXnXnXnXnXnXbXbXbXbXbXbXbXbXbXzXjXjXjXjXjXjXjXjXjXjXjXjXgX2X3X3X:X:X:X:X3X:X:X:X:X:X:X:X(.~.K ^._ )._ J A A I I A I I R W k W W Q Q j l v b v L k P n z z v P l n ,.,.R R ,.R l n v e z z m n ",
"sXaXaXaXaXaXaXaXaXaXaXaXaXaXaXaX1X1X3X1X1X3X1X1X3X1X3X1X1X3X1X1X1X1X1X3X3X3X1X1XaXaXaXaXaXaXgXgXgXgXgXgXfXaXaXaXaXaXaXgXgXgXgXgXgXgXlXlXkXjXzXzXzXzXzXcXZXZXZXZXZXZXQ d d d d d d d 8 9 8 8 8 8 8 ; z x d d d g a g f h } } f } a. .a | f } p.a. .p.p. .f f p.g.j.s.u.u.s.i.u.[ ' s [ u.s.g.} g ] p.] L.ZXZXNX=Xn.+.+.6.n.9XZXnXnXnXnXnXnXnXnXbXbXbXbXbXzXzXzXzXzXjXjXjXzXjXjXjXjXjXjXjXjXlX3X3X3X:X:X:X:X3X:X:X:X:X3X:X:X(.~.! !._ )._ J A A I I A I I Q E L W W E Q r L v b v k k b n z z z b l P e n ,.R ,.R l n v e z z m b ",
"sXaXaXaXaXaXaXaXaXaXaXaXaXaXaXaX1X1X1X1X1X3X1X1X1X1X1X1X1X1X1X3X1X1X3X1X3X1X1X2XaXaXaXaXaXaXgXfXgXgXgXgXgXaXaX2XaXaXaXdXgXgXgXgXgXlXlXlXkXkXzXzXzXzXzXcXZXZXZXZXZXZXoXz d d d d d p p p p 8 9 8 9 % : z d d d g g d g h h f f f a.s g } f  .' s.} X.a.X.} g  .s.j.g.i.i.i.i.i.{ ] ' u.i.g.g.g s ' a.[ $.xXmXmXZXZXNXNXZXZXnXnXnXnXnXnXnXnXnXnXbXbXbXbXbXbXzXzXzXzXjXjXjXzXjXjXjXjXjXjXjXjXgX3X3X:X:X:X:X:X3X:X:X:X:X:X:X:X(.~.! !._ ).` J A A I L A I I E P L Q W W R r P v b v k l P b z z z b l v e 6.6.P ,.P e n v w z z m b ",
"aXaXsXaXaXaXaXaXaXaXaXaXaXaXaXaXaX2X1X3X1X1X1X1X1X1X1X:X1X1X1X1X1X1X1X3X3X3X1X1XaXaXaXaXaXaXgXgXgXgXgXfXgXaXaX2XaXaXaXdXgXgXgXgXgXlXkXkXkXkXzXzXcXcXcXcXcXZXZXZXZXZXxXb d d d d d d d p p 9 9 8 = & : 9 z d d g d d g h f f f f p.g } h s | s X.$.} u.u.| } s u.h.g.i.i.i.i.g.a.[ ' i.h.g.g.d s ' s...X.K.ZXmXmXmXmXnXnXnXnXnXnXnXnXnXnXnXnXbXbXbXbXbXbXbXbXjXjXzXzXjXzXzXzXjXzXjXjXjXjXjXgX3X3X:X3X:X:X:X3X:X3X:X:X:X:X:X(.~.^ ).! ^._ I A S I I A I L b k L L I Q L k P k b v v A b b z z v b v v 4.4.,.n R P l b v e e v m m ",
"aXaXsXaXaXaXaXaXaXaXaXaXaXaXaXaXaX1X1X1X3X3X3X1X1X1X1X1X1X:X1X3X1X1X1X3X3X3X1X1XaXaXaXaXaXaXgXgXgXgXgXfXgXaXaX2XaXaXaXdXdXgXgXgXgXlXkXkXkXkXzXzXzXcXcXcXcXZXZXZXZXZXZX9.d d d d d d z p p 8 9 9 = 9 9 9 8 d d d d d g f c f f g | g  .' a u.' s d.#...a.{ | s [ s.j.i.....i.s.g.X.] i.g.g.g.0 ' ' g...a.d.qXmXmXmXnXnXnXnXnXnXnXnXnXnXnXnXbXbXbXbXbXbXbXbXbXbXzXzXzXzXzXzXjXzXjXjXjXjXjXjXgX3X3X3X3X:X:X:X:X3X3X:X:X:X:X:X(.~.~.;X!.^.` I A A I I A I I E L L L A W L k P k b v k b m m z y v b k 2.4.,.,.n R n l b v e z z m m ",
"aX1XsXaXaXaXaXaXaXaXaXaXaXaXaXaXaX1X1X1X1X1X1X1X1X1X1X1X1X1X1X1X1X1X1X1X3X1X1X3X2X2XaXaXaXaXgXgXgXgXgXgXdXaXaXaXaXaXdXdXdXdXgXgXgXlXkXkXkXkXzXcXcXcXcXZXZXZXZXZXZXZXZX0Xz d d d d d z p p p 8 : 9 9 9 9 9 9 d d d d a f c f f g X.g } ] a u.] g d.X.' a.p.{ ] s u.j.g.a.......g.a.[ i.h.g.s.8 ' ' g.i.i.s.P.ZXnXnXnXmXmXmXnXnXnXnXnXnXnXnXnXbXbXbXbXbXbXbXbXbXzXzXzXzXjXjXjXjXjXjXjXjXjXjXgX2X3X3X3X:X:X:X3X3X3X:X:X:X:X:X!.~.~.;X(.^.` J r S I L k L L I L L L t W L k b v v v k b b v z 8 z v R 2.2.R ,.m R b v v b e z m m b ",
"aXsXaXsXaXaX2X2XaXaXaXaXaXaXaXaXaXaXsX1X1X1X1X1X1X1X1X1X1X1X1X1X1X3X1X1X3X1X3X1X1X3X2XaXaXaXgXgXgXgXgXgXdX2X2XaXaXdXaXdXdXgXgXgXgXlXgXkXkXkXzXcXcXcXZXZXZXZXcXZXZXZXZXcX,.d d d d d d p p d p 9 9 8 8 9 9 9 : p d d d g c f x g p.} h p.s X.[ f | a.p.| a.{  .s { g.z.s.i...[ u.g.i.h.i.j.g.8 ' ' s.i.i.g.k.wXnXnXnXmXmXmXnXnXnXnXbXbXbXbXnXbXbXbXbXbXbXbXbXbXbXzXzXzXzXjXzXjXjXjXjXjXjXjXfX2X3X3X3X3X:X:X3X:X:X:X:X:X:X:X(.~.^ ;X(.).` K r S I L k L L I L L L t W I k b v v v k b b v z 8 z v P R R R ,.b R b v m b e z v m m ",
"aXaXaXaXaXaXaXaXaXaXaXaXaXaXaXaXaXaX1X1X1X1X1X1X1X1X1X1X1X:X1X1X3X3X3X1X3X3X3X3X1X3X2XaXaXgXfXfXfXgXgXgXdX4XdXaXaXaXdXdXdXgXgXgXgXgXlXkXkXkXcXcXzXcXzXcXZXZXcXcXZXZXZXZX4.d d d d d d d d z 9 8 9 8 8 8 9 : : 9 p d d d d f d d #.} d s.[ ] X.} g a.g.' a.a.[ ' ] s.j.g.s.a.[ [ i.g.g.h.h.h.8 s s a.h.i.s.g.W.ZXnXnXnXnXnXnXnXnXnXnXbXbXbXbXbXbXbXbXbXbXbXzXzXzXzXzXzXzXzXzXjXjXjXjXjXjXjXfX2X3X3X3X:X:X:X:X:X:X:X:X:X:X:X!.~.^ ;X(.).` K r A S S k L L L S L L l W Q k b v k v t k v v z 8 z v b ,.R P R n R b z x v e z m v z ",
"aXaXaXaXaXaXaXaXaXaXaXaXaXaXaXaXaXaX1X1X1X1X1X1X1X1X1X:X:X1X1X1X1X1X1X1X3X3X3X1X1X3XaXaXaXaXfXfXaXaXgXgXdXdX4X2X2XdXdXdXdXgXgXgXgXgXkXkXkXkXzXcXzXzXcXZXZXZXcXZXZXZXZXxXd d d d d d d d g d p 9 p p 8 8 9 : : 9 9 8 d d d g g d  .} 8 | a.[ a.} f s h.u.[ g.u.] s X.z.j.s.a.{ { i.j.j.h.h.g.9 s s i.h.i.i.g.z.7XnXmXnXnXnXnXnXnXbXbXbXbXbXbXbXbXbXbXbXbXzXzXzXzXzXzXzXbXzXzXjXzXzXjXjXjXjXfX2X3X3X3X:X:X:X:X:X:X:X:X:X:X:X!.~.^ ;X!.^.! K r A S S k S L L A L L l W E k l l l k t b v v z 8 z l b R R P P n R b b m v e z m z v ",
"aXaXaXaXaXaXaXaXaXaXaXaXaXaXaXaXaXaX2X2X1X1X1X1X1X1X1X:X:X1X1X1X1X1X1X1X3X1X1X1X2X2XaXaXaXaXfXgXgXaXaXdXdX2X2X2X2X2XaXdXgXgXgXgXgXgXlXkXkXkXkXcXzXzXcXcXZXZXZXZXZXZXZX9Xd d d p p d d d d 9 d 9 d d p 9 : = : 9 9 9 9 p d d d g } } 0 s p.a.s.{ } g u.j...| s.{ ] ] g.j.g.s.{ i.h.h.j.h.h.h.9 s s ..g.i.u.s.g.K.ZXnXnXnXnXnXnXnXnXbXbXbXbXnXbXbXbXzXbXbXbXbXzXzXzXzXzXbXzXzXzXzXzXjXjXjXjX4X2X3X:X:X:X:X:X:X:X:X:X:X:X:X3X!.~.! ;X!.).! Z r A S S k L L L k A L k W E k e l l l e b v v y e l l P R R P n n R b m z v e v m m m ",
"aXaXaXaXaXaXaXaXaXaXaXaXaXaXaXaXaXaX2X2X1X1X1X1X1X1X1X:X:X1X1X1X1X1X1X1X1X3X1X1X2X2XaXaXaXaXfXgXgXgXfXaX2X2XaX2X2XaXaXdXgXgXdXgXgXgXgXlXkXkXzXzXzXcXcXZXZXZXZXZXZXZXZX,Xp d d p p d d d 9 z 9 d f d d 8 : = 9 9 9 9 9 : 9 d d a a #.0 ] ' ] a.a. .f s g.j.} a.a.[ ] u.j.g.g.i.j.j.h.j.h.h.s.9 s s ..g.s.u.s.z.k.qXnXnXnXnXnXnXnXbXbXbXbXbXbXbXbXbXbXbXbXbXbXzXzXzXzXzXzXzXzXzXzXzXzXkXkXjX4X2X3X:X>X;X].).).).).).;X0X:X:X!.^ ^ ;X!.).! Z 5 A S A A A S S k A L k W W k w b l l w b v z e e e l P R R n b b P b b z v e m v n m ",
"aXaXaXaXaXaXaXaXaXaXaXaXaXaXaXaXaX2X2X2X2X1X1X1X1X1X1X:X:X1X:X1X1X1X1X1X1X1X1X1X1X2XaXaXaXaXgXgXgXgXaX2X2X2X2X2X2XaXdXdXdXgXdXgXdXgXgXgXkXkXcXcXzXcXcXZXZXZXZXZXZXZXZXqXz p 8 p p d d p 9 z 9 g f f z 8 9 : 9 9 9 9 9 9 9 9 a a a #.d f ] s  .z.p.} g ] j.s.s k.p.] { g.h.g.g.j.j.h.j.j.h.p.9 s ' ..g.h.i.i.g.k.K.nXnXnXnXnXnXbXbXnXnXnXnXbXbXbXbXbXbXbXbXbXbXzXzXzXbXbXzXzXzXzXzXjXjXkXlX2X3X;X].).) ( ( ( ( ( ( ) ) ) ).!.^ ^ ;X!.!.K Z 5 A S A k A A A k k I A W E r w L k k w b v z e e e l P P P n b b P L b m l w z v b m ",
"aXaXaXaXaXaXaXaXaXaXaXaXaXaXaXaXaXaXaXaXaX1X1X1X1X1X1X1X1X1X1X1X1X1X3X3X3X1X3X3X3X3X2XaXaXaXfXgXgXgXaXdX2X2X2X2X2XdXdXdXdXdXgXdXdXgXgXgXkXkXkXcXkXcXcXZXZXZXZXZXZXZXZXZX9.p p d d d d 8 d 9 p s f f z z 9 8 8 8 9 9 : 9 9 0 p a a f #.g |  .s | g.| } s { g. .| k.{ [ g.g.s.j.j.j.j.j.j.h.p.9 s s { g.g.i.i.g.z.k.xXnXnXnXnXnXnXnXnXnXnXnXbXbXbXbXbXbXbXbXzXzXzXzXzXzXzXbXzXzXjXjXjXlX2X0X].].0.) ) ( ( ( ( ( ( ( / ( ( ) 0.) ) ) ) ) ` I A S S A k A A A k w L A W E w t L k k t b v e e e e l P P P P b n l q v b l e z v b b ",
"aXaXaXaXsXaXaXaXaXaXaXaXaXaXaXaXaXaXaXaXaX1X1X1X1X1X1X1X1X1X3X1X1X1X1X3X1X1X1X1X3XaXaXaXaXaXaXgXfXgXfXgX2X2X2X2X2XdXdXdXdXdXgXgXdXgXlXlXkXkXlXxXkXzXcXcXcXcXZXZXZXZXZXZX9Xz x d d d d 8 d : g s f f d 8 8 d d p 9 9 9 9 9 p d d 8 0 +.f | | } s X.d.| ] s X.d.' a.a.] s.g.i.j.j.j.j.j.j.h.X.9 s s [ g.g.i.i.s.z.z.&XnXnXnXnXnXnXnXnXnXbXbXbXbXbXbXbXbXbXbXbXbXbXbXbXzXzXjXjXgX3X;X].).0.) ) ) 0.0.9.( ( / ( ( 0.0.0.0.0.) ( ( ( ( ) 0.0.0.m.0.0.0.E L L A A r L S W E 2 S k b l t L v e e e t e L R R P b P w ; b b l e l v b n ",
"2X2XaXaXaXaXaXsXaXaXaXaXaXaXaXaXaXaXaXaXsX1X1X1X1X1X1X1X1X1X1X1X1X1X1X1X3X3XaX3XsXaXaXaXaXaXaXgXgXgXaXgXdX2X2X2XaXdXdXdXdXdXgXgXlXlXlXlXlXlXlXxXcXcXcXcXcXcXZXZXZXZXZXZXAX5.M d d d p p 9 p g g g g p 8 d f c d e 9 9 9 8 a f d 9 8 8 f | p.| } s p.d.| ] ' p.X.[ s...s.g...j.j.h.j.j.j.h.X.9 s ' [ g.g.h.i.i.g.z.v.bXnXnXnXnXnXnXbXnXbXnXnXnXbXbXbXbXbXbXbXbXbXzXjXjX4X,X].).0.0.) ( ) ) ( ( ( ( ( ( 9.9.0.0.0.0.0.( ( ( 0.0.0.0.m.0.0.0.0.m.m.M.Z.Z.m.0.( I S L W E 3 I k b l r L v e e e e e L P R n b R P w v n l e z b v ,.",
"2X1X1XaXaXaXaXsXaXaXaXaXaXaXaXaXaXaXaXaXsX1X1X1X1X1X1X1X1X3X3X1X1X1X1X1X3XsX2X3XsXaXaXaXaXaXaXdXgXgXgXdXdX2X2X2XdXdXdXdXdXgXdXgXlXdXlXdXlXlXlXxXcXcXcXcXcXcXZXZXZXZXZXZXZXL.x d d d 8 z 9 d g s g d 0 0 g f h c d p 8 p a f f 8 9 8 9 8 a  .|  .} s p.a. .] ' a.X.{ a.s.X...j.j.h.j.j.j.h.p.9 s ' ] g.j.h.i.i.s.g.k.-XnXnXnXnXnXnXnXnXnXnXnXnXbXbXbXbXbXbXzXkXkXgX,X]._.m.0.0.) 0.( 0.0.0.9.9.0.( 9.0.0.0.9.9.9.9.0.0.0.m.m.m.m.m.0.m.m.m.m.m.m.M.M.M.m.m.0.E Z r j r r S k b k r L l e e e t w b P U b b R R l v n l e z b v R ",
"1X1X1XsXaXaXaXaXaXaXaXaXaXaXaXaXaXaXaXaXaX1X3X3X1X1X1X1X1X1X1X1X1X1X1X1X3X3X3X3X3XaXaXaXaXaXaXaXgXgXgXdXdXaXdXaXdXdXdXdXdXgXdXgXdXlXlXlXlXlXlXxXcXcXcXcXcXZXZXZXZXZXZXZXZXq.d d d d z 8 p g g g g p 8 d g f } c f a a s  .} g p z 8 8 p 8 9 g  . .} s p.a. .] ] z.a.u.a.] ..g.j.h.j.j.j.j.X.9 s ' ' s.g.g.i.i.i.g.z.v.bXnXnXnXnXnXnXbXbXbXnXbXbXbXbXbXzXzXgX2X,X].'.'.`.`.V.m.0.0.( ( ( ( 0.9.9.0.0.0.0.0.0.( 0.0.9.0.0.0.0.0.0.m.m.m.Z.V.V.Z.m.M.0.9.9./ r 6 5 6 6 6 2 6 1 2 r w A k t 8 e e w v b b P v b n v b n e e l v v n ",
"sX1XaXaXaXaXaXaXaXaXaXaXaXaXaXaXaXaXaXaXaX1X1X3X1X1X1X1X1X1X3X3X3X3X3X3X3X3X3X3X3X3XaXaXaXaXaXaXgXgXgXgX2XdXdXaXdXdXdXdXdXdXdXdXdXlXlXlXlXlXlXkXcXcXcXcXZXZXZXZXZXZXZXZXVXR d d d z z 8 d g g g a p p d g f } c d p a ] X. .g 8 x d d d d 8 9 0 g f } s | d. .|  .a.p.' ' { g.j.j.h.j.j.h.] 9 ' ' ' s.g.g.i.i.i.h.g.g.-XbXbXnXnXnXnXbXbXbXnXbXzXjXlX4X3X0X].'.'.`.`.`.V.`..X.X.X'.`.m.0.9.9.9.9.0.0.9.9.0.0.0.0.0.0.9.( ( 9.0.m.I / E 0._.Z.Z.m.0.9.I A 5 B 5 B 6 6 1 > > > 6 6 6 6 6 3 2 2 w w l b b b v n P l v P q l l v b n ",
"1X1XsXaXaXaXaXaXaXaXaXaXaXaXaXaXaXaXaXaX2X2X1X3X1X1X1X1X1X1X1XsX1X1X1X3X1X3X3X3X3X2XaXaXaXaXgXaXgXgXgXgXdX2XaXaXdXdXdXdXdXgXgXdXlXlXlXlXlXlXxXxXcXcXcXcXcXZXZXZXZXZXZXZXVXz d d d z p d d g g d p p d g g h h f d p s | { | g z } f f d z p 8 p p g g f s s  .} f f a s ' { h.j.h.j.j.j.h.g 9 s ' ' a.g.g.s.i.i.h.g.g.v.bXnXnXnXnXbXbXbXjXgX3X,X].'.'._._._._.V.V.Z.0.0.C.C.`.`.V.V.C.`.`.Z.m.m.9.0.0.0.0.9.0.0.0.9.9.( ( 9.0.` r E ( J S ( ` J Z 5 5 5 B B 6 6 6 > > 1 1 6 6 6 6 6 6 6 6 6 6 6 3 w k k v P P k v b w l z v v b ",
"1X1XsXaXaXaXaXaXaXaXaXaXaXaXaXaXaXaXaXaX2X2X1X3X1X1X1X1X1X1X1XsX1X3X3X1X1X3X3X3X1X3XaXaXaXaXgXfXgXgXgXgXdX2X2XaXdXdXdXdXgXlXlXlXlXlXlXlXlXlXlXxXxXcXcXcXcXZXZXZXZXZXZXZXBXz d d d d p d d g g d p d d d g h f c p a h p.p.| f d } f f d z d p d d f f g g s  .g 9 0 a s ' { h.j.j.h.j.j.h.d 9 ' ] ' p.g.g.s.i.i.s.g.g.z.<XnXnXbXbXbXjX4X0X_.'.'.'._._.V.m.m.m._.`.`.`.`.`.Z.m.0.m.m.V.`..X.X.X.X`.C.`.V.V.m.0.m.m.0.0.9.9.9.9.5 r 1 E J B 5 5 6 5 6 5 B 5 6 1 > 1 1 6 5 5 6 6 6 6 6 1 1 1 6 6 6 6 6 2 2 3 r e r k L w l l v v n ",
"1X1XaXaXaXaXaXaXaXaXaXaXaXaXaXaXaXaXaXaXaX2X3X1X1X1X1X1X1X1X1X1X1X1X1X1XsXsX3X3X1X2X2XaXaXaXfXgXfXgXgXgXdXaXaXdXdXdXgXdXdXgXlXlXlXlXlXlXlXlXlXxXxXcXcXcXcXcXcXZXZXZXZXZXVXm d d d p p d d g d p d d d d f h f c p a  .p.X.] } f  .} c d d d d g g } f a g } | d 9 0 a s ' [ s.j.j.h.j.j.j.g 0 ' ] s ..g.g.g.i.i.s.g.g.z.K.bXzXjXgX,XoX'._._._._.V.m.m.m.m.m._.`.V.V.V.V.V.Z.Z.V.V.A.`.C.V.V.V.Z.`.|..X.X`.`.C.V.V.V.m.M.[..X`.I 5 5 5 B 5 5 5 5 5 6 6 6 6 6 6 5 B B B B 5 6 6 6 6 6 6 5 5 5 6 6 6 1 1 1 1 1 * * * * * q w v v n ",
"1X1XaXsXaXaXaXaXaXaXaXaXaXaXaXaXaXaXaXaXaXaX1X2X1X1X1X1X1X1X1X1X1X1XsX1XsXsX3X3X1XaXaXaXaXaXaXfXgXgXfXdXdX2X2X2XdXdXdXdXgXlXlXlXlXlXlXlXxXxXxXxXxXcXcXcXcXcXcXZXcXZXZXZXVXR d z p 8 d d g d d p d d d d f f f d p s | u.{ s } } | | } f c d f g f } s g f ] | f 9 0 a s ' [ i.j.j.h.j.j.h.g 0 ' ] s ..j.j.g.i.i.i.h.g.g.v.,X0XoX`.`.'.`._._.Z.m.0.( Z.`.`.`.`.`.V.M.m.0.m.`..X.X.X`.`.V.Z.M.V.`..X.X.X`.C.M.m.m.m.9.V.{.{..X.X.X0.K 6 5 5 6 6 6 6 6 6 6 5 5 B B B 5 6 6 6 6 6 6 5 B 5 5 5 5 6 6 6 6 6 2 6 6 6 1 > * $ $ $ * ; l ",
"sXsXaXaXaXaXaXaXaXaXaXaXaXaXaXaXaXaXaXaXaXaXaXaXaX2X1X1X1X1X1X1X1X1X3XsX3X1X3X3X3X3XaXaXaXaXaXgXfXgXaXdXdX2X2X2XdXdXdXdXgXlXlXlXlXlXlXlXxXlXxXxXxXxXcXcXcXcXcXZXcXcXZXZXBXV.c d 9 p d d d d p d d d g g f f f p d h p.u. .s } } | | #.} h f ] }  .} f ' ] { X.f 0 0 g s ' [ s.j.g.h.j.j.h.a 0 ] ] s { g.g.g.s.i.i.i.g.g.z.F.m.V.V.A.`.`._.`..X.X`.`.`._.V.V.Z.m.m.V.`.`..X.X`.C.V.M.m.C.|.|..X.X`.`.C.V.Z.M.0.W W `.{.[.A.A.A.J..X`.0.` S V 6 5 5 B 5 B B B B B 5 6 6 6 6 5 B B B B 5 5 5 6 6 6 6 6 6 6 6 5 6 6 1 1 $ $ $ # # @ ",
"sXaXaXaXaXaXaXaXaXaXaXaXaXaXaXaXaXaXaXaXaXaXaXaXaXsX1X1X1X1X1X1X1X1X3X3X1X3XsXsXaXaXaXaXaXaXaXgXgXgXfX2X2XaXaXdXaXdXdXdXlXlXlXlXlXlXlXlXxXxXxXxXxXxXxXcXcXcXcXBXcXcXZXZXBX9Xn 8 9 8 d d d p p d d d g g f f f p d } p.p.} s }  .p.|  .} } ] ]  . .} s ] ] { X.' 0 0 g s ' ] i.j.g.g.j.j.j.a 0 ' ] s { g.j.g.h.i.i.i.g.g.z.c.I / / 0.0.9.V.`.`..X.X.X.X'..X'.`.`.'.`.A.C.C.V.C.C.`..X.X.X.X`.`.V.Z.Z.M.m.9.( / m.{.{..X[.A.C.C.C.Z.M.[.'..X.X_.0.I V 5 B 5 B 5 5 5 6 6 6 5 B B B B 5 6 6 6 6 5 5 6 5 5 5 5 5 6 1 1 , * $ @ + + . ",
"1XsXaXaXaXaXaXaXaXaXaXaXaXdXdXdXaXaXaXaXaXaXaXaXsX1X1X1X1X1X1X1X1XsX3X3X3X3XsXaXaXaXaXaXaXgXgXgXgXgXfX2X2XdXaXdXdXdXgXdXdXgXlXlXlXlXxXlXxXxXxXxXxXxXxXcXcXcXcXcXZXcXZXZXBXwXz 9 8 p d d d p d d d d d f f f d 8 g { p.| f s } | p.p.| } ] s | |  .} ] ] ] { ..] a 0 g ' ' ] u.j.j.j.j.j.z.d 0 ] [ ' [ g.j.g.h.s.i.s.g.g.g.d.A K ` ` J S I 0.m.Z.`.`..X.X.X.X.X.X.X.X.X`.C.`..X.X X|..X.X`.V.V.m.0.( ( ( I 9.@X@X{.{.{..X.XA.C.b.m.`..X.X.X.X.X.X`.`._.0.0.) I 5 6 6 5 5 B B B B B 5 6 6 5 B B B 5 5 5 6 6 6 1 > > $ # @ + . $ r ",
"1X1XaXaXaXaXaXaXaXaXaXaXdXaXdXdXaXaXaXaXaXaXaXaXaXsX1X1X1X1X1XsXsX3XsXsX3X3XsXaXaXaXfXaXaXgXgXaXgXgXgXdXdXdXaXdXdXdXdXdXdXlXlXlXdXdXdXlXxXxXxXxXxXxXxXcXcXcXcXcXVXVXVXVXVXoXz 9 8 p d d p z d d d g g f f f p d } u.u.} f s f | p.p. .} } ] { | | } } } ] { ..] a 0 g ' ' ' ..j.g.j.j.j.g.g 0 ' [ s [ g.g.g.h.s.s.s.g.g.g.g.6.` ` ` ` ` I I / ( 0.m.Z._.V.`.`.`.'..X.X.X|..X{..X.X.X`.C.V.0.9.9./ E E 9..X.XC.C.A.[.A.A.C.C.`..X{..X[.[.[.[.`.C.V.[.{..X.X.X.X.XZ.) ` Z 1 6 5 B B B 5 B B 5 5 B 5 6 6 6 6 1 > > $ + . & ; q e n ",
"1X1X1X2X2XaXaXaXdXdXaXaXdXdXdXaXaXaXaXaXaXaXaXaXaX1X1X1X1X1XaXsX3X1XsXsX3XsXsXaXaXaXaXaXaXfXgXaXgXgXgXgXgXgXaXdXdXdXdXdXlXlXlXlXdXdXdXxXxXxXxXxXxXxXxXcXcXcXcXcXcXVXVXVXVX_.8 9 8 d d d d d d d d d f f f d 8 d  .u.{ } s f f p.u.p.| #.} [ { {  .] } } ] { ..] a 0 a ' ' ' [ j.g.j.j.j.a.g 0 ] [ ' [ s.g.g.h.s.s.s.h.g.g.g.v.A ` ` ` ` ` ` ` ` ` I / / 9.0.m.m.V.V.V.A.`.`.`.C.C.Z.m.0.9./ W I 9..X*X X X.X{.[.V.M.M.C..X.X.X[.`.`.C.C.C.C.`.[..X[..X.X[..X.X`.[..X.X|.`.0.` V 6 6 5 B B 6 6 6 6 6 6 1 > $ $ @ # ; w w 8 9 9 b ",
"1X2X2X2X2XaXaXaXaXaXaXdXdXdXaXaXaXaXaXaXaXaXaXaXaX1X2XsX1XsXsXsX3X3X3XsX3XsXaXaXaXaXaXaXaXfXfXgXgXgXgXgXgXgXdXgXdXdXdXdXlXlXlXlXdXdXxXxXxXxXxXxXxXxXcXcXcXcXcXVXcXVXVXVXVXOX9 9 8 c d d d d d d d d d f f d 0 g { u. .s g #.g p.u.p.X.$.} p.| { ] }  .] ] ..X.] a 0 a s ' ' [ g.g.j.j.j.a.s 0 ' [ s [ i.g.g.g.i.s.s.s.g.g.j.z.W.W.P.q.I I ` ` ` ` ` ` J J I ` E ( 9.0.m.m.m.V.Z.m.V..X.X X{..X{. X X{.[.`.C.C.[..X{.{.{.{..X.X[.A.C.C.`..X.X.X{..X[..X`.`.C.A.C.[..X.X.X.X.X`.`.0.J 1 6 6 6 6 1 1 1 , > $ @ $ 2 e z e 9 9 8 l m ",
"1X1X2X2XaXaXaXaXaXaXdXaXaXaXaXdXaXdXaXaXaXaXaXaXaXsX1X1XaXaXsXsX3XsX3XsXsXsX3XsXaXaXaXaXaXgXfXgXgXgXgXgXgXgXgXgXgXdXdXlXlXlXlXlXdXdXxXxXxXxXxXxXxXxXcXcXcXcXcXcXcXVXVXVXVX=X8 9 z d d d d d d d d g d f f d a s i...' g f | f a.a.a.p.p. .p.p.|  .] ] ] [ u.p.] a 0 a s } ' [ h.j.j.j.j.s.s 0 ' [ ' [ i.g.g.g.i.s.s.s.g.g.g.g.z.T.T.E.W.P.2.A J J J ! ! ! K K A A A Z 5 w I 9.9.9.*X=X@X{.{.{.{. X{..X`.`.`..X{. X{.{.{.[.`.C.C.C.A.[..X{..X.X.X[.`.C.V.C.`.[.[.[..X.X[.[.`.C._._._._.J 1 1 1 1 > 7 7 * w U n n z 8 e z z z z v ",
"1X2X2XaXaXaXaXaXaXdXdXdXaXaXaXdXaXaXaXaXdXaXaXaXaXsXsXaXaXaXsXsXsX3X3XsXsXsX3XaXsXaXaXaXaXgXfXgXgXgXgXgXgXgXgXdXgXdXdXlXlXlXlXlXxXxXxXxXxXxXxXxXcXcXcXcXcXcXcXcXcXcXVXVXVXcXz 8 x d d d d d d d d g d f d p a { i. .} s  .f.f a.a.a.p.X. . .p.p.{ [ ] ] { u.u.[ a a a s ' ' [ s.h.j.j.j.g.] 0 s [ s [ ..j.g.g.s.s.s.h.g.g.g.g.z.T.T.T.T.T.W.W.P.2.K K V V V V V Z Z V 5 r W 9.( W W W 9.N.[.{.[.C..X[.C.[.[..X{..X.X[.[.C.V.A.{.{..X.X.X.X[.J.A.C.C.V..X.X.X.X.X[.`.C.C.V.V.V.Z.0.0.0./ 1 # $ 7 $ 1 k P ,.<.n 9 = = z z 8 8 e z ",
"1X2XaXaXaXaXaXaXaXdXdXdXaXaXaXaXdXaXaXaXaXaXaXaXsXaX1X1XaX1XsXsXsXsXsXsXsXaXaXaXsXsXaXaXfXfXfXgXgXlXlXgXgXgXgXdXdXgXlXlXlXlXlXxXxXxXxXxXxXxXcXcXcXcXcXcXcXcXcXcXcXcXVXcXcXwX7.d c d c d p p d d d d f d d 0 g u.i. .} s p. .f s.a.a.p.p. . .p.p.{ { ] [ { X.X.] a a a s s ' [ i.h.j.j.j.h.] 0 s [ s [ ..g.g.g.g.i.s.h.h.g.g.g.j.l.l.T.T.T.T.T.T.T.W.F.w.E V B 6 5 5 J / Z.`.C.C.`..X`.9.W W 9.M.V.V.V.C.`.[.A.[.[.A.A.C.V.`..X{..X.X[.[.`.`.A.[..X[.{..X.X.X.X`.`.C.C.M.V.m.0.0./ E E I $ + $ r P <.,.,.n e : u e 9 z y z z z l ",
"2X2XaXaXaXaXaXaXdXdXdXdXdXaXaXaXdXaXaXaXaXaXaXaX1XaX1X1X1X1X1XsXaXsXsXsXsXaXsXaXsXsXaXaXfXfXgXgXgXlXlXlXlXgXgXgXgXgXgXlXlXlXlXxXxXxXcXcXxXxXxXcXcXcXqXcXqXqXcXqXcXqXwXeXW.T.T.d c d p d p d d d f f g g d 8  .i.X. .s  .a.} s a.g.a.a.p.} ] p.p.{ { ] { { ..u.[ a a a g s ' [ u.s.j.j.j.h.{ a a [ s [ ..h.j.j.g.i.i.s.h.g.g.g.g.z.T.l.l.T.T.T.T.T.T.T.T.W.W.5.E ( m.V.V.C.Z.m.m.Z.Z.V.C.`.C.m.9.W 9.9.V.[.[..X[.[.[.{..X{.{.{..X{..X[.`.C.C..X.X{.{..X.X.X[..X`.V.Z.M.0.0./ / E I S k l b P n <.<.1.v : : : 9 9 c c z 8 8 8 0 <.",
"2X2X2XaXaX2XaXdXdXaXdXdXdXdXdXaXaXdXaXaXaXaXaXaXaXaX2X1X1X1X1X3XsX3XaXaXsXsXaXaXaXaXaXaXfXfXgXgXgXlXlXjXlXgXgXgXgXgXlXlXlXlXlXxXxXxXcXcXcXcXcXcXcXcXqXwXwXeXeXW.W.W.T.T.-.=.=.$.c d p p p d d f c c c d p d | u.[ } a X.p. .s p.g.g.s.a. .} p.p.p.p.{ ..{ ..u.] a a a g s s ] ..g.j.j.j.j.X.a a [ s [ ..g.j.j.g.s.i.s.h.g.g.g.g.z.T.T.T.l.l.l.l.l.l.T.T.T.T.R.W.W.W.P.P.P.P.N.9.9.0.Z.V.`.C.C.C.V.Z.M.C.[..X{..X.X{.{.{..X.X{..X{.{..X.X`..X{.{.{.{.{..X.X`._.Z.m.0./ I E I S k l v ,.<.<.<.1.+.n v & : : u u 9 c x z 8 8 1.R.E.",
"1X2XaX2XaXdXdXdXdXdXdXdXdXdXdXdXaXaXdXaXaXaXaXaXaXaXaX1XsX3X3X3X3XsXaXaXaXsXsXsXaXaXaXaXaXfXgXgXlXlXjXkXkXkXkXgXgXlXgXdXdXlXlXxXxXcXcXcXcXcXcXqXwXwXeXW.T.l.-.-.l.l.-.-.-.-.-.$.x p d p d d d o.c c f d 0 f u...[ s s p.u.s s u.h.g.s.a. .} p.p.p.p.u.u.u.u...[ a a g g s s ] ..g.j.j.j.j.s.s 0 [ s [ ..g.j.z.g.s.s.s.h.g.g.g.g.z.T.T.T.T.T.T.T.T.T.T.T.l.l.T.T.T.R.R.R.W.W.W.W.P.P.A.Z.V.V.Z.M.V.V.m.M.C.[..X{.{. X X X X{. X X.X.X X X X{.{..X.X.X[.`.`.Z.m.0.0./ I I S A k v +.+.@.1.1.,.e q l v & : u 9 9 9 f g d 8.R.E.T.T.",
"2X2X2X2XdXdXdXdXdXdXdXdXdXdXdXdXdXdXdXaXaXaXaXaXaXaXaXsXsX3XsXsXsXsXaXaXsXsXsXsXaXaXaXaXaXfXfXgXlXjXjXkXkXkXkXgXgXlXlXlXgXgXlXxXcXcXcXcXwXwXwXeXW.W.-.=.=.=.=.=.=.=.=.-.-.-.-.$.d d d p d d c +.c c d p a  .p.[ ] a ' a.u.s ' u.g.g.h.a. .} p...p.u.p.u.u.p...[ s a g g g s s { g.j.j.j.j.g.' 0 [ s ] { s.j.z.g.s.s.s.h.g.g.g.g.g.k.T.T.T.T.T.T.U.Y.Y.U.T.T.l.T.T.T.T.T.T.T.T.T.T.W.W.W.K.M.0.M.m.m.C.`.`.`.[.[.[.[..X{.{. X X X X X X X X X{..X.X.X`._.m.0./ E I S k w l v n <.+.+.+.n ; % % q v l & : : : 9 9 O.v.E.E.T.T.T.T.",
"2X2X1X2XaXaXdXdXdXdXdXdXdXdXdXdXdXdXdXdXaXaXaXaXaXaX1XaX1XsX3XsXsXsXaXaXaXaXsXsXaXaXaXaXaXfXgXgXjXlXjXjXlXlXlXgXgXlXlXgXgXdXaX9X0.w.eXeXeXW.T.l.-.-.=.=.=.=.=.=.=.=.=.=.-.-.-.*.p d d d d c @.} c d d d g { {  .f a } i...s } u.h.g.g.a. .} p.u.u.u.p.u.p.p.{ { f g g g a s s { h.j.j.j.j.j. .0 ] s [ { s.g.g.g.s.s.s.h.g.g.g.g.g.z.l.l.l.T.T.U.Y.Y.Y.U.U.T.T.T.T.T.T.T.T.l.l.T.l.T.T.Y.Y.H.M.0.m.Z.C.C.C.`.`.`.`.[.[.{.{..X X X X.X.X.X{. X{.{.{..X`.V.( E I I A e e z ,.1.@.+.n e % o % o o & ; 2 & = : u z Y.E.E.T.T.T.T.T.T.",
"2X2X2X2X2X2XaXaXdXdXdXdXdXdXdXdXdXdXaXdXaXaXaXaXaXsX1X1X1X3XsXsXsXsXaXaXaXaXaXsXaXaXaXaXaXfXgXgXjXjXlXjXlXlXgXgXgXaXdXfX2X:X]._.0.w.e.*.-.=.=.=.-.-.=.-.-.-.-.=.=.=.=.=.=.=.-.*.d d d d f #.#.M c d d 0 f { [  .f a  .a.{ g } a.h.g.g.a. .} ..u.u.i.u.u.p.p.{ { } g g g s s s [ h.j.j.j.j.j...0 ] s [ [ i.g.j.g.h.s.s.g.g.g.g.g.g.z.k.T.T.T.l.U.U.U.U.T.T.T.T.T.T.T.T.T.T.l.l.l.l.*.*.$.$.5.A.`.`.`.`.`.`.V.Z.m.M.`..X.X.X.X.X.X.X.X.X.X.X{. XOX.X`.Z./ E S Z k l m ,.+.<.@.m ; o % % % o % & * ; ; : : : u T.T.T.T.T.T.T.T.T.T.",
"2X2X2X2X2X2XdXdXdXdXdXdXdXdXdXdXdXdXaXdXdXdXaXaXaXsXsX1X1X1XsXsXsXsXsXsXsXsXaXaXaXaXaXaXfXfXfXjXjXgXjXjXjXgXfXaX2X,X;X_.).).Z.Z.Z.C.F.e.;.;.=.=.=.=.=.-.-.-.-.-.-.-.=.=.=.=.-.*.d d d c #.#.#.M f d p d } {  .} g g | a.] g } a.h.g.g.p.| s p.i.i.i.i.u.a.u.{ {  .} g g s s s ] h.j.j.j.j.j.h.0 ' s [ [ i.j.j.g.s.s.s.h.g.g.g.g.g.z.k.l.l.T.l.T.T.T.T.T.T.T.T.T.T.T.T.T.l.l.*.-.*.*.r.3.w.N.C.`.`.`.[.[..X.X`.`..X.X.X.X.X[.`.`.V._.V.m.m.m.m.M.0.( / I A k v n +.<.+.o.c +.n ; = & & & & ; q q w q q 9 9 8 &.l.E.T.T.T.T.T.T.T.",
"2X2X2X2X2XdXdXdXdXdXdXdXdXdXdXdXdXdXdXdXdXaXaXaXaX1X1X1X1X3XsXsXsXsXsXaXaXaXsXsXsXsXaXaXaXfXgXjXgXgXfXgXfX2X:X].).).m.m.m.m.m.m.M.Z.Z.B.w.*.;.=.=.=.=.=.-.-.-.-.-.l.l.l.-.=.-.*.d a f +.@.c #.c g d p f  .[  .f a f a.p.] d | i.g.g.h... .f | i.i.i.i.s.a.u.{ {  .} f g s s s ] ..g.j.j.g.j.h.a ' s [ [ ..g.j.g.s.s.s.h.h.g.g.g.g.j.z.k.l.l.T.T.T.T.T.T.T.T.T.T.l.l.T.l.=.*.*.%.0 %.w.`.`.`.`.C.M.M.C.`..X.X|..X.X.X.X.X`.`._.V.m.Z.0./ / E E S E E L l v n <.1.1.<.,.<.1.6.b q & & - ; q w w w w w w e 8 y &.&.x.T.T.T.T.T.T.T.",
"2X2X2X2X4X2XdXdXdXdXdXdXlXdXdXdXdXdXdXdXaXaXaXaXaXsX1X1X1X3XsXsXsXsXaXaXaXaXsXsXsXsXsXsXaXfXfXfXfX3X:X0X).).m.m.0.0.m.m.Z.m.9.0.0.m.Z.C.C.P.w.v.*.=.=.=.=.=.=.-.-.l.=.*.l.l.l.*.d d c +.c #.#.f d 8 p } [ [ } g a | a.X.} 0 p.i.g.g.g.X. .s X.i.i.i.i.i.u.{ { |  .} O.g s s s ] ..s.j.j.a.j.h.f s s ] [ ..g.g.z.s.s.s.s.h.g.h.g.g.j.z.k.T.T.T.T.T.l.T.T.T.T.l.l.l.=.*.*.%.$.x 8 8 0 e.V.C.C.A.`.`.V.`..X.X.X`.`..X.X`.`._.V.m.m.0./ / E I I A A S k n P ,.1.7.+.+.1.5.c.7.,.v & * ; q ; q w w w e e e z x c &.&.&.T.T.x.x.T.T.x.",
"2X2X2X2X4X4XdXdXdXdXdXdXlXdXdXlXdXdXdXdXaXaXaXaXaX1X1X1X1XsXsXsXsXsXsXsXsXsXsXsXsXsXsXsX3X1X3X;X].).).m.0.0.m.m.m.m.m.m.m.m.0.0.0.m.Z.V.V.Z.V.N.F.w.v.*.;.=.=.=.=.l.&.-.=.=.;.*.d d c M f f.f d p 8 f ]  .] h a s p.a.[ s 0 p.i.g.g.g.| | s | i.i.s.s.u.u...{ |  .} O.f s s s ' { u.g.j.| j.h.] s s ] [ { s.g.z.s.s.h.i.h.g.h.g.g.z.z.k.T.T.T.T.l.l.l.l.l.-.-.*.*.%.%.r.O.z v P o.O.$.N.Z.Z.C.V.V.V.`.`.`.`.`._._._._.V.m.0.( / I E I S S j w l P <.c.5.1.m u ,.1.1.@.,.+.R t w q w w q q w w e l v m o.+.n %.&.&.&.x.x.x.x.l.l.",
"2X2X4X4X4X4XdXdXdXdXdXdXdXdXdXdXdXdXdXdXdXaXaXaXsX1X1X1X1X3X3XsXsXsXsXsXsXsXsXsXsX1X:X;X].).).m.m.m.m.m.0.0.0.0.m.m.m._._._._.V._.Z.0.0.m.Z.Z.m.M.C.B.F.v.Y.*.=.;.=.&.-.%.-.-.*.d d M f } #.g a 8 8 }  . .} g a  .a.a.] g a a.i.h.g.s.|  .s | i.i.s.s.i.a.X...|  .} } } g s s ] ....j.j.| h.h.] s s ] [ { u.g.j.g.h.h.i.s.g.g.g.g.z.z.k.T.T.l.l.l.l.l.l.*.&.%.*.$.r.y 8 z :.5.<.<.o.@.q.0.Z.`.`.`.`.`._.V.Z.V.V.V.0.( ( / E I I A j 3 3 j b :.<.<.1.<.v 9 u : ,.o.+.+.+.1.e w w w w e e e e l v m o.o.n n +.l X.&.&.&.x.x.x.x.x.",
"4X4X4X4X4X4XdXdXdXdXdXdXdXdXdXdXlXlXdXdXaXaXaXsX1XsX1X1X1X1X3X3X1XsXsXsXsX:X:X:X;X).).0.0.0.0.m.m.m.m.Z.m.9.( 9.m.m.m.m.Z.V.V.V._._._.m.9.0.m.V.`.`.`.[.J.P.P.P.*.*.&.;.%.%.l.l.x d #.f @.f d 0 0 z }  . .f a g X.s.u.] g a ..i.h.g.s.| } s { i.i.s.s.i.a.p.X.{  . .} } } g s s [ a.j.j.| i.h.[ a a ' [ { { i.g.g.h.h.i.s.h.h.g.j.z.z.z.T.l.l.l.-.-.*.%.$.$.r.O.y y n <.7.7.<.@.1.O.o.2.M.m.V.`.`._._._.V.m.m.m.( E I I L A k k r e l r r <.8.1.,.w = : n c o.,.1.+.1.,.@.w w w w w e l z m n ,.+.o.+.<.<.n ; : %.&...&.x.x.x.x.",
"4X6X6X6X6X6X6X6X6XdXxXxXxXxXdXdXlXdXdXdXdXaXaX1X1X1X1X1X1X1X1XsX:X:X:X:X;X].).0.0.0.m.0.9.9.9.0.0.m.Z.Z.m.m.0.0.9.( ( 0.0.0.m.m.V.V._.`.`.`.`.`.V.Z._._.`.`.[.}.}.P.P.Y.w.w.Y.Y.c g } #.#.g a 0 d @.}  .} g a } a.s.u.} a } ..i.h.g.a.| } s { i.i.s.s.s.a.p.| [  . .} } #.} s s ' p.j.j.a...j.{ a a ' [ ..{ ..a.s.h.h.i.i.h.h.g.j.g.z.z.k.l.=.=.*.r.$.$.O.0 8 z n <.1.8.8.1.o.<.o.O.,.>.C.V.Z.Z._.Z.Z.Z.Z.m.0./ E I A A j t k b P P ,.R r ,.v = = : : u o.@.@.@.<.+.1.o.@.w w w e z v z n ,.,.,.<.<.,.n 8 : & & u $.&.&.&.*.k.l.",
"6X6X6X6X6X6XxXxX6XdXxXxXxXxXdXdXlXdXdXdX2X2X2X1X1X1X1X1X1X1X:X:X;X].).0.0.0.0.0.0.0.0.0.( ( 9.0.m.m.m.m.m.Z.V.V.V.V.m.( ( 9.0.Z.V.V.V.V.`.`.`.'.`.`.m.Z._.`.[.{..X{.{.}.}.}.}.K.c f } #.h d d 0 #.} } } f a f | s.s.u.s 8  .u.i.i.s.p. .] ' u.i.s.h.i.i.u.p.{ [ ]  .} } } } s f f p.j.j.g.{ j.a.s a ' { ......i.i.h.h.i.i.i.h.h.g.g.z.z.z.*.&.%.r.@.O.y y :.,.,.@.1.7.1.<.+.o.<.o.x <.>.9.0.m.m.m.m.m.0.( / E I S r j k b b ,.,.5.1.1.L A ; & = = : : u o.+.1.1.<.1.c <.$.w e v m m n ,.o.,.5.5.1.n q : : : = & & 8 &.&.%.%.%.%.",
"6X6XqX6XdXdXdXdXdXxXxXxXxXxXdXdXxXxXdXdX2XaXaX1X1X1X1X:X:X;X;X).0.) ( 0.0.0.0.m.m.m.Z.Z.m.9.0.m.m.0.0.m.m.m.m.m.m.m.V.V.9.0.m.m.m.V._.V.Z.Z._.`.`.'.'.V.`..X.X.X`.C.`.C.C.V.C.C.c } } #.g a p p #.} } } g a ] X.s.s.X.f 9 ..u.i.i.u.X. .] ] u.i.s.g.i.u.p.| { [ [  .} ]  . .' s s u.j.j.g.] j.g.s a ' [ ........i.h.s.i.i.i.h.g.g.g.z.z.z.$.O.%.0 e n ,.5.5.5.7.1.b c c o.+.n <.<.o.:.P W E ( 0.0.0.) / E J J k k b b ,.5.c.F.c.7.R w X j 3 * = : : : 9 +.+.1.o.o.<.+.@.1.z c n ,.,.+.<.5.5.5.P ; & = : : ; = & & & 0 &.%.%.%.%.",
"qXqXxXqXdXdXxXxXqXxXxXxXxXxXqXqXwXwXwXwX9X2X2X1X1X1X:X;X).!.) ) ( ( 0.0.0.0.0.m.m.m.Z.Z.Z.V.V.V.Z.0.9.0.0.0.0.m.V.V.V._._.`.`._.m.9.m.m.m.m._.`.`..X.X.X`._.`.Z.Z.9.0.9.0.( / / M #.#.h g a p c #.h } f a } [ a.g.s.{ a a u.a.a.i.a.| } ] [ u.s.s.s.s.i.u.{ [ [ [ | | } } } ' s s u.j.j.z.g j.j.' a ' { ........i.s.s.s.a.a.g.g.g.g.j.z.z.k.x O.+.3.7.5.7.w.,.k = = n o.o.<.<.<.<.x m v I E / / / / _ E S k k v b ,.7.7.7.c.5.b * X X X 1 r & = : : : 9 +.+.8.o.1.c 1.8.1.1.1.<.,.<.5.c.5.n ; * & & = : : ; & & & & & g %.%.%.%.",
"qXqXqXqXxXqXqXxXqXqXqXwXwXeXW.W.Y.Y.Y.Y.W.W.%X,X:X;X).!.) / / W / ( ( ( 9.0.0.0.0.0.0.m.Z.Z.V.V._.V.( ( ( 0.m.m.V.V.V._.V.V.V.C.`.V.9.9.m.V.V.`.`.`.`.`.`.V.m.V.m.9./ ` E J J I #.| h g d p d #.} } } a f  .{ i.g.s.{ a s u.a.a.p.p. .] ] [ ..s.s.s.i.u.{ { { [ { |  .| | } s ' ] u.j.j.z.s j.j.X.0 s { ........u.i.s.a.a.a.a.g.g.g.g.j.z.z.@.O.8.w.w.,.P q u 9 e 8 +.8.5.3.7.8.1.<.x e U I / / E / E S k v P 3.c.c.8.7.3.l o X X X X X $ r & & = = : 9 +.+.8.8.8.1.7.1.1.@.+.<.8.c.5.b & % % % % & = = : ; & & & & & o 9 ' %.%.",
"qXqXqXxXqXqXqXwXwXeXXXW.Y.*.*.*.*.*.*.-.-.l.T.Y.W.P.!.` I I I I E W / / ( ( ( ( ( 0.0.0.m.Z.V.`._._.Z.9.m.0.0.m.m.m.m.Z.Z.V.C.`.'.`.V.m.V.V.V.`.`._.`.`.`.Z.`.Z.0./ I J ! ! J J n f g a p p } #.h } f a #. .u.h.g.s.{ 0 X.i.a.p.a.X.] ] ] ] u.s.s.s.i.u.{ { { { { { | | | ' s ' ] s.j.j.z.} j.j.a.0 s [ ..{ ..u.i.u...a.a.a.a.g.g.j.j.j.z.z.$.o.<.R t = : : u 9 o.+.<.8.<.<.+.@.1.o.n 8 e r I E E I r w b 5.F.P.7.7.,.w & % % % o o $ 2 r t w w q u : 9 O.@.1.8.1.8.1.+.+.1.1.7.5.v & % & & % % & & & = = ; & & & & * % : 9 z x ",
"qXqXxXxXqXwX=XXXw.*.-.-.-.*.*.*.*.*.*.*.*.*.*.*.-.-.Y.7.U k k k L L E W E W W / / ( 0.9.0.M.Z.V._._._.`.`._.m.9.9.0.m.m.V.`.`.C.`.`.'.'..X.X.X.X`..XV.C.C.Z.0.) I ` ! ! ! J J A R a g d p d } } } } d c } | i.g.g.g.p.a X.a.a.p.p.| ] ] ] { s.g.s.a.....{ { { { { u.p.|  .s ' ] ] g.j.j.z.} j.j.s.0 a [ ..{ { ..a.i.....a.a.a.g.h.j.j.j.z.g.d.0 z 2 = : : : 9 9 c +.@.1.<.1.<.+.1.o.o.u e 2 j S S L W n.6.5.7.5.b ; ; w 2 = & % ; w r w w e e e e l z z c 1.8.8.<.+.+.1.1.c.3.k * - 2 ; ; * * ; ; = = = * = & & & * & % ; 9 l l ",
"qXwXwXeXXXP.Y.*.*.*.=.=.-.*.*.&.*.&.*.*.*.*.*.=.-.-.-.-.Y.<.q q t k L L L I E W / / / ( 9.9.0.V._.`.`.`.`.`.`.Z.0.0.m.V._.'..X`._.`.'.'..X.X`.{.[.{.A.b.( ` ! ! ! ! ! ! ! ! ! ! n f c p p O.#.#.O.g a #.] ..s.h.g.g.d.s u.{ ..p.p.{ ] ] ] { a.z.g.u.{ ....{ { ..p.u.{  .] ' s ] | j.j.j.z.} j.j.s.a s [ { { ..{ u.s...{ u.a.s.h.g.j.j.z.j.z.z.v.x ,.e : u u 9 8 c O.1.<.1.1.7.1.<.O.O.8 e ; v P 4.5.P.G.<.o.n n t l e l ; % ; q w e e e w l e e z n ,.,.1.8.1.+.@.1.8.1.1.l - 3 j w w 2 ; 2 q ; q q q ; q q * & & & = & q w e e ",
"eXP.w.*.*.*.*.*.=.*.=.-.=.-.=.&.&.&.*.*.*.*.=.-.=.-.=.-.-.l.Y.z ; 2 r r k L I E W W W ( 9.9.9.m.m.V._.`.`.`.`.`.`._.`.'.'.'..X.X`.m.V.`.`.`..X`.m.( ( J K K K K K ! ! ! ! ! ! J R O.d p 8 #.#.h } a }  .[ u.s.g.g.g.|  .i.i.....{ [ ] ] [ { p.g.g.{ ] ..u...u.a.a.p.{  .] ' s ] a.j.j.j.z. .j.j.h.a s [ { { { [ u.s.X.{ ..a.s.i.h.j.j.z.j.z.z.z.O.z 9 : u 9 9 9 o.@.1.1.<.5.c.8.<.+.O.x e u z n c.c.c.+.,.5.7.5.P v ; & ; w w w w w w w 3 k l m n ,.<.1.<.+.1.c.8.1.<.5.+.k A k j w q q 2 w w w e e e e w w * & & = = & w w w w ",
"*.*.*.*.*.*.*.*.*.*.*.*.=.*.*.*.*.*.*.*.*.*.=.=.=.-.-.=.-.-.l.T.@.q & 2 w k S U E W / ( E ( 9.0.m.Z.V.V.C._.`.`.`.`.'.`.'.'.'.`.`..XV.m.) ` J K ! ! ! ! ! K K K K K K K K K K J R +.p p d c } f g d #.] { u.i.s.g.a.s | s.s.s.p...| ] ] | [ [ a.a.[ ] { p.u.a.a.a.p. .] ] ] ] { s.g.j.j.z.| j.j.g.s s { { { { [ u.a...{ { i.i.i.h.g.g.z.z.j.z.z.$.e : : u 9 9 9 o.@.1.8.1.<.<.<.8.o.n O.e u z z <.:.,.<.5.,.1.v q = ; w w w w w w w w e w k b ,.<.<.<.@.1.c.F.c.,.+.c.,.n k r r w w w w w w e e e e v v b b * & & = & & l l e w ",
"=.*.&.*.*.*.*.*.*.*.*.=.*.*.*.*.*.*.*.=.*.;.;.*.=.=.=.-.-.l.l.l.l.T.e.9 ; q w A L E W I Q ( 9.9.0.M.M.Z.V.V.V._.V.V.V.V.V._.V.`.`.0.I K K K K K K K ! ! ! ! ! K V V K K K ! ! ` Q M p d f a } f a #.} [ ..s.s.s.s.{ g a.i.g.s.a.a.| | | ..{ { ..{ [ ] { p.a.a.a.p.|  .] ] ] ] p.h.j.j.j.j.X.h.h.h.g s { { { [ [ ..a...{ { i.u.i.i.g.g.j.z.j.j.z.d.8 = : u 9 9 8 +.@.1.c.7.1.8.8.@.c z O.u = e 8 n 3.5.5.,.5.b 2 w w w w w w w w w w q l k P <.<.<.,.1.c.F.F.7.,.+.1.+.+.<.k q w w e e e w e e e l b R P b L & & & * & % l l l l ",
"-.-.*.&.&.&.*.*.*.=.-.-.*.=.=.=.*.*.*.-.-.;.&.;.;.*.*.=.=.-.=.=.-.l.l.T.Y.o.q 2 t U U U Q W ( 9.9.0.m.m.m.m.M.m.m.m.m.m.Z.m.0./ J K K K K K K ! ! ! K K ! ! ! ! K B B K K ! ! J I c d d a f } a g  .} ' u.s.g.g.u.} a a.g.g.g.a.a.p.p.p.X.p.p.{ {  .[ p.a.a.a.p.p.[  .] ] ] { u.h.j.j.j.j.u.h.h.h.0 s [ { { [ [ ..u.X.{ ..u...u.i.h.g.j.z.z.z.z.k.q ; : : : 9 9 o.@.8.7.1.<.8.7.8.o.v 0 : = 8 9 m 5.,.,.,.1.R k e e e e w w w w z b b v L R <.<.1.c.c.c.R q 1.<.n 1.<.@.+.e e w w e l e e e e b R R L L I L & & & * & & k l l l ",
"=.-.-.*.*.&.&.&.&.*.-.-.=.=.=.=.=.=.-.-.-.-.=.=.-.=.*.*.=.=.=.=.-.-.l.l.l.T.T.v.,.e t k L E W W ( 9.9.9.9.0.9.b.0.m.0.0.` K V K K K K K K K K K K K K K K ! ! ! ! ! ! K K K K J E c d 0 a #.f a } } } s i.g.s.a. .} a g.g.j.g.g.d.d.p.X.a.p...{ { { { a.d.a.a.p.p.| ] ] ] ] u.i.h.j.j.j.j.i.h.h.s.0 s { { { { [ ....{ { ........u.i.i.g.z.z.z.j.v.t q q w e e 9 x O.1.1.7.c.c.8.1.c z O.: q 8 y o.<.v n 1.7.n e e e l l l v b b m ,.5.,.t e c.c.c.7.b : = u <.,.,.<.+.+.,.e w w e l t e w v P 2.R I E E E I & & & & & & L k b L ",
"*.*.*.*.-.-.-.*.&.%.*.=.-.-.-.-.-.-.-.-.-.-.-.-.-.-.-.;.;.=.=.=.-.-.-.l.l.l.l.l.T.Y.<.q t S L L I W / 9.9.0.m.9.9.9.I K V V V V K K K K K K K K K V K K K K ! ! K ! ! ! ! ! K V R d p 0 h d.c f  . .s ] i.g.s.X. .} g g.g.g.g.g.d.X.{ p.a.........u.a.d.d.a.a.p.| |  .] ] [ u.i.h.j.j.j.j.a.h.h.i.0 ' { { { { [ { { { { ........u.i.i.i.j.j.z.z.M w w e t l v m o.8.8.7.c.c.c.c.7.c z x e e m ,.,.<.+.,.7.1.b e e e z m n n ,.5.5.<.,.3.W R 6.c.b : : : l n +.1.1.1.1.1.,.w w w e w w l P R W E E E I I I S & & & & & ; 4.4.9.D.",
"*.*.*.*.*.*.-.-.-.*.%.&.*.=.-.-.-.-.-.-.-.-.-.-.-.-.-.=.;.=.=.-.-.l.l.l.l.l.l.l.l.l.l.Y.3.e t k S I W ( 9.0.m.9.E Z V V V B V V V V V V K K K K K B V K ! ! ! ! ! ! ! ! ! ! ! K R d p 0 } #.a } #.} a ] s.g.a. . .} } s.s.s.g.s.p.{ X.p.X...u.u.u.a.a.d.a.a.p.p.X.p. .} ] { i.s.h.j.j.j.g.i.h.h...0 ' { ..{ { { [ { ..{ { { { ..u.i.g.g.g.z.z.@.1 1 2 r v b m <.7.8.c.F.F.c.c.8.n x 8 0 o.x m n 1.+.<.n +.1.n l l m n n ,.5.7.1.,.5.1.F.4.b.k = : : : : z +.+.1.1.@.<.<.P w e w e k L P R I I I L I I I I S & & & * & w N.B.H.H.",
"*.&.%.*.*.*.=.-.-.-.*.;.;.;.*.=.=.-.-.-.-.=.-.-.-.-.-.l.-.=.l.l.l.l.l.l.l.l.l.-.-.=.=.-.l.Y.w q k E 0.V.`.Z.E 5 6 B B B B B B B B V V V V K K K K K K ! ! ! ! ! ! ! ! ! ! ! ! ! R c 0 a } s f | } f a { s.g...[ } f { s.s.g.i.s.| p.{ { u.p.p.p.a.a.a.a.a.a.a.a.p.p.| ] ] p.i.h.h.h.j.j.g.h.h.h.[ a ] ..{ { { { [ { { { { X.X.u.s.i.g.g.g.z.v.1 1 1 1 1 t P o.1.c.P.P.F.1.8.1.8.n = u 9 o.n o.1.<.7.7.c.,.c.m v n n ,.5.5.,.1.1.F.F.5.4.; X % = : : : ; z o.+.1.+.+.<.+.n e e e b Q L I I I I I I L I I I S & & & & & k L.L.L.L.",
"*.*.%.%.*.*.*.=.-.-.-.-.-.-.-.=.;.;.*.*.*.=.=.=.=.=.-.-.-.=.-.=.=.=.=.=.=.=.=.=.=.;.&.&.%.e.9.Z.oX X X XoX*X=XoX) 6 6 6 6 B B B B B V V K K K K K K K K K K K K K K K K K K ! ` R c p h ] s  .| } a s ..h.a.| ] s | a.i.i.s.g.s.p.X.{ { p.a.a.a.a.a.a.a.a.a.a.a.a.p.| ] ] u.s.h.h.j.j.h.s.g.h.h.{ g [ ..{ { { { ] [ { p...p.p.u.s.g.g.g.z.v.l 1 > 1 1 1 1 P 7.P.P.P.<.8 8 @.@.@.e = = 0 o.n ,.,.+.c.7.1.c.c.5.3.5.F.7.5.3.7.F.F.F.4.3 o 1 X % = = = : : z n +.1.+.<.6.<.n l L L Q I I I L I L I I I I I E L & & & * ; L K.L.L.L.",
"*.&.%.*.*.%.*.=.*.*.=.-.-.-.-.l.-.*.;.&.*.*.=.*.=.=.=.=.=.=.=.-.=.=.=.=.;.;.;.&.%.%.%.3.P.}..XOX{..X|.{.|. X X*X*XoX_ 6 6 6 6 B B B B V B V K K K K K K K K K K B B V K ! ! ! ! I x g $.| } |  .f a ' u.g.X. .s #.d.p.X.p.s.g.u.p.p.{ ..p.a.a.a.a.a.a.a.a.a.a.a.a.p.p.| { i.s.h.h.j.j.h.s.h.h.h.u.s { u.{ { [ ..{ [ ..p.u.a.p.u.a.g.g.d.+.- > > > > 1 1 1 ,.P.F.,.9 9 9 8 8 <.@.e = : 0 c o.<.1.O.,.1.c.c.c.7.7.5.5.F.P.P.F.F.R - X o % 2 X % = = = = = z n +.<.+.1.,.b b P L I I I I I L I I I I E E W ( W & & & ; w W K.K.K.K.",
"-.*.*.r.r.%.*.*.*.*.*.*.=.=.-.-.-.-.;.*.;.*.=.=.*.*.=.=.=.=.=.=.=.;.=.;.&.&.%.%.O.5.P.OX[..X.X.X`.`.`.`.[.`..X.X.X{.*X.XJ 6 6 B B B B B V K K K K K K K K K K K V B V K K K K K A c d.#.| [ | } a a ] u.p.| f s z.p.$.X.a.s.s.u.a.a.p.{ p.a.a.a.u.p.a.a.a.a.a.a.p.p.p.p.u.i.s.h.h.h.h.j.a.h.h.h.h.] { ....X.{ | p.{ ..| ..p.a.u.a.z.v.; * > > > > > 1 1 1 k v u 9 9 9 8 8 9 @.@.t = = 8 z n 1.c.1.7.c.c.c.5.1.1.5.P.K.P.n.L - $ * * * % - 2 ; & & = = = v o.+.,.,.m P R P I I I I I I I I I L I I W 9.M.C.9.& & & ; r W }.K.K.}.",
"*.*.*.*.*.$.O.%.*.&.;.;.=.-.-.=.=.-.-.=.-.=.*.=.=.*.=.=.;.;.*.*.;.;.&.%.%.r.e.w.[.`.C.`.C.C.`.`.C.V.m.m.M.M.0.9.M.`.{. X=X_.J V K K V K K K K K K K K K ! ! ! ! ! ! ! ! K K V V V +.f.| | [  .f a a ] u.| } g ' g.X.| ..u.a.s.a.a.d.d.p.p.p.a.u.u.u.a.a.a.a.a.a.a.p.p.p.u.i.s.h.h.h.h.h.p.h.j.j.h.u.] ....a.X.{ p.{ p.X.{ p.a.p.d.+.- > > > > > 1 1 1 1 1 1 9 8 8 8 8 8 e 8 <.@.e % & = e n 1.c.F.F.c.1.<.1.5.F.P.K.G.I 5 Z A A 5 ; - w k t t e w q ; : e n n n n P P L L E E I I I I I I I E W n.J.K.L.}.9.& & & ; j W }.K.L.K.",
"*.*.*.*.=.=.&.%.%.*.&.;.=.-.-.-.=.-.-.-.*.-.=.*.=.=.=.*.;.;.&.%.%.%.*.e.8.P.B.C.C.M.M.m.M.M.V.C.C.Z.9.( W ( V..X.X.X{. X X*X=X'.` B V K K K K K K K K K K K K K K ! ! ! ! ! K B B +.} } ] [  .g a g  .p.| s }  .g.X.[ p.u.u.u.p.a.p.d.a.p.p.a.u.u.u.u.p.p.a.a.a.p.u.u.u.i.i.i.s.h.h.h.g.X.j.j.j.j.h.' ..u...X.X.{ { p.p.| #.#.n ; * > > > > > > > 1 1 1 > 1 8 8 8 8 8 8 8 8 ,.<.l % & & q n c.3.<.,.,.<.5.F.F.P.w.I 5 Z S J S A r e k l e w e e t e e l n +.,.R R I E I E E E E E I I I E W b.H.L.K.L.}.}.9.& & & ; k / K.}.$XK.",
"*.*.=.=.=.=.=.&.%.%.%.&.*.*.*.=.-.-.-.l.-.=.=.;.;.;.*.&.&.&.%.*.$.e.3.P.B.M.M.M.0.0.b.9.9.9.m.M.V.m.9.E 9.m.N.C.C.`.`.[.{. X X*X*X).I Z V K K K K K K K K K K K K K K K ! ! ! ! J z #.} ] | } a a g X.p.| } } X.g...{ ..u...X.X.X.p.p.p.a.p.u.u.u.u.u.u.u.u.u.u.u.u.u.i.i.i.s.s.h.h.g.s.u.j.j.j.j.h.] ..i.{ | p.| | #.M e * $ $ 7 > 1 1 > > > > > 1 1 1 1 - e 9 8 8 8 8 8 8 ,.<.b 2 & & 8 n m n ,.,.5.c.P.P.c.A 5 Z S I S k j e k k l e l l l t e v n n R R R W W W E E E E I I E I E W 9.J.K.L.L.K.L.J.}.9.* & & 2 j 9.#X$XK.K.",
"*.*.=.=.-.-.-.*.*.%.%.%.%.*.*.=.=.=.-.-.=.*.*.%.&.*.%.%.*.$.8.3.q.B.M.M.M.0.9.9.9.9.9.9.9.m.C.A.`..X.X.X.X`.m.m.V.C.C.`.`.[.{. X*X*X=Xm.B B V V V V V V V K K K K K K K K K ! ! J z c g h | h a a g d.p.| #.g a.s.u.X.p.a.{ { { { { ..X.p.u.u.u.u.u.u...u.p.p.u.u.u.i.i.i.i.i.s.s.h.j.a.h.j.j.j.j.g.....p.| #.#.z 9 & $ $ $ 7 > > 1 , > > 1 1 1 > 1 1 1 1 1 ; 9 9 9 9 9 9 8 +.,.R R w k P R ,.<.5.F.P.P.c.5.W j S S S A j t l k k l l k k l v b n ,.,.n I E E E I E E E E E E E E W 9.A.#X$XK.K.$XK.K.$X}.( * & & 3 j 9.#X}.$X#X",
"-.-.=.=.-.=.;.=.l.-.-.*.%.*.*.*.&.&.*.-.-.&.%.%.%.*.8.3.q.N.M.9.9.9.9.9.9.9.9.( 9.9.9.9.m.M.N.C.C.A.C.`..X.X.XV.m.M.V.V.`.[.[.[..X|. X=X*X( 6 5 B B B V V V K K K K K K K K K K S x z d f | f a g s | | #. .} { p.[ ..u.a.p.u.{ { { ....u.u.u.u.u.u...u.u.p.p.u.u.i.i.i.i.s.a.u.i.g.j.X.j.j.j.j.z.j.s.X.d.b ; # $ $ $ $ * > > > > 1 1 1 > 1 1 > > > 1 , , 1 , w e 8 8 9 9 9 o.5.3.v ; : l b 2.F.c.F.c.5.c.c.4.S S j w e e t t l l l l t l b P 6.5.,.Q Q E E E E I E E E E E E W 9.B.K.K.K.K.K.#X#X$XK.}.}.( * & & 3 j 9.#X$X$X$X",
"-.-.=.=.=.=.*.=.l.l.-.*.*.*.*.&.%.%.%.%.r.O.e.8.7.w.q.0.m.m.m.9.9.m.m.m.m.m.m.9.( ( 9.M.M.M.M.M.N.V.C.A.`.[.[..XC.9.m.V.C.A.A..X.X X X*X=X-X*X) 6 6 B B B B B B B V K K K K K K S m d d 8 } O.8 g s s a c } | { ' ' ] { X.p.p.p.{ ..{ { ..u.u.u.u.p.{ u.u.p.p.u.a.a.i.i.s.s.i.u.u.s.h.u.j.j.j.z.z.j.k.z - $ $ $ $ 7 > > > > > > > > 1 1 1 1 > > > > > > > 1 > 2 v m m m ,.,.5.,.z e e b e e ,.P.F.,.,.5.c.c.b k w w w e l e e l l t l b ,.,.3.4.2.W E E E E E E I E I I I W 9.B.L.#X$XK.}.}.#X}.$X}.$X$X}.W * * = 3 j M.$X#X$X$X",
"*.-.=.=.-.=.=.*.*.=.*.%.r.r.r.r.e.e.1.3.q.q.q.0.M.N.Z.M.M.M.Z.M.M.M.m.m.m.9.9.9.9.9.9.9.9.0.9.m.m.M.M.M.V.C.`..X.XC.A.C.C.C.C.C.A.[..X{.oX*X=X-X-X_.` 6 B B B B B B B V V K K K A l l 9 9 9 f d g  .' g 0 g p.p.{ [ ] ] ] ' [ | { { { X.p.u.u.u.....u.u.u.u.p.p.a.u.i.i.i.a.a...u.u.g.s.s.z.j.z.z.v.w $ $ $ $ $ $ > > > > > > > > > > > > > > > > > > > > 1 , , v n ,.1.1.,.m z z v n ,.q e P 5.5.,.w.<.5.c.q w e t t w t e t l v v P ,.6.R W W / / W W E E E I I I E W 9.C.J.L.}.}.K.K.K.K.}.}.#X$XK.}.}.W & * - w j M.}.}.}.$X",
"*.*.=.=.=.=.=.*.&.&.%.0 x O.<.3.q.q.0.M.M.M.M.m.m.0.m.m.m.m.m.0.9.m.m.M.V.V.V.C.C.V.V.9.9.9.9.m.b.9.9.m.M.C.`..X.X.X[.`.`.M.M.M.M.N.C.A..X{.*X=X=X*X-X,XoX_.m.0._ Z B B B V K K K V r z f f } 8 O.#.s } } a a.a.p.p.p.| | { ] ] ] ' ' ] { u.u...{ [ { u.....{ p.a.u.a.i.a.s.d.z.z.s.j.z.p.j.j.k.+.$ $ $ $ 7 $ $ 7 > 7 > > > > > > > > > > > > > > > > > 1 1 , < 2.5.<.o.z e y b 1.7.8.1.w l n <.5.<.,.1.5.,.e e e k t w w e l v m n ,.R E E E E / / / W E E E E E E ( Z.J.}.K.K.#X}.K.K.K.#X$X}.K.}.$X$X#XW * * * w j N.%X$X$X$X",
"$.*.*.*.&.*.&.%.%.%.O.:.q.q.0.M.M.M.0.0.0.M.M.M.M.0.9.9.9.( ( 9.m.m.m.m.N.V.M.M.M.M.M.C.m.9.9.9.9.m.M.M.V.C.C.`.`.`.[.[.[.[.`.9.9.9.m.C..X|. X X XoX@X*X X*X X|.'.oX^.B B V V B B B r +.d.| | d #.#.#.}  .s p.z.a.a.a.p.a.p.p.p.....] | | { ..{ | { ..X.X.X.[ a.a.z.z.g.z.z.z.z.z.i.j.z.| z.d.; $ $ $ $ $ $ $ $ 7 7 > > > > > > > > > > > > > > > > > , 1 1 , w 2.n v z z P ,.3.1.<.o.x w l b 7.5.5.7.<.@.,.w e t e e w e b P P W R W W E E E E / / W W E E W W ( M.J.{.K.$X$XK.K.K.K.K.}.J.K.K.K.#X$X$X}.I * * * w j B.#X$X$X&X",
"O.*.*.&.;.%.%.O.o.2.9.9.9.q.9.0.0.M.0.m.Z.M.M.M.M.M.0.9.W ( 9.m.m.0.0.b.M.m.m.m.M.V.V.V.V.M.9.9.m.M.M.M.M.M.V.C.C.`.[..X.X.X.X.X9.9.`..X{..X[.[..XC.C.'..X`.A.`.V.m._.) B V B B B B r +.$.p.} } #.} #.] |  .p.d.a.a.a.a.a.a.a.a.i.a.| k.z.a.i.a.z.u.s.g.g.z.a.s.i.z.z.j.g.g.s.d.d.s.z.d.f #.$ $ $ 7 7 7 > > > > > > > > > , , > 1 1 1 1 > > > > > > > 1 , , 2 q.v e e v 5.1.,.o.m y x c l 4.,.7.,.,.n c +.+.e w t e l b U R 2.W W E E W E E E E E E E E E E ( 9.J.}.%X$X$X$X}.#X#XK.K.K.K.J.$XK.K.K.}.$X$XL = * * w j H.$X$X$X$X",
"q 0 0 %.%.r.o.2.9./ 9.9.9.9.9.9.9.0.0.0.0.m.M.M.M.M.M.0.9.m.9.9.m.9.9.9.m.m.m.Z.V.N.N.M.M.V.V.M.9.9.m.M.M.M.V.V.C.A.`.[.[..X{. X|. X X*X X.X[.A.`.A._._.V._.Z.0.( I J V B B B 6 6 6 t +.#.f.f.X.} } f  .} #.X.d.a.a.a.s.a.s.g.s.s.s.| s.g.s.g.g.z.a.s.g.j.z.z.z.g.s.g.z.s.s.f.9 M M 9 o + # $ $ $ 7 $ $ > > > > > > > > > > > > 1 1 1 > 1 > > > > > > , , , 9.P.P e z z x x y y y z x o.l ,.,.,.n ,.n x x n e e l k b R W 2.W E W W E I I I W / E E W W W n.H.K.$X$X$X$X&X$X#X%X&X&X%X%XXX}.%X&X%XK.K.}.$XS * * * w j L.&X$X$X$X",
"m @.e.O.0 z R W W W W W ( 9.9.9.0.0.0.0.m.M.M.Z.Z.M.M.M.N.M.N.m.9.9.9.9.9.0.m.M.M.C.`.[.`.C.C.`.C.m.0.m.M.M.V.V.V.C.A.{..X{.[.[..X[.{. X|.@X@X.XV.C._._._.0.) E I J 6 > 7 @ 1 6 1 7 2 M #.#.$.d.#.+.: l w c f.d.d.a.a.a.s.s.g.s.s.u.p.a.a.g.g.g.z.d.s.s.i.z.g.g.d.f.| f.f.M $ o o $ . . . + # # # $ $ $ $ $ $ $ $ $ > > > > > > 1 1 > > > > > > > 1 1 1 , 2.XXP.w.y z 8 8 z z z x +.@.1.e P P P ,.,.<.1.n ,.l L 2.W P W W E E E E E E E E I L I E / 9.N.L.$X$X$X$X$X$X$X&X&X&X$X%X&X$X&X&X&X%X&X&X$X}.}.{.k * * & w j }.%X&X$X$X",
"-.-.-.-.T.8.n P P Q W W W ( 9.9.9.0.M.Z.Z.M.M.M.M.M.m.M.M.M.M.V.N.9.( 9.9.m.M.V.V.V.C.C.`.`.`.`.`.`.C.M.m.m.m.m.M.M.C.C.`..X{..X{.`.C..X`.`.[..X.X.X`.V.m.( I J S 1 X # $ $ 7 7 7 1 2 t q 9 l l p &   .     % ; 9 d #.d.d.a.a.g.s.| d.d.a.i.s.g.d.d.d.a.p.d.d.c w - & # # o Z # . + . . . + + # # $ $ $ $ $ $ $ $ $ > > > > > > > 1 > > 1 > 7 > > > , 1 q.XXXXXXF.R = & m z x o.<.+.+.1.w P n x n ,.<.P ,.R 2.n.4.2.Q E E I I I I E E E E E E W ( b.B.H.$X&X&X&X&X&X$X$X%X%X%X%X&X&X&X&X&X$X&X$X$X%X$X}. Xr * * * w r }.}.$X&X&X",
"=.=.=.-.-.l.Y.,.b P I W W W ( 9.9.0.0.M.Z.M.M.M.M.M.M.M.M.m.M.M.V.Z.W ( 9.m.M.V.V.C.`.`.`.`..X.X{.|..X.X.XV.9.9.9.M.C.`.[.A.`.C.[..XA.A..XC.C.V.C.Z.m.0.E I I L k e * . # $ > 1 3 A L 2.w .   X     . . . . . . . . + * ; 9 p f M c c o.M f M #.+.M M d l ; # $ $ $ 7 7 $ Z 6 o . .   . . + # # # $ $ $ $ $ $ $ $ $ 7 > > > $ $ $ 7 > > > > 7 > > - w w.XXXXXXXXP.w.q & x <.<.8.5.<.@.,.w P n +.b P P ,.,.4.q.9.I E I I I I E I I I I I E E W M.S.K.#X$XK.L.L.&X&X&X&X&X&X&X$X$X%X%X&X&X&X&X$X$X&X%X$X}.%Xr = * * r w K.XX}.#X$X",
"=.=.=.=.=.-.-.T.8.b L L I E W W ( 9.9.0.m.M.M.M.Z.M.M.M.N.V.V.C.`.`.V.m.M.9.m.M.M.M.V.V.V.M.M.M.M.V.C.C.`..X`.V.C.M.V.`..X[..X`.C.C.C.N.V.V.V.Z.m.0./ I S I Q 5.5.b r 2 2 3 j P 2.5.5.5.r O . .     .   . . . . O O # # # # $ $ $ $ $ $ + # # # # # 7 7 7 7 > 7 > > > > * 1 $           . . + # # # $ $ $ $ $ $ > > $ > > > > $ $ $ $ $ > > $ $ * L P.P.XXP.P.P.P.F.U P 1.<.<.<.<.o.+.,.e b n ,.2.2.,.2.q.2.W E E I E I I I I I I I I I E ( B.{.}.$X%X$X&X&X&XXXL.H.K.&X&X&X&X%X%X&X%X&X%X%X&X&X&X&X&X%X%Xw = = - r r #X}.K.}.$X",
"=.=.;.=.=.=.=.-.l.Y.<.b L P R W W ( 9.9.0.0.0.0.m.M.N.C.V.V.V.V.V.V.V.A.`.`.M.9.0.9.9.9.9.9.9.m.V.C.M.9.E W 0.C.A.`.`.C.A.C.C.C.C.C.V.b.9.m.0.0./ I J S S L R 6.5.4.I L L q.q.5.5.7.7.5.L #         . .   . . . O O + # # $ $ $ $ $ $ $ 7 7 > > > 1 1 > > > > > > > > > > > +               . . O + # $ $ $ 7 > > > > > > > > * $ # # $ * 7 $ r q.P.P.P.P.P.P.P.P.P.3.o.@.+.+.+.o.n n n w P b ,.P ,.4.W E I E E E I E E I E I I I I E 9.N.B.J.K.}.#X}.$XK.$X$X&X&X&X&XJ.H.K.&X&X%X&X$X$X&X&X%X&X$X&X&X$X@X3 * - ; r r $X}.K.}.#X",
";.;.;.;.;.=.=.=.=.-.l.Y.o.b L P Q W ( ( ( 9.9.0.m.M.N.N.Z.V.Z.V.V.V.C.C.C.`.`.C.9.9.9.9.0.V..X.X.X.X[.[.C.9.W b.A.M.9.N.[.A.b.9.M.m.m.m.9.( E I J S S A A L P 5.F.3.; e P F.F.c.c.5.3.,.k # . .     . . .   . . O O + # # # $ $ $ * * * 7 > > > 1 1 1 1 > > > > > > > 1 1 1 %             .   .   . . # $ $ $ > > > > > > > > > * # + + % 3 2.P.P.P.P.P.P.P.P.P.P.P.w.x n o.+.+.:.m n b ; l P 4.9.( I E E E E E E E E E E E E E W 0.A.J.}.{.{.K.#X#X$X}.$X$X&X&X%X#X&X&X&X&XJ.B.S.%X&X&X&X%X&X&X$X%X$X$X@X- - - ; r r $X}.$X$X#X",
";.;.;.;.;.;.;.;.=.=.-.-.T.7.P U U P E Q W ( 9.9.9.9.b.m.m.m.m.M.M.V.V.V.V.C.`.`.V.9.9.m.C.`.`..X.X.X.X{.{.A.W W M..XV.( 9.C..Xm.9.9.( W / I I S S S L U ,.w.P.P.P.5.; l P F.F.<.,.+.<.<.w #     . . . . . . . . O + O # # $ $ $ $ $ > > > > > 1 1 1 1 1 > > > > > > > 1 , - * o           . . .   . . + $ $ $ $ $ $ > > > > > > * * r U 2.w.F.P.P.P.P.P.P.P.P.P.P.P.F.P m m o.,.x m n b ; A 9.W E E E E E E E E E E E E E E E 9.A.}.}.}.K.L.L.#X}.}.}.}.}.$X$X%X&X&X$X&X&X&X&X$X}.H.S.H.}.&X&X&X&X&X$X&X%X= - - ; r j %X}.}.$X}.",
";.;.;.;.;.;.;.;.;.=.=.-.l.l.T.e.U P L Q W W 9.9.9.9.9.9.9.9.m.M.M.V.V.V.C.`.`.`..X.X.X.X.X.X.X`..X.X[.{.{. X{.M.( C.{.A.b.9.m.V.9./ E S S S S S L P 5.P.P.P.P.P.P.5.; w e P n ,.,.,.1.1.w # + . . . . . . . . . O O O + # $ $ $ $ $ > > 7 > > 1 1 1 1 1 > > > > > > > 1 , ; ; - .           .       + + # $ $ $ $ $ $ > > > 1 1 U q.w.w.w.w.w.F.F.P.P.P.P.P.P.P.P.P.F.3.v z m m n m n k 3 A I I E E E E E E E E E E E E / ( C.{.}.}.}.K.K.}.K.$X}.}.$X}.}.$X$X$X$X$XK.}.}.%X$X$X$X&X%X%XK.S.H.}.&X&X&X&X$X* - ; ; w k %XXX$X&X%X",
";.;.;.;.;.;.;.;.;.;.=.=.=.=.=.l.v.n U P Q W W W ( 9.9.9.9.9.9.9.m.V.C.C.C.C.C.`.`.[..X.X[..X.XA.A.C.C.J..X.X`..XA.9.C.A.C.M.( / E I S S A A L R F.P.P.P.P.P.F.,.n ,.; q e n n ,.<.<.1.1.r # + . . . . . . . . . O O # + # # $ $ 7 7 7 > > > > 1 > 1 > > 1 1 1 1 1 1 , > * ; ; ; # . . .             + # # # # $ $ $ $ $ > > 1 W F.w.w.w.q.w.w.w.F.P.w.F.P.P.P.P.P.P.P.w.n n +.n P ,.P L I E I I I E E I E E E E E E E ( 0.`.{.}.$X&X&X$X$X&X$X&X%X&X&X%X%X$X&X$X$XK.K.K.K.}.}.$X%X&X%X$X$X&X&X$XH.S.J.&X%X* - : ; w S &X&X$X%X%X",
"&.;.;.;.;.;.;.;.;.=.=.=.=.=.=.l.l.Y.o.U U I E E W W W 9.9.9.9.9.M.V.V.Z.V.V.C.C.`.[..X.X[.`.`.C.V.C.C.M.B.C.C.N.A.9.9.( / I J S S A k k L 2.F.P.P.P.P.P.5.m x m m n ; q l n o.@.1.1.n P I # + . . . . . . . . . . O + # # # $ $ $ > > > > > > 1 1 1 > 1 1 1 1 1 1 > , , < ; ; ; ; o . .       . . . + + # @ # # # $ $ $ * , P w.w.w.w.w.q.5.q.w.w.w.P.F.P.P.P.P.P.P.P.F.2.m n n R P I I I I I E I I E E E E E E E W ( 0.m.A.{.&X%X}.%X$X$X%X%X&X&X%X&X%X}.}.}.%XK.L.J.K.}.}.}.}.}.#X}.K.$X$X%X&X&X&X$XJ.B.= - - ; w L &X&X&X&X%X",
"&.&.;.;.;.;.;.;.;.=.=.=.=.=.=.=.-.l.l.8.z b L L Q W W 9.9.9.m.Z.V.V.N.V.V.V.C.C.`.A.C.C.`.C.C.`.V.N.N.0.9.9.9.9.( ( I J A A A j j S R n.F.P.P.P.P.F.,.x z 8 8 x x n t e z m +.@.<.n 1.1.I $ + O . O O . . . . . O O + + # $ $ $ $ > > > > > > 1 1 1 1 1 1 1 1 1 1 , , - ; ; ; ; ; ; .           . . + + + + @ # $ $ * $ * R w.q.w.w.w.w.5.q.5.w.w.w.P.P.P.P.P.P.P.P.P.P.3.m n P L I I I I E I E I E E E E E E / ( 0.M.C.J.}.$X&X$X#X#X%X&X$X$X&X&X%X$XK.}.}.}.}.K.}.K.}.}.#X}.}.K.K.#X}.}.}.}.$X$X%X&X%X{.= : - ; w I =X=X%X%X&X",
"=.&.&.&.&.;.;.;.;.;.=.=.=.=.=.=.-.-.l.l.Y.m v L E W W 9.9.9.0.M.M.M.M.V.C.C.C.C.C.C.V.C.C.C.N.V.C.b.m.( ( E I L S A A A Z k k L 4.F.P.P.P.P.P.F.,.d d d z 8 e ,.F.F.v z n ,.<.<.m ,.+.:.L $ + O O . . . . . . . O O + + # $ $ $ $ > > > > > > > 1 1 1 1 1 1 1 1 1 , , ; q ; ; q q q ; .         . . + + + + + # $ * * 3 2.q.w.q.q.5.q.w.3.3.5.w.5.w.w.w.P.P.P.P.P.P.P.P.w.>.P W E E I I I I I E E E E E E / ( m.M.C.L.}.$X&X$X%X$X#X#X%X$X$X&X$X$X%X$X#X}.}.}.}.}.K.K.K.K.K.K.}.}.}.#X$X#X$X}.}.#X}.}.%XA.- : ; ; w L M.{.%X=X}.",
"=.=.%.&.&.;.;.;.;.;.=.=.=.=.=.=.=.=.=.l.l.T.,.z P E Q W ( ( 9.9.9.M.M.V.C.C.C.C.B.N.M.M.m.M.m.9.9.m.( / I S A A A j j k b P 5.F.P.P.P.P.P.5.o.z d 0 y 0 z o.w.F.F.5.v z m o.<.m n ,.n +.L $ # O O . . . . . . . . O + # # # $ $ $ > > > > > 1 1 1 1 1 1 1 1 1 > 1 , , q e e 8 9 ; q e w o       .   . + + + + # $ * t ,.3.3.3.q.q.3.2.3.3.3.3.3.3.w.w.w.F.P.P.P.P.P.P.P.w.2.U / E E I I I I I I I E E / ( 0.m.N.H.}.&X&X&X%X%X$X$X%X%X$X&X%X#X$X$X}.}.$X}.}.%X}.}.#X}.}.}.}.K.K.}.}.}.}.K.$X$X}.}.K.}.}.M.; : - ; w W %XJ.9.4.9.",
"=.=.;.&.&.&.;.;.;.;.;.=.=.=.=.=.=.=.=.=.l.l.l.Y.m v L I Q W W 9.9.m.m.M.M.Z.M.M.M.0.9.9.( / ( ( / E S L S A A j k k b R w.F.P.P.P.P.w.,.<.o.z z d y n ,.<.<.3.5.5.5.b e m n ,.o.n o.n 1.L $ + O O . O O . . . . . O O + # # $ $ $ > > > > > 1 1 1 1 1 1 1 1 > > 1 > > e z z z z z z n 3.2.2 .     . . . + + + # - v 2.2.3.2.2.q.3.3.,.2.3.,.3.3.3.5.5.w.w.F.P.P.P.P.P.P.P.q.R I I E E I I I I I I E / 9.M.B.H.}.$X&X&X&X$X$X$X$X$X$X$X$X&X#X}.}.K.}.}.#X}.}.}.}.K.}.}.}.}.J.}.}.}.}.}.}.J.K.}.K.K.K.K.}.M.; - - ; r W %XB.J.&X$X",
"*.*.*.;.;.;.;.&.;.;.=.;.=.=.=.=.=.=.=.=.-.l.l.l.T.8.+.z v P E W 9.9.9.b.m.m.9.9.( / / I I S S S S A r r j A S U R 5.F.P.P.P.P.F.2.t = e ,.y y x ,.1.<.n n n R n R 5.n z m n n <.o.5.n 1.2.# # + + O O O . . . . . O + + # # $ $ 7 > > > > > 1 1 1 1 1 1 1 1 > 1 1 , , v m m m c ,.1.1.,.U w . .   . . . . o $ 2 e n :.,.2.3.2.3.3.3.3.3.3.3.<.3.,.3.3.5.w.w.F.P.P.P.P.P.P.w.2.I E I I I I I I I E ( 9.m.A.}.$X$X$X$X$X$X$X#X$X}.#XXX%X$X$X#X$X#XK.}.$X}.}.}.}.K.}.#X$X}.$X}.}.}.}.$X#XK.J.L.K.}.}.}.}.{.M.: = - ; 3 Q B.}.%X$X&X",
";.;.&.;.;.;.=.=.;.;.;.;.;.;.=.=.=.=.=.=.=.=.=.l.l.T.T.Y.<.t L P W W 9.M.m.9.( / I J A A A A j j r r r k b U 4.n.P.P.P.P.P.q.L & & : : 9 o.c +.5.7.n ,.1.5.<.1.5.n 5.P z m n n n ,.n 6.c.4.$ + + + + O O . . . . O O + + + # $ $ > > > > > > > 1 1 1 1 1 1 1 1 > > > * v n o.,.1.5.,.z z v P t . .   .   $ 2 r t e e v >.2.2.2.3.3.3.2.2.3.3.3.3.3.3.3.3.w.w.w.P.P.P.P.P.P.F.2.U I I I I I I E W 9.n.B.K.$X}.}.$X$X%X#X#X}.#X}.}.$X}.%X$X}.$X}.}.}.}.&X$X$X}.%X}.}.#X$X$X%X$X$X$X$X$X$X}.K.}.}.K.}.K.}.{.b.- - - ; 3 4.$X%X#X#X&X",
"*.*.*.;.;.;.=.=.=.&.&.;.;.;.;.=.=.=.=.=.=.=.=.=.-.l.l.l.T.Y.n v U W I L I I L J Z Z Z j r 3 w r k S L 5.F.P.P.P.P.P.F.W 3 & & = : : 9 8 d @.1.1.P 5.1.1.n n 1.5.,.3.n z m n 1.,.n :.,.<.2.$ # + + + O O . O . . O O + + @ # $ $ > > > > > 1 1 1 1 1 1 1 1 1 1 1 > , , b <.1.1.+.x z z n <.<.2.r   . o : 9 w w t e e e P 2.2.2.2.2.>.2.2.,.,.2.3.3.3.3.3.7.7.w.w.P.P.P.P.P.P.3.U I I L I E / 9.n.B.J.K.$X}.$X$X}.$X&X&X&X&X&X&X$X%X%X%X$X#X$X}.$X$X}.$X}.}.}.}.}.#X$X}.$X%X&X&X&X$X$X$X}.}.}.%X}.}.}.}.}.b.= - - ; 3 9.}.}.%X%X%X",
"&.;.;.&.&.;.;.=.=.;.&.&.;.=.=.=.=.=.=.=.=.=.=.=.=.=.=.-.l.T.T.8.t r 2 3 r A Z Z r r 3 q k k A v P w.K.P.P.F.F.P.n.L o X X & = = : : 9 y z O.1.b ,.P v v v ,.1.1.,.5.,.e m ,.1.c.c.5.F.F.w.* + + + O O O . . . . O O + + + # $ $ 7 > > > > 1 1 1 1 1 1 1 1 1 1 > 1 , , +.1.,.m z n n e o.,.,.n l q q 9 9 e b q q w e l v :.:.>.>.>.:.:.>.>.:.>.3.,.3.3.3.3.7.7.w.w.P.P.P.P.P.w.P L W W W 9.9.B.J.K.K.K.$XK.K.}.}.$X$XK.#X#X}.%X%X$X#X}.$X}.H.$X%X$X}.%X$X%X%X}.K.}.K.K.$X}.%X#X$X}.K.}.K.}.}.}.}.}.K.}. X9.= ; - ; 3 9.@X%X%X X%X",
"&.&.&.&.&.;.;.=.=.=.=.=.=.=.;.;.;.;.;.=.=.=.=.=.=.;.*.=.-.*.*.l.8.q 1 2 r r r 3 r k k k k b q.n.F.P.P.P.P.F.2.w X X X X X & = = = : 9 0 z o.n +.n 1.v b b n ,.<.<.c.6.8 m ,.1.1.1.5.5.F.F.1 # + + O O . . . . . . O O + + # $ $ $ > > > > 1 1 1 1 1 1 1 1 1 1 > , , , z z z n ,.1.5.x x z 9 9 9 9 9 z +.<.2.2 2 ; e e v v P P P :.P :.:.,.>.:.,.>.<.3.3.3.5.7.w.w.w.P.P.P.P.P.q.U ( 9.9.N.H.L.$XK.K.K.K.L.L.L.L.K.K.K.K.K.K.K.}.$XXX$X=X=X%X&X%X$X}.}.%X}.$X$X$XK.K.}.}.K.$X$X}.}.}.$X}.$X%X%X%X%X#X$X%X9.= - ; 2 3 m.@X%X}.XX%X",
"&.&.&.&.;.;.;.;.;.;.;.;.;.;.;.;.;.;.;.;.;.;.;.;.*.*.*.*.*.*.&.&.*.n $ * 2 r r j k k b P q.H.w.F.F.H.P.n.L $ X X X X X X X & = = = = 9 y z O.o.@.z 6.+.P R R ,.,.5.c.5.e v n <.<.5.5.c.F.F.2 # + + + O . . . . . . O + + # # $ 7 7 > > 1 1 1 1 1 1 1 1 1 1 > > > , , , 9 n <.5.5.5.<.z 8 u 9 u 9 z +.+.o.o.P 2 ; ; ; w e e y m m U P P :.>.:.:.>.:.,.<.3.3.3.7.5.7.w.P.P.P.P.P.w.W 2.B.H.K.$X$X$XK.K.K.K.K.K.K.K.L.L.K.#X}.$X}.K.#X$X$X&X}.&X$X}.&X%X$X}.$X#X&X$X$X$X}.}.K.$X$X}.$X}.$X$X%X$X%X%X%X#X}.B.W ; - ; 2 3 m.@X%X%X%X}.",
"%.&.&.&.&.;.&.&.&.&.&.&.;.&.&.&.;.;.&.&.&.&.;.&.&.&.&.%.%.%.%.r.O.q q r t t k l v 2.q.F.F.n.n.F.H.9.k o X X X X X X X X X % & = = : 9 8 d c +.@.+.5.,.<.1.5.n 5.7.F.6.e v 2.F.c.7.7.7.1.5.w # + + O O O . . . . O O + + # # $ $ > > > > 1 1 1 1 1 1 1 1 1 1 > > , > , P 5.5.3.2.b u 8 8 u 9 v o.o.+.+.+.+.P ; ; ; ; ; q e e v v v v U n :.:.:.,.,.,.<.3.3.5.3.3.7.7.w.w.P.P.P.w.q.R K.K.K.K.$X$XK.K.K.$XK.K.K.K.L.K.L.K.K.K.K.L.K.L.K.$X}.}.$X}.}.&X&X&X%X$X}.$X}.$X%X%X#X$X}.}.$X}.XX$X%X&X&X&X%XH.H.{.( - - ; ; 2 V.@X%X%X%X%X",
"&.&.&.&.&.&.&.&.&.&.&.&.&.;.;.;.;.&.&.&.&.&.&.%.%.%.%.%.%.r.r.O.z P b l l k R 5.5.w.F.F.F.G.q.L $ X o X o o o o o X X X X % & & = : u 0 y c +.1.m ,.5.5.,.,.5.5.c.5.,.v v ,.F.F.5.5.F.F.F.r + O O O O O . . . . O O + + # # # $ > > > > > 1 1 1 1 1 1 1 1 > > > > > > P 5.3.l % % q 8 8 n ,.,.+.<.,.o.o.c z ; ; ; ; ; ; q e e v v v v v P :.:.:.:.,.3.<.3.3.3.5.3.7.7.w.F.F.P.F.w.R H.&XK.$X&X$XK.$X&X$XK.K.K.K.L.H.L.L.L.L.K.L.L.L.H.K.K.}.K.K.}.K.$X}.$XL.#X$X%X$X}.K.L.#X$X$X%X%X%X%X%X&X%X XB.}.}.@XW : ; ; ; 2 C. X%X%X}.%X",
"&.&.&.&.&.&.&.&.&.&.&.&.&.&.&.&.&.&.&.&.%.%.%.%.%.%.%.%.r.0 y e l v 5.5.F.F.n.5.w.n.F.F.4.k o o X X X X o o o o o X o X . % & & = : u 8 z x +.c n :.<.+.1.7.7.F.5.5.2.U l n ,.<.F.P.P.F.7.; + + O + . O . . . . O O + + # # $ $ $ 7 > > > > 1 1 1 1 1 1 1 > > > > > , 2 w & & & & = n <.,.+.,.<.+.z m x x z - - - * - q w w e e t v v U P n P :.:.,.3.,.,.3.<.3.3.7.7.w.w.w.P.P.w.2.2.&X$X&X&X&X&X&X$XK.K.K.K.K.K.K.L.L.L.H.L.L.L.L.J.K.}.}.H.L.L.#XK.K.$XK.L.K.K.$X#X}.}.%X$X$X}.XX%X%X%X$XB.J.%X%X%X%XW : ; ; 2 2 V.}.%X%X@X%X",
"&.&.&.&.&.&.&.&.&.&.&.&.&.&.&.&.&.%.%.%.%.%.%.%.r.r.O.0 8 e e P 5.P.F.c.5.5.5.c.F.q.L * o o o   X o o o o o o o o o o o % % % & = = : 8 0 x +.@.<.1.1.7.c.c.5.5.3.,.P U R <.1.P.F.F.5.,.m ; # + + + O O O . . . O O + # # # $ $ $ > > > > > 1 1 1 1 1 1 1 > > > 1 , , * * & & * * = ,.<.n n n n m v z v z v * * 2 q 2 w t e w w t v v n n m n P :.3.3.<.,.<.<.3.3.7.7.w.w.w.F.w.w.3.P n.&X&X&X$X&X&XK.K.K.K.K.K.K.K.L.H.L.L.H.L.}.L.J.L.L.J.L.H.K.K.J.J.K.J.J.L.K.$X}.$X#X$X&X$X}.}.%X%XJ.B.}.%X&X%X%X%XW ; - ; 2 2 `.%X%X@X@X%X",
"%.%.&.&.&.&.&.&.&.&.&.%.%.%.%.%.%.%.%.%.%.%.%.%.r.8 e e v <.P.P.F.5.5.5.c.F.5.2.t & o o o X o o o o o o o o o o o % % % % & & & & & : 8 0 x +.@.1.8.7.F.7.7.5.R n b P 3.7.1.o.c.5.<.n n m 2 + + O O . O . . . . O O + + + # $ $ 7 > > 1 > > > > 1 1 1 1 1 1 1 1 , , , * * & % % * < :.,.z 8 z x m z e z v l * 2 w q r j A A k w w e v v m n n P :.,.3.<.,.3.,.3.3.3.7.w.w.w.F.w.w.5.2.,.&X&X$X$X$X$X&X$XK.K.K.K.K.K.K.L.L.L.H.L.L.J.J.K.K.K.J.J.J.L.J.J.L.J.K.L.K.K.$X}.#X&X%X&X%X%X{.B.H.@X%X$X&X%X%XXXI ; - - 2 2 .X%X%X%X%X=X",
"*.&.%.%.&.&.&.&.%.%.%.%.%.%.%.%.%.%.%.r.x 8 u u r.O.,.F.P.c.7.3.5.5.5.5.5.U ; * * % X o * * * & % % % o o o % - ; ; ; ; ; ; ; ; & & & 8 8 z +.1.c.c.5.5.3.,.m n :.5.7.c.7.,.<.<.5.<.o.n n w # + O . . . . . . . O O + + + # $ $ > > > > > > > 1 1 1 1 1 1 1 1 1 > , , * * % o o % < m o.v y e b z e e m v e r t q w k A A A A k w w t v v v P :.:.:.:.,.<.<.,.,.<.3.3.3.w.w.w.w.w.q.3.2.n.&X&X$X$X$X$X&X$X$XK.K.K.K.K.H.H.L.H.H.H.L.J.K.J.J.J.H.H.S.H.H.H.B.L.L.L.K.K.K.K.$X&X$X%XH.M.}.#X%X&X$X%X X{.%XL - - - ; 2 @X%X%X%X%X%X",
"&.&.*.&.%.%.&.%.%.%.%.%.%.' ' %.r.O.u u u : u 0 %.r.P.7.<.3.3.w.q.q.2.v q ; * % $ 1 2 3 ; * * & & & & & ; 2 2 w w w w w e e t t k k k t m 3.7.7.5.5.3.:.n n ,.7.c.c.7.,.n :.<.5.1.,.,.:.P w # + O O O O . . . O . O + + + # $ $ > > > > > > > 1 1 1 1 1 1 1 , > > * $ $ $ % o o % < v o.x e e z 8 l z v e e w w k A A A A A A A k q e y v v n P :.:.>.:.>.:.:.,.,.,.,.3.5.w.w.w.w.w.3.3.2.H.n.L.&X&X&X$X$XK.$X$X&XK.K.K.K.K.H.D.H.L.L.L.K.J.J.H.L.H.H.H.H.L.H.H.H.J.J.J.K.$XK.K.n.B.{.@X%X}.%X%X}.%X{.@XS - - - ; ; @X@X@X@X@X@X",
"%.&.%.&.%.%.%.%.%.%.%.%.%.r.O.0 9 8 e 8 y ,.7.8.*.%.@.3.5.5.q.q.R k k w * % 2 A S A k t w 2 2 ; * * ; q w w w t w w w k k k l l v l e ,.7.5.5.5.,.n P P <.c.c.F.7.+.o.o.o.m :.,.o.o.n n n r + + + O O O . . . . . O + + # # $ $ > > > > > > 1 1 1 1 1 1 1 > * # X o % % % % & % & = m c z l e e v z l v e e k S A A S A A A A A A t q e y v v m P :.>.2.>.:.:.,.,.:.,.3.3.3.w.w.w.w.3.q.3.$X&X$XH.G.K.&X&X&X$X$X$X$XK.K.K.K.K.L.L.J.L.L.J.K.L.L.L.J.J.J.L.H.H.L.H.L.J.}.K.L.b.9.H.J.J.}.}.}.}.%X%X$X%X=XA - - - 2 2 @X@X@X%X@XC.",
"%.%.%.%.%.%.%.%.%.%.%.r.y 9 8 8 8 8 n 7.v.v.8.O.%.%.@.3.5.2.U v k w * - j S L S k k t t r w 2 ; ; q w w w w t k k k k v k L ,.R b v P 5.5.3.o.o.,.5.5.F.F.c.1.n x o.o.x z x n +.n n m m b r + O + + O . . . . . O + + + + # $ $ $ > > > > > 1 1 1 1 1 1 1 * * $ * * * * * & & & * * z x m v v z z v e t k A S A A A A A A A A S S A w q e y v v n :.>.>.>.,.,.,.<.,.,.,.,.3.5.w.w.q.3.q.2.$X&X&X&X&XK.D.D.&X&X&X&X&X$XK.K.$XK.K.K.J.L.K.K.L.K.K.K.K.}.K.L.H.H.H.G.L.L.H.B.4.B.J.G.n.B.S.J.L.}.%X%X$X&X=Xj - - ; 2 2 @X X X@X@X9.",
"&.%.%.%.%.' %.%.r.%.y u 8 8 8 0 ,.c.P.v.1.o.,.x O.r.e.P l v k 3 * r A L L L A k w w l w 2 2 w w w w w t k k k k k k v U R 4.5.2.P 2.5.,.:.n <.5.c.F.F.5.n x o.d z z z x m x ,.o.n c x m n 2 # O O O O O . . . . O + + + + # $ $ $ > > > , 1 1 1 1 1 1 2 1 * * - - - - - - * & * & * e z z v v v e t k A A S A S A A S A A A A A S A k w w y v v n :.>.>.:.:.,.:.,.,.,.:.:.3.3.3.3.3.2.q.2.XX$X$X&X&X&X&X#XB.n.K.&X&X&X&X&X$X$X&X$XK.K.K.K.K.}.}.#X%X$XK.K.H.H.L.H.H.S.4.b.H.S.S.H.B.B.B.B.S.H.H.}.$X}.=Xw - = - * 2 %X X@X@X=Xk ",
"&.%.%.%.' %.0 u u 9 8 8 8 x 1.P.v.8.+.o.+.<.@.x O.O.O.t q - 2 k A L L A k w e k w q ; q w w w w r r t k k k k k v P 4.2.2.4.2.,.2.,.n :.<.1.8.c.F.2.w & u x x y x o.:.n m m n c c c x m b w # O O O . . . . . . O + + + @ # $ $ $ > > 1 1 1 1 1 5 I 2 2 1 1 1 1 ; ; 2 ; 2 2 2 ; ; * 8 z z l t t k A S S S S S S S S A A A A A A A A S A q e v v n P >.>.,.,.,.:.:.,.,.:.:.:.,.>.>.>.2.3.P K.K.$X$X$X&X&X$X%X$XJ.D.n.K.%X$X&X&X$XK.K.L.L.L.}.$X$X$X%X$XK.L.#XL.J.L.b.4.B.L.H.B.B.B.H.B.B.n.B.B.H.J.J.}.{.3 - = * & 2 =X@X@X=X{.; ",
"%.%.%.%.r.y 9 8 8 9 0 ,.c.v.v.1.+.+.+.<.<.,.n y y y y $ 5 A L A S k k w w r w 2 ; q w w w w e e k k k l l e b P 2.2.2.2.2.4.4.,.n n <.7.c.c.5.P ; = = = u 0 m +.o.o.n n b m m c x m x m v t # + O O . . O . . . O + + + # # $ $ 7 > > 1 1 1 r q.P.9.; 1 - 1 1 ; 2 2 2 ; ; ; 2 2 q e z v e k A A S A A S A S S S A A A A A A S A S I I 9.L e t y v P P >.,.,.,.<.3.3.3.,.:.:.:.:.:.P :.2.,.K.$X$XK.$X#XK.K.}.$X&X&X&XB.n.S.#X$X$X$XK.L.H.H.L.L.J.K.L.$X}.K.$XK.H.4.n.J.L.H.B.D.B.B.D.n.n.n.n.B.B.B.B.B.B.; - = - & 3 %X%X@X%X0.2 ",
"%.%.r.u u 9 9 8 n 1.v.v.8.#.+.@.<.<.<.,.b v k < 0 y x t k k t w q w w ; 2 ; 2 q w w w e t t l l t k k t b R R 2.2.R 2.3.2.R n n 1.7.c.c.,.v & & = : : ; : m ,.o.n n c n n m z x x x x z v t # + . . . . . . O O O + + # + # $ $ > 1 1 1 r q.XXP.F.4.2 ; - ; ; 2 2 2 ; ; - ; w w e l e k A S S S S A A A S A S A A A A A A A A L E 9.n.S.N.e e y v U P P :.:.,.3.3.3.3.3.3.,.:.:.P P :.P 4.$X$X$XK.$X&X%XL.K.K.$XK.$X%X$XL.n.9.D.$X$XK.L.H.H.H.H.H.J.K.K.K.L.9.4.J.K.J.J.L.H.H.H.H.n.n.n.n.n.n.B.B.n.n.B.; - = - % r {.{.@X=XL r ",
"x u = u 9 z ,.c.v.v.@.O.@.@.<.<.<.,.v l w ; % * y O.O.2 2 ; ; q 2 2 ; - ; 2 q q w w w t l t k l t k L R 2.,.R R 2.4.2.:.,.2.7.v.v.c.,.q X X & = = = = = = m o.m m m m m m m x x x m x z e t $ O . . . . . . . . + + @ # # $ $ $ * 2 I w.&X&XP.P.F.2.; ; 2 2 ; ; ; ; 2 2 3 q t k e k A S S S S S S A A A S A A A A A A A A I W 9.n.H.L.}.J.v q e v v n P P :.,.,.3.3.3.3.3.3.2.2.:.P P P G.$X$X$X$X&X$X$XK.K.K.J.J.K.K.}.$X$X$XJ.b.B.K.K.K.H.H.H.H.H.K.}.H.4.S.}.#XK.H.K.L.J.L.L.S.n.D.n.n.B.B.n.B.B.B.B.- - - - & j H.A.[.A.; E ",
"u u 9 n 8.v.v.$.#.+.+.<.<.1.+.c z m 2 * $ * 1 q u O.O.& * * * * * ; ; 2 2 2 2 q w w r r e w w k L R ,.,.R R 2.2.,.P ,.5.c.c.c.7.b * X X X X & & = = = = = z x m m z m m m m y x x x z v P W $ # O . . . . . . O + + + $ 2 r I q.F.P.P.XXXXXXP.P.F.2.; ; ; 2 2 2 2 2 r t k k k k A S A S S S S S A A A A S A S S A A S L W 9.B.H.K.K.K.}.9.v u e y v n n P :.:.:.,.<.<.3.3.5.3.,.P P P 2.$XXX&X%XK.K.}.#X#X}.}.H.L.B.L.L.K.$X&X&X$XL.n.b.n.K.J.L.H.H.H.9.9.K.$XK.K.K.L.L.L.H.H.L.n.H.H.n.B.B.n.n.b.n.B.B.= - - ; * A J.B.B.( 3 Z.",
"8 ,.c.v.v.#.O.O.O.@.<.<.o.x x m m b * - 2 < * & = 0 %.& & & * ; ; 2 2 w 2 2 q w w w w r w k P R R R R R 4.3.,.P ,.5.F.c.c.<.l X X X X X X X % & = = = = = z m n m x m x m z e z d m ,.,.n v 1 1 1 1 6 3 5 r r A I E 2.q.w.P.P.XXXXP.P.P.XXP.P.P.F.W 2 2 ; 2 2 2 w e v b L A L S S A A A S S S A A A A A A A S S S I ( M.[.}.K.}.XXXXK.B.P b w q e y v n P :.:.:.,.,.,.,.,.3.,.n n n P H.$X&X&X$X$X$X$X$X#XK.K.H.D.B.B.H.L.K.$X&X$X}.K.K.J.9.4.n.H.n.W S.K.#X#X#X$X&X$XK.J.K.L.K.H.H.n.n.n.n.n.n.n.B.n.n.* - - ; - A B.S.C.L w `.",
"v.v.1.O.O.O.o.+.<.+.x 0 d n x m x z * & % * & % & u r.w * ; 2 q 2 q q q q 3 w w w w t A L P R R P R 2.2.R n <.c.c.c.F.,.w X X o o o o X X X % & = = = = = e n ,.m z z z y 8 z n ,.+.n v e k t A A A I / 9.9.2.q.q.3.q.q.w.F.P.P.P.P.W.W.P.P.P.P.F.R 2 2 2 q w t l m P P I I L S S A S A A A S A A A A A A A S I W M.B.L.}.}.XXK.K.K.L.R b v l q e y v n n n :.:.:.:.,.,.,.:.n b b v 2.$X&X&X$X$X$X#X$X%X}.K.L.L.S.H.n.D.n.L.K.}.$X$X&X}.K.L.J.n.b Q K.}.K.K.$X$X$X#X$X}.#XL.K.K.K.H.H.B.n.n.B.n.n.n.B.n.= - ; ; - S B.B.B.3 W m.",
"#.c O.O.O.o.O.x d 0 x o.c c x x m 9 & % % % % % & u r.q 2 ; 2 2 q q q q q w w w k L W W R R 2.2.2.,.n n ,.7.F.c.c.P - X X X o o o o X X X X % & & & = = = e n ,.m x y e 8 8 b ,.m z y z ,.,.A A A S I W / 2.2.q.3.2.2.q.w.w.P.P.P.P.P.XXP.P.P.P.P.2.2 w w w k v b P W E I I I I S S A A A A A A A A A A A L W 0.B.J.L.L.XX}.K.K.K.}.q.n b v v q q e y v m n :.:.:.:.:.:.:.n n m m P K.&X&X$X$X$XK.K.%XK.K.K.L.L.J.H.B.D.D.H.L.}.$X$X$X%X$XK.S.W B.B.9.9.B.J.L.$X$X$X$XL.K.L.J.B.H.B.H.B.B.B.n.n.B.B.B.b.= ; - ; - L B.M.9.2 m.( ",
"O.O.o.+.c d 0 8 x c c x d x O.+.c 9 & & & & & * = u %.y 2 2 q q w w q q w w k L P P P R R 2.4.R b l ,.c.c.c.2.k o X X X % % % o o X X X o % & & & & & = = w +.,.x z 8 9 8 v b 8 8 z m o.,.+.k A A U I W 2.>.2.q.3.>.2.3.w.w.P.P.P.P.P.P.P.P.P.P.P.R w r r k L L L I E E I I I I L S S A S A A A A A A L W 9.B.{.K.K.K.K.K.L.K.K.K.G.P P v v y e e e y v m n o.:.:.:.P P n n b v v n.&X&X&X$X&X%XK.$X}.}.$X$XK.K.L.J.H.D.H.D.J.J.}.#X$X$XK.b.B.$XK.}.K.K.n.4.b.K.$X#XK.K.L.L.L.H.H.B.H.H.n.n.B.B.B.B.B.b.; ; ; ; - L S.B.E r '.k ",
"+.o.z 0 0 x c x x z d c O.o.+.@.+.w & & & & ; ; < ; O.O.2 w w w w q q w k L P P P P R 2.2.P b P l ; n 1.R w X o o o o o o o o o o o o % * * & & & & & & = q n ,.z 8 8 b ,.2.v v m m n ,.P z q A A A U E >.2.q.q.2.2.3.3.w.w.F.F.P.P.P.P.P.P.P.P.P.2.r t k L I I I I E I I I I I I I S A A S S A A L W 9.B.J.}.}.$XXXK.K.K.L.XXXXL.,.P n v e e e e e y z m m n n P P P n b v m v 9.$X&X$X&X$X$X}.K.#X}.$X%X#XK.K.K.L.H.D.H.H.H.H.H.J.J.n.b.$X$X&X%XK.K.H.L.K.B.4.9.H.}.K.H.J.H.H.B.B.B.n.n.n.n.B.B.B.B.b.; ; ; - - W H.J.w E _.k ",
"d 0 0 d d d d d x x O.+.#.o.O.@.+.l & ; ; 2 ; ; ; ; y e.w w 3 q q w k U L P W W 2.2.,.P m ,.5.5.l $ * & X o % & % o o o o o o o % ; ; ; ; * * & & & & & & ; v z z ,.3.3.,.m w z x n m e = = ; t t A U U >.>.2.3.2.3.2.3.w.w.w.P.P.P.P.P.P.P.P.P.P.2.t A U L I I I I I I I I I I I L S S S S S L W M.B.J.K.K.K.K.K.K.K.K.K.K.L.K.4.n m m z e e e t t y z m m n n n b n b b v v b K.$X&X&X$X}.#X$XK.K.#X$X#X#XK.L.L.L.J.H.H.B.H.B.B.B.9.n.}.}.L.K.}.}.}.H.J.L.L.H.H.n.4.n.H.H.H.H.B.B.B.B.n.B.H.B.H.B.B.9.; ; - - - W S.M.; m.( l ",
"d d d 0 a a d O.O.O.O.O.@.+.O.+.+.m ; ; ; 2 ; 2 2 2 y e.t w q q w k Q P L W 4.4.,.P P ,.c.5.1.R * o o o % & = * % o o o % & - r j w w w 3 2 2 2 - ; ; ; = = P 6.5.5.3.n e m ,.b z q = = = = < r t A U U >.>.>.2.3.3.2.3.w.w.w.P.P.P.P.P.P.P.P.P.P.4.L L L L I I I L I I I E E I I I L S L I W m.A.L.}.}.#XK.L.L.K.L.K.K.XX$XXXn.n n z v v t t e e y z z m m n n n n n v v v b H.&X$X&X&X$X#X$X$XK.K.K.}.K.K.K.K.K.K.H.H.J.J.J.n.9.9.J.J.K.K.L.J.J.K.$X#XK.L.H.B.S.H.B.B.4.4.b.H.B.B.J.H.B.n.B.B.B.S.S.9.; ; - - - W b.j 3 +XL k ",
"d x d d f O.O.O.O.O.O.O.O.+.@.@.+.m ; ; ; 2 2 2 2 2 0 r.m r t t k L P R 3.3.,.n R <.5.5.5.R w & - * * % & & & % o % * * w k k j r w w w w w r 2 2 k k b 2.5.w.5.5.2.m m +.6.5.b & & ; ; = ; w t t A U I >.>.2.2.3.3.3.3.w.w.w.w.P.P.P.P.P.P.P.P.P.9.k S L L L I I L L I I I I I I I I E W 9.H.L.K.L.K.K.L.L.L.L.K.K.K.K.K.K.XXP n v v v v y e e t y z m m m n n n n n b b v q.$X&X$X$X&X%X$X$X$X$XK.L.K.J.L.J.L.K.K.L.K.K.}.B.4.B.L.J.J.J.K.K.L.L.K.K.L.L.K.B.B.n.n.n.B.B.D.b.4.4.n.H.H.H.B.n.B.B.B.B.9.: - - - - l l w J _.j - ",
"a a c O.O.c O.O.x O.O.#.@.@.@.@.+.n ; 2 2 2 2 2 2 2 u r.o.U U l b ,.4.2.,.P ,.5.5.c.5.L = * 2 w w ; & & % % o & * ; ; k k t w 3 2 2 q w r 3 ; q e b 2.5.F.F.5.<.n +.<.,.6.1.<.l & * ; ; e P e w t A U U W >.2.2.3.3.3.3.3.5.w.P.P.P.P.P.P.P.P.P.P.9.k S S S L I I L L I L L I L I I W 9.B.L.K.K.K.K.L.L.L.L.L.K.K.K.K.XXXXK.G.v m m v v v v y y y v v m m n n n n n n P v P K.$X&X$X%X&X&X$X$X}.L.K.K.K.L.L.L.H.}.}.L.J.H.b.n.}.}.K.H.H.H.H.B.H.H.L.L.J.H.L.H.n.B.B.B.B.n.n.H.H.B.9.4.9.J.B.B.B.n.B.B.( - - * - - w l ; m.( * & ",
"x c c O.O.O.O.O.o.O.#.#.@.#.+.+.+.b ; 2 ; 2 ; ; q w w O.O.:.P P ,.P b n <.6.1.n.2.k $ * 3 k L P e - % o $ * ; ; w w k w q q ; 2 q w w w 2 ; w v ,.5.F.F.F.5.,.3.5.1.,.,.,.n e e & ; l v m z v w t t A U W >.2.2.3.3.3.3.3.5.w.P.P.P.P.P.P.P.P.P.P.4.r r L L I I L I I I I I I E E 9.n.H.K.K.$XK.K.K.L.K.L.K.K.K.K.K.K.XX$XXX,.v v v z v v v v v v v m n n n n m n b b v v A.&X$X$X&X&X$X%XK.#X}.K.}.K.K.}.K.K.$X$XK.K.b.9.H.L.K.K.L.L.H.J.B.n.S.H.J.H.S.B.S.H.n.B.B.n.B.B.B.B.B.B.H.H.B.W W b.B.B.H.B.W * * * * - l k 3 '.S o % ",
"c f x c O.O.O.O.x c f O.#.#.o.+.o.n q ; ; ; ; q e l l y %.O.,.P b ,.5.5.7.5.R w & ; t A R Q b l ; % % - 2 q w e e e w ; q q w t 3 ; * ; q v 2.w.F.F.F.3.,.5.c.5.<.,.b e e v b e q z v v n n l q w t A U U >.2.2.3.3.3.q.5.5.7.P.P.P.P.P.P.P.P.P.P.4.A k j k L I I I L I I E W 9.b.B.H.K.K.$X$XK.K.K.$XK.K.K.K.K.K.XX$X$X$XH.v z z v v v v v v v v n n n n n n m n b b v L $X$X$X%X$X#XK.K.K.$X$X$X%X%XK.$X%X#X$XK.L.4.n.}.#XK.$XK.L.J.J.H.L.L.H.H.B.B.S.B.B.n.n.B.H.B.B.B.B.B.B.B.B.H.H.J.n.9.9.9.n.B.W * * * * % w w S ].5 * ( ",
"O.c c x O.O.O.c c o.O.#.#.O.O.+.+.n w q q q t e z m m m %.r.o.,.c.c.5.1.P q * 2 w L W R P k ; o * 2 2 q w t w q 2 ; ; w w w w ; ; w t L 2.5.7.c.5.5.,.5.5.<.5.n m e e v v b v l z +.m e m z t w w t A U U W >.2.3.3.3.3.3.5.7.w.w.P.P.P.P.P.P.P.F.2.k k A A j k L I I I E ( b.B.K.L.XX$X$XXX$XK.$XK.$X$XK.K.K.K.K.K.K.XXXX4.z z z y z v v v v v m n P P n n n m m b U v n.}.}.#XK.K.L.}.K.$X$X&X&X&X#XL.$X}.K.L.b.b.J.}.$XK.K.L.L.L.K.J.H.J.H.J.H.H.H.J.J.B.B.B.B.B.n.n.B.B.B.B.B.B.B.H.B.B.H.H.B.9.4.L * * * * o - 2 ) ) r n.J.",
"O.O.O.o.c O.O.+.o.O.O.O.O.O.+.+.,.n l e v P P R ,.+.:.z %.%.8.7.5.,.l ; & 2 k L Q W Q k ; % ; q q q w t q 2 ; ; 2 w w w q ; ; q k R 3.5.c.7.5.<.,.5.F.7.5.,.m e e n P n n P v n v +.v q 8 9 w q w r t U U W >.3.3.3.3.3.3.3.7.w.w.P.P.P.P.P.P.P.F.,.k A A S S S k k W 9.b.H.L.#XK.$X&X$X$X$X&X$X$XK.&X&X$XK.K.K.$X&X$XXXK.n y z y y z v v v v m m n P P n n n m m b b L }.}.K.K.K.$XK.K.K.$X&X&X$X$X&X$X$X}.H.4.H.#X}.}.K.K.K.J.J.H.J.L.H.J.J.H.S.S.H.H.B.B.J.B.H.B.B.B.B.B.B.B.n.B.B.B.H.H.B.B.H.B.B.I & * * & o 1 3 _.J I M.{.",
"O.O.x x c c O.d c O.O.O.O.O.+.,.,.n P ,.,.<.2.,.n z z m r.%.e.P e = * 3 e L Q R L r $ $ ; w ; q l q w 2 ; * ; q w e q ; ; q l R 5.5.7.c.5.<.1.7.c.F.c.5.,.y v v v m R n n P ,.n z c m e u q e q q w t A A U >.2.3.3.3.3.3.3.5.w.w.P.P.P.P.P.P.w.F.W S A A A S L E W W 9.J.$X&X&XK.$X&X$XK.$X$X&X$X$X&X$X&X&X&X&X$X&XK.$Xn.z y y y y y v v m m m n n n n n n n n b v k n.}.$X$X$XL.}.K.K.}.$X}.$X$XK.K.K.K.9.n.}.$XK.L.K.K.L.L.L.H.L.J.H.J.K.H.J.J.L.H.D.C.C.H.H.B.B.B.n.n.H.B.B.B.n.B.B.B.n.B.B.B.B.B.E & * * $ o 2 A _.j . o r ",
"O.O.c x O.c c x n O.O.g c +.+.+.,.,.,.,.6.,.m z :.<.+.:.O.O.@.& 2 r k L P v k w o $ ; ; 2 ; q w q ; ; ; ; q w w ; ; ; q k R 3.5.7.5.1.<.<.1.7.7.c.1.+.m m +.,.P 9 m n b P 2.,.n z z x z q u w q q q t t U U >.2.,.2.q.3.3.3.3.w.w.P.P.P.P.P.P.w.F.P A A A S E 9.M.H.L.}.n.n.$X&X$X$X$X&X&X$X&X&X$X$X&X&X&X&X&X&X$X$X&X&XR z y y y y y z v m m n n P n n n n b b b b U XXK.&X$X$X$X}.#XK.#XK.}.$X}.#XJ.B.9.K.K.K.K.}.K.L.H.J.J.K.K.L.H.J.B.H.H.J.J.K.H.B.B.B.B.H.H.B.B.B.H.H.H.B.H.H.J.B.n.n.H.B.B.B.B.L - * * % # 3 ( m.* o - 2 ",
"c O.c n o.x c n o.c O.O.+.+.,.,.,.,.,.,.x m ,.5.5.5.n q u O.O.w k P P k w * X $ - 2 w w ; ; ; * & * ; ; ; w 2 ; ; q v R 3.<.5.5.<.,.<.1.8.8.7.7.,.x n ,.,.<.,.P m n n n +.,.n b 8 8 e z e q q ; 2 q w t v U P >.,.3.3.2.3.3.3.w.w.P.P.P.P.P.P.w.w.U k A L W n.H.K.K.K.K.K.$Xn.n.L.&X&X$X&X&X&X&X$X&X&X&X&X&X$X&X&X&X&XK.v y y y y y v v v m n n n :.P n n b m v v v q.}.K.XXK.J.K.}.K.}.$X}.#X}.K.J.4.B.K.}.H.K.K.K.}.L.L.L.K.L.K.K.L.J.B.H.K.H.H.K.K.B.n.B.H.J.H.H.J.H.H.B.H.B.B.K.J.H.B.B.H.B.B.B.B.L - * * % 2 3 _.E $ 1 2 3 ",
"g O.c o.o.c x x n n o.+.@.+.+.<.,.n x m ,.3.5.3.P w & * q x y n L v w % X $ * 2 3 w w ; ; ; * * ; ; 2 ; ; ; ; q v n ,.6.1.1.+.+.<.1.7.8.8.1.P q & n +.,.,.n ,.P n n +.n n 6.,.b 9 e y e e w q 2 2 q q w t U P P >.3.3.>.:.,.3.7.w.w.P.P.P.P.P.w.w.b S Q 4.B.L.K.K.L.K.K.$X&X&X$XD.n.K.&X&X$X&X&X$X&X&X&X&X&X&X&X&X&X&XH.e y y y y y v z m n n n P :.:.n n b m v l L }.}.K.$XK.K.L.L.L.K.K.$XK.J.n.4.J.K.K.K.K.L.L.K.J.S.H.L.K.H.L.L.J.J.}.L.K.L.J.K.K.K.J.B.J.L.J.H.H.J.H.B.A.B.n.H.B.H.B.n.B.B.n.n.B.A.b.S * - 3 A _.A 1 2 3 2 ",
"O.O.O.o.O.y x c o.+.+.+.<.<.+.m m n ,.<.3.6.b ; * ; q w v O.x o.2 o o $ * ; q w q ; ; ; ; ; 2 2 2 2 2 ; ; q v R +.,.<.+.o.n +.1.7.7.1.1.v ; = = & n ,.+.<.<.n P P n m n m R R e 9 e e e e q t r q q q w t U U P >.2.>.:.>.,.3.3.w.w.P.P.P.P.P.w.w.L W b.D.K.K.K.K.K.K.$X$X$X&X&X&XK.n.n.K.&X&X&X&X&X&X&X&X$X$X&X&X&X%X2.y y y e y y v v n n n n P P P n b v v v l 9.$X$XK.}.$X$XK.K.#X#X$XK.H.9.S.}.}.K.J.K.L.}.K.K.H.L.H.H.K.}.L.}.J.}.J.J.H.K.L.H.J.}.K.J.H.J.H.H.J.H.J.H.C.B.B.B.H.B.B.B.B.B.n.n.H.J.B.C.A.( w ( m.5 2 2 S 9.",
"c c c c o.n o.o.o.n o.+.o.x c +.<.<.<.,.e & * 2 r k k t e 0 u O.% * * ; 3 q 3 2 ; 2 ; ; 2 w q q 2 ; ; w b ,.,.,.,.+.+.o.+.<.1.1.1.,.v = = ; ; q e n o.1.1.+.c n v z m b l P v m q e e q e k k t q q q q t v U P >.>.>.2.2.2.3.3.5.w.w.P.P.P.P.w.w.W n.H.L.K.L.K.K.L.K.$X$XK.$X$X&X&X&X$XD.D.$X&X&X&X&X&X&X&X&X&X&X&X$XL e e e y y y v n n n P P P :.n n b b z v b }.$X$X$X$X$X$X$X%X&XK.L.n.n.}.}.K.K.}.K.L.L.H.J.L.K.K.L.H.J.K.K.}.}.K.}.K.L.K.H.H.}.}.}.J.J.J.H.J.H.J.J.B.C.B.B.B.B.B.H.B.n.b.n.N.B.M.B.A.A.N.2 m./ A 4 2 j E ",
"d f c c o.n c x x m z z x +.<.1.1.P q & 1 w t k b L w ; o 0 u O.q ; w w 2 2 2 w w q q q q q 3 ; = e P 2.,.,.,.n x c +.<.1.1.1.,.e X % = = ; : 8 m m o.@.+.x m ,.z z z e e l m m : q w e k t r r q w w w t t U U :.:.>.>.>.>.,.3.5.w.w.P.P.w.w.w.3.q.H.H.L.K.L.K.K.K.K.K.K.$XK.K.&X&X&X&X&X$Xn.n.#X&X&X&X&X&X&X&X&X&XJ.l e e e y y z v v m m P :.P :.n m v v l t q.XX$X}.$X$XK.K.K.K.K.H.b.K.$XL.}.}.K.K.}.L.J.H.L.J.}.L.L.K.L.K.L.J.K.}.J.K.H.J.H.J.}.}.}.}.J.H.H.B.B.H.B.B.C.B.B.N.B.B.B.B.B.n.n.n.n.n.M.n.B.( j V.( E I j 5 r ",
"d c x x x x m x z z o.<.<.<.<.n 8 & 2 w k k b k t ; X X % 0 0 O.m w w w r r r w w w w w w q ; l R 2.2.,.,.m d c +.@.@.<.1.n q X X X % * = : ; 9 m c o.@.@.<.x m v n v b v e m v ; w e w w r j r q w w w w t v v P >.:.:.:.:.,.,.5.7.w.P.P.P.w.w.3.n.H.H.H.L.L.L.L.H.L.K.K.$XK.K.K.K.&X$X&X&X&X&XH.n.K.&X&X&X&X&X&X&Xb.e e e e y z z y z n n P P n n m v v v e L }.$XXXXXK.$X$X}.K.K.b.H.$X%X&X}.}.J.K.}.K.K.K.}.$XK.L.}.}.}.L.L.K.L.H.J.L.L.H.J.K.J.J.J.J.K.}.}.H.H.H.B.H.H.H.B.B.B.B.B.B.B.B.B.n.n.n.B.B.B.B.S / m.( ( E L S r ",
"d x c o.n x z x +.<.<.<.o.x 0 0 8 w k k L A w $ X % * * & 0 O.x :.t j k t w w w r r w q 2 k 2.2.6.,.n x z z o.+.+.+.<.n 3 X . X o . % = = = : u x c o.1.c ,.m ,.e v m z e v v v q ; w r A A k r q w w w w w t y P P n P :.:.:.,.3.7.w.w.P.P.P.w.3.G.H.H.L.H.L.L.K.K.K.L.H.K.K.$XK.K.$XXX$X$X$X&X&X}.D.n.K.&X&X&X&X$Xq.e e e e y y y z v n n P P n n m m z l k 9.$X$XK.K.K.}.#XK.S.n.J.}.&X$X}.%XK.K.K.}.K.K.L.K.K.L.K.K.K.H.L.J.L.K.K.K.K.K.H.H.J.H.H.J.J.}.}.}.}.L.H.H.H.B.B.C.H.B.A.B.H.H.B.N.C.n.n.B.A.S.B.w m.( ( ( ( W W E ",
"x c o.x x c +.<.<.<.o.z 0 0 0 0 8 v L k 3 % X % * - ; 2 2 e y y v k k r r w q 2 2 ; q L ,.,.2.,.,.n x c +.+.+.+.+.b 2 X o o % % o . o = = ; = : x x c <.m +.m v b n v e v v v v w w j A A j j r q w w w q q e y U U n P :.:.:.3.3.3.w.w.w.P.w.w.4.L.G.H.L.L.L.L.L.L.K.K.K.K.K.K.K.$XK.$X$XK.K.$X$X&X%X#XB.n.K.&X$X$XR e e e e y y y v m n n P n b b m v z e W $X$X&X$XK.K.K.J.9.B.$X$X$X&X%X}.$XK.#XL.}.L.K.}.K.H.K.J.K.J.J.K.}.K.K.J.K.}.}.}.}.}.J.J.J.J.J.}.J.}.H.H.B.B.H.J.B.H.B.B.B.B.B.n.B.B.B.B.B.N.N.9.j _.( 9.( ( W W I ",
"c x x o.@.1.1.<.m 0 0 0 0 0 8 0 e k 2 o X & * - 2 q w w w w r r r k r w q 2 ; ; q k ,.3.,.,.n m m n ,.+.n n n v ; X o $ - * % o + o o & = = = : m x o.@.o.n m v e l b v l P v l j k j A A A k j q r r w q q w t y v n n :.>.,.3.<.3.7.w.w.w.w.5.4.H.H.K.L.L.L.L.L.L.K.K.K.K.K.$X$XK.K.}.K.K.$X}.}.}.$X$X%X$XH.B.L.XXR e 8 e e y z z m m n n P b m m m v z v L.&X$X&X$X$XK.n.9.H.$X$X&X&XK.$XK.L.K.K.L.K.K.J.K.J.}.J.H.K.K.K.K.K.K.&X$XJ.J.J.H.L.J.J.J.J.J.H.}.L.{.J.H.B.J.H.J.J.B.B.B.B.B.B.C.B.N.M.M.B.B.B.E E m.9.b.( ( W W W ",
"o.<.1.1.1.@.x 0 0 0 y 0 0 z z x e X % * * ; 3 w 2 q w r t t w w w w w q q 2 w P 2.3.5.2.,.m n +.,.,.n c n v - X o $ - - - - * % * * % & = = * : z x n +.@.o.,.n n v e t L L L k k A A A A A A j w r r w w q w t y v n n :.>.:.:.<.3.7.7.w.w.7.3.4.L.L.L.H.H.H.H.L.L.L.L.K.K.K.K.K.$X$XK.L.K.&X$X$X$X}.}.$X}.&X$XH.q.l 8 e e y y z z m n n n m m m m m v e 9.$X$X}.K.K.H.b.L.L.K.K.K.}.}.%X}.K.J.H.J.K.L.J.L.J.J.J.J.n.H.J.J.J.J.B.H.B.J.J.J.H.H.K.H.J.J.}.J.H.}.J.L.J.B.H.J.}.}.J.C.B.N.B.M.B.n.M.N.B.S.B.S.j 0.( n.n.9.W W Q Q ",
"1.1.1.n z 0 0 0 0 0 y y z x 0 x z ; ; * 2 w q 3 q w w w w r w w w w w q t U 2.3.3.3.,.n n ,.<.<.,.o.,.l - X X % * - - - - * & & & & & & & & & : e x c +.1.<.P b z v U L L L k A A A A A A A A t q r w w w w w t y v P n >.>.:.,.3.3.7.7.7.5.3.3.q.L.L.K.L.L.L.L.L.H.H.L.L.K.L.L.L.L.K.L.}.K.K.K.XX$X#X}.}.$X$X}.K.J.v 8 e e y y z z m n n n m v v v v z b XX&X&X$XK.9.n.K.$X#X}.}.#XK.K.}.J.K.$XK.}.K.J.J.J.H.K.J.}.}.}.}.#XB.S.L.B.H.}.J.K.K.J.L.J.H.}.}.J.J.}.K.J.J.B.B.B.{.}.}.J.H.C.C.B.N.N.n.b.B.n.B.b.j m.( N.n.9.S W E I ",
"1.b : % 9 0 0 0 d d x x y 0 0 d x q q 2 w w q w w w w w w w w w w r v R 2.5.3.2.,.n ,.<.1.1.+.+.+.l * X o * * * - - * * * * & & = * & & & & & = 8 d z ,.<.n 8 b W L L A k A A A A S A S S A A k w r q w t t w t y v n P >.>.,.3.3.3.3.7.w.5.3.3.q.L.L.K.L.L.L.L.L.L.L.L.L.H.L.H.H.L.K.K.}.K.K.L.K.$X#X$X$X$X}.}.$XJ.e e e e y y z v m m m m m z z m m z n.&X&X$XD.9.L.K.}.$XL.K.}.}.$XK.K.L.L.#X}.J.H.H.B.L.J.H.H.L.L.L.L.K.J.K.K.J.H.J.J.J.K.J.}.K.J.}.}.B.}.}.H.}.}.H.B.H.J.{.{.{.H.J.C.B.B.N.N.N.N.B.B.W E m.b.S.B.N.S S S S ",
"& o & & 9 y 0 d x z x z 0 z z 0 v e w w w q q w w w w w w w w w b 2.3.5.5.3.,.n ,.5.5.<.+.,.n l * o % * ; ; ; ; - - * & & & & : ; ; : : = = & & e z z n m n 2.2.L L A A S A A S S S S S S S S A w w q q w r r t t v U v :.>.3.3.3.3.3.3.5.3.3.3.B.}.K.L.L.L.H.L.L.L.L.B.H.H.n.H.L.L.L.K.K.K.K.L.K.$X$X$X#X$X}.$X$XB.e e e e e y y v x v m m m z v m v R K.$XS.4.B.XX$XK.}.&XK.}.K.}.K.K.K.J.K.K.K.K.J.H.H.H.H.H.L.K.L.J.K.J.J.K.J.K.H.B.B.J.K.L.}.H.H.L.}.}.}.}.}.J.J.J.J.B.J.A.J.{.{.L.J.J.J.B.N.n.N.B.B.S ( ( Z.B.C.C.( Z A j ",
"& & & & 8 x x x x y e e z o.o.y v v w w w w w q w w w q w w v P 6.3.5.3.,.:.,.5.5.<.<.<.n w % % * - ; ; ; - ; ; - ; * * : ; ; ; q ; ; ; ; : ; q 8 8 n R 4.4.R L S L S S A S S S S S L S S S L S w q q q q r t t t U y v >.3.q.w.3.3.3.3.3.3.3.3.H.K.L.L.L.L.H.L.L.H.H.n.H.H.H.L.L.H.L.J.L.K.K.K.K.K.$X}.K.L.$X}.%X4.e 8 e e e y z z x x x x v v m m b $X&Xn.n.$X&X$X&XK.K.$XK.K.K.}.K.J.H.H.J.L.L.L.L.H.J.L.L.H.L.J.B.L.J.J.K.H.}.K.}.H.J.J.}.}.}.}.J.H.J.}.K.B.H.J.J.J.}.H.J.{.}.J.{.}.}.}.J.B.B.B.N.n.b.k 9.( C.N.M.C.M.S I A ",
"& & & & 9 x x x 0 8 0 z m n z 9 z l w q q q q q q q 2 t P ,.,.,.,.,.,.n ,.5.5.1.1.2.b w * * 1 3 3 2 ; ; ; - - ; ; * - ; ; ; ; ; ; ; : ; 9 e v P P 5.5.5.2.Q I L L L S S A J S S I I I L I I L A w q q q q w t t v U v U >.3.w.w.3.3.3.3.3.,.3.5.K.K.K.K.K.L.H.L.G.G.B.G.G.H.L.H.L.L.L.H.L.L.L.K.L.K.K.J.H.L.K.K.$XR 8 8 e e y y v z z m m x x v v m n.J.b.}.$X$X$X$X$XK.K.K.L.L.K.L.L.K.J.J.J.K.K.}.L.J.H.S.J.L.J.J.J.K.K.K.}.J.B.B.B.}.K.}.$X}.L.J.H.H.}.}.}.J.J.{.}.}.}.J.J.J.}.}.{.{.H.L.J.H.A.N.B.B.4.I 0.( N.N.C.V.M.W j / ",
"o o o o u x x x 0 8 z y z 8 8 8 z e w w w q q 2 q t U ,.,.<.,.,.n P ,.<.<.<.3.,.n 2 * - 3 4 r 3 3 2 ; ; ; ; ; ; ; ; ; ; ; ; ; ; ; ; ; ; q v b 2.5.5.2.Q E Q I L L A S S S S S S L S L I I I I A w q 2 q q q t t A v U P 3.q.w.w.7.3.3.3.,.3.3.n.XX$XL.L.L.J.H.B.G.D.H.H.H.L.H.G.H.H.L.G.D.L.K.K.K.K.K.K.K.L.K.$XK.v e e e y y y z z z m m v x v m R 4.H.&X&X$X$X$XK.$XK.J.L.J.L.J.L.L.L.J.L.K.L.K.L.J.J.H.H.H.J.J.K.}.L.L.}.}.}.L.K.H.J.}.}.J.$XK.K.}.}.K.}.K.J.A.A.J.}.}.J.{.J.{.}.}.}.{.J.}.{.J.B.J.J.I ( 9.m.N.C.b.( W W S 5 ",
"o o & o = x x x y 0 0 0 9 0 x z z w w w w q q l P ,.,.3.3.:.m n ,.3.<.,.,.n e - - - 3 3 w r r 3 3 2 - = * & * - ; ; : ; ; ; ; ; ; ; q ; ; n ,.6.2.Q Q E E I I L S S L S S S S S L L L L L I E k q q q q q q w t v v U >.3.w.w.w.w.w.3.3.,.3.3.H.$XK.L.L.L.L.L.D.H.D.H.H.H.D.D.H.H.J.L.J.L.$X$XK.K.L.K.K.K.L.K.$Xn.e e e e y y z y y z v m v v v l 9.%X&X&X&X&X&XK.XX$XXXK.L.}.J.H.J.K.L.L.J.K.K.L.L.J.H.H.H.B.J.H.S.H.H.J.J.}.K.J.}.}.J.J.}.J.$XL.}.}.}.J.}.J.J.C.B.J.J.{.{.H.H.H.}.{.}.{.}.}.{.A.A.J.N.I ( ( J.C.B.9.W E E E E ",
"o o & & & x x z 0 0 8 y z x x x m v w w w v P ,.,.3.3.P m n ,.<.<.,.n v ; * * - 3 j j r 2 - 3 3 ; - - = - - * * ; ; ; ; ; ; ; ; q t w ; l 2.2.Q L E I I I I I I L L S S A A A A S S L S E / 9.t q q q q q q w t v v P 3.3.w.w.w.w.w.7.3.2.3.3.L.$XK.K.K.L.L.L.L.G.D.D.G.H.H.G.L.L.L.L.L.L.K.$XK.$XK.}.K.K.K.K.K.2.e e e e y y z z y z v m v z z W M.J.&X&X&X&X&XK.$XXXXXK.$XL.K.H.H.L.L.}.L.L.L.K.}.L.K.K.H.H.L.H.H.J.J.K.K.K.J.}.$X}.}.}.}.}.}.}.}.K.J.H.J.J.J.B.H.A.B.}.}.}.C.J.{.}.}.}.#X}.J.C.A.L.9.I 9.0.J.A.N.b.9.W W W / ",
"o o o o % m z 0 y 8 z x z x 0 c n v l P ,.,.<.5.,.P z n ,.<.1.<.<.b 2 * * - 3 w r r 3 3 3 ; * & & * - - = = - ; ; ; ; ; ; ; q e l t ; v ,.I I E I L L L L I L S L S S S S S S L S S I / m.n.9.r 2 q q q q q w t v v >.2.3.5.w.w.w.w.5.3.3.3.n.L.K.K.K.H.H.L.L.L.D.G.G.L.B.H.H.L.L.H.K.K.XX}.K.}.K.K.$X$XXXK.K.L.v e e y e y z z z z m m m v v b K.}.J.n.J.&X&X&X&X&X$XK.L.}.K.K.H.J.J.K.J.}.K.L.J.K.J.J.J.K.H.H.J.L.L.H.B.J.}.}.J.}.}.}.J.}.}.}.J.J.K.}.J.J.L.}.}.J.J.J.J.{.}.J.J.J.}.{.{.{.{.J.J.A.J.W E 9.V.A.C.N.N.Z.b.( ( / ",
"o o o o o 8 0 z y z x x z x d n n ,.<.<.<.3.2.m z n 3.<.<.<.<.n ; * * * 2 w w w 3 3 w 2 - & * * * * = * - = - ; - ; ; ; 2 q e l e A W R L I I I I L L L L I L S L L S S S L S L I W 9.M.A.J.W w q q q q w q t t v U :.>.>.3.5.7.w.w.5.3.3.2.G.L.K.K.K.L.L.L.J.L.H.H.H.L.H.L.H.H.H.H.H.L.L.K.K.$X$X$X$X$X$XK.K.q.e e e y y y v v z m m m v v v b.&X%X&X$XJ.9.H.&X&X&X&X&XK.K.L.L.L.#X}.}.K.}.L.K.H.J.K.K.K.L.J.J.H.J.H.B.J.J.J.H.J.K.K.}.}.J.J.}.J.}.K.J.J.H.A.{.}.}.}.}.B.J.}.J.B.A.}.L.J.J.{.J.A.J.J.E ( ( B.V.C.N.N.V.M.Z.b.( ",
"o o o o o 9 z x z x x y z m x n ,.<.<.<.,.n x n <.<.,.6.,.b ; $ $ * 1 2 ; ; ; ; ; ; - & & * * - ; - - * = * = - ; - ; ; q w e m W P L L L I I L S I I L L I L S L L S S S S S I 9.b.B.J.K.B.k w q q q r r q w k U U P :.:.3.3.q.3.3.,.3.2.4.$X$XK.K.L.L.H.J.L.L.L.H.J.L.H.H.L.H.H.H.K.K.L.L.K.K.K.K.}.K.$XL.K.R e e e z z z y z z m m m m m b }.$XXX$X&X&X&XH.4.n.$X&X$X$X$X#XJ.L.K.K.K.}.}.L.K.H.H.K.J.K.K.H.L.J.}.}.K.J.J.J.}.K.J.}.$X}.}.}.}.J.J.}.K.K.}.J.H.J.J.J.}.{.J.J.{.B.S.J.L.L.J.L.J.A.J.M.I ( 9.A.N.C.N.C.C.V.N.Z.Z.",
"& o o % o 9 d z z x z y c <.5.5.5.5.+.c c ,.6.1.6.o.,.n ; + $ - - 2 2 ; - ; ; * * * & * * * * = * - * & & & & - ; ; ; ; = k R R Q E L L L L I L S L L I L I L S A S S S A I / 9.B.J.K.#XJ.9.w w q 2 q t t q q t U U P P :.>.3.3.3.2.,.,.,.B.&XK.K.L.L.K.L.L.J.L.L.L.H.H.L.L.L.H.D.H.L.J.L.L.K.K.L.H.J.L.L.K.K.z e e e y z z z z m m m n b m B.&X$XK.K.$X$X$X$XK.D.4.n.K.$X$X}.#XK.L.L.K.K.}.J.}.}.#X}.K.K.K.J.J.K.}.J.K.H.K.J.J.L.H.}.K.$X}.}.J.J.J.L.J.}.}.J.J.J.H.}.{.J.J.H.B.B.B.B.S.J.J.S.A.J.J.9.E ( V.[.C.C.N.V.N.Z.N.M.M.",
"; & & o % 9 z x z z n <.1.<.1.<.,.n o.,.1.1.5.+.n v ; o % * - 1 - - - * * * * & & * * & * & * * = = * * * - - ; ; ; * ; L I L L L L L L S L L S S I I L L I I L S A L I W 9.C.J.}.}.{.}.H.L w q q q q t w q 2 t v P P P :.3.q.q.2.,.,.,.2.$X&XXXK.K.K.J.L.K.L.L.L.H.H.H.H.B.L.G.B.D.D.L.L.L.L.K.K.}.L.L.K.}.q.e 8 8 e z z z m m m m n m m P XX&X&X$X$X$X$XK.$XK.K.K.n.9.n.K.}.L.}.K.K.K.#X$X$X}.}.%XJ.J.K.K.}.}.K.}.B.H.H.H.J.L.H.J.H.H.K.}.H.B.J.}.}.K.}.}.}.J.A.{.J.L.}.J.B.A.B.N.B.C.J.J.J.L.S.S.E / / A.{.C.C.V.N.Z.M.M.Z.Z.",
": = = & o e z 0 n ,.<.1.1.1.+.x c <.1.5.1.1.,.z ; + + * - ; - * * * * & % % & & * * * * * * * = = = = - - * * = ; q k A L S A A k S S S S S L S S L I L I L I L L I W 9.M.A.K.K.K.}.}.{.M.r w q q q q w w w < w t v P P :.3.3.3.:.:.2.:.n.&X$X&XK.K.L.K.K.L.L.K.K.L.H.D.H.H.H.H.L.H.G.G.H.G.J.L.L.K.K.XX$X}.R e 8 e e y z x n m m m n m m q.$X$X$X&X$X&X$XK.K.L.K.$X$X}.n.4.n.H.K.H.K.K.#X}.}.$X}.}.K.K.J.K.}.K.J.K.J.H.J.H.H.J.L.J.J.}.}.}.B.J.J.J.H.}.}.}.}.}.H.J.{.}.}.J.J.J.J.J.A.C.B.A.S.H.B.n.I ( ( J.A.A.C.V.C.C.Z.n.b.M.",
"9 9 ; ; ; e n ,.6.6.1.1.+.o.o.+.1.7.1.,.+.v e v 3 $ - - - * * & & * * & & & & * * * * * * * * * = ; ; ; ; ; 2 q k k r k k A A k k k k S L L I L L S I I I L L I W 9.n.B.H.J.K.L.L.K.}..XE q q q q q q w w w 2 q t v v v n >.2.>.P P P R }.$X&X$X$XL.K.K.L.L.L.K.L.H.H.H.H.G.L.J.H.D.H.H.L.L.H.K.}.}.$XXX}.}.v e 8 e y z z x m m m m m m n L.&X$X$XK.$X$X$XXX$XL.L.L.XX$X$XK.n.9.n.L.}.}.K.$X$X&X}.K.K.K.H.H.J.J.}.J.J.J.}.H.J.L.J.}.}.J.H.H.B.J.J.J.J.H.J.J.}.{.}.@X}.{.}.{.{.H.A.A.n.N.A.{.J.B.n.( E ( 9.A.[.[.A.C.M.N.Z.N.N.b.",
"9 w e z :.2.5.<.<.1.@.O.,.5.1.1.1.+.c x 9 8 v v w * * * & & & & * * & & * * = = = * * * * * * ; ; ; ; q ; q t k w r A k k A k A S k k k L I S L L L I L L I W 9.n.H.H.L.K.K.L.L.L.L.J.N.k w q q q q q q w w q 2 e y y v v P :.P P P n n.$X$XXXK.L.L.K.K.K.K.XXL.L.L.L.K.K.$XL.L.L.H.H.L.L.L.H.K.J.}.$X}.K.b.e e 8 e y x x z m m m n n b 4.XX$X$X$X$X$X$X$X$XK.K.K.K.K.L.K.}.K.L.H.b.n.K.K.$X$XK.K.}.}.}.}.K.K.L.L.J.J.J.K.J.J.H.H.J.J.H.H.H.J.H.J.H.J.H.A.J.{.{.J.J.%X{.}. X@X{.A.A.B.N.B.J.L.A.B.E W W `.[.[.J.B.C.C.N.C.A.A.S.",
"8 v P <.<.1.5.1.+.c +.5.1.5.<.<.c 8 9 8 8 8 z v w & * * * * & & & & * * * * * * = = * * * * ; = ; w w ; w k A A k k w k k A A k k k k k S k k L I E E Q ( 9.B.B.L.L.L.K.K.L.L.L.L.L.K.9.w q q q q w w w w w q q q t v v v n P P P U P J.$XK.K.L.L.L.L.}.L.L.K.L.K.L.L.J.L.L.K.K.K.K.L.J.L.L.L.K.L.}.K.K.K.P e e e e y z z x n n m n n n K.$X$XK.K.XX$X$X}.$XK.}.K.L.L.J.L.L.L.L.K.J.n.9.9.J.K.K.J.K.J.J.L.J.}.}.}.L.J.J.}.H.L.J.J.J.J.B.n.B.J.J.J.J.J.J.H.C.J.{.J.{.{.{.}.#X@X}.{.J.A.C.N.A.}.`.N.L / ( {.A.A.A.A.N.V.Z.Z.Z.A.{.",
",.5.5.5.7.<.o.n <.7.5.1.1.1.o.y 0 0 8 9 8 x x n 2 * * * * * & & & & * * * * & & - * & * - ; * * ; w t k L S S A S L S w j A k k k k j j k S S I W 9.9.9.n.H.J.L.L.H.L.L.L.L.K.K.L.L.L.L q q q q q w w w w w q q q t y v m P P P P b q.$X$X$X$XK.$X$XK.K.L.K.K.L.K.K.L.L.H.J.H.H.L.L.H.L.L.L.L.H.L.L.L.K.}.z e e e y z z x m m m m n n 2.K.$X$XXXK.K.$X$XL.$XL.L.L.L.L.K.L.$X}.K.L.H.H.H.B.9.B.K.J.J.H.J.H.J.J.K.J.H.J.J.}.J.J.K.}.H.H.J.J.H.H.H.L.K.}.}.{.}.J.J.{.J.N.J.J.{.{.J.{.{.J.B.M.A.[.`.9.I ( b.J.J.A.{.A.M.Z.Z.Z.A.Z.[.",
"5.5.,.+.n n +.5.5.1.<.+.n x z y e 0 x 9 d n n M w * * * * & & * * & * * * - = * * - ; ; - - - ; q k A L S S S A k A S k k w k A k k k k k k S W 4.n.B.J.L.L.J.L.L.L.L.H.H.L.L.L.L.K.J.L q q q q q w w t t q q q w e e v n P P P b v L.XX&X$X&X&X&X$X}.XXL.L.L.L.K.K.H.B.H.H.H.H.H.H.L.K.K.K.L.L.K.L.L.K.G.y e e y y z m m m n n n n n n.$XXX}.K.K.K.K.$X$X$XL.K.K.L.L.L.K.K.$XXXJ.H.H.H.K.H.B.4.n.H.J.}.J.J.J.J.J.J.J.J.J.H.H.H.H.K.J.J.H.H.J.H.H.K.}.H.J.{.H.J.{.J.J.L.J.J.J.J.}.}.{.{.M.N.`.A.( W W `.J.J.A.{.[.A.V.V.N.V.A.`.",
"5.,.o.o.+.<.1.1.<.,.n e 8 z z 9 u m n +.o.+.n o.e * * & % & * & * & & * * * = - ; ; ; ; ; 2 w j k k k S k A k L k k A S S k w k k k k k k L E 4.b.H.H.L.H.L.J.L.L.L.H.H.H.L.L.L.J.L.B.t q q q q q w e t v w q w w e e v n P P n P P %X$X$XXX$X$X$X&X$XXXK.K.L.L.L.K.K.H.D.H.J.H.H.K.K.K.K.J.L.L.H.L.K.L.,.e e e y y z x m m n n n n ,.XXK.K.L.L.L.K.L.K.K.$X$XK.L.K.L.L.K.L.K.K.L.K.K.L.J.K.L.H.B.4.b.J.}.}.}.}.L.}.}.}.H.H.H.H.J.J.J.J.S.B.B.J.}.J.H.B.J.}.{.J.A.A.J.J.L.J.{.J.J.{.[.A.N.N.C.C.W ( W  X[.J.{.{.|.`.A.C.C.C.`.A.",
"n +.+.+.<.<.@.@.m 8 8 9 e 8 d y v +.+.n m n c n l & & & & * & & * * * * & * ; ; ; ; 2 ; t k A S A k A k k A A L L L A k k k A r j k k L L Q 4.n.D.L.H.H.H.L.G.L.L.H.H.H.H.L.H.L.L.L.9.q q q q q q w t t v w w w e e y m P P P b v q.&X$X&X&X$X}.K.$XK.&X$X$X$XL.L.L.L.L.L.D.n.H.L.L.L.L.L.L.K.L.L.H.n.2.v e e e y y z x m n n n o.n F.&X&XK.XX}.L.J.K.L.K.K.K.L.L.K.L.H.H.L.K.J.L.K.K.K.H.H.B.J.B.B.n.4.n.L.J.}.J.J.K.J.K.}.J.J.L.H.J.J.J.L.J.J.{.J.}.{.{.}.{.J.J.J.L.J.J.J.{.A.[.[.[.A.B.N.V.0./ ( 0.[.[.`.[.[.{..XC.`.`.A..XA.",
"<.,.<.<.+.,.m 8 0 y y 9 9 0 c <.<.+.,.,.c n n +.l * - - * * & * & & & & * ; ; * & e e k A A A k k k A A S k S L L S k k k S S k k w b 4.q.n.H.H.G.H.H.G.L.K.L.L.L.L.H.H.H.L.L.L.L.K.9.q q q q q w w t t v t e e e y v m n n b b v n.&X$X&X&X&X$X$X$XK.$X&X$XXX&X$XK.L.L.K.L.L.H.J.L.K.L.J.K.H.}.J.W n.q.z e e y y y z m n n n o.:.n G.$X$X$XK.K.L.K.}.K.L.K.J.H.L.L.K.L.K.L.L.J.L.J.K.L.S.H.B.H.J.J.}.J.B.4.b.J.}.}.}.}.K.}.K.H.J.J.{.}.}.L.{.J.J.{.J.{.J.L.{.J.{.{.{.}.{.{.[.{.J.[.[.A.J.M.m.( ( / N.{..X[. X{.{.{.{.[.A.`.`.`.",
",.<.,.,.v e y 8 y z z z :.<.+.<.<.o.c n +.+.n n v ; ; * & & * & & & * * * * ; 2 t k k A A A k k A k A A A S L L L L A S S A S L Q W Q W D.G.L.H.G.H.L.H.H.H.L.K.L.L.L.L.H.H.L.L.L.L.W q q q q q w e t t v v v e y v v m n P P P v H.&X&X&XK.&X&X$XK.&XK.&X$X$X&X$XK.}.K.K.L.L.L.L.K.K.H.H.L.}.q.q.J.L.,.z 8 8 z y z m n n n o.o.:.n H.XXXXXXJ.K.K.XXK.K.K.L.L.J.L.L.K.L.J.L.L.L.L.L.L.K.H.J.K.J.H.B.K.J.}.H.n.4.n.H.}.}.%X}.J.J.J.J.}.}.K.K.J.J.A.L.H.{.{.{.J.L.J.{.{.}.{.{.A.[.J.[.[.[.A.9.L r E E [.[.[.|.@X X{.{..X{.`.A.A.A.",
"<.,.e % = v z z y z n <.+.+.<.n o.+.<.<.+.,.n n v * * * & & & * * * * & ; w k k k S A A A k k k A A A A k S S S S S L L L L L W 4.b.H.b.Q G.L.H.L.L.G.L.L.L.L.K.L.L.J.L.H.H.L.L.L.H.W q q q q q w w e e v v v v y v v n P P P b b J.$XXX$X$X$X&X$X&X&XK.K.$X&X$X$XK.$XK.L.H.K.H.L.K.L.L.J.G.4.G.K.K.n.b z 8 e y z z m n n n n :.,.n XXK.K.K.K.K.L.L.K.K.L.L.L.H.L.L.K.K.L.L.K.K.K.J.J.H.H.J.H.J.H.B.}.K.}.H.J.H.B.4.M.J.}.}.}.{.L.{.{.{.J.J.L.A.J.A.A.A.J.{.L.{.J.J.J.{.{.{.A.J.J.{.{.A.B.9.A 3 $ $ E `.[.{.|. X X{.|.`.`.A.A.A.",
"w & % o ; z m z o.,.o.+.1.+.+.+.@.1.1.,.n n n n z = * * * * * & & - w k A A A k A A A A A k k k A A A A A L L L L S L L Q Q 4.b.H.H.H.G.F.4.b.L.G.G.H.H.H.L.K.XXK.L.L.K.L.K.L.K.L.H.I q q q q w w w e e v v v v v v v P :.P P P P }.K.K.$X&XK.&X&X$X$X&X&X$X$X$X$X$X$XL.L.K.J.L.H.H.H.L.4.n.XXL.L.L.,.m z e e z z m n :.,.:.o.o.,.o.L.$XXXXXXXL.K.L.K.K.$XL.L.K.L.L.K.K.K.L.L.D.K.K.J.H.H.B.H.J.K.L.J.K.}.}.}.J.}.K.n.W 9.J.}.{.{.{.{.{.H.J.L.J.{.{.J.{.{.J.{.{.J.J.{.{.{.{.J.A.J.{.A.{.[.A.I 1 * > A b.C.C.N.N.N.A.A.Z.M.Z.M.m.",
"& & & = q z c +.1.<.+.c 8.+.1.o.o.<.,.+.+.+.n n m : * * * - & ; t k k k A A k A A A A k A A A k A k k k k A A L L S I W 4.n.G.G.L.L.H.G.I.L.n.4.G.G.H.H.H.K.L.K.K.K.L.L.L.K.K.J.L.L.E q q q q w w w e e v v v v v v n P P P n P P K.}.}.K.K.XX&X$X}.K.K.$XK.$X&X&X$XK.K.$X}.L.H.G.n.b.4.H.K.K.L.L.L.n m v z y z m n ,.,.,.:.o.o.,.<.3.G.$XK.$XXX$XK.K.$XL.L.L.L.K.K.K.K.K.K.K.K.K.L.L.J.K.L.J.B.J.J.L.}.J.}.}.J.}.J.S.[.m.4.b.}.L.}.{.{.{.H.L.L.{.{.J.J.J.S.J.{.J.{. X X{.[.J.C.C.{.{.J.{.{.{.m./ / ( M.V.C.[..X`.V.`.`.Z.m.b.m.",
"& & = 9 e z c +.@.+.@.+.1.+.1.+.1.+.o.o.n n n n z ; - & * w S L k r t k k k k k k k A A A k k k A k k S A S S L I ( 9.n.D.G.G.L.H.H.L.L.K.H.H.G.6.b.L.L.K.K.K.K.K.L.L.K.K.K.K.L.L.L.W w q q q w w w e e e v m v m m n P P n U P P K.$X$XL.K.}.K.XX}.XXK.$X$X}.L.K.K.$X$X$X}.J.L.H.W b.H.J.L.K.L.L.5.n m v z z m n :.,.<.<.,.o.o.<.<.<.1.5.B.M.C.}.$X$X$X}.K.K.L.K.K.$XK.K.L.L.K.J.L.J.J.K.}.K.H.J.J.H.J.K.}.J.L.}.L.J.J.{.J.B.9.9.A.J.[.{.{.{.J.J.}.J.{.{.{.H.J.J.{.J.{.{.{.A.J.J.{.{.{.{.{. X[.V.Z.V.Z.Z.M.N.A. X@X.X|.`.`.C.C.",
"& & & : d d x @.<.o.@.@.@.+.<.<.@.+.o.n n x n R e ; ; q L Q L k k k k k k k k A k A A A A A A k k k k A A A L Q 4.b.B.L.L.H.G.L.L.H.L.H.L.L.L.L.G.6.4.L.K.K.K.K.K.L.B.H.K.L.K.L.K.L.W w q q w w q w e e e v n m m n P P P n U b R }.$X$X$XL.K.L.L.}.$XK.XXK.L.K.K.XXK.$X$X$XK.n.4.B.J.L.H.L.L.H.G.n n m m z v m o.n ,.<.3.<.,.<.<.<.<.5.1.<.b o - W }.L.$X$XK.}.K.L.K.K.L.L.L.K.K.K.}.L.B.J.J.H.L.}.H.J.J.J.}.K.J.J.}.}.J.}.B.H.N.( W B.J.{.{.{.L.{.J.J.J.{.J.J.{.A.J.A.{.{.{.{.{.A.[.{.A.J.J.[.A.C.V.C..X`.C.C.C.C.`..X.X.XA.`.",
"& & & = d d x <.1.+.1.1.@.+.+.+.m +.,.n x m n v v A E W L k k k j j k k k k k S k A S A A k k k k A A k S I W 9.n.H.H.G.H.H.G.H.H.L.L.L.G.L.K.K.L.L.G.2.H.L.K.K.K.K.L.J.L.L.K.K.K.L.W w q q q q q q e e e z m v m n P P n n P P 2.$XK.XXK.K.K.K.}.K.K.}.}.K.K.L.XXXXK.$X$XK.9.B.L.J.K.K.K.L.L.L.q.n n m m x v m n o.,.<.<.<.<.<.<.<.<.<.5.1.<.P - 2 3 Q &X$X$XK.K.$XK.K.L.L.}.L.XXK.J.B.K.L.J.}.K.}.J.K.L.}.%X}.K.K.}.}.H.J.J.{.J.[.b.R W A.J.J.{.J.{.@X@X{.J.}.J.{.{.J.{.{.{.{.{.{.J.J.{.{.A.[.{.`.C.V..X{.[.`.`.V.V.V.V.V.`.`.",
"& & & : z z d o.1.@.m <.+.c o.,.n n o.,.n m l b W 9.E L k L A A k k A A k A k A k A A A A A k k A A S I W 9.n.D.H.H.H.L.L.L.H.L.L.L.L.L.H.H.K.K.L.I.L.K.4.4.L.K.K.K.L.J.K.L.L.L.L.L.4.q q q q w q w e e e z v v m n n n b b b U N.}.K.K.$X$XK.K.K.L.$X$X}.K.XX$X}.K.H.K.n.n.}.}.K.L.K.L.L.K.L.H.4.n n n m v v n n n ,.,.<.<.<.<.1.1.<.<.<.1.7.1.<.G.K.B.w 9.&X$X$XK.K.K.&X$X$X$X$X}.}.L.K.#X}.$X}.}.$X}.K.}.%X}.}.}.K.J.J.J.J.J.J.{.{.H.n.L 9.{.{.J.@X{.{.{.@X{.{.{.A.A.J.{.J.A.J.J.J.A.A.{.{.[.{.[.[.C.C.A.{. X[.{.A.V.V.Z.m.m.",
"% & & = 8 d z +.1.<.<.<.o.1.5.6.z +.n R b n 4.q.Q S L L L L L A A k A A A A A k A A S S S A A A A L W 9.n.D.H.G.H.H.G.G.H.L.L.L.K.L.L.H.L.L.K.L.L.H.L.K.L.n.W L.L.L.J.L.J.L.K.L.L.L.9.2 2 q q q q q e e e y v v m n P m m b v P J.}.$XK.$XXXK.K.$XK.K.$XK.K.K.$XK.}.A.9.B.K.K.$X$X$XK.L.L.L.L.n.P n n n n m m n :.:.o.,.<.<.<.<.<.<.3.1.<.<.1.5.<.,.,.R b 2 A J.$X$X&X$X$X&X%X$X$X}.}.K.#X#XK.%X}.$X&X}.K.}.{. X}.}.}.}.}.J.J.}.{.}.J.}.L.{.B.4.9.B.{.{.{.{.}.}.}.@X X{.{.A.J.J.J.J.[.{.[.{.{. XA.{. XA.C.`.C.|.{.{.{.@X|.`.m.m.",
"o % & & 8 8 x +.1.<.,.,.6.,.+.6.n ,.2.4.4.9.W b L I I I L L L A k S S A S L A A S S S S S S L I W 9.n.H.H.H.H.G.G.H.L.G.H.L.L.L.H.K.K.L.K.K.K.L.H.L.K.K.K.K.K.4.9.}.L.L.J.K.K.L.K.L.b.2 2 q q q q q e e e y y v m n P b v v b 2.}.}.}.$XK.$X$XK.K.K.K.}.}.$XK.L.L.q.9.K.K.}.K.K.}.K.K.L.L.L.B.k n n P P n n n n :.,.o.o.+.<.<.<.<.3.3.<.<.<.<.7.5.@.+.<.b 2 2 3 9.K.K.K.$XK.K.$X$X$X}.$X&X&X%X%X%X}.}.}.}.%X}.}.XX}.}.}.}.}.}.}.{.{.J.}.{.{.{.J.M.W 9.C.J.L.}.%X@X%X@X{.J.J.[.{.{.[.{.{.{.[.{. X{. X X{.[.[.{..X{.{.{..X{..X`.V.",
"o % & & 9 z 0 m 1.<.1.<.n n n n 6.5.q.b.W L L L L k L L L L L L S S S L L L L L S S L L L I ( 9.b.D.B.H.H.L.L.D.L.J.L.L.H.L.K.L.K.L.K.L.L.K.K.K.L.K.K.K.K.K.XX$XB.4.B.L.L.L.L.K.K.K.B.w q q q q q q 8 e e y y m m m n m v v b n.%XXX}.$X$XXX$X$X}.$XK.XX}.K.K.B.4.B.}.L.K.K.XXJ.J.K.K.L.H.H.N.1 b o.,.,.:.P P n P :.:.o.o.,.,.<.5.3.<.<.3.<.1.1.<.<.@.,.,.l - 2 w 5.c.K.$X&XK.}.$XK.}.&X&X$X$X$X}.%X}.%X}.%X=X=X}.}.%X%X}.}.{.}.{.{.@X}.}.{.}.{.{.{.N.W 9.{.{.@X@X@X{. X XJ.{.{.[.{.J.J.{.{. X{.{. X{. X.X.X[.{.{.{. X[.{.{.`.'.",
"% % % & 9 z z z +.+.+.x ,.6.5.5.n.n.4.Q L L L L L L L L L L L L S S A A L L I I L L L I W 9.n.B.H.L.J.J.H.J.J.L.L.L.L.H.H.L.L.L.K.L.L.K.K.L.L.L.K.K.K.K.K.K.K.}.K.L.9.b.K.}.}.K.}.$XJ.t q q q q q w w 8 e y y m m v m b v v U K.&XXX}.}.K.}.$XK.$X$XK.K.}.J.4.9.L.L.K.L.K.K.L.H.L.K.}.K.H.n.9.; v n ,.,.,.:.:.P n P P o.o.:.,.<.1.5.5.1.3.<.<.<.,.,.+.n n R w - 2 q <.c.L.K.$X#XK.K.$X$X&X$X$X}.$X}.J.}.K.%X%X}.%X%X%X%X%X%X{.@X{.@X@X%X#X{.}.{.%X@X@X@XB.b.M.{. X@X@X{. X{. X X{.{.{.{.{.{.{. X X X X`.[..X{.[.{. X{..X X|.{..X",
"& & & & ; z z x n +.n 2.n.q.n.B.4.Q Q P I L L L L L L I L I L L I I L L L L L S I E / 9.n.B.B.J.H.H.H.H.H.K.L.J.L.L.L.L.H.L.K.L.L.K.L.K.K.K.K.}.K.H.K.XXXXK.L.}.}.H.L.n.4.J.$X$X}.}.}.E q q q q w e e e e y y m m v n b v v 9.}.}.%X}.}.K.$X}.}.}.L.L.K.N.W B.}.L.J.J.L.L.K.G.H.L.L.L.H.B.n.W 2 w P ,.,.,.,.,.:.P ,.:.,.,.,.,.,.2.5.5.5.3.,.R b w ; * * * * - 1 1 2 e 5.7.7.G.XX&X$X$X$X}.}.K.}.}.}.}.L.K.&X XJ.}.XX}.%X%X%X@X@X}.{.}.{.%X{.{.@X@X@X{.{.}.{.C.( M.{.{.{.@X{.{.@X{.{. XJ.{. XA. X{. X{..X@X@X.X.X`.[. X X@X*X@X.X",
"= = = & : 8 8 x x ,.5.q.b.B.9.W W Q Q Q L L L L L L L L L I L I L I I L I L L I W 9.b.B.H.H.H.J.H.H.L.J.J.L.L.L.L.}.}.L.H.K.K.K.K.K.$XXX$X$XK.K.K.K.K.K.K.$X}.K.K.K.K.K.}.9.N.J.$XXX}.W w q q q w e e e e e y m b m P n b L B.%X$X$XK.}.$X$XK.L.K.K.H.4.n.$XXX}.}.}.}.H.J.L.H.B.H.J.J.L.H.n.E 2 * b 2.3.3.,.,.:.,.,.,.,.2.3.,.,.2.2.6.,.U w - * > 1 1 1 1 2 2 2 2 2 1 v <.7.5.q.J.#XK.}.K.K.}.$X%X$X}.K.#X%XXX%X%X%X%X X}.%X@X{.{.}.{.}.%X}.}.#X{.{.{.{.%X%X#X{.A.4.b.{.@X{.@X@X{.{.{.{.@X{. X X X X X.X X*X X X`.[.[..X X X.X`.",
"q w w w ; 8 z R 5.5.q.B.9.W W W W Q Q L L L L L I I L I L I I I I I L I E E Q ( b.D.J.J.H.J.J.H.J.L.L.L.S.H.J.J.L.L.L.K.L.K.K.L.K.}.K.K.L.$XK.L.K.$XXX$X$XXX$X}.$X}.}.K.L.}.C.( }.$XXX0.w q q w e w e e e y y m b b P n b R $X%X$X&X&X&X$X&X}.$X$XB.9.}.XXK.}.}.L.K.S.B.n.B.J.K.H.H.B.H.K.L.9.; * - P 3.5.5.3.2.2.,.2.2.2.R R P U k w - * $ $ $ > > 1 w k b P b w - * ; n 1.7.w.R B.}.K.&X&X%X}.$X%X&X}.K.}.}.%X}.}. X}.}.%X%X}.@X#X{.&X&X@X{.@X#X{.@X@X@X{.@X{.@X{.J.( b.{.%X%X%X%X X X X@X X@X@X X X X X*X.X X X X{. X@X[.`.( ",
"w w q : : e 2.n.n.4.4.W 4.W Q Q Q W I E E E L I I I L L L I I I L I E I W ( 9.N.n.H.J.J.J.K.K.H.H.L.L.J.L.J.H.L.K.K.L.L.K.$XXXK.J.K.K.K.K.}.K.$XK.K.XX&X&X&X$X$X$X}.$XK.}.M. X{.9.n. X9.w w q w w w 8 e e y z m n n n n v q.&X&X&X&X&X%X}.&X$XK.9.J.}.}.XX}.J.H.J.H.n.L.L.H.H.K.J.L.B.K.K.K.N.L * * * A ,.2.4.4.4.2.L k j 2 * % + + # $ $ $ # $ , j P 2.3.<.<.<.,.b - * m ,.1.8.P.W b.K.}.$X$X%X}.$X%X}.}.{.}.XX}.XX%X{.{.}.#X%X%X{.%X%X%X@X%X@X}.%X@X%X@X@X%X#X}.@X@X{.A.9.N.@X%X%X%X=X=X%X%X=X=X=X=X=X@X X*X*X=X*X@X X`.N.W V.",
"; ; w w v 4.n.q.4.Q W W ( W W W W ( Q W E I I L I I L L L I I L I E W 9.9.M.N.B.H.H.J.J.J.S.K.L.H.J.H.H.H.H.L.J.L.J.H.J.L.}.XXXXK.K.K.}.K.XX&X&X$XK.K.K.XX&X$X$XK.}.$X&X&X{.@X X}.M.4.N.w w w w w w 9 e e y v m n P n b v K.&X&X&X&X$X$X$X$Xn.9.$X%XJ.K.L.}.J.J.L.}.}.$X}.K.K.}.K.$XK.K.K.L.A.N.E 2 $ $ & * ; - * $ o . o o o o . o # % % * r L 4.3.3.,.<.5.1.7.<.,.P * v 5.<.1.7.4.L B.K.K.}.}.}.}.}.}.{.}.%X%XXX}.%X%X}.%X#X%X&X@X}.@X{.}.%X%X%X&X%X@X{.{.#X%X@X{.@X@X%X@XJ.9.9.{.@X=X=X=X=X=X-X=X%X=X=X=X=X%X=X%X%X{.M.W C.@X",
"* q v 4.4.4.4.W W W 4.W 4.W W W W W Q Q Q Q W E E I L I I L I Q Q 4.b.n.H.J.J.H.L.K.K.L.H.n.B.S.H.J.H.H.H.J.J.K.J.K.B.H.}.K.L.K.$X$X$XK.&X&X$X$X&XK.K.K.&X}.}.K.L.%X}.}.%X{.%X%X%X%X.XE w w w w q q q e e y v n n P b v P &X&X}.}.K.K.XXH.9.B.}.$X}.}.L.L.}.{.XXL.L.}.H.}.K.&X&XK.&X$XK.$XL.K.[.B.9.E j 1 1 * $ % # + + % % % + # # o o . % r L 2.3.3.<.,.3.5.7.1.1.<.,.v <.@.1.7.K.I L }.$X$XXXXXXX%X{.}.}.}.XX%X X}.}.%X%X%X@X%X}.@X@X{.=X@X@X@X%X%X%X%X@X}.%X@X}.%X@X@X{.{.}.B.9.9.[.%X-X=X-X=X=X=X%X%X=X=X=X%X%X@XN.Q Z.@X@X",
"w 2.n.M.9.4.W 9.W W W W W W W W W W Q W W W Q E S k L I I E ( 4.b.D.H.H.K.L.J.J.H.L.L.L.S.S.D.n.n.J.H.B.B.J.K.K.J.K.K.L.L.H.$X&XK.K.XX$X$X$X&X$X}.K.$X}.}.}.K.XX%X}.}.}.{.{.}.%X@X[. X.XA w q w e q 9 e e y v n n P b v n.K.$X$XXXXXJ.9.n.J.$XK.L.$X$X}.XXXX}.}.J.}.K.K.&X$X$X$XL.K.$XK.$XK.K.L.J.n.M.N.9.E L A A r j 4 3 1 1 $ # o + o + o . * A R 3.3.2.,.3.7.7.5.o.o.,.3.<.8.7.P.L L 9.XXXX$X%XXX&X%XXX%X%X}.}.}. X%X%X%X%X@X{.@X@X%X%X=X%X%X@X@X%X%X@X%X%X%X=X%X}.{.{.}.{.@X%X=XA.W 9.%X%X=X-X%X%X=X=X%X=X%X%X%X[.W J.@X@X=X",
"q.n.9.4.4.W W W W W W W W W Q Q Q Q Q W Q W Q W I W W E Q ( b.n.H.H.H.L.L.K.L.L.H.J.H.J.J.K.H.D.n.H.H.S.K.K.L.H.J.L.L.L.K.$X}.}.K.}.K.}.}.}.}.%X&X$X%X$XK.$X}.}.%X}.$X}.B.}.%X%X@X@X@X XI e q e e w e e e y m v n P n b }.}.$X$X}.H.9.L.L.J.$XXXK.}.XX}.K.$X}.K.K.K.L.XXK.$XK.$X&XK.$XK.K.$XL.J.K.H.n.S.b.M.b.b.9.W E L S I S J A r 3 1 # o + o o r W 3.q.2.2.3.5.5.,.<.<.<.<.P.P.P.P A U J.}.}.}.}.%X%X%X%X%X}.}.}.%X%X%X%X%X%X%X{.#X%X}.&X#X%X}.%X%X{.{.#X%X@X%X{.@X@X{.{.{.}.@X@X%X@XC.W 9.{.%X%X-X=X=X=X*X%X@XM.E {.@X*X%X-X",
"9.4.W ( W W W W W W W W W W ( W W W W Q W I E E W / W 9.( n.S.H.K.L.K.H.L.L.D.L.L.L.H.H.B.K.J.J.L.J.B.S.J.K.J.K.J.K.L.J.L.H.}.J.J.K.}.}.}.$X}.$X%XK.%XK.}.#X}.%X%X&X$X}.}.$X=X@X%X%X%X@XW w q e e e e e e y v m n P P 9.}.}.K.H.4.B.J.{.}.}.$XXXXX$X$XXX$X$X&X$XK.$XK.L.K.K.$XK.$XK.$XK.K.K.L.L.J.K.n.B.B.M.n.9.M.n.M.9.W E I I I I I I A 5 * + + + * S 2.q.2.2.2.2.3.3.3.5.7.w.F.P.2.A A B.H.}.%X}.}.%X X}.}.}.}.%X%X X%X#X@X{.@X{.{.{.{.{.J.{.@X%X%X#X}.%X}.%X%X@X@X@X%X%X%X X{.{.%X%X X X`.9.9. X=X=X%X@X*X.X9.W  X=X=X=X%X=X",
"W W 4.( W W W W W W W W W W W W W E W W W W W / / 9.b.n.D.H.H.K.K.L.L.L.L.H.H.H.J.J.H.H.J.L.H.B.L.J.n.H.K.H.L.J.H.K.J.}.L.L.H.J.{.K.}.}.K.XXXX$X$X&X$X%X}.}.J.}.%X}.$X&X$X}. XXX X=X%X@X9.w w e e e e e e v m m n P P J. X{.n.9.}.}.{.{.J.K.$XK.XX$XL.J.K.}.L.$XK.K.K.$XL.$X$X$XK.L.K.K.K.}.L.K.J.H.B.n.n.n.M.N.N.M.B.n.b.9.W E E W W E E I A Z 1 $ $ $ 2 r S A 2 2 k 2.3.3.w.w.w.F.L A S n.H.J.J.}.{.}.}.{.}.}.{.}.L.}.#X{.{.%X%X{. X{.{.{.{.@X}.{.{.%X#X@X@X#X@X%X%X@X@X%X=X=X%X@X%X=X=X X@X%XJ.9.9.[.@X{.{.W 0.=X-X-X=X=X=X%X",
"W W W W W W W W W W W W W W W Q I Q W I W W W ( M.B.J.K.#XJ.J.L.L.L.H.L.H.n.S.H.J.B.H.H.S.H.H.B.J.J.L.D.H.J.H.J.H.H.L.L.H.n.}.}.J.L.}.$XK.}.}.}.$X$X%X}.%X%X}.}.}.}.}.B.9. X%X%X X%X@X@XV.t w e e e e e y v n P P P 2.&X{.9.J.}.}.J.J.B.J.K.H.}.K.}.J.K.}.L.K.K.}.$X$X}.&XK.$X}.K.K.$X$X$X$XL.J.H.J.}.J.n.b.M.M.n.M.B.b.n.N.b.9.W W W / / ( / E E J 4 , * * $ $ $ % + q R 3.q.3.>.k 3 j I b.B.B.B.B.B.B.H.H.}.H.H.L.L.}.{.{.{. X@X{.{.{.{.{.{.{.}.{.L.#X{.}.%X@X}.%X%X@X%X%X%X=X=X=X%X X@X X{.{.{. X{.W W 9.k Z.=X%X-X-X-X-X=X=X",
"W W W W W W W W W W W W W W Q W W W E E W ( 9.b.S.K.K.K.K.K.K.H.H.L.L.L.H.D.S.H.n.S.H.n.n.H.H.B.J.L.n.H.H.H.J.L.L.J.J.}.L.J.}.}.XX}.{.J.}.J.J.}.&X%X&X&X%X%X}.}.%X}.}.J.%X%X X}.}.@X%X{.A.t e e e e e e y v n :.P P n.9.9.*X%X%X}.%X}.{.}.K.J.}.K.$X}.}.K.L.L.L.K.XXL.L.K.K.K.L.K.L.L.$XK.L.L.L.}.H.J.H.S.n.N.M.M.M.n.n.n.B.n.n.M.9.9.( ( ( ( ( ( ( / E A 4 1 * * * * $ $ * * * & * 2 A W M.C.J.C.B.A.A.B.B.J.B.A.L.J.A.{.{.{.{.@X X@X X{.{.{.{.}.{.@X{.%X}.#X{.}.{.%X}.#X%X@X%X=X%X=X@X{.{.{.J.}.}.#X}.9.q L A.=X%X@X=X=X=X=X@X",
"Q W W W W W Q W W W W Q W W W W W W W W b.9.9.N.{.K.H.L.K.L.L.H.L.L.L.H.B.B.B.H.B.n.n.S.H.H.n.n.H.L.J.J.J.H.H.L.K.J.}.}.K.J.K.}.L.J.L.J.J.H.J.L.K.}.}.}.}.{.}.}.}.}.$X}.}.}.{.%X X X@X%X{.k e w e e e e z v n :.,.P W {.%X{.%X%X%XXX}.}.}.J.J.J.H.J.J.L.L.L.L.K.K.H.L.L.L.L.L.L.L.H.J.K.K.K.L.J.J.J.K.J.H.B.9.M.N.0.n.n.n.n.N.B.b.n.N.M.M.9.9.9.0.9.9./ / E E E S A r 3 2 1 1 1 1 r L E 9.N.M.C.C.A.J.J.B.B.N.B.B.A.A.B.B.B.A.[.A.{.{.{.{.@X}.{.{.@X}.L.}.{.%X{.L.{.#X#X%X}. X@X%X%X=X{.{.{. X{.{.{.}.H.L V.A.W ( .X=X=X%X%X-X=X",
"W W W W Q W E W W E W W W Q W W W ( 9.b.9.9.M.M.M.B.K.K.K.K.K.K.L.L.H.H.H.n.D.H.n.B.L.J.J.J.H.H.H.K.K.H.K.B.J.H.H.J.XX}.}.J.}.}.}.J.}.XXJ.{.J.J.}.}.}.}.}.L.K.}.%X%X$X$X}.}.{.[.{. X X%X@XL t e e e e y v n P :.,.P M.{.{.}.J.}.%X%XJ.J.}.L.B.H.H.H.H.B.B.H.L.L.H.L.J.L.K.L.L.L.K.L.K.K.$XL.H.L.K.J.}.L.J.B.n.N.N.M.M.9.b.b.M.M.n.9.b.M.N.N.m.m.9.9.9./ W W ( W W / ( E W / / E E / ( m.B.C.B.N.C.C.A.A.B.M.M.C.N.A.N.C.B.N.B.C.C.B.A.A.J.J.}.@X@X{.{.{.@X{.{.{.{.{.}.}.}.@X@X X}.#X%X{.{.{.@X@X@X XC.I C.@X%X XA.E S `.@X@X=X@X",
"Q E Q Q Q W Q E W W W W W W Q W 4.b.D.J.K.#XH.B.J.B.J.L.K.K.L.L.L.L.L.L.J.H.S.D.J.H.H.H.n.B.S.B.K.K.H.J.L.S.H.}.J.H.}.}.J.J.}.}.}.}.}.}.}.}.{.{.J.J.H.}.}.$X}.}.}.&X}.}.%XJ.}.{.{.{. X%X XW t t e e e y v P :.,.,.b N.%X@X%X{.J.J.L.}.}.J.}.}.{.J.J.B.H.H.L.H.L.L.L.B.L.L.L.L.L.H.J.K.K.K.L.B.J.K.J.H.}.}.J.B.N.N.b.n.N.N.N.M.M.b.9.9.b.Z.M.N.C.N.B.B.Z.9.9.( ( 9.9.9.9.9.9.9.9.9.9.V.A.A.C.C.J.C.B.C.B.A.B.b.C.B.C.M.B.B.C.B.N.M.N.N.M.N.B.A.A.J.}.}.{. X{.J.@X{.@XK.{.{.@X@X@X}.{.{. X X@X@X#X#XC.I A.@X*X=X*X%X%XC.W 9.{.@X*X",
"E I Q W Q Q Q W W W E Q I W 9.9.n.H.H.K.K.K.J.}.B.K.K.K.K.K.L.K.L.J.L.L.L.H.H.L.H.H.H.B.D.K.#XB.J.K.}.K.J.H.H.K.}.}.K.J.K.L.K.}.}.L.K.L.}.K.J.J.B.J.J.$X}.}.%X}.$X$X%X}.@X%X}.}.%X@X%X{. X9.k e e e e y m P :.,.:.4.( =X=X%X=X}. X X}.{.}.J.J.}.}.H.B.H.L.L.L.K.L.L.L.J.L.L.L.J.H.J.K.L.L.L.J.H.J.J.J.}.K.L.C.A.B.M.B.N.A.C.b.b.M.M.b.9.V.M.N.A.J.J.L.J.[.B.M.9.9.M.N.M.N.V.N.C.B.B.C.N.B.C.J.C.C.B.C.B.B.B.A.B.C.B.B.N.N.N.N.N.M.B.B.B.C.N.B.B.B.B.J.L.[.{.C. X{.J.#X@X=X%X{.{.L.J.{. X@X@X@X%XB.W *X@X@X%X=X=X@X=X@X XC.E W [.",
"Q I I Q I Q W E Q W Q W W 9.B.D.G.L.L.L.L.L.K.K.K.L.K.L.L.L.L.L.}.L.H.L.L.L.L.H.H.K.J.L.K.&XK.J.J.J.J.H.K.K.J.}.H.}.K.K.}.H.J.}.}.}.}.{.{.J.{.J.}.}.J.L.}.{.%XXX$X&X%X}.{.{.}.{.{.@X{.{. XC.k e e e e y m :.,.,.P N.{.9.[.%X=X=X=X%X$X}.}.}.}.L.J.n.n.L.H.B.L.H.H.L.J.L.H.B.K.K.K.J.}.K.J.H.H.}.}.J.B.K.J.J. XB.N.B.B.n.C.C.B.N.M.M.b.9.9.9.9.M.A.J.J.J.{.{.[.B.C.A.C.A.A.C.A.A.J.C.A.C.A.C.C.C.C.C.B.B.B.B.A.A.C.B.A.B.M.N.B.M.N.C.B.A.C.A.B.A.N.C.A.A.[.J.[.J.{.{.@X=X%X%X%X%X{.}. X{.@X@X XA.W %X=X%X=X%X%X=X*X X%X@X@X.Xm.I ",
"L L L L L L L I E E 4.4.M.B.H.H.K.L.L.K.L.L.K.L.K.L.K.L.J.J.L.L.L.K.H.L.H.D.H.H.B.K.L.B.H.n.H.J.H.K.K.K.}.K.}.$XK.$XJ.&X}.H.B.}.}.L.}.L.L.L.}.{.J.L.}.}.J.}.$X}.%XXX{.}.@X@X{.%X%X@X{. X{.M.k e e e e y n :.,.,.,.B.%X=X0.9.[.@X&X%X&X$X}.}.K.H.B.B.n.H.B.H.L.L.L.K.L.K.K.K.}.L.}.K.}.H.}.H.J.J.J.J.J.}.{. X@X{.J.C.n.n.M.M.9.M.M.b.b.9.b.b.n.M.M.B.{.{.{.{.{.}.}. X{.{.{.{.[.A.A.C.A.C.C.C.C.C.N.C.B.C.B.N.C.C.A.N.B.B.N.A.C.V.N.N.N.B.A.C.B.A.M.C.A.N.C.A.[.C.A.{.{.@X@X%X=X=X&X#X@X@X{.{.b.E @X=X%X%X%X@X@X X%X@X@X{.{.@X@X{.",
"L I L I E L I Q W 9.q.n.H.G.L.H.G.L.H.K.K.L.L.L.K.L.K.L.H.H.L.H.H.L.L.L.L.L.H.B.J.L.H.n.H.H.L.K.K.J.{.J.K.B.J.%X}.}.K.$X}.}.K.}.H.J.}.L.}.}.}.J.H.}.}.}.L.}.}.}.}.%X{.{.@X@X{.%X%X%X@X X{.9.t e e e e v n ,.,.,.,.J.%X=X{.C.Q C.}.}.}.}.J.H.J.J.J.J.J.L.H.L.K.K.K.L.L.L.L.L.L.K.J.%X$XJ.}.}.{.H.J.}.L.}.H.}.{.{.[.C.M.N.N.C.M.N.M.C.B.M.M.M.n.M.M.B.[.{.{.{.{.{.{.@X{.@X{.{.J.[.A.A.A.A.C.B.C.C.C.A.A.N.N.N.A.C.M.N.N.M.N.B.B.B.C.N.N.N.A.A.A.J.C.A.`.A.A.A.[.A.A.{.{. X@XJ.{.@X%X@X%X%X}.9.W {. X@X@X@X@X X@X X X@X X@X@X@X%X@X",
"E I I Q I Q W W b.D.D.H.L.L.K.H.G.H.G.G.L.L.L.L.L.L.K.K.K.K.H.B.S.D.L.L.H.L.L.K.L.K.J.D.L.J.}.K.K.H.C.H.K.$X}.}.J.K.}.}.$X$X$X}.{.}.}.}.K.}.}.}.J.J.}.}.}.}.}.}.}. X}.@X X@X}.H.XX@X@X%X{.P t e e e y v m :.,.,.,.H.%X=X%X%X@X9.( @X$X}.}.K.}.$X$X}.}.L.$X#XK.K.L.}.L.K.H.H.K.K.K.K.}.}.J.C.C.n.b.A.}.}.}.J.{.C.J.C.b.M.9.Z.M.B.C.C.N.9.9.N.b.N.N.B.A.J.A.{. X@X%X%X%X X&X@X{.{.A.C.J.B.C.B.C.C.C.A.B.b.N.B.B.C.N.C.N.N.N.M.N.B.C.C.C.C.A.A.A.A.A.A.[.A..X[.[.[.J.{.J.[.[.A.[.A.J.{.{.B.9.W H.@X%X%X*X@X{.@X X X@X%X X{. X%X@X%X",
"L L L L Q 4.4.n.H.L.L.L.H.K.H.H.L.K.H.L.K.L.H.G.L.L.XXK.J.L.L.H.L.K.L.L.L.H.L.L.J.H.L.H.S.B.}.}.}.B.}.J.J.L.}.}.}.K.K.}.$X$X$X}.%XJ.}.L.}.J.K.K.}.}.}.K.}.}.}.{.J.}.}.}.@X@X@X{.%X%X}.%XM.v e e e e e v m ,.,.,.,.q.%X%X%X%X%X}.M.Q J.{.}.}.$X}.&X&X}.}.K.L.K.$XK.$XK.$X}.}.J.H.K.}.J.J.J.}.}.{.J.J.}.%X{.{.{.{.A.N.N.M.9.N.C.V.C.C.B.N.b.N.C.C.C.B.J.A.A.{.%X@X%X%X{.}.#X}.@X@X XJ.{.J.A.A.A.C.[.C.N.C.A.A.N.A.B.N.C.J.A.B.N.N.N.C.N.C.J.C.A.C.C.N.A.{..X.XJ.A.A.[.[.`.C.`.A.A.C.A.b.Q 9.%X%X%X%X%X=X@X@X@X X*X X@X X`.{. X.X@X",
"k I W 4.4.n.b.G.L.L.L.H.G.H.G.G.G.L.G.H.L.H.G.K.L.L.K.H.L.H.L.K.K.H.H.H.K.K.K.K.$XL.L.H.K.K.K.H.B.C.}.J.K.K.}.}.L.H.}.}.K.K.$X}.}.K.}.}.J.H.J.}.J.}.}.J.}.}. X{.}.}.{.}.{.#X#X%X&X X{.N.W v t e e t e v m :.,.,.,.2.&X%X%X%XXX}.$XJ.4.Q H.}.$X$X&X$X$X&X&X$X&X&X}.}.K.}.$XK.J.}.J.H.K.B.H.A.J.H.J.}.}.}.A.{.{.{.[.N.B.C.N.N.C.A.C.N.C.C.N.V.N.N.[.C.C.C.C.B.{.@X@X@X@X#X%X%X@X@X X{.{. X{.J.B.C.C.C.A.N.N.B.N.N.N.V.C.C.B.N.A.C.C.C.C.B.A.C.C.N.N.C.{.{.{.{.{.C.[.A.[.C.`.A.A.A.N.0.I E A.{.{. X%X@X@X{. X%X%X*X X@X{. X X@X%X@X",
"I Q 4.n.H.G.H.H.L.L.H.G.G.H.H.G.H.H.L.H.H.H.G.H.L.L.L.L.L.J.L.J.n.4.L.J.K.K.K.K.K.J.H.H.K.K.H.H.J.J.J.H.L.}.K.K.K.}.}.J.J.}.}.}.}.K.L.L.{.{.}.}.}.K.}.}.XXL.}.{.}.}.{.}.{.}.}.}.{.[.M..XQ v t e e e e y m ,.,.,.,.,.&X&X&X%X%X$X%X=X%XS.Q }.$X&X$X}.&X&X&X&X$X&X$X#XK.}.$XK.L.}.$X}.K.L.J.J.J.{.J.J.H.J.H.{.J.{.@X[..XC.N.C.[.A.A.C.C.C.A.C.N.n.A.C.N.B.C.B.B.[.J.{.%X@X#X%X{.=X=X%X@X%X%X X{.A.A.C.A.N.V.M.N.N.B.N.B.C.N.M.`.C.C.N.C.N.C.C.N.N.M.b.B.A.{.[.`.C.A.A.V.V.V.V.`.V.N.E 9.N.A.[.{. X X X X@X@X@X@X@X@X X[. X X{. X X",
"9.b.n.G.L.H.K.K.L.H.G.G.G.G.G.H.H.H.H.H.H.L.L.L.H.L.K.H.B.n.n.n.W R H.L.L.L.L.K.K.}.J.K.K.J.#X}.J.H.B.J.K.J.J.J.}.J.J.}.J.L.H.}.}.XX}.}.}.J.}.}.J.}.}.}.}.}.K.XX}.}.}.}.@X%X}.J.b.J.@X XW v v e e e e t n ,.<.,.,.3.XX=X%X&X%XXX&X&X&X$XJ.W B.}.$X}.&X&X&X&X&X&X}.%X}.}.}.#X}.}.K.$X}.}.J.H.J.J.J.{.}.{.}.{.{.{.A.A..X[.A.A.A.C.C.C.A.C.C.C.C.C.C.B.N.C.A.J.A.J.A.J.{.@X%X%X%X%X%X=X@X@X-X=X X{.{.J.A.C.B.B.C.C.N.N.N.C.N.C.C.C.C.B.B.N.A.C.C.M.N.M.C.`.A.A.C.C.N.V.V.V.Z.m.Z.m.E 9.M.C.C.`.[..X{.{..X{.{.{.{.{. X{. XA.A.[.[.@X",
"n.D.G.G.H.G.L.H.H.G.G.H.G.H.L.L.G.n.H.H.L.L.H.G.H.L.L.5.n.B.n.9.4.b.J.H.L.L.K.L.K.K.K.K.J.J.}.$XK.}.K.H.J.H.H.K.J.H.H.B.B.J.J.L.J.J.J.K.K.J.J.}.L.}.}.%X}.}.{.}.}.}.}.}.{.[.n.M. X%X}.}.9.v t t e e e y n ,.,.,.,.3.&X=X%X$X%X%X$X$X#X&X&XK.9.W H.}.K.&X%X%X%X$X%X&X}.K.}.}.$X}.}.}.}.%X{.}.{.A.M.J.{.J.B.{.{.J.{.{.{.{.A.A.A.A.[.N.A.C.C.C.N.B.M.J.C.C.A.J.C.A.{.{.{.%X=X%X%X%X X%X@X%X%X%X%X{.{.[.A.J.A.B.A.C.N.J.B.A.A.C.N.M.M.N.N.N.M.M.B.m.N.N.C.C.M.C.V.A.V.N.M.V.V.Z.m.E 9.V.C.Z.`.V.`.`.`.C.C.A.[.{.[.[.`..X XA.A.M.C.A.",
"G.L.K.K.K.K.G.G.L.L.G.H.G.G.n.G.H.L.L.G.L.L.K.L.K.n.b.D.D.n.n.H.n.H.L.H.S.S.H.J.K.K.H.}.K.}.}.}.K.}.}.J.J.K.B.B.H.b.9.b.B.J.H.K.}.J.L.L.}.J.J.}.J.L.H.J.J.{.H.J.J.J.}.}.J.9.J. X[. X.X[.q.k t t e e y v P 3.<.,.,.F.&X%X&X%X%X&X}.}.&X&X&X$XK.9.I H.$X&X&X%X$X}.=X$X$X}.K.}.}.}.}.}.K.}.}.{.}.H.B.J.J.}.J.J.{.{.J.{.{.{.{.{.A.A.[.C.C.C.C.C.M.M.M.N.C.B.A.C.J.J.A.C.A.{.%X@X=X%X@X@X X X X X@X%X{.{.J.J.J.A.J.A.C.B.B.C.N.M.C.C.C.N.C.N.N.C.M.V.V.V.N.V.V.M.M.M.M.M.9.m.m.0.E 9.m.V.V.V.`.V.Z.Z.V.C.V.V.C.[.C.Z.V.C.C.`.[.M.A.C.",
"L.L.L.K.L.H.G.G.H.L.H.H.H.D.G.G.G.H.H.G.L.L.L.H.H.n.D.H.D.L.J.K.L.K.K.J.S.J.K.}.K.J.H.K.K.#XK.L.$X}.}.}.H.L.J.B.J.n.J.}.L.J.J.L.K.L.J.L.J.}.J.}.H.J.H.J.}.}.J.J.J.H.B.M.n.{. X`.I 3 * & l v y t e y y v :.5.5.3.<.H.&X$X#X&X&X$X&X&X&X&X&X$XL.L.{.9.9.%X}.XX}.}.$X}.%X}.%X$X&X%X%X}.}.}.}.{.H.H.}.}.{.{.{.{.{.{.{.{.{.{.{.A.J.[.B.C.C.N.A.A.N.C.M.M.C.C.[.{.B.C.A. XB.J.{.@X@X@X%X{.@X@X X{. X{.{.J.[.{.[.[.J.J.A.C.A.M.B.C.C.C.A.C.A.C.C.M.C.C.C.N.V.M.M.m.M.m.m.V.Z.Z.9.I ( V.b.Z.V.C.V.M.V.C.V.V.M.M.N.M.V.V.V.V.`..XA.A.C.A.",
"H.H.L.G.L.L.G.G.K.H.G.G.G.H.H.L.G.H.L.H.G.G.H.n.H.L.L.L.L.K.}.L.K.K.K.}.}.}.J.K.K.H.K.K.K.J.H.L.K.$X$X}.K.K.}.K.K.K.J.J.}.}.J.L.J.B.L.K.K.}.}.}.J.L.L.}.}.}.{.J.H.n.9.{.}.{.M.1 * * * 2 2.b b v t y y m :.3.5.3.3.L.&X&X$X$X&X$X&X&X$X&X&X&X}.$X&X}.H.W J.%X%X}.}.$X%X}.}.$X%X$X%X}.}.}.}.J.H.{.J.}. X{.{.{.{. X X{.{.{.{.{.{.{.J.A.A.N.J.A.N.C.b.N.A.A.A.A.A.A.C.{.A.A.C.J.{. X@X@X@X{.{.@X{.%X@X X{.{. X{.{.J.[.B.C.M.C.A.A.[.A.A.N.C.N.N.A.C.C.N.N.V.m.m.m.9.m.b.m.( I 9.m.Z.V.C.C.V.Z.Z.V.V.`.`._.C.V.m.M.V.m.M.V.`.C.C.V.`.",
"H.G.L.G.L.G.G.G.H.G.D.H.H.L.G.G.G.H.H.G.G.L.L.D.L.L.H.D.H.L.K.J.L.J.K.J.K.}.K.K.L.H.J.J.J.}.}.K.}.$X$X}.}.#X}.J.}.}.}.K.J.K.K.}.K.}.}.J.}.J.J.}.}.J.L.}.}.}.J.B.9.b.}.L.J.A.3 , - - - L ,.:.:.P U v y m o.3.5.3.3.$X&X&X$X$X&X$X$X$X%X&X=X=X%X&X X}. X{.W 9.}.%X%X%X%X%X&X%X%X}.}.%XXXXX}.J.H.H.J.J.}.{. X{.{.{.{. X X{.{.J.{.{.[.J.C.B.A.A.C.N.C.N.C.C.A.B.C.C.N.A.J.A.A.A.J.{.{.{.@X@X X@X@X@X{.@X{.{.{.{.{.{.{.[.A.{.{.[.A.J.C.C.B.A.M.N.M.A.V.M.M.C.m.M.m.0.0.0.( I m.V.m.V.V.C.C.V.V.V.V.V.`.`.A.V.V.V.V.V.m.Z.M.A.C.V.C.A.",
"G.G.G.H.G.G.G.G.H.G.H.D.D.D.D.H.L.K.D.G.H.L.H.G.H.L.H.B.L.n.}.J.L.J.L.K.}.}.K.K.}.}.L.L.L.K.n.B.K.}.}.K.L.K.J.J.}.}.K.J.H.K.}.}.}.XX}.}.%XL.}.}.J.H.J.H.B.B.9.9.B.B.n.n.n.9.2 3 3 3 3 ,.,.,.:.P P :.P n :.<.5.3.5.&X&X&X&X&X$X$X&X&X&X$X&X-X=X&X}.%X%X%X XC.W J.%X%X=X=X%X&X%X%X{.H.{.}.}.H.J.J.H.}.{.{.{.{.{.{.J.J.{.{.@X X{. XJ.N.C.C.C.C.N.C.C.M.C.A.C.C.C.N.M.M.C.J.J.C.[. X X{.{.%X%X@X{.{.@X@X@X{.@X X{.{.[.{.{.{.{.{.[.{.A.A.[.[.C.C.N.C.B.C.C.C.Z.M.M.( ( / L 0.Z.m.Z.V.Z.Z.Z.V.Z.M.Z.m.V.V.`.`.V.C.V.V.M.C.C.C.C.V.V.V.",
"G.H.G.G.H.n.G.H.G.G.D.G.D.n.G.H.G.H.G.G.G.H.H.n.G.L.L.H.H.H.L.K.L.L.K.L.J.K.J.J.K.K.K.J.H.n.D.H.H.K.K.J.K.K.K.J.}.L.B.D.J.K.J.K.K.}.K.}.}.H.H.B.B.B.B.M.b.W M.J.B.B.B.B.D.Q - ; 2 2 w ,.:.,.:.:.:.:.:.:.:.<.3.3.5.&X&X&X&XK.XX&X&X&X}.#X&X&X=X&X}.=X%X%X%X%X XW 0.=XXX%X%X%X%X%X}.}.{.}.J.J.}.H.H.{.}.{. X{.J.{.{.{.J.{.[.%X{. X X{.N.A.C.A.M.M.C.A.C.C.N.N.M.[.B.C.J.C.A.C.A.C.A.J.J.{.%X X X{.{. X{.{.@X{.{.{.{.{. X@X{. X{.{.{.{.`..X{.`.`.A. X XV.V.C.m.m.b.L I 9.m.Z.m.V.V.Z.Z.Z.Z.C.`.V._.m.Z._.C.`.C.C.`.`.`.V.V.C.V.V.V.",
"G.H.H.K.G.G.G.D.D.G.G.G.G.G.G.G.G.G.G.G.H.G.H.H.H.K.K.L.H.B.n.n.H.L.n.J.B.H.H.J.K.K.K.n.B.H.H.H.H.J.}.J.K.L.J.J.K.H.J.J.H.H.J.K.H.J.J.J.J.J.}.K.}.J.B.9.9.J.J.B.B.B.n.D.D.Q 2 2 3 3 v ,.:.:.n :.o.:.<.<.3.5.5.3.5.&X&X$X$X$X$X$X&X&X&X&X&X&X%X&X%X%X%X=X}.%X&X%XM.W {.}. X=X=X%X%X%X X XJ.J.J.H.H.J.{.A.{.J.{.{.{.{.[.@X{.{. X@X%X{.A.[.A.C.C.C.M.C.C.C.C.C.C.C.A.[.C.B.C.A.C.N.B.B.C.[.{.{.[.J.J.{. X=X%X%X{.J.[.@X[. X X{. X{.@X X X X X{..XC.A.C.A.`.V.Z.m./ I 0.Z.M.V.V.C.m.M.C.V.`.`.`.V.V.V.V._.`.`.C.`.`..X`.Z.Z.C.V.V.Z.",
"G.G.n.G.G.D.G.G.G.G.G.G.n.G.G.n.G.G.n.G.H.b.G.G.n.H.K.J.H.G.L.H.S.J.J.K.S.H.L.L.K.H.K.H.H.H.H.J.J.J.K.}.K.J.H.J.H.J.H.H.H.J.K.}.H.B.J.K.K.K.J.}.H.b.9.N.J.K.H.H.B.H.D.n.n.Q 2 2 2 w n P :.n :.:.o.:.<.<.3.5.3.3.1.&X&X$X&X&X$X&X&X&X&X$XK.}.&X}.XX}.&X%X&X%X&X%XXXA.E M. X%X%X%X%X%X X%X}.}.}.H.H.J.}.J.J.{.A.J.J.{.{.{. X@X%X{.@X@X X{.[.A.[.A.C.N.N.C.B.C.J.A.C.C.C.N.N.A.C.C.B.N.B.C.J.J.[.{.[.{. X@X@X@X{.{.@X=X%X%X*X@X%X@X@X@X=X@X=X X{.[.`..X.XC.V.Z.E E m.m.V.Z.V.V.C.V.V.C.A.C._.Z.V.V._._.`.V.C.C.C.V._.Z.Z.V.`.V.m.Z.",
"G.n.G.G.G.G.G.G.G.G.n.G.G.G.G.D.G.G.D.G.G.G.G.G.D.D.H.H.L.S.L.L.L.K.L.L.L.K.K.K.J.J.L.H.B.K.K.H.H.B.}.K.L.S.H.B.B.B.H.H.H.B.K.L.J.K.J.H.H.H.H.B.4.n.J.}.K.J.H.B.H.H.H.H.n.I 2 3 3 q R :.:.n ,.:.:.:.3.1.7.7.1.3.5.K.&X$X&X&X&X&X&X&X&X$X}.}.XX$X%X&X%X%X=X%X=X%XXX X{.9.W [.%X%X%X%X%X%X%X}.{.{.{.{.}.{.J.{.J.{.[.{.{.J.{.@X@X X{.{.{.[.[.[.J.A.J.C.N.M.A.A.C.C.b.C.A.C.C.B.C.C.A.N.M.A.A.J.{.{. X{.@X{.@X X@X@X@X=X X%X%X@X=X%X=X=X%X=X=X@X X|. X.X[.C.m.W ( `.V.V.V.`.C.V.V.C.A.`.V.Z.Z.Z.V._.m._.V.C.C.`.C.V.m.M.Z.V.m.Z.C.V.",
"G.G.G.G.G.G.G.G.G.G.n.D.n.n.n.G.G.G.n.n.G.H.n.n.n.D.G.H.L.L.H.L.L.L.H.H.H.L.K.H.J.H.H.H.B.J.L.H.H.K.K.K.J.J.H.J.J.J.H.H.H.H.J.H.J.L.L.J.J.S.9.4.n.H.L.}.K.K.J.J.L.L.H.D.b.L 2 3 w e ,.:.:.n ,.3.:.:.3.7.7.5.1.<.5.K.$X$X&X&X&XXX$X}.&X&X}.K.}.$X&X%X&X%X%X%X%X}.}. X{.{.C.W M.}.{.%X%X%X%X}.{.{.{.}.{.{.A.{.J.{.C. X{.{.{. X{.{. X@X X XA.J.C.M.C.A.A.C.C.[.A.[.J.A.C.C.[.A.C.B.M.B.N.M.M.C.A.[.{.{. X{.@X%X%X%X{.@X@X@X%X%X=X%X=X=X%X%X@X X X X X XA.A.W 9.`..X`.`.`.C.V.M.V.V.V.V.V.`.V.m.V.V.V._.V.C.V.V.Z.V.V.m._.`.V.V.V.Z.",
"G.G.n.n.n.G.D.G.n.G.D.n.n.n.n.D.G.n.G.H.H.n.H.D.n.G.H.H.H.L.H.J.K.J.H.H.H.L.L.D.L.J.B.J.J.K.K.J.L.J.B.H.J.H.J.J.J.}.J.J.B.H.B.J.J.K.H.B.n.4.b.B.B.J.H.J.J.L.K.J.L.H.H.n.9.S 2 r w e ,.,.o.:.:.3.<.,.3.7.7.5.3.<.5.G.$XK.K.&X&X&X&X$X$X%X&X}.XX}.%X%X%X}.}.}.%X%X}.XX{.%X%X{.9.9..X%X%X}.}.}.}.J.J.J.J.{.{.{.J.{.{. XJ.{.{. X X X X@X X X[.[.C.C.C.A.[.{.A.A.A.[.{.C.[.A.{.[.A.A.A.N.M.M.M.B.C.C.J.{.{.{.{.@X{.%X%X X@X=X%X=X=X%X%X*X%X@X@X@X=X X{. X.XW m.|.V.`..X.X`.`.`.m.C.M.Z.Z.V._.V.0.Z.V.`.V._.V.V.m.m.V.V.V.V.`.V.`.`.`.",
"n.G.G.H.G.G.G.G.D.G.D.n.n.n.D.G.H.H.G.G.D.D.D.D.n.G.n.L.J.G.D.L.J.L.H.J.H.L.J.H.J.J.H.H.J.L.H.H.J.J.J.J.J.K.K.K.$X}.J.H.H.J.K.H.H.G.B.9.9.B.H.H.H.J.B.J.L.K.}.L.H.B.B.b.9.I 3 3 3 v :.o.o.:.:.,.<.<.3.7.7.5.<.<.7.G.L.&X$X$X$X$X&X$X$XK.%X}.%X%X%X%X&X%X}.}. X}.}.}.J.J.J.K.{.C.E N.{. X}.J.}.}.{.{.{.J.{.{.J.{.{.J.C.J.A.{.%X{.[.{.{.[.[.{.[.A.C.M.C.C.J.[.[.C.A.A.A..X{.{.[.C.C.M.M.M.N.C.C.C.{. X{.A.J.{.{.%X@X=X-X-X%X@X X=X=X=X%X%X@X=X%X%X@XA.Q V. X*X@X|..X[..X.X`.m.`.C.`.V.V.V.m.m.m.V.V._.`.Z.Z.C.V.`._.`.V.V.`.A.V._.",
"G.H.G.G.G.D.G.G.n.D.G.n.n.D.D.H.n.4.b.n.n.H.G.D.n.G.G.D.H.L.S.D.D.H.B.J.L.J.J.B.n.H.H.B.J.H.H.B.H.J.J.J.}.$X}.}.K.J.J.J.J.J.H.B.L.b.W n.J.H.L.B.H.J.K.H.J.K.K.J.H.D.B.n.9.L 2 * * P n n o.o.,.<.<.,.3.1.7.5.1.1.5.H.G.H.$X$X&X&X&XXX$X}.}.%X}.}.%X%X%X=X}.}.{.}.}.J.{.}.J.J. X}.}.W 9.{.{.%X{.}.{.{.[.A.A. X{.{.[.{.[.A.{.{.{. X X X{.[.[.A.C.C.C.C.C.C.C.[.C.C.C.[.{.J.C.[.C.A.N.b.N.N.N.C.N.C.[.`.[.[.{.{.J.{.%X=X-X=X=X%X@X@X*X X@X@X X X X XA.W V.{.oX*X*X*X.X.X.X`.`.`.`.M.V.C.V.m.V.Z.m.m._._.V.m.m.V.`._._._._.V.`.V.V.Z.",
"G.G.n.D.n.n.n.G.D.n.G.b.n.n.n.b.6.n.n.G.n.B.B.n.D.D.L.H.H.D.H.J.H.D.n.H.J.H.B.H.H.J.J.B.B.H.K.H.J.J.H.}.}.K.}.K.H.H.J.J.H.J.B.B.9.9.B.J.B.B.H.B.J.L.J.K.K.J.J.L.H.B.B.n.9.S $ & 2 P m n :.:.<.<.<.<.<.3.7.7.1.<.2.9.D.n.n.L.K.&X&X&XK.}.XX$X$XK.}.%X%X%X}.}.}.}.%XC.{.}.H.{.}.J.J.J.M.I J.}.}.{.{.J.{.{.J.C.[.[.J.{.{.A.{.{.[.{.{. X{.[.[.C.C.[.[.C.N.[.C.B.C.A.C.C.A.[.C.A.A.[.C.N.C.C.C.C.M.N.A.A.{. X{. X@X%X%X=X=X-X%X@X@X@X%X*X X@X@X{.%X[.W A.*X@XoX*X*X*X.X.X|.`.`.V.C.C.C.M.V._.Z.Z.Z.V.m._.V.m.m.V.V.`.`._._.V._.`.V.V.",
"G.G.n.G.G.D.n.b.4.4.W W R 6.4.b.G.G.G.H.G.H.B.H.H.L.L.D.H.H.H.S.B.H.B.H.B.K.H.J.H.B.H.B.B.J.K.J.J.H.H.L.}.J.}.}.J.H.J.J.B.J.9.Q n.B.H.H.B.J.H.J.J.L.L.L.L.H.L.L.H.G.D.b.9.A % % & 2 t P :.:.<.,.3.1.<.<.1.7.1.,.v W n.B.H.H.L.$XXX$X$X}.}.$X}.}.}.%X=X%X%X}.%X}.%XJ.}.%X}.}.}.}.K.{.{.J.W 9.{.{.{.J.J.J.J.M.A.{.J.A.J.{.{.{.{.J.[.@X X{. X{.A.N.C.J.C.A.C.C.N.C.C.C.A.{.C.N.N.[.[.A.A.C.B.A.A.M.A.C..X@X@X@X%X@X@X%X=X@X%X@X X X.X X.X.X@X{.{.W {.@X@X*X.X@X*X.X.X.X.X|..X.X.XC.`.V.Z.m._.`.`._.`._.m.m.Z.m.V.`.`.`.`.m.m.Z.V._.",
"G.G.G.G.b.b.n.n.6.4.4.6.R 6.4.G.n.n.G.G.H.H.G.H.H.H.K.L.L.H.H.L.H.B.B.H.S.S.H.H.K.B.H.H.B.B.B.B.B.B.H.K.}.}.}.J.J.J.J.J.B.9.b.L.B.B.L.B.B.H.J.L.J.J.J.K.K.J.S.H.B.n.n.9.9.S % J A * * 2 v :.<.3.<.<.<.+.<.7.1.:.q 4.n.B.B.n.H.H.K.K.}.}.%X$XK.L.}.XX X}.%X}.=X%X}.%X}.XX}.%X%XK.}. X}.}.J.9.I A.J.{.{.{.{.{.{.{.{.{.J.{.{.{.[.C.J.{.{.{. X`.C.A.C.A.C.C.M.b.N.N.M.A.[.[.A.C.C.C.C.J.A.C.N.A.[.C.[.{.{.[. X X@X@X@X%X-X=X X@X.X`.@X@X{.[. XC.W C.{. X@X*XoX|.|. X.X`..X.X.X'..X`.`.V.`.m.m._.'.`.`.`._.V.'.V.Z.V.V._.`.Z.m.Z.V.V.",
"G.D.n.n.n.n.n.b.6.4.6.6.6.6.4.n.D.H.G.G.n.H.L.L.L.L.L.D.L.J.J.H.L.H.K.B.n.J.H.B.J.J.J.H.B.B.B.B.J.H.J.}.}.}.}.L.J.J.B.b.9.H.J.L.J.L.H.H.n.n.H.K.K.K.}.K.J.H.K.H.B.B.n.b.9.S + J S ) ( - * k :.5.<.<.<.<.<.7.3.t 2 ( n.B.n.n.n.n.B.H.}.}.}.J.K.$X X%XJ.%X&X=X&X%XXX}.}.%X%X%XXX$X}.}.}.}.}.J.M.I 9.[.{.{.{.J.J.{.{.@X X X{.A.J.{. X X X X@X[.`.C.A.C.C.B.A.C.A.A.M.C.A.[.A.A.C.A.C.A.C.A.C.`.A.A.A.[.[.{.{.{.%X@X%X%X=X%X%X@X@X@X@X@X X XA.Q .X X{.@X*X@X X X.X X.X`..X.X`.`.`.`.`.`.`.`.V.V._.Z.`.`.`.V.`.V.V.V.V.V.V.V._.`.V.V.",
"G.G.G.G.n.n.D.b.6.4.4.2.4.4.5.B.D.G.L.G.G.H.H.L.L.L.L.L.K.L.S.H.H.J.J.H.n.H.B.H.K.H.H.B.H.B.B.J.}.K.K.}.}.}.}.}.L.B.q.B.K.K.K.}.K.H.S.J.n.n.J.H.K.}.K.K.L.L.H.B.B.n.b.q.9.S # # $ 5 ) ).5 - 2 3.,.1.1.<.1.7.:.* 1 W H.n.n.B.B.n.N.N.J.}.%X}.XX{.J.}.J.{.}.}.XX}.%X}.}.%XXX%X=X$X}.}.}.{.J.}.[.[.9.W N.{. X{.{.A.J.J.J.{.{.@X{.{.%X%X@X@X@X X{.C.C.C.C.A.C.C.A.`.M.N.C.[.C.V.V.C.A.C.N.[..X[.[.A.C.B.[.{.{.{.[.{.@X@X@X@X@X%X%X*X X X.Xb.W .X@X{.[.{. X@X@X X|..X.X'.`.`.`.'.`._.V.`.'.`.`.`.'.`.`.`.V.V.V.V.Z.V.V.m.V.V.`.'.'.V.",
"G.G.G.G.G.n.G.b.b.D.H.n.D.H.n.D.H.L.D.H.L.L.H.H.J.H.H.H.H.J.B.B.B.n.H.H.H.J.J.B.H.B.n.B.B.J.B.B.J.$X}.%X}.L.J.J.n.b.J.H.XX}.K.K.K.K.K.}.K.}.L.H.K.K.J.L.J.H.H.H.B.n.n.b.9.A # w r 2 1 * 2 1 1 ; m 5.1.<.1.7.w * 1 L n.B.n.n.B.B.n.M.B.B.J.J.H.J.}.}.}.}.}.}.}.}.}.}.}.XX}.}.XX%X%X%XJ.J.B.J.B.B.A.B.L b.[.{.{. X{. X X[.A.{.@X@X%X%X@X X X@X@X.XA.N.A.V.M.C.C.V.N.C.A.`.C.N.A.[.[.A.`.V.A..X.XA.{.{.{.{.{.[. X X{.[.{.{.@X@X*X*X.X`.m.E V.@X*X.X{. X.X.X|. X*X.X'..X.X'..X'.`.`.V.`.`.`._._.'._.V.V.`.V.V.`.Z._.`.`.V.Z.V.V.`.Z.",
"D.n.n.G.n.G.G.G.D.H.L.H.H.H.D.n.G.H.D.L.H.D.H.H.J.H.H.H.S.J.S.B.H.H.H.H.K.K.K.J.H.B.J.H.K.B.L.J.}.}.}.H.L.J.b.9.H.}.}.}.K.}.%X$X}.$X$XK.J.J.J.J.K.K.H.H.H.B.n.H.G.D.b.b.9.k * P k k r 1 1 1 1 ; 2 R 7.<.<.v * 1 2 L n.n.n.n.n.n.N.M.M.n.B.H.J.J.}.}.}.J.%X}.}.}.{.B.H.{.}.}.=X&X%X%X%X}.J.J.{.J.C.B.M.L Q J.[.{.{.J.{.{.{.J.{. X{.%X@X@X X X@X[.[.A.C.N.C.C.M.V.C.C.C.C.`.A.A.N.A.A.N.C.C.A.J.[.{..X.X{.{.[.[..X.X.X{. X X X X.XC.b.( `.{.{. X X X@X X{.`. X XoX`..X.X.X.X`.'.`.V.`..X`.'._._.V.`.`._.V.Z.Z.m.V.V.V.V.V.V.V.`._.",
"H.G.G.n.D.n.n.G.K.L.L.D.H.G.L.G.L.L.L.J.H.n.H.H.D.D.J.J.J.L.K.K.L.K.}.L.J.K.}.K.J.H.K.H.J.}.}.}.}.}.}.}.L.9.B.%X&X%X&X}.}.}.%X&X&X#X}.K.K.K.H.H.J.B.H.H.H.H.H.n.B.H.n.9.9.r ; ,.,.2.U 2 ; - - 1 2 2 n <.n 2 * 6 r q.n.n.B.B.n.n.9.9.M.n.n.n.J.}.J.{.}.}.}.{.}.}.}.A.{.%X%XXX%X}.&X%XXX}.}.H.{.{.J.J.B.N.4.L C.{.{.{.{.{.{.J.{.C.A.{. X%X@X@X%X{.[.{.V.`.[.A.M.A.N.A.[.A.A.C.A.C.`.A.A.C.A.C.N.[. X X.X.X{.[.[..X`.`.C.[.`.N..XA.b.9..X X.X[. X X.X.X.X.X X|..X.X|.'.|..X_.'..X.X'.'..X.X`.`._.`.V.m.V.`.`.`.V.`.Z._.V.`.Z.m._.M.",
"G.G.D.G.G.D.G.H.L.H.H.B.D.D.H.L.L.H.B.Q H.S.H.H.D.H.H.L.J.J.}.L.H.K.}.K.J.H.}.}.$X}.}.J.}.}.%XL.J.J.}.n.b.H.&X%X%X}.%X%X%X%X%X%X}.%XK.$XK.J.B.J.H.S.H.H.H.D.B.B.H.S.B.b.9.2 l <.1.5.,.v t 3 2 - 2 3 3 b l * 1 3 P q.B.D.n.B.B.n.n.M.N.n.n.M.n.b.B.{.{.}.}.}.}.}.}.{.{.J.}.%X}.}.%X X%X%X}.}.}.A.J.{.J.N.C.9.L 9.[.{. X{. X@X{.{.{.@X{.=X=X X X{.{.{.[.`.C.V.C.C.C.C.[..XN.V.A.A.A.[.[.[.[.A.`. X X.X.X X[.[.[.[.C.V.V.C.V.C.C.9.9..XA.@X X X@X{..X[.{.|.`.'.|.|.*X|.|.|..X.X'.'..X'.`.@X`.Z.V.`.'.`._.`.`.`.V.Z.Z.Z.V.V.V.Z.V.`.",
"G.H.G.G.H.D.D.n.L.H.D.D.H.H.L.L.L.G.G.L.B.H.H.H.L.B.D.L.L.H.K.K.K.$X$X$X&X}.K.}.}.}.K.}.}.}.}.L.}.{.9.n.}.XX&X=X%X%X}.%X&X&X$X%XJ.}.$X}.H.J.H.J.J.L.S.J.H.H.n.B.B.J.n.b.( ; b <.<.1.,.,.P U k r 1 3 w 2 * * 2 k 5.w.n.n.n.B.B.n.M.N.N.B.N.M.b.A.H.{.}.}.}.}.K.}.}.}.%X}.}.%X}.}.}.{.J.J.}.H.}.J.J.}.J.A.C.B.C.b.I M.{.{.{.{.{.{.{.{.%X=X@X X{.J.{.[.[.A.C.C.C.V.C.N.A..XA.A.`.`.A.C.N.[.A.C..X.X{. X.X.XC.C.C.`.`.`.C.Z.V.Z.W 9..X*X*X@X.X X{..X{.[. X@X|.|.'.'.|.|.|.|.'.'..X|.`.|.'..X`.`.V.'.`.`.V.V.V.`.`.V.V.`.`.`.'._._.`.",
"G.G.G.D.G.H.K.H.L.L.L.L.K.H.H.H.H.L.L.L.H.B.J.J.K.H.H.K.K.L.L.H.}.#X}.%X%X%X}.}.%X%X}.$XH.H.B.H.B.n.}.H.}.}.%X&X%X&X&X&XXX&X%X}.$XK.%XJ.}.J.H.J.J.$XH.L.H.J.B.H.J.H.B.9.W 2 P <.<.7.3.,.,.2.2.A 3 1 5 2 $ * 1 5.7.5.b.B.H.B.B.n.B.C.N.N.N.n.B.B.C.A.H.J.}.K.J.K.}.H.J.J.}.%X}.XX}.{.J.C.B.J.{.J.J.}.J.{.J.{.{.{.N.Q 9.C.{. X{.{.{.{.@X%X@X{.}.@X{.{.[.{.A.`.`.A.A.A.C..X`.`.A.A.`.[.A.C.A.`..X.X X X|..XA.V.m.`.`.`.`.Z.M./ m..X.X|. X X{.{.[.`.|. X@X X`.|.@X*X.X|.|..X`..X|.|..X`..XV.'..X.X`.`.V.Z.V.`.`.`.`._.Z.V.`.`.`.`.'.",
"G.n.D.D.H.L.L.H.L.L.L.H.K.L.G.G.H.H.K.L.J.L.L.}.J.K.K.J.K.K.K.K.K.$X$X$X$X$X}.}.%X}.&X}.B.B.0.4.9.{.}.L.}.K.$X}.%X%X&X&X%X&X&X&X}.}.}.}.}.}.}.J.K.K.K.L.H.B.H.n.B.B.N.9.W 2 n ,.<.7.7.3.<.<.5.P t w 1 4 1 > v c.F.F.n.H.n.B.B.n.N.A.N.N.N.B.B.C.C.M.M.H.K.$XJ.L.A.B.B.J.J.}.XX}.}.J.{.J.J.J.H.J.{.}.J.H.J.{.{.[.A.A.W E C. X@X{.{.{.{.@X X{.%X%X{. X@X@XA.A.[.A.C.[.V.C.A.A.`.[..X.X.XC.`.{..X[..X[.`.`.V.V.V.C.V.Z.0.0.W 0.{.[.{.[. X{.`.{.|.'..X[.{. X.X|.*X|.|.|.|.|.@X.X'..X.X.X|.`.|.'.A.Z.'.`.Z.Z.`.`.`.`._.V.V.Z.V.`.`._.",
"G.G.H.G.G.H.L.L.L.L.L.J.L.L.L.L.J.L.K.L.K.L.L.L.H.J.K.S.B.J.J.L.K.}.K.K.}.}.}.%X%X}.}.}.H.n.B.{.}.}.}.K.H.B.%X}.%X%X%X%X%X=X%X%XK.J.}.%X}.}.K.H.n.H.K.L.K.K.J.S.n.B.N.9.E 3 v :.<.c.8.3.<.3.5.3.,.L 1 3 6 , :.c.c.F.F.B.D.B.H.n.B.B.N.M.n.M.M.N.M.N.N.B.B.K.}.J.B.J.J.J.[. X{.{.{.{.J.J.J.{.J.}.J.{.}.J.J.J.J.J.J.B.C.M.E b.J.{.{.{. XJ.@X{.#X@X=X X X X{. X[.A.A.`.A.N.C.[.C.A.`.A..X[.V.[.{.[.`.`.`.`.`.V.Z.V.Z.Z.m./ 0._..X.X.X.X.XC.`.`. X.X|..X`.|.|.A.@X*X@XA.`.|.@X`.|..X.X|..X`.'.`.'.`.`.`.Z.`.`.V.'.`.`.Z.V.V.`.`.`.'.",
"D.H.L.L.L.L.K.K.L.L.L.K.XXH.K.K.$XL.H.H.J.K.H.K.L.L.K.H.L.K.J.J.H.K.K.J.J.}.}.}.J.}.}.H.b.H.}.}.K.}.XXK.J.}.=X%X&X%X%X&X%X&XXX}.}.J.J.J.J.H.L.}.H.J.}.J.L.B.J.L.B.B.M.9.E 3 2 n <.v.7.o.+.3.5.5.1.3.k 1 1 q ,.F.c.c.F.n.L.B.n.n.B.M.B.N.A.N.M.B.M.N.n.9.B.C.J.L.L.H.J.{.J.J.{.J.{.{.{.C.A.A.H.J.J.H.J.B.N.A.A.A.{.C.A.A.J.( W {.J.A.{.{.@X@X{.#X}.{..X{.{..X.X[..X{..XA.C.A.`.`.[..X X.X`.[..X.XC.C.`.C.`.Z.V.V.V.Z./ 0._.`..X{..X.X`.C.`..X.X.X|.{.{.{..X`.|.|.'.`.V..X@X@X.X.X|..X`.'.'.'.'.'.'.'.'.'.V.`.`.'.'.`..X`.`.'..X_.",
"H.H.L.L.K.K.$XK.K.L.XX$XXXL.$XK.K.L.$XK.L.H.J.H.H.J.L.J.J.L.K.K.}.}.K.J.K.}.}.B.{.J.B.C.H.J.K.}.}.}.%X}.$X&X&X=X%X&X%X&XB.}.J.L.}.J.K.}.XX}.$X}.K.H.H.H.}.J.J.J.J.H.M.9.E 3 $ t <.v.c.o.n <.,.1.5.5.P 3 1 t :.c.c.c.F.B.B.B.B.b.n.A.B.C.N.A.B.N.N.C.N.N.N.B.C.B.J.[.{.}.}.}.$X{.J.J.{.A.{.J.B.A.B.B.J.{.J.[.[.[.{.C.J.[.{.[.M.I 9.[.J.{.%X%X{.{.{.[.@X{.@X.X.X{.{.[.[.[.C.A.V.C.`.A.A..X`.`.`.`.V.V.V.V.C.V.V.`.Z./ 0._._.`.`.C..X.XC.`..X.X.X.X|..X.X.X`..X|.`.A.`.V..X@X|.|.|.*X*X'.'..X|..X.X.X'..X'.'..X`.V.`.`.'.'.`.`.`.`.",
"H.L.K.K.K.K.$XL.K.K.}.K.K.K.K.L.K.L.L.J.J.}.K.S.K.K.H.J.J.J.J.J.K.K.}.#XK.H.J.L.n.9.{.}.}.K.}.}.}.}.%X$X}.%X}.%X%X%X=X&X}.J.K.H.H.J.J.}.}.}.K.H.}.K.J.J.J.H.K.J.B.H.B.0.E 3 % ; ,.c.c.<.,.:.c +.<.<.2.t * t o.7.7.1.2.B.B.n.B.n.N.n.B.J.B.C.B.B.C.C.M.B.B.N.C.B.J.J.C.J.J.}.J.J.L.{.{.J.J.A.B.{.{.A.}.J.{.{.{.{.A.N.{.{.{.[. XA.( W n.H.@X@X@X{.@X{.{.=X@X X@X@X X[.`.[..X`.`.A..X X[.`.C.`.`.Z.V.Z.Z.Z.Z.V.V.Z./ 0.Z.V.V.M.`..X.X.XC..X.X`..X|.|..X.X.X`..X|..X`.*X.X`.|..X|.*X*X|..X'.|..X.X`.'.|..X.X|..X_.`.'._.V.`.`.`.`.`.",
"D.H.K.L.$XK.K.L.K.$X$XK.L.L.J.L.K.K.J.K.K.#XK.H.J.L.J.J.H.B.J.K.K.K.L.J.K.H.n.b.J.}.}.$X}.}.%X$X}.}.}.K.}.$X%X%X%X}.%X}.K.K.%XK.}.}.}.}.}.}.}.}.%XL.J.H.K.K.L.J.H.B.N.9.E 4 * % n 5.5.<.3.<.x o.n n n P * w o.1.<.o.v J.B.n.n.B.B.M.B.C.B.M.N.C.C.C.M.C.C.C.N.C.B.H.B.J.K.J.J.{.J.C.B.A.J.B.9.A.}.}.}.#X X XA.J.J.{. X{.{. X@X X{.N.Q B.{.@X@X X@X%X}.=X{. X@X X.X X{..X[.`..X.XV. X`.`.V.`.V.C.V.M.M.Z.V.V.9.E 0._._.V.Z.V.`.`.`.'.`.|.|..X.X.X|.|.V..X.X.XA.C.@X|.|.@X|.|.|.'..XV.|..XoX*X.X.X`..X.X`.`.oX.X'..X`.V.'..X`.Z.V.",
"L H.L.L.K.K.L.$X}.K.}.K.K.L.L.$XK.K.K.L.J.H.H.K.K.L.J.}.J.J.H.J.H.}.B.H.J.9.n.}.}.XX}.}.%X%X}.}.}.$X}.K.}.$X}.XX%X}.}.}.$X}.}.}.}.}.B.H.J.J.K.K.}.XX}.H.J.K.K.J.B.B.n.M.W r 2 % t 2.>.<.7.3.o.<.o.n <.,.$ e ,.8.1.,.v B.B.B.9.M.n.M.b.B.J.B.C.C.C.B.N.B.N.M.M.N.V.A.B.J.}.}.J.J.[.{.C.J.A.J.H.H.J.J.}.J.J. X{.{.{. X X%X{.{.{.{.{.{.A.W W {.@X}. X{.@X%X@X X.X@X X X{.`.A.[..X|.C..X`.`.C.Z.V.C.M.M.Z.Z.V.0.( m._.`._.`.V.`.V.`.`.'..X.XA.'.`..X`..X.X`..X.X|.|..XoX'.`..X.X'.oX|.`..X|.*X`.'.|.|.'..X.X'..X.X.X|..X.X|..X'.`.`.",
"l W n.L.K.L.L.K.K.K.L.H.K.L.K.$XL.K.D.J.L.K.J.L.J.H.K.K.K.J.L.B.S.J.J.9.9.C.}.}.}.}.K.%X&X%XXX&X%X$X}.}.%X$X}.%X&X}.XX%X}.%X&XJ.J.K.}.}.J.J.%X}.}.}.K.H.H.H.L.J.J.B.B.b.W r r * * A n <.c.7.<.7.<.<.7.3.% ,.<.8.7.5.R n.B.J.C.B.B.B.C.M.M.M.M.C.C.C.C.C.C.N.N.N.N.B.B.J.}.}.}.{. X X{.J.A.[.J.J.J.J.H.J.{.{.}.{.{.{.}.}.J.J.{.{.{.A.{.J.M.E {.%X}.{.{.@X X%X|..X%X X{..X[.{..X X X.X`.`.V.V.Z.`.V.V.V.m.9.( _._._._._.V.`.`.`._._.`..X.X.X'.|.`..X|..X`.`.|.|..X'..X.X|..X.X'.|.oX.X'.'..X'.|.|.oXoX|..X.X'.`..XoX|.`.'.'..X`.V.",
"n.l R G.K.L.L.L.L.K.&XL.H.H.K.$XL.L.$X}.K.K.J.K.K.}.K.}.}.H.H.J.H.n.4.M.%X}.$XK.}.$X}.$X$XXX$X}.}.}.K.}.}.}.}.%X$X}.J.$X}.}.}.}.H.J.XX}.}.J.&X%XK.K.%X}.J.K.J.L.K.B.B.M.W j Z 2 $ o P 5.7.o.7.7.7.<.7.5.L w.<.<.7.w.3.4.B.B.n.A.J.C.b.C.M.C.C.C.B.B.C.N.N.N.N.N.N.M.B.C.A.{.{.{. X{.{.B.J.C.B.C.C.H.H.J.J.{.}.#XJ.}.}.@X{.{.{.{.[.{.}.{.{..XW 9.{.{.J.@X%X%X@X X@X X@X@X X{..X.X.X[.`.C.`.`.V.V.C.V.Z.( ( _._._._.Z..X.X`..X.X`.`.`..X.X'.|.|..X.X.X|.|..X@X|.[.|..X.X`.`.'..X.X'..X.X'..X.X|..X.X|.|..X*X*X|.`.oX*X*X|.`.`.'._.",
"L.D.l 4.H.$X$XK.K.K.L.n.J.L.L.K.K.$XK.L.J.H.H.K.H.K.K.J.J.L.}.H.b.b.B.J.}.}.}.XX}.}.L.K.}.$XJ.J.}.K.J.K.H.J.}.}.$X}.}.H.}.J.}.K.$X}.%X%X}.}.}.K.}.}.$X}.}.}.}.B.L.A.n.B.9.j r 2 * + 2.F.F.:.7.7.1.8.7.3.5.w.8.7.7.7.5.Q B.n.B.C.A.C.M.B.A.N.A.[.C.N.C.N.N.N.M.N.M.M.m.N.N.C.B.{.@X{.J.{.J.{.J.C.C.C.H.L.{.{.J.{.J.}.$X}.{.{.J.J.{.{.{.{.{..XC.9.W [.{.@X%X=X*X%X%X*X*X@X X X.X`..X.X`..X.X`.V.V.V.m./ W m.`._.`.`..X.X`._._.'.'.`.`..X.X|.@X|.|.@X.X`..X*X|.|..X*X|.'..X.X.X`.'.`..X|.'.'..X.X|..XoX.X'.|.=X=X|..XoX`..X`.'..X.X",
"L.H.b.l W K.$X$XK.L.L.L.K.J.J.L.L.K.J.J.J.L.J.H.L.}.$XL.J.K.n.4.B.}.%X%X$X%X&X%X}.%X}.}.}.$X}.}.}.K.H.}.}.}.}.%X}.}.J.K.}.H.$XK.}.}.&X$X}.}.}.}.}.}.$X}.}.}.K.J.H.H.S.n.b.L 2 3 * * v w.w.w.XXP.3.7.w.w.3.w.P.P.P.P.7.( J.B.B.B.A.B.J.J.J.C.N.N.C.[.C.N.M.M.C.A.m.b.b.b.M.9.N.J.{. XJ.J.{.J.{.J.[.{.L.{.J.{.J.{.J.}.}.J.[.B.J.{.J.J.{. X{.{.@X@X{.( W {.@X%X=X=X%X=X@X*X X@X.X.X.X.X|.`._.C.V.V.m.E ( V.V._.Z.`._.`.'._._.'.'..X`.V.Z.`..X.X*X@X*X|..X'.|.|.oXoX*XoX'.|.|.|.`.|.oX.X.X.X.X.X.X|..X|.|.oX*X*X*X=X*X*X|.'.'.|.`.`.",
"K.H.n.4.l b.XXK.L.}.K.K.}.K.L.L.K.$XK.J.L.K.H.H.J.H.J.K.n.4.b.}.&X&X&X}.&X$X%X%X$X%X}.}.}.J.}.}.}.}.J.}.%X}.}.}.J.}.{.}.}.}.}.K.}.&X&X%X}.}.%X}.}.&X}.L.}.}.}.J.H.B.S.B.N.( j 3 3 1 $ w r q.P.w.P.eXW.w.>.w.P.P.XXW.P.W B.H.B.B.B.C.A.J.N.B.C.N.V.V.C.C.M.N.C.C.C.N.V.V.C.b.V.C.J.[.A.{.{.{.A.A.J.J.A.J.J.J.{.{.J.B.}.}.{.{.J.{.{.{.@X X X{.@X{.@X XM.( |. X{.%X@X@X X@X.X X.X X.X.X.X`.V.V.V.9.W / _._.V.`._.`.`.`.'.`.`..X'..X'._.Z.V.'.'.|.@X*X|.A.V.'.|.`.|.*X|.|.*X'.|..X.X.X`..X.X|.|..X`.`..X*X*X|.*X*X=X=X*X.X|.oX*X`.|.",
"J.L.H.n.4.l 9.S.L.K.$XXXK.K.L.J.K.K.L.J.H.J.J.L.S.J.J.b.4.B.}.%X&X$X}.}.&X&X&X&X}.%X}.K.}.}.}.K.L.}.}.}.}.}.}.{.}.}.}.%X}.}.}.$X%X$X}.$X&X}.}.K.}.XX}.XX}.%X}.}.}.B.n.B.B.9.I 1 3 5 * o o ; U U w.P.eXq.t 3.w.P.eXeXw.W K.K.A.C.A.B.C.C.C.C.C.C.`.C.C.C.C.C.C.N.N.N.N.N.N.Z.m.N.J.{.{.{.[.J.A.J.A.B.A.J.A.A.{.{.J.J.J.}. X{.J.C.{.{.{. X.X X X@X@X%X=XA.W ( [.@X*X*X=X@X X X.X X.X`.`.`.`.`.M.E ( V.`.`.`.`.`.`..X`..X_..X|..X.X'.'.V.`.`..X.X|.@X*X.X`.|.oX|.|.|..X|..X.X|..XoXoXoX*X.X|..X`.|.|.oXoX`..XoX*X=X*XoX.X.X.X|.oX`.",
"H.L.H.B.n.9.j b.K.$X&XK.$X}.K.K.L.L.L.B.H.K.K.L.B.B.9.B.J.}.}.$X$X$X%X$X$X$X}.}.}.}.}.}.$XK.}.}.}.}.XX%XXXJ.}.H.H.{.}.}.J.J.%X}.%X%X&X$X&X}.}.}.}.}.}.}.$XXX}.}.H.C.J.H.B.M.9.S 1 1 6 1 * % o o k 3.n.2 * U 3.P.XXeXU 9.H.}.{.C.B.A.C.N.A.C.C.A.`.C.b.C.V.C.A.N.N.C.m.C.C.V.V.C.C.J.J.A.A.C.C.{.A.J.B.A.A.[. X}.K.J.H.{.{.{.J.[.{.{.[.[.A.[.[.{. X@X@X X{.m.W [.@X%X%X*X@X X{. X X.X.X`.`.Z.Q m._.`.'.'.`.`.`.`.'..X`.m.'.'.'.`.`..X_.`.`.V.`.'.`.oX*XoX|.|..X|..X.X.X.X.X|.*X`..X|..X|.|.|..X.X.X.X|.oX.X|..X*X|.|.*X X.X|.oX'.",
"L.L.J.H.L.H.9.w B.$X$X$X$X$X$X&XK.K.J.J.J.K.J.H.b.9.}.$XJ.}.$X#X}.&X%X$X%X}.J.J.L.}.}.}.}.J.}.%X}.{.}.}.}.}.}.H.J.}.}.}.{.}.}.}.XX}.}.}.$X%X}.}.%X%X}.H.}.J.J.H.H.{.H.J.A.C.m.( A 3 1 2 2 1 * # # % o + % ; m q.F.2.k B.J.}.H.B.B.C.N.N.C.C.C.A.A.V.C.C.N.B.A.C.N.V.V.C.C.C.M.`.C.C.N.N.C.C.[.A.A. XA.C.N.A.{.{.A.J.J.{.{.{.{.J.J.A.[.{.{.[.{.[.{. X@X=X{..XZ.L M. X%X*X*X X.X.X X X X`.9.W V.`.`.`.`.`.`.'.'.`.`._._._.`.V._._.`._.V.V.Z.V.V..X|.'.oX*X`..X|.|.oX`.'.|..XoX XoX|.oXoXoX.X|..X_.'.|.|.*X.X.X'..X*X*X*X*X`..X.X|.",
"J.H.L.J.J.L.L.9.l B.K.}.XX$X$X$X$X#XL.K.J.K.n.9.H.K.%X$X}.K.}.}.H.}.L.}.}.$XJ.}.%X}.$XK.J.{.J.}.}.J.J.}.}.{.{.}.}.}.}.J.{.}.%X}.}.%X%XXX%X}.K.K.%X&X}.C.K.K.H.S.B.J.J.J.J.A.C.M.( S r 1 , 1 2 2 2 - - - 1 - * * ; w W B.K.}.}.B.A.A.N.N.B.C.C.C.C.V.M.[.N.C.A.C.N.N.C.A.N.C.C.C.`.C.N.V.C.C.C.B.A.L.[.A.J.J.J.A.J.A.C.{.A. XJ.J.J.[.{.[.{.@X@X X.X*X%X%X X@X{.C.9.Q  X@X%X X|..X X%X@X9.E V.'.'..X.X`.`._._._.V.Z.'.'._.`.`.'.`.`._._.`.`.Z.Z.`..X`.`.'.'.'.`..X*X|..X'.'..X|.*X|..X'.'..X*X=X*X.X|.'.'.|.*X*X.X*X*X.X*X*XoXoX*X",
"J.J.L.L.L.K.J.J.Q e b.J.}.XXK.$X}.#XJ.J.n.n.n.}.$XK.$X}.#XK.B.W L W %X}.J.}.}.J.J.J.J.B.J.L.J.}.%X}.{.}.%X}.J.}.}.{.{.B.H.J.XX}.}.}.=XeX}.}.%X}.}.}.}.}.$X}.H.L.J.J.J.J.}.J.C.{.M.9./ S j 3 1 1 - - 2 2 3 3 3 5 S / M.A.J.K.}.{.J.B.A.C.A.[.A.A.C.C.C.A.C.N.C.C.V.`.C.C.N.M.C.C.V.M.N.N.C.M.b.N.J.J.A.C.A.J.A.J.C.B.A.[.[. XC.{.{.[.[.[.@X X{.[..X X@X@X%X%X X@X XA.W C.%X%X@X.X.X XV.L `..X'.`.'.'..X'.`.`.`._._.|.'.`.'.'..X'.`.'.|.`.`.`.Z.V.`.`.`._.m.`.'.'..X|.'..X`.oX|.*X|.|.`.'..X|.|.oX*XoX.X.X'.|.oX.XoX*X|..X'.*X'..X",
"L.L.L.H.L.K.}.H.H.L l 4.G.K.H.L.J.L.L.n.n.}.}.K.}.}.}.K.K.J.J.n.J.%X%X}.K.$X}.}.}. X}.H.}.K.}.XX%X%X}.}.{.}.{.%X%X}.J.}.}.}.%X}.}.}.%X%X%X%X%X X}.{.}.%X{.}.}.J.K.}.J.J.J.{.{.@X{.M.C.0./ E J Z r 3 3 3 r Z S E ( W 9.B.}.}.}.{.J.N.N.C.C.A.C.C..XV.`.V.V.C.A.C.C.C.C.M.M.N.V.C.V.b.b.Z.V.V.N.N.{.J.A.[.C.A.[.{.{.B.M.A.[.{.A.{.{.{.{..X{.|.{. X.X@X@X{.{.-X%X%X X X X9.( %X*X@XoXm.I `.`..X.X.X'.`._..X.X`.`._.`..XoXoX.X`.'.'..X`.oX.XV.`.`.Z.V.`.'.m._.oX.X|.`.|.|.*X*X*X|.*X|.*XoX*X*X.X'..X=X*X.X*X.X`.'.|..XoX*XoX|..X.X*X",
"L.D.L.L.H.K.K.G.D.n.k b n.L.L.L.K.D.b.B.$X%X$XK.K.K.K.K.}.J.K.J.L.}.}.J.J.}.J.J.}.J.J.}.}.J.J.}.XX{.}.J.H.}.{.{. X}.}.}.{.%X}.}.}.J.XX%X%X%X%X=XXXXX}.}.J.{.}.{.{.J.K.}.J.J.{.#X{.A.`.V.`.V.0.( ( / / / ( ( ( 9.( / M.A.J.H.{. X[.C.A.N.b.C.N.N.V.C.V.V.C.A.[.N.C.A.C.N.Z.V.Z.V.V.C.M.0.M.V.N.M.B.H.A.B.[.A.A.@X[.C.N.A.J.[.[.[.J.C. X X{..X[..X{.@X X[. X%X%X%X@X{.@X`.m.W |. Xm.( .X.X.X`.'..X.X'.'.'.`.'.'.|..X.X|.oX'.`.`.V.`.'.'.`._.V.V.V._.`.`.m.`..X'.|.|.|.|.oX.X*X*X*XoX*X*X*X*X.XoXoX|.*X|.oX|..X.XoXoX*X.X*X=X*X'.oX",
"J.L.H.H.S.L.L.J.G.B.M.L W n.J.B.9.4.K.$X$X&X}.K.K.$XK.K.K.J.K.J.H.S.B.H.J.}.J.B.}.J.H.}.H.H.J.{.H.{.}.}.}.{.}.J.}.J.}.}. X}.{.{.}. X}.%X%X}.}.%X%X}.%XJ.}.}.{.J.{.{.{.{.{.{.J.{.[.A.A.A.[.C.C.C.`.C.C.N.9.b.Z.V.C.C.{.J.}.J.}. X{.J.b.N.m.C.V.A.C.C.M.V.C.C.C.C.N.N.N.C.0.Z.M.V.C.Z.M.N.V.M.M.M.M.A.A.A.A.A.{. XJ.B.N.J.{.{.{.J.A.J.{.A.{..X[.[.`. X.X X X{.{.}.@X*X%X X{.'.E I E .X|..X.X'.`.'.V..XoX.X'.`.'..X|.|..X.X`.`._.'.`.`.'.`.Z.V.`.0.m._._._.`..X*X|.|.|..X|.oXoX*XoX*X.X|.oX*XoX*X*X*X*X|.'.|..X'..X|.*X*X*X*X|.*X'."
};
