/* XPM */
static char *e7376351e3584e3bde4b289a537f0455PiSUPncWtlNmymFT[] = {
/* columns rows colors chars-per-pixel */
"256 455 256 2 ",
"   c #09060A",
".  c #0C090D",
"X  c #080406",
"o  c #120C0D",
"O  c #170B06",
"+  c #1B120C",
"@  c #120E11",
"#  c #180F13",
"$  c #151214",
"%  c #1D1A1B",
"&  c #1A1617",
"*  c #0E0C11",
"=  c #25150C",
"-  c #241A13",
";  c #261C18",
":  c #331B0E",
">  c #29231C",
",  c #36261A",
"<  c #39260E",
"1  c #1E1A21",
"2  c #231D24",
"3  c #341F21",
"4  c #2B2A25",
"5  c #2C2D2B",
"6  c #272424",
"7  c #372B24",
"8  c #33322D",
"9  c #3B3428",
"0  c #343532",
"q  c #3A3A35",
"w  c #2F2D32",
"e  c #1D2121",
"r  c #573908",
"t  c #472B19",
"y  c #4B3417",
"u  c #563A17",
"i  c #4B2C0C",
"p  c #673816",
"a  c #452C26",
"s  c #473628",
"d  c #573927",
"f  c #473C34",
"g  c #543A31",
"h  c #643D28",
"j  c #471C10",
"k  c #3A413C",
"l  c #5B4315",
"z  c #5C430C",
"x  c #684807",
"c  c #795708",
"v  c #654A16",
"b  c #6C5218",
"n  c #775915",
"m  c #714E08",
"M  c #5B422B",
"N  c #4A4337",
"B  c #564839",
"V  c #554C37",
"C  c #67452A",
"Z  c #78562A",
"A  c #684A35",
"S  c #734D37",
"D  c #6A533A",
"F  c #785638",
"G  c #724E28",
"H  c #7C631F",
"J  c #3A3647",
"K  c #443D4C",
"L  c #3D4C4C",
"P  c #3B4545",
"I  c #3E4452",
"U  c #3D4C71",
"Y  c #464A49",
"T  c #564B45",
"R  c #43514E",
"E  c #49544E",
"W  c #5C5348",
"Q  c #455351",
"!  c #4A5552",
"~  c #4B5955",
"^  c #565957",
"/  c #4A4855",
"(  c #665749",
")  c #785A45",
"_  c #665B55",
"`  c #6D544B",
"'  c #7A634A",
"]  c #6C6359",
"[  c #776957",
"{  c #7D725A",
"}  c #6C624D",
"|  c #4D556D",
" . c #5B6567",
".. c #696766",
"X. c #766C64",
"o. c #7C7368",
"O. c #787979",
"+. c #6B7075",
"@. c #5E6060",
"#. c #8E3613",
"$. c #855A08",
"%. c #B35415",
"&. c #886509",
"*. c #9A7508",
"=. c #886715",
"-. c #987515",
";. c #926D0A",
":. c #A37C0A",
">. c #A57A15",
",. c #835C37",
"<. c #8A542B",
"1. c #89643A",
"2. c #966A37",
"3. c #916D2D",
"4. c #A87637",
"5. c #AF752F",
"6. c #B15827",
"7. c #CD641D",
"8. c #C96727",
"9. c #D46C27",
"0. c #D67430",
"q. c #D06621",
"w. c #855C46",
"e. c #875E51",
"r. c #896648",
"t. c #936B48",
"y. c #98734A",
"u. c #886955",
"i. c #956B56",
"p. c #86775C",
"a. c #987557",
"s. c #8B724B",
"d. c #A8794D",
"f. c #8B7D64",
"g. c #8B7D6B",
"h. c #847867",
"j. c #877D73",
"k. c #957964",
"l. c #A57966",
"z. c #CB7A49",
"x. c #79837D",
"c. c #7D8105",
"v. c #AA840B",
"b. c #AB8515",
"n. c #B48C16",
"m. c #BB9217",
"M. c #B58C0B",
"N. c #B78732",
"B. c #998128",
"V. c #CE8F36",
"C. c #EBA737",
"Z. c #D6952C",
"A. c #B1854D",
"S. c #8E816C",
"D. c #8C8165",
"F. c #938265",
"G. c #94846C",
"H. c #9A8A6D",
"J. c #97876B",
"K. c #8D8274",
"L. c #8A847B",
"P. c #938573",
"I. c #968975",
"U. c #9C8C73",
"Y. c #958A7B",
"T. c #9B8D7A",
"R. c #938678",
"E. c #9E917C",
"W. c #9D9174",
"Q. c #959273",
"!. c #A08F74",
"~. c #A28D78",
"^. c #A29275",
"/. c #A3937B",
"(. c #A9987C",
"). c #A9896C",
"_. c #97855D",
"`. c #C58747",
"'. c #D39347",
"]. c #E7A948",
"[. c #DD994F",
"{. c #72768B",
"}. c #576489",
"|. c #7B8788",
" X c #7A86A2",
".X c #888985",
"XX c #958D83",
"oX c #9A9387",
"OX c #9A9899",
"+X c #899290",
"@X c #A39582",
"#X c #A89A85",
"$X c #A69B94",
"%X c #98A599",
"&X c #AAA598",
"*X c #B4AB95",
"=X c #9797AD",
"-X c #9A9BAD",
";X c #9797A8",
":X c #9B9CB2",
">X c #979AB1",
",X c #8C91A6",
"<X c #A59BAA",
"1X c #A49DB2",
"2X c #B39CAD",
"3X c #9FA1AD",
"4X c #9EA1B3",
"5X c #9FB0A4",
"6X c #A4A4AD",
"7X c #ABAAAD",
"8X c #A7A5A6",
"9X c #B3ADA9",
"0X c #BAB4AB",
"qX c #A3A4B3",
"wX c #ADACB3",
"eX c #A4A6BA",
"rX c #A5A9BB",
"tX c #ABACBB",
"yX c #A8A7B6",
"uX c #B3ADB4",
"iX c #B4B2B4",
"pX c #B9B6B7",
"aX c #ADB2B7",
"sX c #C7B596",
"dX c #C4BBAA",
"fX c #C3BCB5",
"gX c #C4A9B6",
"hX c #CC928F",
"jX c #CAC4B9",
"kX c #D6CAB6",
"lX c #D4CAB0",
"zX c #E5D6BA",
"xX c #E4D1B2",
"cX c #E5D7B1",
"vX c #A6AEC2",
"bX c #ADADC2",
"nX c #ABB2C6",
"mX c #B5B4C4",
"MX c #B4AEC3",
"NX c #C7C4C3",
"BX c #D4CDC2",
"VX c #DBD3C4",
"CX c #DDDAD6",
"ZX c #E5DBC7",
"AX c #EEDFC8",
"SX c #ECE2CA",
"DX c #F6EBD5",
"FX c #FCF4DA",
"GX c #F2E7CC",
"HX c #FCF9E7",
"JX c #FDFBFC",
"KX c #FCFAF4",
"LX c #EFECE5",
"PX c #DCE1C8",
"IX c #BDBFBA",
"UX c #847D84",
/* pixels */
"> ; > q q 8 4 4 6 > 4 ; > % $ o . $ $ & & & % 4 ; % & 4 4 9 9 q q f N f N 8 4 4 6 > @ & & & $ % % % > & > 8 q 4 > 4 4 > 8 9 N f N N N N N N N V N N N N N f 9 8 4 > , 4 9 7 9 > , > 9 7 9 > , N s N N V V V V } P.D.{ V ( D { { D.h.S.f.S.G.S.p.f.p.D.f.D.h.f.f.f.f.p.f.f.f.S.D.D.f.S.D.h.p.h.h.D.D.h.f.h.h.h.f.g.f.f.D.f.{ p.{ D.D.D.f.f.{ p.{ { p.{ h.h.[ ( ( ( ] _ V W T W _ ] o.o.o.O.o..._ T Y Y Y T / / / T / / Y Y Y Y Y Y T ^ ^ _ _ ] X...X.....................X.......] ^ ^ T T N f f f q q q 0 0 q 0 q q 0 0 q q q f ",
"4 6 > q q 8 5 4 6 6 > 6 6 > > @ o $ $ $ $ & > ; > ; > 4 8 7 q q q 8 8 4 > 6 > > > & & $ & & $ ; ; ; 4 > > 4 4 4 > > 8 9 8 V W N N N N N V N N N N N 9 q 9 7 7 8 > 8 9 9 , > 9 > 4 4 7 9 , , 9 s s N s V V V V } S.f.} V N N s 7 7 N V h.U.U.P.f.p.{ f.D.S.S.S.D.D.S.f.h.f.D.D.S.D.D.p.{ h.f.h.f.h.h.h.h.h.h.g.f.f.h.h.G.f.f.h.h.h.p.D.D.f.f.p.{ f.h.S.g.f.{ [ { { [ [ ( } W ( ( ( W ] X.o.O.o.o.o..._ ^ Y Y Y Y Y / W T / / Y Y Y Y f Y T W ^ _ _ _ ..X.......................X.........^ ^ T Y Y K K f q q q 0 0 0 0 0 0 0 q q ",
"8 4 4 q 0 8 5 4 6 6 6 6 ; 6 6 $ . & $ $ @ & 6 4 6 > 5 8 8 8 9 8 q 8 4 % ; % % & > & @ $ $ $ $ $ & ; > > 4 4 > 4 4 9 f V N f V N N N N N V N N 8 > > , q 9 > q 8 > 4 7 , > , 9 7 8 9 4 9 s 9 N s N N s V W V V h.P.h.V 9 , N s 9 s s s , N p.h.P.I.D.D.f.D.f.p.f.D.D.f.g.g.D.f.f.f.f.p.{ { h.f.D.f.{ f.h.g.D.S.g.D.g.f.D.f.f.D.g.f.D.f.D.f.h.f.h.p.[ p.p.S.S.f.{ f.h.{ } { { { [ } ( W B T T ] o.o.O.o.o.X...^ Y Y / / / T W T / / / Y Y Y Y Y T W ^ _ _ _ ........] ] ....] ..] ........X.] ] ^ W T Y Y f f f q q 0 0 0 0 0 q q ",
"4 4 6 8 N 0 8 4 5 5 8 4 6 6 6 % o $ % & & & > > 4 5 6 5 8 8 7 4 7 8 4 6 6 > % & % > @ $ $ % $ $ & % > ; > > > 8 f N N N N N N 9 N N N f 9 > > > > > > > 4 4 9 8 > 4 q 8 4 8 f 4 9 9 f s f f N s V V V V V V V V V N f f 9 9 7 9 9 9 7 , 9 s 9 N ( f.D.G.I.G.h.f.G.S.f.P.S.I.D.f.I.S.D.S.D.D.D.D.G.S.g.h.S.f.g.h.f.D.S.G.I.g.D.D.g.f.p.f.f.f.p.f.p.f.h.p.D.h.f.g.f.D.f.{ { { h.h.{ } } ( ( } V ( ( [ X.o.j.j.j.o.X._ W Y T / W W T / T Y T T Y Y K Y T W _ _ _ _ _ ] ..] ..] ] ] ] ......] ] ] ] ] ..^ ^ T T Y K K f q q 0 0 q 0 ",
"> 6 > q N 0 8 5 5 5 5 4 6 6 4 % % $ ; % > > ; % > % > 8 8 5 6 > 4 8 4 6 6 % & . & & @ $ $ $ % % $ % > > ; 7 q N f N q 9 f N 9 q N 8 4 ; ; & & & > & > > > > 9 4 4 > f , 7 9 8 9 f 7 9 V N N N N s s V W V N W V s 9 N s s , 7 , 9 f s 9 s s s N N M M D } { h.U.I.D.f.G.S.D.G.G.P.G.G.P.D.f.f.f.S.S.D.D.f.f.h.{ p.p.h.f.D.P.D.h.S.D.f.h.p.{ { f.h.{ h.f.f.f.f.h.p.p.f.h.p.p.f.{ { { { [ } ( ( V W ( V ( ( ] o.j.j.j.j.o.] ^ T / / / / / / T T / Y Y Y Y Y Y T _ _ _ _ _ ....] ] ] ] ] ] ] ..] ............_ _ W Y Y Y Y f f K Y ",
"> 6 ; Y Y 8 0 5 5 6 4 6 6 6 4 % > % % 6 6 6 6 6 6 % > 4 5 5 4 8 4 4 6 5 6 % & @ % $ $ $ % $ & > & & > 4 4 > q N q N N N N 9 q 8 > ; ; & % & & ; ; > > 4 4 8 8 8 > 8 9 f 9 9 8 N f 7 V V V V V V N N N N 9 N s s N f N 9 s 9 , 7 9 9 9 9 7 N N V V V V V D V D D { p.p.h.g.D.I.I.P.P.P.P.G.F.G.G.f.g.f.h.f.p.{ p.h.D.S.h.p.g.S.S.h.G.D.S.h.{ { { f.{ { f.f.f.f.f.p.{ { { p.p.p.f.h.{ { { [ [ W V N V ( } ( V ( ( _ X.h.j.j.j.o...^ / Y / / / T T T T / T / Y Y f Y T ^ _ _ _ ] ] ] ] ] ] ] ] ] ....] ............@._ ^ Y T W ^ _ ",
"6 ; 6 q N 5 6 6 4 6 6 6 6 6 4 % & 6 6 4 5 6 4 5 5 5 8 8 5 6 5 8 4 6 6 4 6 e & $ @ $ $ $ & $ $ % & % 4 8 9 7 9 8 f f f f q 8 > ; ; % % & % + % & & % > > > 4 4 8 7 4 8 8 9 9 9 N N N W V V V V N s 9 , 9 s s 9 9 f s f 9 9 , , 9 9 9 N N N V ( V V V V ( V V D D V V 9 s 9 , ( } } G.U.G.D.D.D.G.D.h.h.S.D.g.h.D.h.g.I.G.G.g.h.h.{ { { h.f.{ { h.f.h.h.f.f.f.f.D.f.p.{ p.{ { { p.{ { { { { } [ } W ( } V ( } ( } ( ( ( ( ] o.j.j.j.o.X._ T Y Y T T T T / T / T T T Y Y Y T ^ _ _ _ _ ] ] ] ] ] ] ] ] ] ] ........^ ^ W _ ] ] ] ] ",
"5 6 4 > 0 q 6 4 4 6 e % % $ 6 6 % 6 6 5 5 4 8 5 5 5 4 4 5 8 0 5 5 5 4 4 5 6 % $ @ o $ $ & & & % % > 8 > 7 9 8 q 9 8 8 8 4 6 6 & & % $ & % % & & & % ; > > 4 > q 9 8 , f q V N N N N V N N N N 9 9 q 9 f 9 f 9 9 , 9 s 9 , 7 9 7 9 f N V V V ( ( V V V V D D D s , , , 9 9 9 7 7 7 s V ( f.f.W.H.P.P.I.P.P.G.h.f.f.f.h.D.G.D.D.S.{ f.h.{ f.D.h.D.f.g.f.p.f.f.{ f.h.f.{ h.{ { { [ { { o.o.{ [ [ { [ } } [ } } } } } } ( T T V T W X.j.L.K.j.O...^ T T / / / / T T T T / T Y f Y T _ ] ] ] ] ] ] ] ] ] ] ] _ ^ W ^ _ ] ] ] ] ] ] ] ",
"5 5 4 6 q 8 6 6 6 6 6 % 6 6 % % & > 6 4 4 0 0 5 4 5 4 5 5 8 8 8 8 4 5 4 5 4 6 & @ @ @ $ $ ; ; > % 8 8 4 q 9 9 9 4 7 8 > % ; ; % $ & $ & 6 ; % & % 4 > 4 7 q 8 q q f 9 f V N N N N T N f f > > 9 4 9 8 f s 7 , 7 9 9 f 9 7 9 9 s N N V V V V D D ( V V V V N , , 7 , 7 f 9 9 7 9 9 s s s V s p.W.G.I.U.P.I.I.G.D.S.g.h.{ f.h.f.D.h.h.f.{ { f.f.p.p.{ D.f.p.{ } { { p.{ [ } [ [ [ { [ [ { h.h.h.D.h.{ [ [ [ [ [ { } } [ } V ( W T } W W X.h.L.L.L.j.X._ T Y Y Y T T T / / / / T Y f ] ] ] ] ] ] ] ] ] _ _ _ ....] ] ] ..] ] ] ] ] ",
"5 4 4 4 0 8 4 4 6 4 6 6 4 4 5 4 6 % @ $ 6 4 % 4 6 4 4 4 4 8 5 8 8 0 8 8 5 5 6 % @ $ $ & $ 6 ; 6 > 4 8 6 4 q 8 4 > 4 4 4 > & % $ $ $ % % % % & % & > > > 7 9 q f N N N N N N N N N 9 > ; % ; > > 4 8 9 s 9 , , f 9 7 s 9 9 N N N N ( V V ( V D V V V V N , , , 7 , > f s s s 9 9 s s N N N V } } } f.I.P.D.f.G.D.S.S.P.S.D.D.D.{ D.D.p.f.f.f.f.h.{ f.f.p.f.{ f.{ { { { } } { [ } { } [ { h.h.h.D.f.f.D.D.h.h.{ [ [ [ } W } } W } } } _ ] T T } o.j.K.L.j.o.] W Y T / / / / T T T ] X.X.X.] X.X...X.X.....] ] ] ] ] ] ....] ] ] ] ",
"5 5 5 8 6 q 0 0 8 5 6 4 5 4 5 5 5 4 6 6 6 6 e e 6 6 6 > 6 6 4 5 8 0 0 8 4 0 5 6 & & & & % % 6 e % 6 7 q 8 8 4 > 4 4 4 6 > $ $ @ & $ % & & & & > % > ; 4 9 9 q N V N N N N N N > & % % > % ; & > 8 4 7 9 9 4 , N f N 9 N N V N V N V V N V V V 9 7 9 9 9 > 4 > 9 , s N s 9 9 s s N s N V V D V V V D V { D.{ I.I.f.S.D.G.D.D.S.D.S.G.D.f.p.p.f.f.h.{ p.D.p.h.p.p.p.{ p.[ { { { [ { { p.f.h.f.f.f.h.p.[ p.D.f.h.{ h.{ [ h.o.[ { { { { { } ( W } ( ( W ] o.j.L.L.O.X._ W T T T T W X.X.X.X.X.X.X.X.X.X.....] ] ] ] ] _ _ _ _ _ ] ] ",
"0 0 0 0 5 4 0 5 5 8 4 5 4 0 4 5 5 4 5 5 4 4 6 e 6 6 4 6 > 6 4 6 5 4 4 8 5 5 0 5 > 6 6 & % > 6 % % 4 4 7 4 8 8 8 8 8 4 > > & & $ $ $ & & & > & > > % > 9 9 9 f N N N N N V f > ; % % % ; % % % > > 4 8 f 9 q s f V V N N V V V V N N V V V 7 , , , 7 7 9 7 8 9 N s s 9 N f 9 s N V N V V W ( D ( D ( D N s s V [ [ G.U.G.D.I.G.D.D.D.D.S.f.f.f.f.p.p.f.p.p.p.p.p.p.f.f.f.{ { { { { p.{ { { { { { { { [ { { f.f.h.D.D.h.{ h.D.D.D.{ p.{ { { ] ( } ] } } ] } ] X.o.j.j.j.o.X.^ T _ _ W W W W W _ _ _ _ _ _ ^ W ^ ^ _ ] ] _ _ ^ _ ] ",
"8 0 0 0 0 6 5 8 5 8 0 8 5 5 8 0 0 5 5 8 q 0 0 5 6 4 4 5 6 > 6 6 4 4 6 4 6 4 4 5 4 5 4 % % 6 6 4 4 5 8 8 8 8 8 5 5 8 8 4 6 $ $ @ @ & > & & % & ; 6 > 8 9 q 9 f q f N 8 4 > 4 & & % > ; & > > > > > > q 7 q q N N V V V N s V V V V N 9 , , > 7 7 7 , 7 9 f 7 f V 9 9 N s N V V V V V V V V ( V V N 9 7 7 s s 9 9 s s W D.I.G.G.D.S.D.P.h.f.f.h.f.f.f.D.f.f.D.D.D.p.D.G.D.f.p.{ { p.p.{ { { } { { { } { { { { h.h.p.h.h.h.p.p.f.p.h.p.h.{ { [ [ [ { { { ( [ [ _ ] W } [ o.L.j.h.h.h.h.o.o.o.X.X.] _ _ _ ] ] ] ] ^ ^ W W ^ W W ^ ^ ",
"0 0 8 0 0 % 0 5 5 5 0 8 0 0 5 8 5 8 8 8 8 5 0 8 8 5 8 5 4 e 6 4 4 5 5 6 6 6 4 6 > 6 4 6 6 4 5 5 5 4 4 8 8 5 5 8 8 4 4 4 6 % $ $ @ & % > & % ; 4 4 8 q 7 8 7 7 8 8 % & & % & & % & & > > > ; > ; > > N 9 N f V N T N T W N V V V 7 7 4 > 7 > 9 > > , 9 9 9 7 9 s 9 N V V V V V V V V V V D V N s s 9 7 9 9 9 9 9 9 9 s N } G.I.I.I.P.I.P.G.G.D.f.f.p.f.p.p.D.f.D.D.D.D.D.D.D.p.f.f.p.f.[ } [ p.p.{ { { { h.p.p.p.p.{ p.p.{ { h.f.f.f.f.f.h.h.h.{ { { { } [ } ] [ [ } ( ( ( ( X.o.h.h.h.o.o.o.o.X.X.X.] ^ ^ T E E T W W W W ^ ^ ^ ",
"5 0 0 0 8 % 5 5 8 8 0 5 5 0 8 8 5 0 8 4 8 0 8 5 6 8 0 0 0 5 6 5 8 4 8 5 5 5 8 6 6 6 6 5 6 6 4 5 4 4 4 8 8 8 8 5 4 6 8 8 5 e $ $ $ $ 6 > % ; 6 5 8 4 4 > 8 8 8 8 % % % & ; & & $ % ; > 4 4 > > > > 8 4 s N N N N N N N N f 8 7 q 4 4 > 4 , 9 9 - > 8 f s s s N V V V V V V D V ( V V N 9 s 7 9 9 9 9 7 9 9 9 s s 9 7 s N N V { f.G.D.G.G.D.U.I.S.D.f.f.p.p.f.f.D.f.p.f.f.f.p.f.S.D.f.G.p.f.D.D.f.f.h.f.f.f.f.p.p.p.p.h.f.f.f.f.D.D.D.p.f.D.h.h.h.o.{ { { o.{ [ { { { [ [ ( ( _ N W ] [ X.X.X.] ] W N N Y T T T T ^ W W W W ^ W W ",
"0 5 0 q 8 % 4 8 5 5 8 5 5 w 0 0 0 0 0 5 5 0 0 0 5 5 0 0 0 0 8 0 0 0 0 5 5 5 6 5 6 6 6 6 5 4 6 6 6 4 6 5 5 5 4 8 5 6 5 8 5 6 % % % & 6 % % % > > 6 8 8 8 8 8 4 5 6 $ & & > & & $ > 4 > > > > ; ; > 9 4 N T N f N N N 9 7 7 > > 9 8 8 > > 9 9 8 > > 4 N s f V V N V V D V V W V V N 7 9 > f 9 N 9 9 s s s s 7 9 N V N N V V V ( D D } [ G.J.f.D.S.S.D.p.{ { p.f.f.p.p.p.f.D.f.f.f.D.D.h.h.f.D.D.p.D.f.D.D.f.f.f.f.f.p.h.h.{ p.p.p.S.D.D.D.f.{ f.h.h.{ { { { h.h.{ { { } [ [ } { } ( [ } N T q f N N N N T Y N T T T T W W T T ^ T ",
"4 6 w 0 0 6 6 5 8 8 0 0 w 8 0 w 5 w 8 5 0 0 q 8 8 8 8 6 5 0 5 8 8 5 0 q 5 w 8 6 6 4 5 6 4 6 6 6 4 5 4 5 8 4 4 5 8 4 4 8 5 5 4 6 6 > % > 6 6 6 6 8 5 8 8 8 8 8 6 6 & $ % % % & & % > > > > & & > 9 N N V N f N f 9 4 8 > 7 > 4 q > 8 7 7 q 4 8 9 9 9 V V W ( ( V V ( V V V f 9 , , 7 8 , 9 9 9 9 s 9 s N s B s N N N V V W D D ( ( D D D D.S.I.f.p.J.D.D.f.f.{ f.p.p.p.p.f.{ { f.{ f.h.{ p.{ { p.p.{ [ f.D.S.f.f.f.p.f.f.f.f.f.p.{ f.f.D.S.f.h.f.f.{ { h.g.h.h.{ [ { [ [ } [ [ } { [ } ] _ T W T W N Y N Y Y Y W T T T T T T E T ",
"0 6 0 0 0 8 6 5 0 0 8 5 5 5 0 0 8 w 8 8 w 0 0 0 5 0 q 0 8 0 5 w q q 8 0 w 8 q 0 8 6 5 5 0 5 5 6 4 5 5 4 4 4 4 4 4 4 6 6 5 5 4 5 6 4 6 6 4 5 0 8 0 6 8 8 8 8 5 4 6 ; $ & % % & & > > > > > > > q T N 8 f q 9 7 8 7 7 > > > > 4 4 > 8 4 , f f f N N V V V V W W V B V s 9 9 9 > , 7 9 9 7 9 N s N N N N N 9 V s V D V N D W V V V V s 9 7 7 M V [ { F.J.D.D.D.D.D.D.D.D.p.f.p.{ [ { p.p.{ p.p.[ { { h.{ p.p.f.f.f.D.f.f.f.f.h.h.{ p.f.f.p.f.D.p.h.{ { p.f.h.h.{ { { { { { { { { { [ [ [ } [ ] ] ( [ W T N q T N Y T T T E T T N T ",
"q 0 0 0 0 5 6 0 q 5 w 5 0 5 0 0 w 8 w 0 0 0 w 5 5 8 8 0 5 0 5 8 q w 8 q w 8 0 0 0 8 8 w 5 5 8 8 5 8 4 5 8 5 4 6 4 4 5 6 4 4 6 6 6 6 > 4 5 6 4 8 q 8 q 8 8 8 8 4 > 6 % & % > > % % > > > 4 4 4 7 N N 8 8 > ; 4 4 > 4 ; ; 8 > 4 7 > 4 8 9 9 N N N N V N V V V N W f q 8 9 8 q , , , 9 9 7 9 N s N N s N V N V V W D V V V V N s 9 7 s 9 9 9 7 s 7 s s V N V D D D D } p.{ D.S.G.f.D.D.h.{ { { h.{ p.h.h.p.p.h.f.D.f.f.{ { f.f.h.h.p.f.f.f.f.S.S.S.D.f.f.p.f.h.{ h.o.{ h.{ { { { { { [ { [ { { { { ] [ [ W T T N N N Y T T Y Y N Y ",
"5 0 0 4 0 4 6 0 0 w w w q 0 0 w w w 0 0 5 5 0 8 5 0 0 0 5 0 8 5 w 8 w 0 0 0 8 w q 0 0 8 0 0 0 0 0 5 8 5 q 8 8 5 8 5 8 5 5 8 8 6 5 > 6 6 6 > 4 5 5 8 8 8 8 8 8 8 8 5 % % % % 6 > 4 > > 4 4 7 q 8 T 9 8 9 4 > > > ; > 6 > 5 6 4 4 8 9 9 N f N V N T V s V V 9 8 8 N 9 9 7 9 f 4 8 4 9 4 q 9 9 9 s V N V W W V ( W V V N 9 9 9 9 9 s s s 9 9 s 9 s s N s N V M D D D D } ( V D h.G.W.H.P.D.p.p.{ { f.h.h.f.f.f.D.f.D.f.f.h.f.h.p.h.{ p.p.p.p.f.p.D.D.D.D.D.D.S.h.D.h.h.D.p.{ f.h.h.p.{ { o.{ { { { [ [ { [ W W ] _ V N N V Y Y N T ",
"w 0 0 5 5 4 e 0 w 0 w w 0 w 5 w w 0 0 5 5 8 q 0 5 w 0 w 0 0 w 5 w 0 w 0 w 0 0 8 q 0 0 8 q 8 8 0 0 0 0 0 0 0 0 0 0 8 8 5 8 8 8 5 q 5 5 6 % 6 6 4 4 6 > > 5 6 6 6 0 5 > % > % % > > 6 4 8 5 8 8 8 q 9 8 8 6 6 > > % % > > > 4 8 4 8 f f V N N N N B N 4 > > > 4 > 9 9 4 4 4 8 4 9 9 9 q N 9 N 9 9 V V V V ( W ( W V 9 9 9 9 9 N , 9 f s 9 s s s V B V W W V V V D D ( V V V 9 N M { p.H.G.G.D.{ h.f.S.G.S.D.D.D.h.S.D.f.f.f.D.p.{ p.p.{ { p.p.p.p.f.D.f.f.D.D.D.h.h.D.h.f.f.D.h.D.D.{ p.{ { { { { [ { { } [ [ { { ] ] T N N N N Y ",
"w 5 4 4 5 4 % w w 0 w w w 0 5 5 5 5 w 8 8 w 0 0 0 0 w w 0 0 8 5 w 5 8 8 8 0 0 0 0 8 8 5 0 w w 8 8 8 0 5 8 8 0 0 q 4 8 5 8 0 0 q 0 0 0 8 5 8 8 5 > 4 4 6 > & > % 5 6 4 6 4 > > > 4 8 8 q 8 8 8 8 N 9 8 q 8 > > % > > > 6 4 4 8 8 q N N f N N V T 9 4 > > > > 4 ; > 9 4 4 4 f 9 q f q 9 N 9 N W V V N V V V N N 9 , N 9 s 9 9 N 9 9 N s N V V V V V D ( D W V V N N N 9 s N s s s s y V } p.G.p.D.G.W.P.G.G.I.G.I.I.G.D.G.G.D.G.D.D.f.{ p.f.p.S.f.f.f.f.h.p.D.h.D.D.D.h.h.D.D.D.D.h.{ h.h.h.p.p.{ { [ o.[ { ] { ] ] { } } ] V W T ",
"Y P P q 0 5 6 0 5 5 5 5 5 5 4 5 5 8 5 5 5 8 8 5 5 w 0 0 8 5 0 0 0 8 0 8 w 0 0 w 0 0 5 4 0 0 0 q 0 0 0 8 8 q q 0 0 8 8 8 0 0 0 q 0 0 0 q 8 q q q q 8 8 8 4 % 6 % > & > 6 > 4 4 8 4 8 8 8 q 8 8 9 q q q q 8 > % > > 6 4 4 8 8 q 8 8 f N f q N q > > 7 7 > > ; 7 > 8 q q 8 9 f 9 N 9 N N N f V V T N N f 7 > , 4 8 9 f 9 f 9 f 9 N N W V N V V D ( V V W N s 9 9 , 9 s s 9 s 9 s s N s V M M D D D [ p.H.I.G.G.I.f.p.D.D.G.D.p.D.D.H.G.f.D.f.p.f.f.h.S.f.S.D.h.f.D.D.D.D.h.D.D.D.S.G.G.D.f.p.p.p.p.{ { h.o.{ { { [ [ [ } [ [ [ } } ",
"R R R R R R Y P P q 0 0 5 5 4 5 5 4 5 4 5 5 5 6 6 0 w 8 5 0 0 q 0 0 0 5 5 8 0 0 0 8 0 0 0 5 0 0 0 0 0 0 8 q q 0 5 5 8 0 0 0 0 8 0 q 0 0 0 q q 0 q 0 q 5 8 8 8 0 5 6 > 6 & & > 5 4 8 8 8 0 8 8 8 q N 8 q q 6 4 4 6 8 8 7 4 7 8 9 7 q 9 q q 9 6 % > 7 4 > > > 8 7 4 f N 8 q V N N f N N N N N 9 7 > 4 > 9 7 , 8 9 9 7 s s 9 s N V ( V V V } V V V V s s s 9 7 9 9 s 9 N 9 s s N N V V V V V V D D V V V ( { I.T.U.I.U.G.D.G.D.p.{ I.S.p.p.{ { f.f.h.f.D.f.p.{ f.S.D.D.D.D.D.D.D.S.P.G.D.D.p.D.p.D.h.{ { h.h.p.{ { { o.{ o.o.h.h.o.",
"Y R R R R R R L R R R Y Y Y P P 0 5 5 5 5 5 5 5 5 5 4 5 5 8 0 0 0 0 0 5 5 8 0 w 0 8 0 q 0 5 q 8 0 0 8 0 5 5 0 8 0 q 0 q 0 0 0 0 q q 0 0 q 0 0 0 q q 8 5 8 8 5 5 4 4 5 5 8 8 5 8 6 > 4 > 8 8 8 q N q q q 8 4 4 6 4 q 8 4 7 q N q q 9 q q 9 8 ; > 4 8 6 > > 8 > 8 7 q f 9 f f N N N N 9 8 4 > 6 6 4 > 4 8 8 8 7 9 4 7 f V N N V T V V V V V s 9 7 , , 9 9 s 7 N 9 s 9 s s N s V D V V D D D V V V N 9 9 9 s V V V ( f.D.U.G.D.p.{ p.f.G.f.p.p.{ [ { f.{ p.p.p.p.p.D.f.f.f.f.f.f.f.G.D.D.D.D.D.D.D.p.f.f.f.D.f.S.h.h.h.f.h.f.h.h.{ ",
"Y R R R R L R L L R R R R R R R R R Y P q q w 5 w 8 5 6 5 5 8 4 5 5 5 5 5 w 0 0 8 5 0 q 0 w 0 0 q 0 0 q 8 8 0 q 0 0 0 0 8 0 0 0 0 q q q q q 0 q 0 0 q 4 5 q q 0 5 q 5 8 8 0 q 8 8 8 4 4 4 4 8 8 q q 8 8 8 5 4 7 8 8 4 q f q q f q 9 q q 9 8 > > 8 8 6 4 4 q 8 8 q f N 9 N f f 9 4 > 4 > > > 6 > > > 8 9 4 q 9 9 9 q N N N B V N N f 9 , 9 4 4 , , > 7 s 9 N s , N s N V V D V V V D V N V 9 s s 9 7 f s s s V s s M D { P.G.G.P.D.G.G.G.p.D.{ h.p.{ p.p.{ { f.f.f.{ { p.p.D.p.{ f.f.f.F.D.F.D.D.f.f.p.D.D.D.D.D.S.S.S.D.D.D.h.h.",
"L L Y L R L L L L L L L L L L L L L L L L R R L P P k 0 0 5 5 e 6 5 5 5 5 5 w w 5 6 8 w 8 5 0 5 0 q 0 0 0 0 0 0 8 8 8 0 0 5 0 q q q 0 0 q q q q 0 q 0 4 8 0 0 5 0 0 8 5 0 0 0 8 8 8 8 8 8 8 8 8 5 q 4 q 4 > 8 8 9 8 8 8 q 9 q N q q N f 9 8 > ; 8 5 4 5 4 8 8 9 8 f 9 9 8 4 6 6 ; ; 8 4 > 4 4 4 7 9 8 q N f f f f N s N V N 9 q > > 4 7 7 4 4 4 N 9 N 9 N N V V s V V V V V V V N s , s f 7 s 9 9 9 9 9 N N N N N V V V D { J.P.I.G.G.G.J.D.{ { p.f.p.f.{ f.D.f.f.f.p.f.h.f.D.D.D.D.D.p.D.J.D.D.D.F.p.p.D.p.f.f.p.p.f.p.f.D.D.S.",
"L L L L R R L L L L L L L L L L L L L L L L L L L L L L R R Y P q 0 w 5 5 w w 5 5 5 5 0 5 5 0 q 0 0 0 8 0 0 5 8 8 0 8 0 q 5 8 0 q q 0 q q q q q 0 q 8 0 q q q q 0 q q 0 0 0 8 k N 8 q q N q N N 8 q q q 8 0 5 4 8 8 8 8 8 4 8 q q q q 9 q 8 8 6 4 8 4 8 8 q 9 8 8 9 q 6 ; > > % ; 8 6 4 > 4 4 4 7 9 9 9 q q f f f N 9 9 7 4 > 8 7 7 > 8 q 9 8 8 9 f s N N N W V N V V D N N 9 7 f 9 , 9 s 7 s 9 , 9 9 V V V V N V V V D D D V D } p.W.W.G.J.G.D.D.D.f.f.S.S.D.f.f.{ p.{ p.p.p.f.f.D.D.p.D.D.D.p.D.D.f.p.f.{ p.p.{ p.p.p.f.f.f.D.",
"L Y R R L L L L L L L L L L L L L L L L L L L L L L R L Q R R R L L R R L P q 0 w 5 5 0 5 5 8 0 0 w 5 w 8 8 0 8 0 0 6 8 0 0 q q 8 0 q q q 8 0 q 0 0 0 0 8 q q q 8 8 q q q q 8 0 q q q q q q N q q q q q q q q q q 8 q q q 4 4 8 4 8 8 q N q 8 4 4 8 4 8 8 8 q 8 9 8 8 8 > % % % & 6 5 4 > > > 8 4 8 f 8 q N 8 8 N 7 ; 4 7 4 > > 7 > 4 4 f 8 4 9 f N N N V D V N V f s 7 9 9 , 9 9 q 7 9 N s N f N V V V V V V N V D V V N s s s s s D S.J.F.D.D.f.S.I.I.P.I.H.p.p.{ p.f.f.D.f.D.D.D.D.D.p.f.f.p.p.D.p.p.p.p.p.{ p.p.p.p.p.p.f.p.",
"L L R R L L L L L L L L L L L L L L L L L L L L L L Q Q Q R L Q R L R Q Q Q Q Q Q Y P P q 0 8 w 8 5 6 8 8 8 0 0 0 8 5 8 8 0 q 0 0 q q q q 0 q q 0 0 0 8 q 0 q 0 q 0 q q q q q q 0 k N q q q 0 0 8 N N q q q 8 f f f q q N q 8 q q 8 4 8 4 5 8 8 8 8 8 8 8 7 8 q q 8 0 8 4 > % % % 4 > 8 4 6 4 4 4 4 4 7 f 4 > > > > 6 7 q 4 6 4 4 > 7 4 N q f T N N N N N 9 9 > , s 7 9 9 8 7 7 f f 9 s V V V V N V D N V V V N N 9 N s 7 N V N N N V N V ' } V ( V V { D.G.G.I.G.S.S.G.D.D.f.D.G.f.D.G.D.D.J.G.D.D.D.p.D.f.f.p.p.p.p.p.p.p.f.f.",
"Y Y L L L L L L L L L L L L L L L L L L L L L L L L L Q Q R L L R R Q R Q R Q Q Q Q Q Q Q R R R L P 0 0 5 6 5 0 0 0 4 8 8 0 q 0 q 0 q q 0 q q 0 0 0 q 0 5 q N q q 0 0 q 8 q q q q 0 q 0 q q 0 q q q N q q q q f q N f N N q q N N 9 q 8 8 8 8 8 8 8 q 8 8 8 8 q 8 0 8 8 0 6 > % ; 4 > > 6 4 7 8 8 8 > 8 q % 4 > % > 6 8 4 6 > 7 4 4 q q N f N N f f N 4 > > > > 4 9 q 9 N 7 f s N f f V V V V V V N V N s 9 9 f 7 s V N s N N s N N s N V V D V V D ( ( D D D ( p.f.D.D.I.G.G.D.D.P.D.D.p.p.D.p.D.p.p.D.D.p.D.p.f.p.p.p.p.p.p.{ ",
"L L L L L L L L L L L L L L L L L L L L L L L L L L L L L L L L L L L L R Q Q R Q Q Q Q Q Q Q Q Q Q Q Q R R P k q 0 6 8 0 0 5 0 0 5 5 0 0 0 q q q q q 0 8 q 0 q q 0 q 0 q N k q 8 8 0 q 0 0 q q 0 q N q q N q N q q q N N q q q q q N q q 0 0 0 8 8 q 8 5 4 6 4 5 8 8 8 4 5 6 ; 4 8 4 > > 6 > 8 8 8 4 8 4 > % ; > > & 8 > 4 6 4 9 q q 8 f q q 8 4 > 4 > > > 4 4 9 q f 9 9 f 9 N T V T N f V s s 9 9 , , 4 9 f 9 9 s s s s N s V V V V V V V D V V ( ( V D V N s s s N V [ D.I.W.G.H.F.p.D.p.p.p.p.p.{ p.p.{ p.{ p.D.p.p.p.{ p.{ ",
"L L L Y L L L L L L L L L L L L P L L L L L L L L L L L L R L L R R R Q Q Q R R Q Q Q Q Q R R Q Q Q Q Q R Q Q R R R Y L P q 0 w 5 4 0 0 q 0 8 0 0 0 0 0 q q 0 0 q 0 q N q q 0 8 q q q 0 q q q k k q q q q q q N q N N q N q q q q N q q q 0 k k q q q 8 8 8 4 8 4 6 6 6 4 4 > 6 4 4 4 4 8 8 8 8 5 8 8 5 6 6 % ; 6 > 6 8 > 4 8 8 4 8 7 8 4 4 4 6 > > > > 4 > 7 9 9 q 9 N N f N N V V B f 9 4 9 7 9 4 > , f f 7 9 s V 9 N V N V V V V V D V V V N s s s s s N N N N N V V V V V } } G.H.p.{ [ p.p.p.{ [ { { [ { p.p.p.p.p.D.D.{ { ",
"R Y L L L L L L L L L L L L L L L L L L L L L L L L L L L L L L L L Q Q Q L L L R R Q R R R R Q Q Q Q Q R R Q R Q R Q Q Q Q Q R Y Y P q 0 8 8 0 0 8 8 0 0 q 0 q 0 0 q q q q q q N k q q q N q N N q N N N 8 q N N N f q q q q q N N q q k q q q q q 8 8 q q 0 8 8 8 8 5 4 6 4 6 4 4 6 4 5 8 8 8 5 0 0 6 6 ; % % % > 4 4 > 6 8 4 5 6 ; > > % > 6 > % 5 4 4 4 9 4 7 f 9 N N B V N 9 9 > 4 q > 9 s 8 7 9 9 f q 7 s N N V V N V V V V V V N 9 s s s 9 s s N N N N N N N N N N N f , - > } D.D.p.D.p.D.p.p.p.p.p.p.p.p.p.p.D.p.f.f.p.",
"L L L L Y L L L L L L L L P L L P L P P P L P L L L L L L L L L L L L L L L L L R R L R L L L R Q Q Q Q Q Q Q Q Q Q Q Q Q Q Q Q Q Q Q R R R L Y P q 0 0 0 8 8 0 0 0 8 q 0 0 q N q k q q N N N N N q q k q q q N N N N N q q f N N k q N k q k 8 q q 8 8 q 8 0 q 0 q 8 5 8 8 4 4 4 8 8 4 4 6 6 6 6 5 5 6 4 6 6 ; > > 6 4 4 4 4 5 8 6 > ; > % % % 6 % 5 4 6 > 8 9 9 9 q f q q 8 4 7 9 4 4 9 4 8 f 4 q 9 8 N N N V T N V V N V N f 9 9 9 9 9 N f s N N f N N N N N N s 9 , > + + & + - 9 V D } [ p.J.F.F.D.D.{ p.p.{ p.p.D.p.f.f.p.",
"L L L L Y L L L L L L L L L L L L P L P L L L L L L L L L L L L L L L L L L L L L L L L L L L R Q Q Q Q Q Q Q Q Q R Q Q Q Q Q Q Q Q Q R Q Q Q Q Q Q R Y Y P q q 0 q 0 0 8 0 q 0 q q q q N q q N N q N N k q N N N N q k q q N q N 8 q q q N N 0 8 q 0 8 q 0 q q 0 q q q 0 q 0 8 8 8 8 8 5 8 4 6 6 ; ; 6 6 6 4 6 6 6 5 5 8 8 5 5 5 5 6 > % 6 % 6 6 6 4 > > 6 4 4 4 7 8 7 > > ; ; 8 q 4 7 8 4 4 9 f N N N f N N f B N s f 9 9 9 4 q f f 9 f f f f f N f N f f 4 > > > ; ; ; & & & - 8 q N V V N V V J.H.F.F.D.D.D.p.p.p.p.p.{ p.p.",
"L L L L L L L L L L P L L L P L L L L L L L L L L L L L L L L L L L L L L L L L L L L L L L R R L Q Q Q Q Q Q Q Q Q Q Q Q Q Q Q Q Q Q Q Q Q Q Q Q Q ! Q Q Q ! ! R R Y Y q 0 q q q q q q q q q q q q N f k q N N q Y N N N k q q k N N q 0 q q q 8 0 q q 0 8 q 0 0 8 0 q 0 0 8 8 8 8 8 0 8 8 8 4 8 8 5 6 6 4 6 6 6 4 4 4 5 8 8 8 8 8 5 6 6 6 4 6 6 > 6 ; 8 5 4 6 6 4 4 % ; > ; % 8 9 > 9 4 7 7 N N N N T N N 9 > > 9 7 4 q 7 9 7 q f f q N f f f f 9 , > > > ; ; ; ; ; ; ; & & & & 8 s V V V V N N V p.J.F.F.D.F.D.F.G.p.p.p.p.{ ",
"L L L L L L L L L L P L P P L P P L L L L L L L L L L L L L P L L L L L L L L L L L L L L L R R L R Q R Q Q Q Q Q Q Q Q Q Q Q Q Q Q Q Q Q Q Q Q Q Q Q R Q Q Q Q ! ! ! ! ! E E Y Y Y q q 0 q q q q 8 N q q q k k N N q q N k q 0 q k q q 0 0 q q q q q q 0 q q q 0 8 q q 0 8 0 8 5 0 8 0 0 8 8 0 0 0 5 6 4 0 4 6 4 4 4 6 4 4 6 5 5 8 5 4 4 6 5 4 6 5 5 5 4 5 5 6 > 6 6 6 > > % > 9 8 8 > 8 > N T N N q 4 4 8 > & 8 7 9 4 9 7 9 8 q q f 9 9 q 7 6 > ; ; > ; > > ; ; ; ; % % % & @ $ ; 9 V V V V V N N 7 D } D.{ N W J.J.F.G.D.D.p.",
"L L L L L L L L P P L P P P P P P P P P L L L L L L L L L L L L P L L L L L L L L L L L L L R L L L L L L Q Q R L R Q Q Q Q Q Q Q Q Q Q Q Q Q Q Q Q R R R R Q Q ! ! ! Q ! ! ! ! ! ! ! ! ! Y P P k 8 q q k q 8 0 q q q q q N N N q q q q 0 0 q q q q q q q 0 q q q 0 0 8 0 0 0 8 8 0 0 0 8 0 8 5 0 0 0 5 6 5 0 4 5 5 4 4 4 6 6 5 4 6 6 6 4 5 5 5 5 8 8 8 5 5 4 6 ; 6 % % 6 % % 6 > 6 ; % 4 q V 9 > 4 ; 4 6 4 > 4 9 4 9 9 q q 9 9 9 q 8 9 > > ; > > > > > > > > ; ; % & & + & $ o o > 9 V V W V V V N q , ; P.N X X q V } { H.D.D.",
"P P P P L L P P P P P P P P P P P P P P L P L L L L L L P L L L L L L L L L L L L L L L L R L L L L L L L Q R R R R R Q Q Q Q R Q Q Q Q Q Q Q Q Q Q R R R R Q Q ! Q Q Q ! ! ! ! ! ! ! ! ! ! ! ! ! E R Y Y P 0 5 8 0 k q 0 0 8 q q 8 q q q q q q q q q q q 0 q q 0 q 0 5 8 0 8 0 8 0 0 0 8 0 0 0 0 0 8 8 6 5 8 5 5 0 0 8 5 4 4 4 5 4 4 4 6 4 > 6 4 4 5 5 5 5 5 6 % % > % > % ; % ; > 6 6 4 N f % % 6 ; > 6 8 6 4 8 7 8 9 9 9 8 4 > > > ; > > > > > > > > > ; % % & & & $ o o . . . 4 N V W V V V V f 8 > X > X X X X X X X } J.J.",
"&XOX.Xx...~ P P P P P P P P P P P P P P P P P L P L P L P L P P L L L L L L L L L L L L L L L L Q L L L R R R L R R R R R Q Q R Q Q R R Q Q Q Q Q Q Q Q R R Q Q Q Q Q Q ! ! ! ! ! ! ! ! ! ! ! ! ! ! ! ! ! ~ ! E E Y N k q q 8 8 8 q q q q q q q q q q q q q q q 0 q q q q 0 0 0 q 8 q 0 0 8 8 8 8 0 0 0 6 0 0 0 5 5 0 0 5 4 4 5 5 5 5 5 5 5 4 6 > 6 6 6 4 6 5 6 ; ; % % > 6 6 6 6 4 6 6 > Y q % % > > 4 6 4 6 > 4 4 4 4 > > ; ; ; ; > 6 > > 6 6 ; > ; ; ; & & $ o o o o o . o . . > N V V W W V V N 9 > @ .   X X X X X X X > { ",
"5X5X&X&X&X&X%X+X.XO.+. .R P P P P P P P P P P L P P P P L L P P P P P P L L L L L L L L L L L L R L L L L R L L L R R Q R L L R Q Q Q Q R Q Q Q Q Q Q R R R Q Q Q Q Q ! ! ! ! ! ! ! ! ! ! ! ! ! ! ! ! ~ ~ ~ ! ~ ~ ~ ~ ~ ~ ! E Y Y k k q 0 0 q q q 0 0 q q q q q q q 4 0 0 8 0 q q q 0 0 0 0 8 8 8 8 8 0 5 0 0 0 0 8 8 q 8 8 5 5 5 5 0 5 5 5 4 5 6 4 6 6 4 > 6 6 % 6 6 6 6 6 6 6 % 6 6 > > N 6 % > ; ; 6 4 6 > > ; % % % - & % ; ; ; > > > ; > ; % % & & $ o o o o o o o o o . o o + s V W W ( V V N q > $ & $ . . X     X X X   ",
"5X5X5X&X5X5X5X%X%X%X%X%X%X%X+X|.x.+. .~ L P P P P P P P P P L P P P P L L L L L L L L L L L L L L L L L L L L L L R R L L L R R R R Q Q R R R R Q Q Q R R Q Q Q Q Q Q Q Q Q Q ! Q Q Q Q ! ! ! ! ! ~ ~ ~ ~ ~ ! ! ~ ~ ~ ~ ~ ~ ~ ~ ~ ^ ^ ~ R Y Y q q 0 0 q 0 q q q 8 0 0 q 0 8 q q q q q 0 0 q q 0 8 5 0 0 6 q 0 0 0 0 8 0 8 8 5 5 5 8 0 8 5 5 5 5 5 5 5 4 4 6 6 5 6 4 6 6 6 6 > 6 6 > 6 6 > q ; > > ; ; ; ; % % % % % % % ; ; ; ; ; ; ; ; ; % % & & $ o @ o o o o o o o o o . o . . > N V W ( W W V V 9 > % & % $ o o . . .   X . ",
"5X5X5X&X&X5X5X%X%X%X%X%X%X%X%X%XOXOX+X+X+X+X|.|.+.+. .! L P P P P P P L L L L L L L L L L L L L L L L L L L L L L L L L L L L R R Q Q Q R R L L Q Q R R R Q Q R Q Q Q Q Q Q Q ! Q Q Q ! ! ! ! ! ! ~ ~ ! ~ ~ ! ! ~ ~ ~ ~ ~ ~ ~ ~ ~ ~ ~ ~ ~ ^ ~ ~ ! E Y Y k q q 0 q 0 q q 0 0 q q 0 0 8 0 q 0 q 0 0 0 0 0 4 0 0 0 8 5 8 5 0 5 8 8 8 8 5 5 8 0 5 5 4 5 5 5 5 5 4 6 5 5 6 6 4 6 6 6 > 6 6 % > 0 6 6 > > ; ; ; ; ; % % % % % % % % ; ; % & & & $ o $ $ $ $ $ o o $ o o o o . . . . X . ; N V ( ( } W N N 9 4 % % > % $ $ $ o . .   X ",
"5X5X5X5X5X%X5X%X%X%X%X%X%X%X%X%XOXOX+X+X+X+X+X+X+X+X+X+X+X|.x.O.+. .~ L P P P L P L L L L L L L L L L R L L L L L L L R L L L Q R R R Q Q R L R Q Q Q R R R Q Q Q Q Q Q Q Q Q ! Q ! ! ! ! ! ! ! ! ! ! ! ! ! ! ! ~ ~ ~ ~ ~ ~ ~ ~ ~ ~ ~ ~ ~ ~ ~ ^ ~ ~ ~ ^ ^ ^ ~ ! Y N q 0 8 0 0 0 0 8 5 0 0 0 0 0 q 8 0 0 0 0 0 0 0 0 0 0 0 8 q 8 5 5 5 8 8 0 0 5 5 5 4 4 4 4 5 5 5 6 5 4 6 4 6 6 6 6 6 % 6 0 % 6 6 6 ; ; % ; ; % % % % & & & & & % & $ o $ $ $ $ @ $ $ $ $ o o o o o . . .   X     . f V W W W W V V q 4 > > 4 % & $ $ o . . . X ",
"5X5X5X8X5X5X%X%X%X%X%X%X%X%X%X%XOX+X+X+X+X+X+X+X+X+X+X+X+X+X+X+X+X+X+X|.|.x.+.+.@.~ L P P L L L L L L L L L L L L L L L L L R Q R L R R Q Q R R R R Q R R R Q Q Q Q Q Q Q Q Q Q Q ! ! ! Q ! ! ! ! ! ! ! ! ! ! ~ ~ ~ ~ ~ ~ ~ ~ ~ ~ ~ ~ ~ ^ ^ ~ ^ ^ ~ ^ ~ ^ ^ ^ ^ ^ ^ ~ ~ ! Y k q q 8 0 0 0 0 8 8 8 8 0 8 8 4 0 0 8 0 0 0 0 8 0 0 8 8 8 5 8 8 5 5 0 4 6 5 5 4 4 5 4 6 6 5 4 6 4 4 4 6 6 6 6 5 % % ; ; ; ; % ; ; % % % % $ @ $ $ & $ $ @ @ $ $ $ o o o o o o . . .         X   . . . . , V V W W V N N 8 > > > > & $ & $ o . o . . ",
"5X5X5X8X5X5X%X%X%X%X%X%X%X%X%X%X+X+X+X+X+X+X+X+X+X+X+X+X+X+X+X+X+X|.|.|.|.|.|.|.|.|.|.|.O.+. . .! L L L L L L L L L L L L L L L L R R R Q Q R L R R R R Q R R Q Q Q Q Q Q Q Q Q ! ! ! ! Q ! ! ! ! ! ! ! ! ! ! ~ ~ ~ ~ ~ ~ ~ ^ ~ ~ ~ ~ ~ ~ ~ ^ ^ ^ ~ ^ ^ ^ ^ ~ ~ ~ ~ ~ ~ ~ ~ ~ ~ ! E Y Y k q 0 8 w 5 8 8 8 6 8 5 5 8 5 0 0 0 8 0 8 0 8 8 8 8 8 5 4 5 5 5 5 5 5 4 6 5 4 5 4 4 4 4 6 6 6 6 4 8 6 % % % % % % % % & & % & & $ $ $ $ $ $ $ o . o o o o . . . .     .       . . . . . . . ; N V V V N N N 8 4 6 4 6 $ @ @ @ o o @ . . ",
"5X&X%X%X%X%X%X%X%X%X%X%X%X%X+X+X+X+X+X+X+X+X+X+X+X+X+X+X+X+X|.|.|.|.|.|.|.|.|.|.|.|.|.|.|.|.|.|.|.|.|.O.+. .^ Q P L L L L L L R L L L L L Q R L L L R R R R Q R R Q Q Q Q Q Q Q ! ! ! ! Q ! ! ! ! ! ! ! ! ! ~ ~ ~ ~ ~ ~ ~ ~ ~ ~ ~ ^ ^ ^ ~ ^ ^ ^ ^ ^ ^ ^ ^ ^ ~ ~ ~ ~ ~ ~ ~ ~ ~ ~ ~ ~ ~ ~ ~ ~ ~ E Y Y q 0 w 6 6 4 5 5 4 4 5 8 0 0 4 4 5 w 0 5 5 w 5 5 0 5 5 5 4 4 4 4 4 5 5 4 4 4 4 4 4 4 4 4 6 ; > > % % % % % & & & & $ $ $ $ $ $ $ o $ $ o o . . X   .   . . o . . . . . . . . . . o 9 N V N N N q 5 5 4 4 > & $ $ @ . o o . . ",
".X+X+X+X+X+X+X+X+X+X+X+X+X+X+X+X+X+X+X+X+X+X+X+X+X+X|.|.|.|.|.|.|.|.|.|.|.|.|.|.|.|.|.|.|.|.|.|.|.|.|.|.|.|.|.|.|.O.+. . .~ L L L L L L L L L L L L L L R R R R R R Q Q Q Q Q R Q Q Q Q ! ! Q ! ! ! ! ! ! ! ! ~ ~ ~ ~ ~ ~ ~ ~ ~ ~ ^ ^ ^ ^ ^ ~ ~ ~ ^ ^ ^ ~ ~ ~ ~ ~ ~ ~ ~ ~ ~ ~ ~ ~ ~ ~ ~ ~ ~ ~ ~ ~ ~ ~ ~ ~ R Y P q 0 5 6 6 5 5 5 4 6 5 5 4 4 5 w 5 5 8 4 4 5 5 5 5 5 5 5 5 4 4 4 4 4 6 6 6 8 > ; > ; % % ; % % % % & & & & $ @ o @ @ $ $ . . . . . . . . . . o o o . . . . . . . . . . & 9 q q f N 9 4 4 6 > & $ $ $ o . o . . . ",
"P q q Y ~  .+.+.x.|.|.|.+X+X+X+X+X+X+X+X|.|.|.|.|.|.|.|.|.|.|.|.|.|.|.|.|.|.|.|.|.|.|.|.|.|.|.|.|.|.|.|.|.|.|.|.|.|.|.|.|.|.|.|.x.+.+. .^ ! L L L L L L R R R R Q Q Q Q Q Q Q R Q Q Q Q ! ! ! ! ! ! ! ! ! ! ! ~ ~ ~ ~ ~ ~ ~ ~ ^ ^ ~ ^ ^ ^ ^ ~ ^ ^ ^ ^ ~ ~ ~ ~ ^ ^ ~ ~ ~ ~ ~ ~ ~ ~ ~ ~ ~ ~ ~ ~ ~ ~ ~ ~ ~ ~ ~ ~ ~ ~ ! ! R Y P q 8 5 6 6 6 5 5 5 4 5 5 5 5 5 5 5 4 5 4 4 5 4 4 4 4 4 5 6 6 6 8 > > % % ; % % % % & & & & $ $ $ $ $ . . . $ . . o o o o @ o . o o o o o o . . . . . . . . X & > 7 4 4 4 > > e & & @ @ . . o . . . . ",
"+X.X.XO.+.@.^ R q 5 0 L R ^  .+.+.O.x.x.x.x.x.x.x.|.|.|.x.|.|.x.|.|.|.|.|.|.|.|.|.|.|.|.|.|.|.|.|.|.|.|.|.|.|.|.|.|.|.|.|.|.|.|.|..X.X+X+X+X+X|.x.O.+. .^ Y Y R Q R R Q Q Q Q R Q Q Q Q ! ! Q ! ! ! ! ! ! ~ ~ ~ ~ ~ ~ ~ ~ ~ ~ ^ ~ ~ ^ ^ ^ ^ ^ ^ ^ ^ ^ ^ ^ ^ ^ ^ ^ ^ ^ ~ ~ ~ ~ ~ ~ ~ ~ ~ ~ ~ ~ ~ ~ ~ ~ ~ ~ ~ ~ ~ ~ ~ ~ ! ~ ~ ~ ~ ! R L P q w 4 6 5 4 5 5 6 4 4 4 5 5 5 4 6 5 4 5 5 5 6 6 6 8 ; ; % ; > ; % % % & & & & & $ $ $ $ $ $ o @ @ @ @ o @ o $ o o o o o o o . . . . . . . . X . X @ % % % & e & % @ $ . . . . . . . . X ",
"OXOX+X+X.X.X.X.X.X|.O.+...@.^ Y 0 5 5 q L ! ^  . .+.+.+.+.O.O.O.O.O.O.O.O.O.O.O.O.O.O.O.O.O.O.O.|.|.|.|.|.|.|.|.|.|.|.|.|.|.|.|.|.|.|..X.X.X.X+X+X+X+X+X+X+X+X.Xx.O...^ R Y R Q Q Q Q Q Q ! ! ! ! ! ! ! ! ~ ~ ~ ~ ~ ~ ~ ^ ^ ~ ^ ^ ^ ^ ^ @.@.@.@.@.@.^ ^ ^ ^ ^ ^ ^ ^ ^ ~ ~ ~ ~ ~ ~ ~ ~ ~ ~ ~ ~ ~ ~ ~ ~ ~ ~ ~ ~ ~ ~ ~ ! ~ ~ ~ ~ ~ ! ! ! ~ ~ ! ! R Y q q q w 5 5 6 6 6 6 6 6 6 6 4 4 6 6 6 > 5 ; % % % % % % % % & & & & & & $ $ $ $ $ $ @ $ $ $ o $ $ @ o @ o @ @ o o . . . . . . . . X X X X . $ & % % & $ . . . . . . . . . X $ ",
"&X&XOXOXOX+X+X.X.X.X.X|.|.|.O.O.{.{.O.+...@.! P w 6 5 q P Q ~ ^  . .+.+.+.+.+.+.+.+.+.+.O.O.O.O.O.O.O.O.O.O.O.x.x.|.x.|.|.|.|.|.|.|.|.|.|..X.X.X.X+X+X+X+XoXOX%X%X%X&X8X&X&X%XXXL.+. .R R Q ! ! ! ! ! ! ~ ! ~ ~ ~ ~ ~ ~ ^ ^ ^ ^ ^ @.@.@.@. . . . . . .@.@.@.^ ^ ^ ^ ~ ~ ~ ~ ~ ~ ~ ~ ~ ~ ~ ~ ~ ~ ! ! ! ~ ~ ~ ~ ! ~ ~ ~ ! ! ! ~ ~ ! ! ! ! ! ! ! ! ! ~ ! ~ ~ ! R Y P q 0 6 6 6 6 6 6 6 > 6 6 8 ; % % % % % % % % & & & & & & $ $ $ $ $ $ $ $ $ $ $ $ $ $ o . . o o o . . . . . . . . . X X . X X X . . . X . . X X X X X % 5 q P Y ",
"^ ....O.O..X.X+X+X+X+X.X.X.X.X|.O.O.O.O.O.O.O.O.O.O.+...@.^ R q 5 e 5 0 P Y ! ~  . . . .+.+.+.+.+.+.+.+.+.+.+.O.O.O.O.O.x.|.x.x.x.|.|.|.|.|.|..X.X+X.X+X+X+XoX+XOXOX%X&X&X&X*X0X0X0XjXjX0X*X&X.XO.@.R ! ! ~ ~ ~ ~ ~ ~ ~ ^ ^ ^ @.@. . . . . . . . . . . . .@.@.^ ^ ^ ^ ~ ~ ~ ~ ~ ~ ~ ~ ~ ~ ~ ! ! ! ! ! ! ! ! ! ! ~ ! ! ! ! ! ! ! ! ! ! ! ! ! ! ! ! ! ! ! ! ! ~ ! ! ! ! ! Q Y P q 0 5 6 e % 5 % % % % % % % % % & & & & $ $ $ $ $ $ $ $ $ $ $ $ $ $ $ $ . . . o o o o . . . . . . . . . X . . . X X X X X X o 6 0 k Y E ~ ! ! ! ! ",
"| | | | | / / / / ^ @.....+.O.O.|..X.X|.|.|.{.{.O.O.O.O.O.O.O.O.O.O.+...@.^ Y q e e 5 0 P Y ! ^  . . . ...+.+.+.+.+.O.+.+.O.O.O.O.x.x.x.|.|.|.x.|..X.X.X+X+X+XoXoXOXOX%X&X&X*X*X0X0XjXlXlXlXlXlXzXzXzXjX0X&XoXO.^ ~ ^ ~ ^ ^ @.@.@...............+..... . . .@.^ ^ ^ ^ ~ ~ ~ ~ ~ ~ ! ! ! ! ! ! ! ! ! ! ! ! ! ! ! ! ! ! ! ! ! ! ! ! ! ! ! ! ! ! ! ! ! ! ! ! ! ! ! ! ! ! ! ! ! ! ! ! ! ! Y Y Y 0 4 > % % % % & & & & & & & & & & $ $ $ $ $ $ $ $ $ $ $ o o @ @ o o o . . . . . . . . . . X . . . . & 6 0 P R ~ ~ ! R ! ! ~ ! ! ! ~ ",
"^ | | | | | | ~ | | / / / / / / / / ~ ^ @.....+.O.O.O.O.{.{.{.{.O.O.O.O.O.O.O.O.O.O.+...@.^ Y 0 e % 6 5 q L Q ~  . .....+.+.+.+.+.+.O.O.x.x.x.x.x.x..X.X.X.X+X+XoXoXoX%X%X&X&X*X9X0X0XlXlXlXlXlXzXzXzXzXZXSXSXSXSXzXlX0X&XXXO.] ........+.+.+.+.+.+.+.+. . .@.@.@.^ ^ ~ ~ ~ ~ ~ ~ ! ! ! ! ! ! ! ! ! ! ! ! ! ! ! ! ! ! ! ! ! ! ! ! ! ! ! ! ! ! ! ! ! ! ! ! ! ! ! ! ! ! ! Q ! ! ! R E ! ! ! ! ! ! ! R Y k 0 4 ; % & & & & & & & & $ $ $ $ $ $ $ $ $ $ @ $ @ @ $ . o . . . . . . . . . . & 5 q L R ~ ~ ~ ! ~ ~ ! ! ! R ! ! ~ ~ ~ ~ ",
"L.O.X.....@.^ ~ | ~ / / / | / / / / / / / / / I I I / / ^ ^ @...+.O.O.O.O.O.O.O.O.O.O.O.O.O.O.O.O.O.+...^ ..@.^ R P q 0 J Y ! ^  ...+.+.+.+.O.O.x.x.x.x..X.X.X.XXX+X+XOX%X&X&X&X*X0X0XjXlXlXlXlXxXzXzXzXZXSXSXSXSXSXSXSXZXSXSXDXDXCXBXjX9XoXL.o.+.+.+.+..... . .@.^ ^ ~ ~ ~ ~ ~ ~ ~ ! ! ! ! ! ! ! ! ! ! ! Q Q ! ! ! ! ! ! ! R ! ! ! ! ! ! ! ! ! ! ! ! ! ! Q ! Q ! E Q Q ! Q ! ! R E ! Q Q ! ! ! ! ! ! ! E E E Y Y k q 8 % & & & & & $ $ $ $ $ $ $ $ $ $ @ * @ @ o . . . . . % 5 0 P R R R ! ~ E ! ! ~ ! ~ ! R E E R ~ ~ ~ ~ ~ ~ ",
"*X#X#XoXoXY.L.j.O.+...@.@.^ ~ / / / / / / / / / / I I I I I I I I J I / / ~ ^ @.....+.O.O.O.O.O.O.O.O.O...O.O.O.O.O.O.O.+...^ ~ Y P 0 k P ! ^  .+.+.O.x.x.x.x..X.X+X+XoX%X%X&X&X&X*X0X0XjXlXlXlXlXxXzXzXZXSXSXSXGXGXSXSXSXSXGXFXKXJXJXJXKXHXHXDXzXjX*X&XL.X...@.@.^ ~ ~ ~ ~ ~ ~ ~ ~ ! ! ! ! ! ! ! ! ! R ! Q Q ! ! Q Q Q Q Q Q Q ! Q Q Q Q Q ! ! Q Q Q Q Q Q ! ! ! Q Q Q Q Q Q Q Q Q Q R ! ! R E R E ! ! ! ! ! ! E E ! E E Y Y q 0 4 ; $ & $ $ $ $ $ $ $ * . . . $ % 6 0 P L R R R R R R R R R R R R R R ~ E R ~ R E ! ! ~ ~ ! ~ ",
"sXsX0X*X*X$X#X@XoXXXXXL.L.L.O.O.......@.^ ~ / / / / / / / / / / / I I I I I I I J J J J / ^ ^ ^ ..o.O.O.o.+.O.O.O.O.O.O.O.O.O.O.O.O.O.O.+...^ ! Y q 0 k E ^  .+.O.x.|..X.XoXoX%X&X&X*X0X0XdXlXlXlXlXzXzXzXZXSXSXSXSXSXSXSXGXFXHXJXJXJXJXJXJXKXHXFXDXSXZXzXkXjX0X&X+Xx...^ ! ! ! ! ! ! ! ! ! R ! ! ! ! R Q Q Q Q Q Q Q R Q Q Q Q ! Q Q Q Q Q Q Q ! R Q Q Q Q ! ! ! Q Q Q ! Q ! Q ! Q Q Q ! ! E E E E ! ! ! ! ! ! E ! ! ! ! ! ! E R E E Y k q 0 6 % $ $ $ % 6 5 0 k P P P L L R R R R R R R R R R ! ! ! ! R E E E E ! ! ! ! ~ ~ ! ",
"lXdXdX0X0X*X*X&X$X$X@XoXoXoXXXY.L.L.L.j.O.O.o.+.....@.^ ~ / / / / I I I / I I / I I I J I I I J J J J Y / / ^ ^ ....+.+.O.O.O.O.O.O.O.O.O.O.O.O.O.O.O.+...@.^ / P q k R ^ ..+.x..X+X%X%X&X*X0XdXjXlXkXzXzXzXSXSXGXGXGXGXGXFXHXKXJXJXJXJXJXJXJXKXHXFXDXSXZXzXkXlXjXIXIX0X0X5X%X+X|...~ R Q Q R R Q ! Q R ! Q Q Q R Q Q Q Q Q Q Q Q Q Q Q Q Q R R R Q Q Q R Q ! ! R R ! ! Q Q Q Q ! ! ! ! ! E ! E E R ! E ! ! ! ! ! ! ! ! ! ! ! E E E R R R R Y L P 0 5 5 0 0 0 k k k P P L L R R R R R R R R R R ! R ! ! R ! R E E ! ~ ~ E ! ! ! ",
"lXlXlXdXdXsX*X*X*X&X&X$X$X@XoXoXoXXXXX.XL.L.L.L.j.O.O.o.o.X.........^ ^ ^ / / Y Y / I J I I I I I I I I I I I I I I I / / ^ ^ ....+.O.O.O.O.O.O.O.O.O.O.O.O.O.O.O.O.O.O...@.^ E Y R ~ @.+.x.L.oX&X9X0XjXlXkXVXSXSXGXDXDXFXHXKXJXJXJXJXJXJXJXJXJXKXKXHXHXDXZXkXkXjXIXIX0X0X0X5X5X5X5X5X%X%X+X.Xx.+. .~ R R Q Q R R R R Q Q Q Q Q ! Q Q Q Q ! Q R Q Q Q Q R R Q Q R R R Q ! Q R R ! ! ! ! ! Q ! E E ! ! E ! ! E E E ~ E ~ ! ! ! E E E E R R R R L L P 0 5 0 0 q k k k P P L L R R R R R R R R R R R ! ! ! E R E E ! ! ! ! ~ ~ ! ! ",
"lXlXlXlXdXdX0X*X*X*X&X&X&X$X$X$XoXoXoXoXXXXX.XL.L.L.L.L.j.j.O.O.O.o.o.o.X.X.........^ ^ ^ ! / / Y Y Y I I I I I I I I / / / / / / / / / ~ ^ @...+.O.O.x.L.L..Xx.x.x.x.|.x.x.x.|.L.x.x.O.+...] @.^ ^  .o.x.oX5XdXkXPXGXFXKXKXLXLXLXJXJXJXJXJXJXJXJXJXJXJXJXKXSXlXIXIXIXIXIXiX5X5X5X5X5X5X5X5X5X%X%X%X5X%X+X|.O... .! R Q Q R ! Q Q Q Q Q R R R R R R R R R R R R R R R R R Q R R R R ! ! Q ! R R E E ! E E E E E E ~ ~ E E E E E ! E E R R R R L L P 0 0 0 q k k k P P P L R R R R R R R R R ! R ! ! ! ! E E E E ! ~ ! ! ~ ~ ! ~ ",
"xXlXlXlXlXlXdXdX0X*X*X*X&X&X$X$X$X$XoXoXoXXXXXXX.XL.L.L.L.L.L.j.j.j.j.j.O.O.O.O.o.o.o.o.X.X........._ ^ ^ ^ / / Y Y Y I I / / / / / / / / ~ ~ | ^ ^ ^ ^ @.....O.O.L.XX.XXXoXoX.X+X.XXXoXoXoXOXOX%X%XOXoXXX%XOX+X.X.X%X0XVXLXJXJXJXJXJXJXJXJXJXJXJXJXJXJXJXJXHXSXVXjXIXIXIXIXaX5X5X5X5X5X5X%X%X%X%X%X%X%X%X%X%X%XOXOX+X+X|.O.+. .! R R R Y R R R R R R R R R R R R R R R R R R R R R Q Q Q R R R R E ! ! E E E E E ~ ! ~ E ~ E ! ~ ! ! R R R R L P P 0 0 0 q k k P P P L R R R R R R R R R R R R ! R ! ! E E E ! ~ ! ! ! ~ ! ! ! ",
"zXxXlXlXlXlXdXdX0X0X*X*X*X&X&X$X$X$XoXoXoXoXoXXXXX.X.X.XL.L.L.L.L.L.L.L.j.j.j.O.j.O.j.O.O.O.O.O.o.O.o.o.o.o.X.X.........^ ^ ^ ^ ! / / / / / / ~ ^ ^  .@.....+.+.o.O.O.O.O.x.L.L.XXoX&X&X&X*X*X*X9X0XjXBXCXLXKXJXJXJXKXLXLXCXLXJXJXJXJXJXJXJXJXJXJXJXJXJXKXHXSXVXjXIXIXIXIXaX5X5X5X5X5X5X5X%X%X%X%X%XOXOX+X+X+X+X+X+X+X+X+X+X+X+X+X+X|.x.+... .^ R Y R R R Y Y Y Y Y R R R R R R R R R R R R R R R E E ! E ~ ! ~ ~ ~ ~ ~ ~ ~ ~ ~ ~ ~ ! ! ! R R Y L P 0 0 0 k k P P P L L R R R R R R ! ! ! ! R ! R ! ! ~ ! E E E E E ~ E ! ~ ^ ^ ",
"zXzXxXlXlXlXlXdXdX0X*X*X*X*X*X&X&X$X$X$XoXoXoXoXoXXX.X.X.XL.L.L.L.L.L.L.L.L.L.j.j.j.L.j.j.O.O.O.O.O.j.j.O.O.O.O.O.O.O.O.O.o.o.o.o.o.X.......] ^ ^ ^ ^ ^ ^ ^ ^ ......o.O.L.XX&X&X*X*X&X&X&X#XoX#X&X0XjXkXCXLXHXKXJXJXJXJXJXJXJXJXJXJXJXJXJXJXHXDXSXVXkXkXjXjX0X0X5X5X5X5X5X5X%X%X%X%X%X%XOX+X+X+X+X+X+X+X+X+X+X+X+X+X+X+X+X+X+X+X+X+X.X.X.X.X+X+X.X.X|.x.O.+... .! P L Y R R R R R Y R R R R R R R E E E E E ~ ~ ~ ~ ^ ^ ^ ~ ~ ^ ~ ~ ~ ~ ! R R R L k 0 q q k P L P R R R R R R R R R R ! ~ R R R R E E R ! ! E ~ ~ ^ ] X.X.o.o.{ ",
"zXzXzXxXlXlXlXlXdXdX0X*X*X*X*X*X&X&X&X$X$XoXoXoXoXoXXXXXXX.X.X.XL.L.L.L.L.L.L.L.L.L.j.j.j.j.j.j.j.j.j.L.j.L.L.L.L.L.L.L.L.L.j.L.L.L.L.L.L.L.L.j.L.j.K.j.O.o.o.X...........X.o.o.K.L.oX&X0XjXjXjXjX0X&X&X$X&X*X0XjXCXLXLXKXJXJXJXJXJXJXJXJXJXJXJXKXHXGXkX0X$XK.X.@.~ ^  ...+.O.x.x.|.|.|.|.|.|..X|.|..X|.|.|.|.|.|.|.|.|.|.|.|.|.|.|.|.|.|.|.|.|.|.|..X.X.X+X+X+X+X+X.X.Xx.+...^ R L Y Y Y R R R R E E E E ~ ~ ~ ^ ^ ^ ^ ^ ^ ^ ^ ^ ^ ^ ~ ~ ~ ! R L P 0 q k P P Y R R R R R R R R R R ! ! ! E E R R ! ~ ^ ] X.o.o.h.h.f.p.p.{ { { ",
"SXzXzXzXxXlXlXlXdXdX0X0X0X*X*X*X&X&X&X$X$X$XoXoXoXoXoXXXXXXXXX.XL.L..XL.L.L.L.L.L.L.L.L.L.L.L.L.L.L.L.L.L.L.L.L.L.L.L.L.L.L.L.L.L.L.Y.XXY.Y.XXXXXXXXT.E.oXoXoXoXoXoXoXoXoXoXY.Y.R.L.K.K.S.S.S.K.Q.oXoXoX$X#XoXoXY.L.L.XXoX9XfXLXJXJXJXJXJXJXJXJXJXJXKXHXGXVXjX0X*X%X+Xx.o...~ Y P q L Q ^  . ...+.+.+.O.O.O.O.O.O.O.O.O.O.O.O.O.O.O.O.x.x.x.x.x.x.|.|.|.|..X.X.X.X+XXXXXoXOX%X&X&X&X&XoXXXL.o.@.E Y E E ! E ^ ^ ^ ^ ^ ^ @. . . . . .@.@.^ ~ ~ ! Y P q k P P R R R R R R R R R R R R E E E ] [ { h.S.S.G.D.D.f.f.p.p.p.p.{ { { { ",
"SXzXzXzXxXkXlXlXlXdXdX0X0X*X*X*X*X*X&X&X$X@X@XoXoXoXoXXXoXoXXXXX.X.X.X.X.XL.L.L.L.L.L.L.L.L.L.L.L.L.L.L.L.L.L.L.L.L.L.L.L.L.L.XX.XXXXXXXXXXXXXoXoXoX@X@X#X$X$X&X*X*X*X*X*XsXsXsXdXlXlXlXlXdXsX*X*X*X&X$XoXQ.L.K.K.L.O.O.O.K.FXJXJXJXJXJXJXJXJXJXJXKXLXCXCXkXdX0X0X0X9X&XOXOX+X+X.X|.O.+...^ / Y P q P R Q ~ ^  . . . .......+.+.+.+.+.+.+.O.O.O.O.O.x.x.x.x..X.X.X.X.X.XXXoXoX#X$X&X*X0X0XlXlXxXzXkXlX0X*XoXO...^ @.] ] .......... .@.@.^ ^ ~ ! R k k P R R R R R R E R R E ~ ] [ o.D.P.I.J.F.F.F.F.F.F.D.D.p.p.p.p.p.p.{ { { { ",
"SXSXzXzXzXxXlXlXlXlXdXdX0X0X*X*X*X*X&X&X&X$X$X@XoXoXoXoXoXoXoXXXXXXX.X.XL.L..X.XL.L.L.L.L.L.L.L.L.L.L.L.L.L.L.L.L.L.L..XL..X.XXXXXXXXXoXoXoXoXoX@X@X#X$X$X&X*X*X*X*XsXsXdXlXlXlXlXxXzXzXzXSXGXDXDXFXFXFXFXFXDXSXZXzXjX&XoXoXKXJXJXJXJXJXJXJXJXJXJXJXJXJXJXHXFXZXkX0X&XOXXX.X.XL.L..X.X.X.X|.O.O.O.O.O.+...^ ! Y P 0 q P R ~ ^ @. . . .......+.+.+.+.+.O.O.O.x.x.x.L.L.L..XXXoXoX#X&X*X*X*XlXlXlXxXzXAXGXFXKXJXKXKXLXVXjX*XoXh.[ ] ....] ^ ^ ~ ! R P P R ! E ! E ~ ] X.o.S.U.W.W.H.H.H.H.J.J.F.F.F.F.F.F.D.f.f.p.p.p.p.p.{ { { { ",
"GXSXSXzXzXxXlXlXlXlXdXdX0X0X0X*X*X*X*X&X&X&X$X$XoXoXoXoXoXoXoXoXXXXX.X.X.X.X.X.X.XL.L.L.L.L.L.L.L.L.L.L.L.L.L.L.L.L..XL.L..XXXXXXXXXoXoXoXoXoX$X$X$X$X&X*X*X*X*X0XsXdXlXlXlXlXxXzXzXSXGXDXFXFXHXKXJXJXJXJXJXJXJXJXKXKXDXlXlXKXJXJXKXCXCXLXLXLXLXKXLXLXLXLXLXDXDXSXVXkXjX0X0X8X&XoX.Xx.O.O.+.+...+.+.O.O.O.O.O.O.O.O.O.+...@.^ / Y P P Y E ~ ^ @. . .......+.+.+.x.x.x.L.L.XXXXoXoX$X&X*X*XsXlXlXxXzXGXFXHXJXJXJXJXJXJXKXHXFXGXzXlXsX*XoXQ.X.^ E R Y ~ ] X.o.K.Q./.^.W.^.^.^.^.^.W.H.H.H.H.I.J.G.G.F.F.F.D.f.p.p.p.p.{ { { { { { ",
"GXGXSXzXzXzXlXlXlXlXlXdXdXdX0X0X*X*X*X*X*X&X$X$X$XoXoXoXoXoXoXoXXXXXXXXXXXXX.XL..X.XL.L.L.L.L.L..XL.L.L.L.L.L.L.L.L..X.XXXXXXXXXoXoXoXoXoX@X@X$X#X$X&X*X*X*X0X0XdXdXlXlXlXlXxXzXzXGXGXFXFXHXKXJXJXJXJXJXJXJXJXJXJXJXJXKXSXxXJXJXJXJXzXlXdX0X#X&XL.j..X+X+XoXoXoXOX&X&X&X&X&X&X&XOXOXOXoX+X+X.X.X.XO.O...............+.O.O.O.O.O.O.O.O.+...@.^ ! Y Y P Y E ^ @.....+.o.O.x.x.L..XoXoX$X&X*X*XlXlXxXzXGXFXKXJXJXJXJXJXJXJXKXFXFXGXZXzXxXlXlXlX0X&XoXoX#X#X#X(.(.(.(.(.^.(.(.^.^.^.W.W.W.H.H.H.G.F.G.D.D.D.D.p.p.p.p.p.{ { { { [ } ",
"GXGXSXSXzXzXzXkXlXlXlXdXdXdXdX0X*X*X*X*X*X&X&X$X$X$XoXoXoXoXoXoXoXoXXXXXXXXX.X.X.X.X.X.X.XL.L..X.X.X.XL.L.L.L.L.L..XXXXXXXXXXXoXoXoXoXoX@X@X$X$X$X&X*X*X*X*X0XsXdXdXlXlXlXkXzXzXAXGXFXFXHXKXJXJXJXJXJXJXJXJXJXJXJXJXJXJXFXzXKXJXJXJXKXHXLXDXVXkXOXO.+.+.+. . . .| | |  .+.+.+.+.+.O.{.{.|..X.X.X.X.X.X.X.Xj.O.O.O.O.+.................+.O.O.O.O.O.O.O.+.....^ ^ ! E T ! ^ ] X.O.x.L.Q.oX%X*X0XlXzXZXDXHXJXJXJXJXJXJXJXJXJXKXHXFXDXGXSXzXlXlXlX0X*X&X&X$X#X#X#X(.(.(.(.(.(.^.^.^.W.W.H.H.J.J.F.D.D.D.D.D.p.p.{ s.{ ' r.1.1.2.1.r.",
"DXGXSXSXZXZXzXkXkXlXlXjXdXdXdXdX0X0X0X*X*X&X&X&X$X$X$XoXoXoXoXoXoXoXoXoXXXXX.X.X.XL.L..X.X.X.XL.L..X.X.XL.L..XL.XXXXXXXXXXoXoXoXoXoXoX@X@X$X$X$X$X&X*X*X*X*XsXdXdXlXlXlXxXzXzXAXGXDXFXFXKXJXJXJXJXJXJXJXJXJXJXJXJXJXJXJXKXGXKXJXJXJXJXJXJXJXJXJXJXJXLXCXNXiX;X.X+. .| | | | | | | | | | | | |  . .+.+.+.O.O.O.O.O.O.O.O.O.O.O.O.O.O.+.X.................+.O.j.O.O.O.O.O.X.....] @.@.@.] o.L.oX*XjXzXGXHXJXJXJXJXJXJXJXJXJXJXJXJXJXKXKXKXLXlXdXdX0X*X*X*X*X#X#X#X(.(.(.(./.W.W.W.W.H.J.J.F.F.D.D.p.p.' s.' D C 3.3.3.3.3.4.3.2.1.",
"DXDXGXSXAXZXzXzXkXkXlXlXlXdXdXdX0X0X0X*X*X*X&X&X&X$X$XoXoXoXoXoXoXoXoXoXXXXXXXXX.X.X.XL..X.X.X.X.X.X.X.X.X.X.XXXXXXXXXXXXXoXoXoXoXoXoX@X#X$X#X#X&X*X*X*X*X0XsXdXlXlXlXlXzXzXzXGXGXFXFXKXJXJXJXJXJXJXJXJXJXJXJXJXJXJXJXJXJXKXJXJXJXJXJXJXJXJXJXJXJXJXJXJXJXJXJXJXJXLXCXjXpX8X+X{.+.| | | U U U U U U U U U | | | |  .+.+.+.+.+.O.O.O.O.O.O.O.O.O.O.O.O.O.o...........X.o.O.L..XXXXXXXoXoXXX.XXXXXXXoX&X0XBXLXKXJXJXJXJXJXJXJXJXJXJXJXJXJXHXSXkXjX0X5X*X*X&X#X#X#X(.(.(./.W.W.H.H.J.F._._.s.s.r.s.2.1.1.4.2.1.G 3.3.3.4.4.4.3.3.2.",
"FXDXGXGXSXAXZXZXkXkXkXlXlXjXjXdXdXdX0X0X0X*X*X&X&X$X$X$X$XoXoXoXoXoXoXoXoXXXXXXXXX.XXX.X.X.X.X.XL..X.X.X.X.X.XXXXXXXXXXXoXoXoXoXoXoX@X@X#X$X&X&X*X*X*X*X*XsXsXdXlXlXlXxXzXzXAXGXDXFXHXKXJXJXJXJXJXJXJXJXJXJXJXJXJXJXJXJXJXJXJXJXJXJXJXJXJXJXJXJXJXJXJXJXJXJXJXJXJXKXFXFXGXSXZXzXkXkXpX9XOX+X|.{. .| | U U U U U U U | U | | | | |  .+.+.+.+.+.+.O.O.O.O.O.j.L.L.L.L..XL.L.L.L.L.L.Y.XXoX&XjXCXLXLXHXJXJXKXKXKXJXJXJXJXJXJXJXJXJXKXKXHXDXVXlXIX0X5X%X%X#X@XE.W.W.W.W.H.J._.s.s.y.F 1.4.4.4.3.2.3.4.3.4.N.4.1.Z 4.4.3.4.4.4.3.3.2.",
"FXDXGXGXSXAXZXZXkXkXkXkXjXjXjXfXdXdXdX0X0X0X9X9X8X&X&X&X&X$XOXOXOXoXoXoXoXoXXXXXXXXXXXXXXXXX.X.X.XXX.XXX.X.XXXXXXXXXXXoXoXoXoXoXoXoX@X$X$X$X&X&X*X*X*X*XsXsXsXdXlXlXlXxXzXzXAXGXDXFXHXKXJXJXJXJXJXJXJXJXJXJXJXJXJXJXJXJXJXJXJXJXJXDXZXAXSXGXGXGXLXLXLXLXLXLXLXFXDXGXSXSXzXzXxXkXlXlXlXdX0X0X*X*X&X&XOXOX+X|.{.{.+.| | | | | | | | | | | | | |  .+.+.+.O.O.O.O.O.O.L.L.L.XXoXOX&X&X9XdXjXlXjXVXLXLXJXJXJXJXJXJXJXJXJXJXJXJXHXGXzXlXsX*X#XoXoXoXoXQ.L.Q.Q.P.D.p.s.s.1.3.3.3.3.3.5.3.3.N.4.N.5.5.4.4.2.N.N.A.A.<.4.4.4.4.N.N.4.3.4.",
"FXDXGXGXSXAXZXZXVXkXkXkXkXlXjXjXfXdXdX0X0X0X9X9X8X8X&X&X&X&X&X$X$XOXOXOXOXOXoXoXoXoXoXXXXXXXXXXXXXXXXX.XXXXXXXXXXXXXoXoXoXoXoXoXoX$X@X$X&X$X&X&X*X*X*X0XsXsXdXlXlXlXlXxXzXzXAXGXFXFXKXJXJXJXJXJXJXJXJXJXJXJXJXJXJXJXJXJXJXKXHXHXAXsXsXsXsXsXsXsXsXsXsXsXsXsXsXsXsXsXsXsXsX*X*X*X*X*X*X*X&X&X$X$X$X$X$X$XoXoXoXoXXXXX+X.X.X{.{.+.+.+.+. . . . . . . . .+.+.+.O.O.O.O.{..X.X.XXXXXoX&X*XdXkXSXHXKXJXJXJXJXJXJXJXJXJXJXJXJXJXJXKXFXAXlXsX#XI.h.{ ] } W N M C C <.3.3.-.5.5.N.5.N.N.2.N.N.5.N.5.4.4.4.d.A.`.A.A.1.N.N.4.5.N.N.4.3.N.",
"FXFXDXDXSXAXZXZXVXVXVXkXkXjXjXjXjXfXfX0X0X0X0X9X9X8X8X8X8X8X8X<X$XOXOXOXOXOXOXOXOXOXOXoXOXOXOXoXoXoXoXoXXXoXoXoXoXoXoXoXoXoXoXoX$X$X$X$X&X&X*X*X*X*X*X0XsXdXdXlXlXlXlXxXzXAXGXDXFXFXKXJXJXJXJXJXJXJXJXJXJXJXJXJXJXJXJXJXJXHXzXAXlXsXsX*X*X#X#X(./.^.T.T.Y.P.P.Y.T.T.@X@X@X@X/./././.E.E.T.T.T.T.T.XXXXY.XXXXXXXXXXXXXXY.L.L.L.L.L.L..X.Xj.O.O.O.O.{.{.{.UXO.|.|.O.O.O.O..X.XXXoXoXOXOX$X&X0XkXSXKXJXJXJXJXJXJXJXJXJXJXJXJXJXKXLXZXlX*X#XE.E.I.P.S.h.M G <.Z 3.5.5.5.N.N.V.N.V.V.4.V.5.5.N.N.N.4.N.A.'.'.`.`.3.N.N.N.N.N.N.5.3.N.",
"FXFXDXDXSXAXZXZXVXVXVXkXkXkXjXjXjXjXfX0XpX0X0X9X9X9X7X8X8X8X8X8X<XOX$XOXOXOXOXOXOXOXOXOXOXOXOXOXOXOXOXOXOXOXOXOXOXOXOXOXOXOXOX$X$X$X&X&X&X&X&X*X*X*X0X0XdXlXlXlXlXlXlXzXzXSXGXDXFXFXKXJXJXJXJXJXJXJXJXJXJXJXJXJXJXJXJXJXJXFXzXGXHXHXDXSXzXlXlXsX#X/.T.Y.R.R.R.K.R.K.K.K.j.j.j.j.j.j.j.j.j.j.K.K.P.P.R.R.P.K.K.K.K.K.K.L.L.L.L.L.K.K.L.L.L.L.R.R.L.R.R.Y.XXY.XXoXoX$X&X$X&X$X$XoXoXoXoXoXXXXXL.R.oX&XpXNXCXLXKXJXJXJXJXJXJXJXJXJXHXFXAXlXsX*XU.{ ( ( G 3.4.3.5.5.N.V.V.V.V.V.V.V.4.V.5.N.N.V.N.A.N.'.'.'.'.'.2.V.N.N.N.N.N.N.3.N.",
"FXFXFXDXGXSXZXZXVXVXVXkXkXkXjXjXjXjXfXfXfXpX0X0X9X9X7X7X8X8X8X8X<X<X<X<X;XOXOXOXOXOXOXOXOXOXOXOXOXOXOXOXOXOXOXOXOXOXOXOXOX$X$X$X&X&X&X&X*X*X*X*X0X0XdXdXdXlXlXlXlXlXxXzXzXAXGXDXFXHXKXJXJXJXJXJXJXJXJXJXJXJXJXJXJXJXJXJXJXHXzXGXJXJXJXJXJXKXKXHXHXDXzXlXsX*X$XoXY.Y.R.R.j.j.j.j.j.j.j.j.h.h.j.j.j.j.h.h.h.h.j.h.j.j.j.j.j.j.j.j.j.j.j.j.j.L.K.K.K.K.R.Y.Y.T.XXoX@X#X&X*X*XsXdXlXlXxXzXzXzXBXBXjXpX7X8X$XoXXXY.XX$X8X*X0X0XdXdXdXdXsXsX*X*X*X(.G.s y Z 4.5.2.N.V.V.V.V.V.V.V.V.V.5.V.V.V.V.V.N.N.`.[.[.[.'.'.4.V.V.N.N.V.N.N.4.N.",
"FXFXDXDXGXSXZXZXZXVXVXkXBXkXjXjXjXjXjXfXfXpXpX0X0X9X9X7X7X7X8X8X8X8X8X<X;X;XOXOXOXOXOXOXOXOXOXOXOXOXOXOXOXOXOXOXOXOX;XOX$X$X$X&X&X&X&X*X9X9X9X9X0X0XdXdXdXlXlXlXlXxXzXzXAXGXGXFXFXHXKXJXJXJXJXJXJXJXJXJXJXJXJXJXJXJXJXJXJXHXzXDXJXJXJXJXJXJXJXJXJXKXKXHXFXGXAXzXkXlXdX*X&X#XoXXXR.K.j.j.j.j.j.j.j.j.j.j.j.j.o.o.j.j.j.j.h.h.h.h.h.h.h.j.j.j.j.j.j.j.j.K.K.P.P.P.Y.T./.@X#X*XsXsXlXxXzXAXFXKXJXJXJXJXJXJXJXJXKXLXLXCXBXfX&XL.] ( W ( _ j.Y.#XlX*Xt d <.5.N.5.V.V.V.C.].].].V.Z.Z.N.V.Z.Z.V.V.5.N.'.[.].[.'.V.4.V.V.V.V.'.N.N.4.N.",
"FXFXDXDXGXSXZXZXZXVXVXVXkXkXjXjXjXjXjXfXfXfXpX0X0X9X9X7X7X7X8X8X8X8X8X8X<X8X;X;XOXOXOXOXOXOXOXOXOXOXOXOXOXOXOXOXOX;X;X<X$X$X$X8X&X&X8X9X9X9X9X0X0X0XdXdXjXjXlXkXkXzXzXZXAXGXGXFXFXHXKXJXJXJXJXJXJXJXJXJXJXJXJXJXJXJXJXJXJXKXGXDXJXJXJXJXJXJXJXJXJXJXJXJXKXHXFXDXGXAXzXxXlXdXdX0X*X&X$X$XoXXXXXXXY.Y.L.L.j.j.j.j.j.j.j.j.O.j.j.j.j.j.h.h.h.h.h.h.h.h.h.h.j.g.g.g.P.P.P.U.U.T.~./.(.*XsXlXxXSXFXHXJXJXJXJXJXJXJXJXJXJXJXJXJXJXKXLXCXNX0XoXdXAXGX*Xd A 3.5.V.5.V.Z.C.C.C.C.C.Z.C.C.N.V.].V.V.V.A.`.].].].[.'.V.4.V.V.V.'.'.'.N.4.N.",
"FXFXDXDXGXSXZXZXZXZXVXVXBXBXkXjXjXjXjXfXfXfXpXpX0X9X9X7X7X7X8X8X8X8X8X8X<X8X<X;X;XOXOXOXOXOXOXOXOXOXOXOX;X;XOX$XOXOX;X<X<X8X&X8X8X8X8X9X9X9X9X0X0XdXdXdXdXjXlXkXkXzXzXZXAXGXDXFXFXHXKXJXJXJXJXJXJXJXJXJXJXJXJXJXJXJXJXJXJXJXFXDXJXJXJXJXJXJXJXJXJXJXJXJXJXKXHXHXFXDXSXZXzXkXlXlXlXdXdX*X*X&X$X$X$X$X$XoXoXXXXXXX.XL.L.L.j.j.j.j.j.j.j.j.h.h.h.h.j.h.h.h.h.h.h.g.g.g.g.g.g.P.P.U./.(.(.#X*XsXsXlXzXSXLXKXKXJXJXJXJXJXJXJXJXJXJXJXJXJXJXKXFXGXGX(.d Z 5.N.V.5.Z.Z.C.C.C.C.C.Z.C.C.N.V.Z.V.V.V.5.'.].].].[.[.'.5.V.V.V.'.'.V.N.4.N.",
"FXFXDXDXGXGXSXZXZXVXVXVXBXBXkXjXjXjXjXjXfXfXpXpX0X0X0X9X7X7X8X8X8X8X8X8X8X8X3X;X<XOX$XOXOXOXOXOXOXOX;X;X;X;X$XOXOX<X<X8X8X8X8X8X8X8X9X9X0X0X0X0X0XdXdXfXfXjXkXkXkXzXZXAXSXGXDXFXFXHXKXJXJXJXJXJXJXJXJXJXJXJXJXJXJXJXJXJXJXJXHXFXJXJXJXJXJXJXJXJXJXJXJXJXJXJXKXHXFXFXGXSXZXzXkXkXlXlXdXdX0X*X*X*X*X&X&X$X$XoXoXoXoXoXXXXXXXXXXX.XL.L.L.L.K.K.K.K.j.j.j.j.j.j.j.j.g.g.g.g.g.g.g.g.g.P.P.P.!./.(.*XsXsXsXlXkXZXGXDXHXHXHXHXHXHXKXKXHXHXHXDXGXzXAXsXd ,.5.V.V.5.Z.C.C.C.C.C.].Z.C.C.N.Z.C.C.C.V.N.'.].].'.].[.'.5.V.V.V.'.'.V.V.5.N.",
"FXFXDXDXGXSXSXZXZXVXVXVXBXkXkXjXjXjXjXjXfXfXpXpXpXiX9X9X7X7X8X8X8X8X8X8X8X8X8X;X;X;XOXOXOXOX;X;XOX;X;X;XOX;XOXOXOX<X8X8X8X8X8X8X8X7X9X9X0X0X0X0X0XdXfXfXfXjXkXkXzXzXZXAXSXGXDXFXHXHXKXJXJXJXJXJXJXJXJXJXJXJXJXJXJXJXJXJXJXJXKXFXJXJXJXJXJXJXJXJXJXJXJXJXJXJXJXKXHXFXDXGXAXZXzXzXkXlXlXdX0X0X0X0X0X*X*X&X&X$X$X$X$XoXoXoXoXoXoXoXXXXXXXXXXXXXoXoXXXoXXXXXT.XXXX@X@X@XT.T.T.T.T.U.U.U.U.U.!.!.!.^.(.(.(.(.(.(.#X*XsXsXsXsXsXsXsXsXsXsXsXsXsXsXcX(.h <.5.V.V.5.C.C.C.C.C.C.C.Z.C.C.V.Z.C.C.C.Z.V.].].].].].].'.5.V.V.V.V.V.V.V.4.V.",
"FXFXDXDXGXSXSXZXZXZXVXVXBXkXkXkXjXjXjXjXfXfXpXpXpXpX0X9X7X7X7X8X8X8X8X8X8X8X8X8X<X;XOXOXOXOX;X;X;X;X;X;XOX;XOX$X$X<X8X8X8X8X8X8X7X7X9X9X0X0X0X0X0XdXfXfXfXfXjXkXzXZXZXZXSXGXDXFXFXHXKXJXJXJXJXJXJXJXJXJXJXJXJXJXJXJXJXJXJXJXKXHXJXJXJXJXJXJXJXJXJXJXJXJXJXJXJXKXHXFXDXGXSXAXZXzXzXkXlXjXdXdXdXdX0X0X9X&X&X&X&X$X$X$XOXoXoXoXoXoXoXoXoXoXoXoX#X$X$X#X#X#X$X$X$X*X*X*XsX*XsXsXsXsXsXlXlXxXzXzXxXlXlXlXsXsXsXsX*X#X(.(.(.(.(.^.^.).).).).)._.sXFX*Xh <.5.V.'.5.C.C.C.C.C.C.C.Z.C.C.N.C.C.Z.C.C.V.].].].].].].'.5.V.V.V.V.V.'.V.4.V.",
"FXDXDXDXGXSXZXZXZXZXVXVXVXBXkXkXjXjXjXjXfXpXpXpXpXpXiX0X9X7X7X7X8X8X8X8X8X8X8X8X<X<X<XOXOXOXOX;X<X<X<X;XOX;X;X;X;X8X8X8X8X8X8X8X7X9X9X9X0X0X0X0XfXfXdXfXfXdXjXkXVXZXZXZXSXGXGXFXFXHXKXJXJXJXJXJXJXJXJXJXJXJXJXJXJXJXJXJXJXJXJXHXJXJXJXJXJXJXJXJXJXJXJXJXJXJXJXKXHXHXFXGXGXAXZXZXzXkXlXjXdXdXdXdXdX0X0X9X*X&X&X&X$X$XOXOXOXOXOX$XOXoXoXoX$X$X$X$X$X$X&X&X&X*X*X*XsXsXlXlXlXlXxXxXzXzXGXDXFXKXKXKXKXKXKXKXKXKXKXHXHXDXAXkXlXsX*X(.(.^.^.).(.AXGX) C 2.5.Z.[.N.C.C.C.C.C.C.C.C.C.C.V.C.Z.Z.C.C.N.].].].].].].'.5.Z.V.V.V.'.[.V.4.V.",
"DXDXDXDXGXSXZXZXZXVXVXVXBXBXBXkXjXjXjXjXjXfXpXpXpXpXiX0X9X9X7X7X7X8X8X8X8X8X8X8X<X<X8X<XOXOX;X;X8X<X<X;X;X;X<X8X8X8X8X8X8X8X8X7X9X9X9X0X0X0X0X0XfXfXdXdXdXdXdXjXkXZXZXSXSXGXDXFXFXHXKXJXJXJXJXJXJXJXJXJXJXJXJXJXJXJXJXJXJXJXJXHXJXJXJXJXJXJXJXJXJXJXJXJXJXJXJXKXHXHXFXDXGXSXAXZXzXkXkXlXjXfXfXfXdXdX0X9X9X9X&X&X&X$X$X$X$X$X$X$XOX$X$X$X$X$X$X&X&X&X&X*X*X*X*XsXdXlXlXlXlXxXzXzXAXGXFXHXKXJXJXJXJXJXJXJXJXJXJXJXJXJXJXKXKXHXFXGXzXxXlXsXH.u.*XD G 4.5.Z.C.N.C.C.C.C.C.C.C.C.C.C.V.C.Z.Z.C.C.N.].].].].].].'.5.Z.Z.Z.V.'.[.V.5.V.",
"DXDXDXGXGXSXZXZXZXZXVXVXVXBXBXkXjXjXjXjXjXfXpXpXpXpXpX0X0X9X7X9X7X7X8X7X8X8X8X8X8X8X8X;XOXOXOX8X8X8X;X;X;X<X<X8X8X8X8X8X8X8X7X7X9X9X0X0X0X0X0XpXfXdXdXdXdX0XfXjXkXVXZXAXSXDXFXFXFXHXKXKXJXJXJXJXJXJXJXJXJXJXJXJXJXJXJXJXJXJXJXHXJXJXJXJXJXJXJXJXJXJXJXJXJXJXJXKXHXHXFXDXGXSXAXZXVXkXkXjXjXjXjXjXfXfXdX0X9X9X8X8X&X&X$X$X$X$X$X$X$X$X$X$X$X$X&X&X&X&X&X*X*X*XsXdXlXlXlXlXxXxXzXAXGXGXFXHXJXJXJXJXJXJXJXJXJXJXJXJXJXJXJXJXJXJXJXHXFXGXAXlX!.p.*XA G 4.V.Z.C.5.C.C.C.C.C.C.C.C.C.C.V.C.Z.Z.C.Z.N.].C.].].].].V.5.Z.Z.Z.V.'.[.V.5.V.",
"DXDXDXGXSXSXZXZXZXZXVXVXVXBXBXkXjXjXjXjXjXjXpXpXpXpXiXiX0X9X9X7X7X7X7X7X8X8X8X8X8X8X8X;XOX;X8X8X8X8X;X3X8X8X8X8X8X8X8X8X8X8X7X7X7X9X0X0X0X0XpXpXfXfXdXdXdXdXfXfXkXkXZXAXSXGXDXFXFXHXHXKXKXJXJXJXJXJXJXJXJXJXJXJXJXJXJXJXJXJXJXHXJXJXJXJXJXJXJXJXJXJXJXJXJXJXJXKXHXHXFXDXGXGXAXZXZXzXkXkXjXjXjXjXjXfXfX0X0X9X9X8X8X&X$X$X$X$X$X$X$X$X$X$X$X&X&X&X*X*X*X*X0X0XdXdXlXlXlXkXxXzXzXAXGXDXFXKXJXJXJXJXJXJXJXJXJXJXJXJXJXJXJXJXJXJXJXJXHXFXGXxXU.k.*XA <.N.V.Z.C.5.C.C.C.C.C.C.C.C.C.C.V.].Z.Z.C.Z.N.].].].].].].V.5.Z.Z.Z.V.[.'.V.5.V.",
"DXDXDXGXSXZXZXZXZXVXVXVXBXBXBXkXjXjXjXjXjXjXfXpXpXpXpXiXiX9X9X7X7X7X7X7X7X7X8X8X8X8X8X;X;X;X8X8X8X8X8X3X8X8X8X8X8X8X8X8X8X7X7X7X7X9X0X0XpXpXpXpXfXdXdXdXfXfXfXfXjXkXZXAXSXGXDXFXFXFXHXHXKXJXJXJXJXJXJXJXJXJXJXJXJXJXJXJXJXJXJXFXJXJXJXJXJXJXJXJXJXJXJXJXJXJXJXKXHXHXFXDXGXSXAXZXZXVXkXkXjXjXjXjXjXfXfXfX0X9X9X8X8X&X&X&X$X8X&X&X$X$X&X&X$X&X&X*X9X9X9X*X0X0XdXdXlXlXkXxXxXzXzXAXGXDXFXKXJXJXJXJXJXJXJXJXJXJXJXJXJXJXJXJXJXJXJXJXKXFXDXxX^.F.sX2.4.`.V.Z.].5.C.C.C.C.C.C.C.C.C.C.V.C.C.C.C.Z.N.].].].V.].].'.5.Z.V.Z.V.[.V.V.4.V.",
"DXDXGXGXSXZXZXZXZXVXVXVXBXBXBXjXjXjXjXjXjXfXpXpXpXpXpXiXiX9X9X7XwX7X7X7X8X8X8X8X8X8X8X<XOX;X8X8X8X8X8X8X8X8X8X8X8X8X8X8X8X7X7X7X9X9X0X0X0XpXpXpXfXfXfXfXfXfXfXfXjXkXVXZXSXGXDXFXFXFXFXHXKXJXJXJXJXJXJXJXJXJXJXJXJXJXJXJXJXJXJXDXJXJXJXJXJXJXJXJXJXJXJXJXJXJXKXHXHXFXFXDXGXSXAXZXZXkXkXkXjXjXjXjXjXjXfXfX0X0X9X9X8X8X8X8X8X8X&X&X8X8X&X&X&X&X&X*X9X0X0X0X0XdXdXdXlXkXkXxXxXzXzXAXGXDXFXKXJXJXJXJXJXJXJXJXJXJXJXJXJXJXJXJXJXJXJXJXKXFXFXxX^.).sXA.N.'.V.C.].5.C.C.C.C.C.C.C.C.C.C.V.].].C.C.V.N.].C.C.].].].V.5.Z.V.Z.Z.V.V.V.5.V.",
"DXDXGXGXSXAXZXZXVXVXVXVXVXBXBXBXjXjXjXjXjXfXfXpXpXpXpXiXiXiXiXwX7X7X7X7X8X8X8X8X8X8X8X<XOX;X8X8X8X3X8X8X8X8X8X8X8X8X8X8X7X7X7X7X9X0X0X0XpXpXpX0XfXfXfXfXfXfXfXjXjXkXkXZXAXGXDXDXFXFXFXHXKXJXJXJXJXJXJXJXJXJXJXJXJXJXJXJXJXJXJXDXJXJXJXJXJXJXJXJXJXJXJXJXJXJXKXHXHXFXFXDXGXAXAXZXZXVXkXkXjXjXjXjXjXjXfXfX0X0X0X9X7X8X8X8X8X8X8X&X8X8X8X&X&X&X&X9X0X0X0X0X0XdXdXdXlXlXkXxXzXzXzXAXGXDXFXHXJXJXJXJXJXJXJXJXJXJXJXJXJXJXJXJXJXJXJXJXKXHXFXxX(.).sXA.`.`.V.C.].5.C.C.C.C.C.C.C.C.C.C.V.C.].C.Z.].N.].].].].].].V.5.Z.Z.Z.Z.Z.Z.V.5.V.",
"DXDXGXSXGXAXZXZXZXVXVXVXVXBXBXBXjXjXjXjXjXjXfXfXpXpXpXiXpXiXiXiXwX7X7X7X7X8X8X8X8X8X8X8X;XOX8X8X8X8X8X8X8X8X8X8X8X8X8X8X7X7X9X9X9X0X0X0XpXpXdXfXfXfXfXfXjXjXjXjXjXkXkXZXAXSXDXDXFXFXFXFXHXKXJXJXJXJXJXJXJXJXJXJXJXJXJXJXJXJXJXGXJXJXJXJXJXJXJXJXJXJXJXJXJXKXKXHXHXFXDXDXGXAXZXZXZXVXkXkXjXjXjXjXjXjXjXfX0X0X0X9X7X8X8X8X8X8X8X8X8X8X8X8X&X&X9X9X0X0X0X0X0XdXdXlXkXlXkXxXzXzXzXAXGXDXFXHXJXJXJXJXJXJXJXJXJXJXJXJXJXJXJXJXJXJXJXJXKXFXFXxX/.).sXA.V.`.V.Z.C.N.C.C.C.C.C.C.C.C.C.C.V.Z.].].V.].N.].].].].].].V.5.Z.Z.Z.Z.Z.Z.V.5.V.",
"DXGXGXSXSXSXZXZXZXVXVXVXVXBXBXBXBXBXjXjXjXjXfXfXfXpXpXiXiXiXiXiXwX7XwX7X7X7X8X8X8X8X8X8X;X;X8X8X8X8X8X8X8X8X8X8X8X8X7X8X7X7X9X9X9X0X0X0X0XpXfXdXfXfXfXfXjXjXjXjXjXkXkXVXZXAXGXDXFXFXFXFXHXKXKXJXJXJXJXJXJXJXJXJXJXJXJXJXJXJXKXSXKXJXJXJXJXJXJXJXJXJXJXJXJXKXHXHXFXFXDXGXGXAXAXZXZXVXkXkXkXkXjXjXjXjXjXfXfX0X0X9X9X7X8X8X8X8X8X8X8X8X8X8X&X9X9X9X0X0X0X0X0XdXdXlXkXlXkXxXzXzXzXSXGXGXFXHXKXJXJXJXJXJXJXJXJXJXJXJXJXJXJXJXJXJXJXJXKXFXFXlX#X).sXd.V.`.V.Z.C.N.C.C.C.C.C.C.C.C.C.C.V.V.Z.Z.].].N.].].].V.].].V.N.V.Z.Z.Z.V.V.V.5.V.",
"DXGXSXSXZXZXZXZXVXVXVXVXVXBXBXBXjXjXjXjXjXjXfXfXfXpXpXiXiXiXiXiXwXwXwXwX7X7X7X8X8X8X8X8X<XOX8X8X8X8X8X8X8X8X8X8X8X8X7X7X7X7X9X9X9XiX0XpXpXfXfXfXfXfXfXfXjXjXjXjXjXkXkXVXZXAXGXGXFXFXFXFXHXHXHXKXJXJXJXJXJXJXJXJXJXJXJXJXJXJXKXSXKXJXJXJXJXJXJXJXJXJXJXJXKXHXHXHXFXFXDXGXGXSXZXZXZXVXkXkXkXkXjXjXjXjXjXjXfXpX0X9X9X9X7X7X8X8X8X8X8X8X8X8X&X*X9X0X0X0X0X0XdXdXdXlXkXlXkXxXxXzXzXzXAXGXDXFXKXJXJXJXJXJXJXJXJXJXJXJXJXJXJXJXJXJXJXJXKXFXFXlX#X).sXd.`.'.V.[.].N.C.C.C.C.C.C.C.C.C.C.N.].V.].C.].A.].V.'.].].].V.N.Z.Z.Z.V.V.V.V.5.V.",
"GXSXSXZXZXZXZXZXVXVXVXVXVXBXBXBXjXjXjXjXjXjXjXpXpXpXpXpXpXiXiXwXwXwX9X7X7X7X7X7X8X8X8X8X8X<X8X8X8X8X8X8X8X8X8X8X8X7X7X7X7X7X9X9X9X9X0XpXpXfXpXfXfXfXfXfXjXjXjXjXjXjXkXVXZXZXSXGXGXDXFXFXHXHXHXHXKXJXJXJXJXJXJXJXJXJXJXJXJXJXKXZXKXJXJXJXJXJXJXJXJXJXJXKXHXHXHXFXFXDXDXGXSXAXZXZXZXVXBXkXkXjXjXjXjXjXjXfXfXpX0X9X9X9X7X7X7X7X7X7X8X8X8X9X8X9X9X9X0X0X0X0XdXdXdXlXkXkXkXxXxXzXzXzXAXGXDXFXHXJXJXJXJXJXJXJXJXJXJXJXJXJXJXJXJXJXJXJXHXFXDXlX#X(.lXd.`.'.V.[.[.V.C.C.C.C.C.C.C.C.C.C.N.].].].V.].N.Z.C.].C.].].V.V.V.V.Z.V.V.V.V.5.V.",
"GXSXSXZXZXZXZXZXVXVXVXVXVXBXBXBXBXjXjXjXjXjXfXfXpXpXpXpXiXiXiXiXiXwX9XwX7X7X7X7X8X8X8X8X8X8X8X8X8X8X8X8X8X8X8X7X7X7X7X7X7X7X9X9X9XiXiXiXpXpXfXfXfXfXfXfXjXjXjXjXjXkXkXkXVXZXAXGXGXDXDXFXFXFXHXHXKXKXJXJXJXJXJXJXJXJXJXJXJXJXKXZXKXJXJXJXJXJXJXJXJXJXKXKXHXHXFXFXFXDXGXGXAXAXZXZXVXVXBXBXjXjXjXfXfXfXfXfXfXpX0X0X9X9X9X9X9X7X7X7X7X8X8X9X9X9X9X0X0X0X0X0XdXdXdXlXlXkXkXkXxXzXzXzXAXGXGXFXHXKXJXJXJXJXJXJXJXJXJXJXJXJXJXJXJXJXJXKXHXFXDXlX#X(.sXA.`.'.V.C.[.0.C.C.C.C.C.C.C.Z.C.C.V.C.].].C.'.N.C.].C.].C.].V.V.V.V.V.V.V.V.V.-.V.",
"SXSXSXZXZXZXZXZXVXVXVXVXBXBXjXBXjXjXjXjXjXfXfXfXpXpXpXpXiXiXiXiXiXwXwXwX7X7X7X7X8X8X8X8X8X8X8X8X8X8X8X8X8X8X6X8X7X8X7X7X7X7X9X9X0XiX0XiXpXpXpXfXfXfXfXjXjXjXjXjXkXkXkXVXVXZXAXSXGXGXDXFXFXFXHXHXHXKXJXJXJXJXJXJXJXJXJXJXJXJXKXZXKXJXJXJXJXJXJXJXJXKXKXHXHXHXFXFXDXGXGXSXAXZXZXZXVXVXkXkXkXjXfXfX0X0X0X0X9X9X9X9X9X9X9X9X9X9X9X9X7X7X7X9X9X9X0X0X0X0X0X0XdXdXdXlXlXlXkXkXkXxXzXzXAXGXGXFXFXKXJXJXJXJXJXJXJXJXJXJXJXJXJXJXJXJXJXKXFXFXDXlX#X(.sXd.`.'.V.[.C.5.C.C.C.C.C.C.C.Z.C.C.V.'.C.C.].C.4.C.C.C.C.C.[.V.V.V.V.V.V.V.V.V.5.V.",
"SXSXZXZXZXZXZXVXVXVXVXVXBXkXkXjXBXBXjXjXjXjXfXpXpXpXpXpXiXiXiX9XiXwX7X7X7X7X7X8X8X8X8X8X8X8X8X8X8X8X8X8X8X6X6X8X8X7X7X7X7X7XiXiXiXiX0XpXpXpXfXfXfXfXfXfXjXjXjXkXkXkXBXVXVXZXZXAXGXGXDXDXFXFXFXHXHXHXKXKXJXJXJXJXJXJXJXJXJXJXKXVXLXJXJXJXJXJXKXKXKXKXHXHXHXHXFXFXDXGXGXAXZXZXkXVXVXVXkXkXjXfX&X&X9X&X&X$XoX.X$X7X8X9X9X9X9X9X9X9X9X9X9X9X9X9X0X0X0X0X0X0XdXdXdXdXlXlXlXkXkXzXzXzXZXAXGXDXFXHXKXJXJXJXJXJXJXJXJXJXJXJXJXJXJXJXKXHXFXDXGXlX(.(.sXd.d.'.V.[.[.N.C.C.C.C.C.C.C.Z.C.C.N.].V.V.].].4.C.C.C.Z.C.C.N.V.V.V.V.V.V.V.V.5.'.",
"SXSXZXZXZXZXVXVXVXVXBXBXBXBXBXjXjXjXjXjXjXfXfXpXfXfXpXpXpXpXiXiXiXwX7X7X7X7X7X7X8X8X8X8X8X&X8X8X8X8X8X8X8X7X7X8X8X7X7X7X7X9XwXiX0X0X0XiXpXpXfXfXfXfXfXfXjXjXkXkXkXkXkXBXVXZXZXAXSXGXGXDXDXFXFXFXHXHXHXKXKXJXJXJXJXJXJXJXJXJXHXVXLXJXJXKXKXKXKXKXHXHXHXFXFXFXFXDXGXSXSXAXVXkXdXjXkXkXjXjXjX0XoXoX&X$X$XL.X.o.X.OX&X8X7X9X9X9X9X9X9X9X9X9X9X9X9X0X0X0X0X0XdXdXdXdXlXlXlXkXkXxXzXzXzXAXGXDXFXFXHXKXJXJXJXJXJXJXJXJXJXJXJXJXJXKXKXHXFXDXGXdX@X(.sXA.d.'.V.[.[.N.C.C.C.C.C.C.C.Z.C.C.N.].V.'.].].4.].].C.C.C.[.N.V.V.V.V.V.V.V.V.4.'.",
"SXSXZXZXZXVXZXVXVXVXBXBXBXBXBXBXjXjXjXjXjXfXfXfXfXpXpXpXpXiXiXiXiXiXwX7X7X7X7X7X7X8X8X8X8X8X8X8X8X8X8X8X8X7X7X8X7X7X7X7X7X7XwXiXiX0XpXpXpXpXpXfXpXpXfXfXfXjXkXkXBXkXkXBXVXVXZXZXAXSXGXDXDXFXFXFXFXHXHXHXHXKXKXJXJXJXJXJXJXJXHXVXLXKXKXKXHXHXHXHXHXHXHXFXFXFXDXGXGXZXVXZXkXdX#X$X*XdXdXfXdX9XoXo.oX&XoXL.^ N N ..OX$X8X7X9X9X9X9X9X9X9X9X9X9X9X0X0X0X0X0XdXdXdXlXlXlXlXkXkXkXxXzXzXAXAXGXDXFXHXHXKXJXJXJXJXJXJXJXJXJXJXJXJXKXHXFXFXGXGXdX/.(.sXd.d.`.`.[.[.N.C.C.C.C.C.C.C.Z.C.C.N.].].].Z.C.4.].C.Z.C.].[.N.V.V.V.V.V.V.V.V.4.'.",
"ZXZXZXZXZXVXVXVXVXVXBXBXBXBXBXBXjXjXjXjXjXfXfXfXfXfXpXpXpXpXpXiXiXiXwX7X7X7X7X7X7X7X8X8X8X8X8X8X8X8X8X8X8X8X7X7X7X7X7X7X7X7X9X0X0XiXiXpXpXpXpXpXfXfXfXfXfXjXjXkXkXkXkXBXVXVXZXZXAXSXGXGXDXDXFXFXFXFXHXHXHXHXKXKXKXJXJXJXJXJXHXVXDXHXHXHXHXHXHXHXFXFXFXFXFXDXGXGXSXZXZXlXkX0XY.o.h.$X$XXX$XoXXXoXoX$XXXo._ N T W o.OXOX$X9X9X9X9X9X9X9X9X9X9X9X0X0X0XdXdXdXdXdXdXjXlXkXkXkXkXkXzXzXzXAXGXGXFXFXHXHXKXKXJXJXJXJXJXJXJXJXKXKXHXFXFXDXGXGXdX/.(.sXA.d.`.V.[.[.N.].C.C.C.C.C.C.Z.C.C.V.].].].V.Z.2.].].Z.[.[.'.N.V.V.V.V.V.V.V.V.4.'.",
"ZXZXZXVXZXVXVXVXVXVXBXBXBXkXBXBXjXjXjXjXjXfXfXfXfXfXpXpXpXiXiXiXiXiXwXwX7X7X7X7X7X8X8X8X8X8X8X8X6X8X8X8X8X7X7X7X7X7X7X7XwX9X9X9X9XiXiXpX0XpXpXpXpXfXfXfXjXjXjXjXkXkXkXBXVXVXVXZXZXAXSXGXGXDXDXFXFXFXFXHXHXHXHXKXKXKXJXJXJXJXHXBXGXHXHXHXHXFXFXFXFXFXFXFXDXDXGXAXZXkXkXlXlX0XP.X.o.] o.X.W j.L.L.&X$Xj._ W T Y _ X.j.oXoX$X9X9X9X9X9X9X9X9X0X0X0X0X0X0X0XdXdXdXdXjXlXlXkXlXkXkXxXzXzXAXAXGXDXFXFXHXHXHXKXKXJXJXJXJXKXKXHXHXFXFXFXDXGXGXsX@X(.sXd.d.`.N.'.[.N.].].C.C.C.C.C.Z.C.C.`.[.].].'.Z.2.].].Z.C.[.[.N.V.V.V.V.V.V.V.V.5.'.",
"ZXZXZXVXVXVXVXVXVXVXBXBXBXjXjXjXjXjXjXjXjXfXfXfXfXpXpXpXpXiXiX9XiXiXiXwX7XwX7X7X7X7X8X8X8X8X8X8X8X8X8X6X6X7X7X7X7X7X7X7X7X9XiX9X9XiXiXpXpXpXpXpXfXfXfXfXfXjXjXjXkXkXkXBXVXVXVXZXZXZXAXSXGXDXDXDXFXFXFXFXHXHXHXHXHXKXKXKXJXKXHXBXSXFXFXFXFXFXFXFXFXFXFXDXDXGXGXAXZXkXdX&X&X&XXXX._ ] f _ ^ ...XL.j.j.o._ T _ W f ..o.L.oXOX<X9X9X9X9XuXiX0X0X0X0X0X0X0X0XfXdXdXdXdXjXlXlXlXkXkXkXxXzXzXAXGXGXFXFXFXFXFXHXHXKXKXHXHXHXHXHXFXFXFXDXGXGXAXsX/.(.sXd.d.`.N.'.[.N.].].C.C.].C.Z.Z.C.C.`.'.].V.].V.4.].].Z.V.[.'.4.V.V.V.V.V.V.V.V.-.V.",
"ZXZXZXVXVXVXVXVXVXBXBXBXBXBXBXjXjXjXjXjXjXfXfXfXfXpXpXpXpXpXpX9XiXiXiXiXwX7X7X7X8X8X8X8X8X8X8X8X8X8X7X7X7X6X7X7X7X7X7X7X7X9XiXiX9XiX0XpXpXpXfXfXfXfXfXfXfXfXjXjXjXkXkXBXVXVXVXVXZXZXZXSXSXGXGXDXDXFXFXFXFXHXHXHXHXHXHXHXKXKXFXBXSXFXFXFXFXFXFXFXFXFXDXGXGXAXZXZXjX*X@XXXj.oXj.X.T W f 7 f f X.o.j.h._ W T q T f ^ o.O.j.OX$X8X9X8XuXuXiX0X0X0X0X0X0X0X0XdXdXdXdXdXlXlXlXlXlXkXkXkXzXzXAXGXGXDXDXFXFXFXFXFXHXHXHXHXFXFXFXFXFXFXGXGXGXAXsX@X(.sXd.d.`.V.'.[.N.].].].C.].].Z.Z.].].N.[.V.V.[.V.A.].].Z.C.V.'.4.V.V.V.V.V.V.V.V.-.V.",
"ZXZXVXVXVXVXVXVXVXBXBXBXBXBXBXjXjXjXjXjXjXfXfXfXfXfXpXpXpXpXiXiXiXiXiXiXwX7X7X7X7X8X8X8X8X8X8X8X8X8X7X7X6X7X7X7X7X7X7X7X7X9XiXiX0X0X0XpX0XpXfXfXfXfXfXfXfXfXfXjXjXkXkXBXBXVXVXVXZXZXZXSXSXSXGXDXDXDXDXDXFXFXHXHXHXHXHXHXHXHXLXBXSXFXFXDXDXDXDXDXDXDXGXAXZXzXdX&XR.g.o._ j.o.X.T T T q ; 5 f f f W ..W T T Y T T W ] o..X.XOX<X8X&X8X9XiXiX0X0X0X0X0XdX0XdXdXdXdXdXjXjXlXlXlXkXlXkXzXzXZXAXGXGXDXDXFXFXFXFXFXFXFXFXFXFXFXFXFXDXGXGXAXzX*X/.(.sXd.d.A.V.'.[.A.].].[.C.].C.C.C.`.].5.].5.].V.V.N.].].Z.Z.V.'.4.V.V.V.V.V.V.V.V.3.V.",
"ZXZXVXVXVXVXVXVXBXBXBXBXBXBXjXjXjXjXjXjXfXfXfXfXfXpXpXpXpXpXpXiXiXiXiXwXwX7X7X7X7X7X8X8X8X8X8X8X8X8X7X8X7X7X7X7X7X7X7X7X7X9XiXiX0XiXpXpXpXpXfXfXfXfXfXfXfXfXjXjXjXBXkXBXBXVXVXVXVXZXZXZXSXSXSXGXGXDXDXDXDXDXFXFXFXHXHXHXHXHXDXBXZXDXDXDXGXDXDXDXGXGXAXkX*XT.j.[ [ T f f N T _ Y f q q ; 6 T f 6 8 _ T q f T _ X..._ X.o.L.j.oXXXoXOX$X8X9X9X0X0X0X0XdXdXdXfXfXdXdXjXlXlXlXlXkXlXkXzXzXzXAXGXGXGXDXDXDXFXFXFXFXFXFXFXFXFXFXDXGXGXAXzXzX*XoX(.sXd.d.A.`.'.[.A.[.].V.C.].].Z.].].[.5.].].].V.V.4.].].Z.V.V.'.4.V.V.V.V.V.V.V.'.5.'.",
"ZXVXVXVXVXVXBXBXBXBXBXBXBXBXjXjXjXjXjXjXjXfXfXfXpXpXpXpXpXpXiXiXiXiXwXwXwX7X7X7X7X7X7X7X7X8X8X6X8X7X7X7X7X7X7X7X7X7X7X7X7X7X9XwX9X0X0XiXpXpXpXfXpXfXfXfXfXjXjXjXjXjXkXBXkXBXVXVXVXVXZXZXZXSXSXGXGXGXDXDXDXDXDXFXFXFXHXHXHXHXDXBXVXGXGXGXGXGXGXGXGXZXkX*XR.` f f ( N 9 7 8 8 f q 4 2 6 ; & 6 8 ; 6 q Y 0 q Y Y T ] W T T W ^ X.o.X.X.j.XXXXXX&X9X9X9X0X0XdXdXdXdXdXdXjXjXlXlXlXkXkXzXzXzXAXAXGXGXGXGXGXDXDXDXFXFXDXDXDXDXDXGXGXGXAXzXzX*XT.(.sXd.d.A.A.'.[.N.[.[.V.C.].].Z.].].[.N.'.].].'.V.4.].].Z.Z.Z.V.4.V.V.V.V.V.V.V.'.4.'.",
"VXVXVXVXVXVXBXBXBXBXBXBXjXjXjXjXjXjXjXjXjXfXfXfXfXpXpXiXpXpXiXiXiXiXwXwXwX7X7X7X7X7X7X8X8X8X8X8X7X8X7X7X7X7X7X7X7X7X7X7X7X9X9XiXiX0XiXpXpXpXpXpXpXpXpXfXfXfXfXjXjXjXjXkXkXBXBXVXVXVXZXZXZXZXSXSXSXGXGXGXDXDXDXDXDXDXFXFXHXHXDXBXVXSXSXSXAXSXGXSXSXkX*X@X[ ] _ h.o._ f 4 4 4 2 2 & & & & & & & & ; ; ; 6 5 q q 4 q q 4 2 6 4 q N T T W ..o.] j.&X9X9X0X0XdXfXdXdXdXdXjXlXjXjXlXlXlXkXzXzXZXAXSXGXGXGXGXGXGXDXDXDXDXDXGXGXGXGXGXAXAXzXzX&XT.(.sXd.d.d.d.`.'.4.[.[.V.[.].].Z.].].[.A.V.].[.'.V.4.].].V.V.Z.V.4.V.V.V.V.V.V.V.V.4.V.",
"VXVXVXVXVXVXBXBXBXBXBXBXjXjXjXjXjXjXjXjXjXfXfXfXfXpXpXpXpXiXiXiXiXiXiXwXwXwX7X7X7X7X7X7X8X8X8X8X7X8X7X7X7X7X7X7X7X7X7X7X7X9X9X9X9XiXiXpXpXpXpXpXpXpXfXfXfXfXfXjXjXjXjXkXkXBXBXVXVXVXZXZXZXZXZXSXSXSXGXGXGXGXDXDXDXDXDXDXFXHXDXBXkXzXzXAXzXzXzXzXZXzX@Xj.j.L.L.XXj.X._ 8 ; ; & & & & & $ $ @ $ $ & & & & & & % & & & & & $ $ & ; 6 4 8 Y _ T ] XX&X9X0X0X0XdXfXdXdXdXdXdXjXjXjXlXkXkXzXzXzXAXAXSXAXGXGXGXGXGXGXGXGXGXGXGXGXGXAXAXzXzXzX$XY.#XsXd.d.d.d.`.'.4.[.'.'.'.[.[.Z.].V.].A.'.V.V.[.'.4.].].V.V.V.V.4.V.V.V.V.N.'.N.V.4.N.",
"VXVXVXVXVXBXBXBXBXBXBXjXjXjXjXjXjXjXjXjXjXfXpXfXpXpXpXpXpXpXiXiXiXiXiXwXwXwXwX7X7X7X7X7X8X8X8X7X7X7X7X7X7X7X7X7X7X7X7X7X7X9XwXiXiXiXiXpXpXpXpXpXpXfXfXfXfXfXjXjXjXjXjXkXkXBXBXVXVXVXVXZXZXZXZXZXSXSXSXSXGXGXGXDXDXDXDXDXDXLXLXNXlXlXlXdXlXlXdXlXlXdX#XX.o.] ..o.o.^ T q ; & & & & $ @ @ @ @ @ @ $ $ @ @ @ @ @ @ $ $ $ & $ @ @ & - ; ; 8 _ T _ j.oX&X0X0XdXdXdXdXdXdXdXdXdXdXlXlXkXkXkXzXzXZXZXAXAXSXSXAXGXGXGXGXGXGXGXGXGXAXAXzXzXzXzX$XR.#XsXa.d.d.d.`.`.4.[.[.'.'.'.[.V.].V.[.4.'.5.N.'.'.4.[.].V.V.V.V.4.V.V.V.V.N.'.N.'.4.`.",
"VXVXVXBXBXBXBXBXBXBXkXjXjXjXjXjXjXjXjXfXfXfXpXpXpXpXpXiXpXpXiXiXiXiXwXwXwXwX7X7X7X7X7X8X8X8X8X7X7X7X8X7X7X7X7X7X7X7X7X7X7XwXiXiXiXiXiX0XpXpXpXpXpXfXfXfXfXfXjXjXjXjXjXjXkXkXBXVXVXVXVXZXZXZXZXZXZXSXSXSXSXGXGXGXDXDXDXDXDXLXSXNXdXsXsX^.P.#X#XP.Y.Y.X._ T q 4 8 f f 4 2 & & $ $ $ @ @ @ @ @ @ @ @ @ @ @ o . . o @ @ @ @ @ @ @ @ $ & & ; f _ _ o.XX$X9X0XfXfXdXdXdXdXdXdXdXdXdXlXlXkXkXzXzXZXZXZXAXAXAXAXSXSXSXAXAXAXAXAXAXAXzXzXzXzXxX$XXX#XsXa.d.d.d.`.`.4.'.[.'.'.'.[.V.].V.'.4.].5.'.N.[.4.V.C.V.V.V.'.4.V.V.V.'.5.'.N.`.3.'.",
"VXVXBXBXBXBXBXBXBXBXBXjXjXBXjXjXjXjXfXfXpXfXfXpXpXpXpXpXpXiXiXiXiXiXiXwXwXwX7X7X7X7X7X8X8X8X8X7X8X7X7X7X7X7X7X7X7X7X7X7X7XwXwX9XiX9XiXiXiXpXpXpXpXpXpXfXfXfXfXjXjXjXjXjXkXkXBXBXVXVXVXVXZXZXZXZXZXZXZXSXSXSXSXGXGXLXGXGXGXSXCXpX*X#X#XG.o.[ ( B f f f 7 4 6 & & % % & & & @ @ @ @ @ o @ $ $ $ $ @ @ @ @ @ . . . . o . o o @ @ @ @ $ & ; 4 T W ..O.$X9X0X0XfXfXfXfXdXdXdXdXdXdXdXjXlXkXkXzXzXzXzXZXZXAXAXAXSXAXAXAXAXAXAXzXzXzXzXzXzXxX$XR.#XsXa.d.d.d.`.`.4.'.'.'.'.'.[.V.].V.'.4.].].].N.].4.V.[.V.V.V.V.4.V.N.N.'.N.'.N.`.3.`.",
"VXBXBXBXBXBXBXBXjXjXjXjXjXjXjXjXjXfXfXfXfXfXpXpXpXpXpXpXpXiXiXiXwXiXwXwXwX7X7X7X7X7X7X7X7X8X8X7X7X7X7X7X7X7X7X7X7X7X7X7X7XwXwXiXiX9XiXiXpX0XpXpXpXpXpXfXfXfXfXfXjXjXjXjXjXkXBXBXVXVXVXVXVXZXZXZXZXZXZXZXZXSXSXSXSXSXSXSXSXCXfXOXP.h.[ [ B B N 9 8 8 7 6 ; ; % $ $ $ @ @ @ @ o o o @ o $ @ $ & $ $ @ @ @ @ o . . . . . . . @ @ @ @ $ & ; 4 f _ o.j.oX8X7X0X0XdXfXfXfXfXfXdXdXdXdXlXlXkXkXzXzXzXzXzXzXZXZXAXAXAXAXAXAXAXAXzXzXzXzXzXxXxX$XL.#XsXa.d.d.d.`.`.4.'.'.'.[.'.[.V.[.V.'.4.V.].[.N.'.2.'.C.V.V.V.'.4.V.N.N.'.N.'.N.N.3.V.",
"BXBXBXBXBXBXBXjXjXjXjXjXjXjXjXjXjXfXfXfXfXfXfXpXpXpXpXpXpXpXiXiXiXiXiXwXwX7XwXwX7X7X7X7X8X8X8X8X7X7X7X7X7X7X7X7X7X7X7X7X7XwXwXiXiX9X0XiXpXpXpXpXpXpXpXfXfXfXfXfXjXjXjXjXjXkXBXBXBXVXVXVXVXVXZXZXZXZXZXZXZXZXSXSXSXSXSXZXZXBX$X_ { ( f N T f 9 9 f 8 4 2 ; ; % & & $ @ @ o o o . . o @ $ $ & $ $ $ $ @ @ @ o . . . . o . . o @ @ @ @ ; 6 4 K X.L.j.j.XXoX$X$X&XfXfXfXfXfXdXdXdXdXjXlXkXkXzXzXzXzXzXzXzXzXZXZXZXZXZXZXZXzXzXzXzXzXxXxXxXoXL.#XsXa.d.d.d.`.A.4.'.'.'.'.'.'.V.[.V.'.2.V.].'.V.V.2.V.V.V.V.V.V.4.N.5.N.'.N.'.N.N.3.V.",
"BXBXBXBXBXBXBXjXjXjXjXjXjXjXjXjXjXfXjXfXfXfXpXpXpXpXpXiXpXiXiXiXiXiXiXwXwXwXwXwX7X7X7X7X7X8X8X7X7X7X7X7X7X7X7X7X7X7XwX7X7XwXwX9XiXwX0X0X0XiXpXpXpXpXpXpXfXfXfXfXfXjXjXjXjXjXkXBXBXVXVXVXVXVXVXZXZXZXZXZXZXZXZXZXAXZXZXVXjX&XL.B ] W N N T T 9 4 4 4 6 ; & & & & & $ @ @ o @ @ . o @ @ $ $ & & $ @ @ * * . . . . . . . . . . @ @ @ @ 2 5 q T _ j.O.j.X.j.L..XoX0XfXfXfXfXdXdXdXdXdXlXkXkXzXzXzXzXzXzXzXzXzXzXzXzXZXZXzXzXzXzXzXzXxXxXxXoX.X#XsXa.d.d.d.`.A.4.'.'.'.'.V.'.V.'.V.'.2.>.V.N.`.V.2.V.'.V.V.V.V.2.N.5.N.`.N.'.N.A.3.N.",
"BXBXBXBXBXjXjXjXjXjXjXjXjXjXjXjXfXfXfXfXfXpXpXpXpXpXpXpXpXpXiXiXiXiXwXwXwXwXwXwX7X7X7X8X8X8X8X8X7X7X7X7X7X7X7X7X7X7X7X7XwXwXwX9X9XwXiXiX0X0XpXpXpXpXpXpXpXfXfXfXfXfXjXjXjXjXkXkXBXBXBXVXVXVXVXVXVXZXZXZXZXZXZXZXZXZXVXkX&XL.] f f T _ ] T f 7 2 ; ; & & $ $ $ $ $ $ @ @ . . o . . o @ $ $ $ $ @ . . . . . . .   . . . . . o o @ @ @ $ ; 8 Y _ W ] X.X._ j.O.XX9XfXfXfXfXfXdXdXdXdXlXlXkXkXzXzXzXzXzXzXzXzXzXzXzXzXzXzXzXzXzXzXxXxXxXxXXXL.*XsXa.d.d.d.`.A.2.'.'.'.'.'.'.N.'.V.'.2.5.5.5.'.N.4.V.'.V.V.V.`.2.N.5.N.V.N.'.N.N.3.N.",
"BXBXBXBXBXjXjXjXjXjXNXjXjXjXjXjXfXjXfXfXpXpXpXpXpXpXpXpXiXiXiXwXwXwX7X7XwX7XwX7XwX7X7X7X7X8X8X8X7X8X8X7X7X7X7X7X7X7X7X7X7XwXwX9XiXiXiXiXiXiXpXiXpXpXpXpXpXpXfXfXfXfXjXjXjXjXjXkXkXBXBXVXVXVXVXVXVXVXZXZXZXZXZXZXZXZXVXdXXXj.B f f f f N f 7 ; 2 ; % & $ $ $ @ @ @ * * . . . * . . . . @ @ @ @ @ . * * . . . .     . o o . . o o @ @ @ @ & 5 Y q Y _ o._ o.j.XX&XdXfXfXfXfXdXdXdXdXdXlXkXkXkXkXkXxXzXzXzXzXkXzXzXzXzXzXzXzXxXxXxXxXkXxXXXj.#XsXa.d.y.d.A.A.2.`.'.'.`.'.'.N.'.`.'.4.5.5.3.'.5.d.V.'.V.V.V.V.2.5.5.N.V.N.'.5.A.3.N.",
"BXjXBXjXjXjXjXjXjXjXjXjXfXjXjXfXfXfXfXpXpXpXpXpXpXpXpXpXiXiXwXiXiXwXwXwXwXwX7X7X7X7X7X7X7X7X8X8X7X7X7X7X7X7X7X7X7X7X7XwXwXwXwX9XiX9XiXiXiXiXiXiXpXpXpXpXpXpXfXfXfXfXfXjXjXjXjXBXkXBXBXBXVXVXVXVXVXVXVXVXZXZXZXZXZXVXkX0XL.X.f q 7 8 6 ; ; ; ; ; % & & $ $ $ @ @ . . . . . . . . . . . . @ @ @ @ * @ @ @ . . .     . o @ @ o o @ o @ @ @ @ & 6 q 0 T X.] ..j.oX&X0XdXfXfXfXfXdXdXdXdXlXlXkXkXkXkXzXzXzXzXkXkXkXkXzXzXzXxXxXxXxXxXkXkXxX.Xj.*XsXi.d.y.d.d.d.2.`.'.'.`.'.'.5.'.`.'.d.5.5.5.[.5.4.V.'.V.V.V.V.2.N.5.N.V.N.'.5.A.3.5.",
"BXBXjXjXjXjXjXjXjXjXjXfXfXjXjXfXfXpXpXpXpXpXpXpXpXpXpXpXiXiXiXiXiXwXwXwXwX7X7X7X7X7X7X7X7X7X8X8X7X6X6X7X7X7X7X7X7X7X7X7X7XwXwX9XiXwXiXiXiXiXiXiXpXpXpXpXpXpXfXfXfXfXfXjXjXjXjXjXkXkXBXBXBXVXVXVXVXVXVXVXZXZXZXVXVXjX$X8X_ B f q 2 ; ; ; & & & & % & & $ @ $ @ . . . . . . . . . .     . . . . @ @ @ @ $ * .         o @ @ @ o o . . o @ @ $ $ ; 6 f _ _ _ o.L.$X9XdXdXfXfXfXdXdXdXdXlXlXlXkXkXkXkXkXkXzXkXxXkXxXzXzXzXxXxXxXxXkXkXkXkXL.j.#XsXi.d.y.d.A.d.4.`.`.'.V.'.'.N.'.`.'.A.5.5.N.'.N.4.V.'.V.V.V.V.2.N.5.5.V.N.'.N.A.3.N.",
"BXBXjXjXjXjXjXjXjXfXjXjXfXfXfXfXfXpXpXpXpXpXpXpXpXpXpXpXiXiXiXiXiXiXwXwXwXwXwXwX7X7X7X7X7X7X8X8X7X7X7X7X7X7X7X7X7X7X7X7X7X7XwXiX9XwXiXiXiXiXiXiXpXiXpXpXpXpXfXfXfXfXfXjXjXjXjXjXjXBXBXBXBXBXVXVXVXVXVXVXVXVXVXVXkX*Xj.f B 7 > & & & & & & $ $ & & & $ $ @ @ @ . . . . . . . . . . . . . . . . @ @ * @ @ .           . @ @ @ o . . . o . @ @ @ @ & 2 f _ T T X.L.$X9X0X0XdXdX0X0XdXdXlXlXlXkXkXkXkXkXkXkXkXkXkXkXkXxXxXkXxXxXxXkXkXlXkXUXL.*XsXi.d.y.d.d.d.4.`.`.'.`.'.'.5.'.`.`.A.4.5.`.'.N.4.V.'.V.V.V.`.2.5.5.5.V.5.`.5.A.3.N.",
"jXjXjXjXjXjXjXjXjXjXjXfXfXfXfXfXfXpXpXpXpXpXpXpXpXpXpXpXpXiXiXiXiXiXwXiXwXwX7X7XwX7X7X7X7X7X8X8X7X7X8X7X7X7X7X7X7X7X7X7X7XwX9XiXwX9XiXiXiXiXiXiXpXpXpXpXpXpXfXfXfXfXjXjXjXjXjXjXjXBXBXBXBXBXBXVXVXVXVXVXVXVXVXVXjXoX_ T W 5 0 & $ $ $ $ $ $ @ $ $ $ @ @ @ * * . . . . . . . . . . .   . . . . . . . * . .           . o @ @ o . . . o o @ $ @ @ @ & ; f f q T ] L.XX&X*X9X0X0X0XdXdXdXjXlXlXlXlXkXkXkXkXkXkXkXkXkXkXkXkXkXkXkXkXlXlXlXUXj.*X*Xi.a.y.y.d.d.y.A.`.'.`.'.'.N.`.`.`.A.`.3.'.V.A.4.V.'.V.V.V.V.2.4.5.5.N.5.`.5.A.<.N.",
"jXjXjXjXjXjXjXjXfXfXfXfXfXfXfXfXfXpXpXpXpXpXpXpXpXiXiXiXiXiXiXwXiXwXwXwXwXwX7X7XwX7X7X7X7X7X8X8X7X7X7X8X7X7X7X7X7X7X7X7X7X7XwXwX7XwXiXiXiXpXiXiXpXpXpXpXpXpXpXpXpXfXfXfXjXjXjXjXjXjXBXBXBXBXBXVXVXVXVXVXVXVXkXjXjX@X_ f q 4 6 % @ $ $ @ @ $ @ @ @ @ o . . . . * @ * . . . . . . .     . . * * . * * . . .           . . . o @ o . .   . o @ @ @ @ @ & 6 5 0 f W ] L.XX&X&X9X9X0X0XdXfXlXlXlXlXlXkXkXkXkXkXkXkXkXkXkXkXkXkXkXkXlXlXlXlXUXj.#XsXi.a.i.y.d.d.y.A.`.'.`.'.'.N.`.A.`.A.[.4.'.N.`.4.N.`.N.V.N.V.2.4.4.5.N.5.`.5.4.<.N.",
"jXjXjXjXjXjXjXjXfXfXfXfXfXfXfXfXpXpXfXpXpXpXpXpXpXiXwXiXiXiXiXwXwXwXiXwXwXwXwX7XwX7X7X7X7X7X8X8X7X7X7X6X6X7X7X7X7X7X7X7X7X7X7XwXwXiXiXiXiXiXiXiXpXpXpXpXpXpXpXfXpXfXfXfXjXjXjXjXjXjXBXBXBXBXBXBXVXVXVXVXVXBX9X&X&Xj.N 8 ; ; & & @ $ $ @ @ $ @ . . . . . . . . . @ @ . . . . . . .     . . * * . * * * . .             . . @ @ @ o . . . . @ @ o @ @ & 4 5 Y W _ X.L..XoX&X&X9X0XdXdXdXjXjXlXlXjXlXkXkXkXkXkXkXkXkXkXkXkXkXlXkXlXlXlXkX{.UX#X*Xi.i.i.y.d.d.t.A.`.'.'.'.[.N.`.A.A.4.'.[.'.5.`.4.V.V.5.N.5.N.2.4.4.5.N.5.A.5.4.3.N.",
"jXjXjXjXjXjXfXfXfXfXfXfXpXfXfXpXpXpXpXpXpXpXpXpXpXiXiXiXiXiXiXiXiXwXwXwXwXwXwXwXwXwX7X7X7X7X7X8X7X7X6X7X7X7X7X7X7X7X7X7X7XwX7XwXwXwXiXiXiXiXiXpXiXpXpXpXpXpXpXpXpXfXfXfXjXjXjXjXjXjXBXBXBXBXBXBXBXBXBXVXBXBX&XoXL.X.f 4 ; & @ @ @ @ $ $ @ @ @ . . . .   . . . . * * . . . . . .           . . . . * * . . . .         . . @ @ @ . . . . . . o . . @ @ 2 5 T ^ ..X.j.XXoX&X&X9X0X0XdXdXfXjXjXjXjXlXlXkXkXkXkXkXkXkXlXkXkXkXlXlXlXlXkXkX{.UX#X*Xi.i.t.t.d.d.t.A.`.'.'.[.[.N.A.A.A.4.'.'.'.5.`.2.N.`.5.5.5.A.2.4.5.5.4.N.N.N.4.3.N.",
"jXjXjXjXjXfXfXfXpXpXfXfXfXpXpXpXpXpXpXpXpXpXpXpXpXpXiXiXiXiXiXiXiXiXwXiXwXwXwXwX7XwX7X7X7X7X7X7X7X7X7X7X7X7X7X7XwX7X7XwXwXwX7XwXiXiXiXwXiXiXiXiXiXiXpXpXpXpXpXpXpXfXfXjXjXjXjXjXjXjXBXBXBXBXBXBXBXBXBXBXBXBX8XoXj.W > 6 ; & $ @ $ @ @ @ @ . * * . .     .   . . . . . . . . .       .       . . * @ * . . .           . . . o o . . . o . . . . . o @ & 6 7 f T ..o.L.oX$X9X9X0X0XdXdXdXfXjXjXjXjXlXlXlXlXkXkXkXkXlXkXkXkXkXlXlXlXlXkX{.UX$X*Xu.t.t.t.d.d.t.A.`.'.'.[.[.`.A.A.A.4.'.'.`.5.`.2.V.`.N.N.5.N.2.4.5.4.4.N.N.N.4.2.N.",
"jXjXjXfXfXfXpXpXpXpXpXfXfXfXpXpXpXpXpXpXpXpXpXpXiXiXiXiXiXiXiXiXiXiXiXiXwXwXwXwXwXwX7X7X7X7X7X8X7X7X7X7X7X7X7X7X7X7X7XwXwXwXwXiXwXwXwXwXiXiXiXiXiXiXpXpXpXpXpXpXpXpXfXfXfXjXjXjXjXjXBXBXBXBXBXBXBXBXBXBXBXBXfX$Xj._ q ; % & $ @ @ @ @ . o . . . . . . . . . . . . . .                         . . * . . . . . .           . . . . . . . . . . o . o @ @ ; & 6 5 Y ] O.j.$X9X0X0XdXfXdXfXfXjXjXjXjXlXlXlXlXlXkXkXkXkXkXkXkXkXkXkXlXlXkXO.j.#X*Xi.i.t.t.d.d.2.A.`.`.'.'.'.'.A.N.A.4.'.`.`.5.`.2.N.V.N.N.5.N.2.4.5.5.4.N.4.N.4.2.N.",
"jXfXjXfXfXfXfXfXpXfXpXpXpXpXpXpXpXiXpXiXiXiXpXpXiXiXiXiXiXwXiXiXiXiXiXwXwXwXwXwXwX7X7X7X7X7X7X8X7X7X7X7X7X7X7X7X7X7XwXwXwX7XwXiXiXuXwXiXiXiXiXiXiXiXiXpXpXpXpXpXpXfXpXfXfXfXjXjXjXjXjXjXBXBXBXBXBXBXBXBXBXNXjX0XoXT 8 ; & $ $ . . o . . . . . . .       . . . . . . .                       . . . * . . . . . .             . . o . . . . . o @ . . @ $ % & ; 4 f W ..X.L.&X9XfXfXfXfXfXjXjXjXjXjXjXlXlXlXlXlXlXkXkXkXkXkXkXkXlXlXlXjX{.UX$X*Xi.i.t.t.d.d.1.A.`.`.'.A.[.`.A.N.A.2.`.`.N.5.`.2.4.`.N.N.N.N.2.4.5.4.4.N.4.N.2.<.5.",
"jXfXfXfXfXfXpXfXpXpXpXpXpXpXpXpXpXiXiXpXpXpXpXiXiXiXiXiXiXiXiXiXiXiXiXiXwXwXwXwX7XwX7X7X7X7X7X8X7X7X7X7X7X7XwX7X7X7XwXwXwXwXwXwXiXuXuXiXiXiXiXiXpXiXiXpXpXpXpXpXpXpXpXpXfXjXjXjXjXjXjXBXBXBXBXBXBXBXBXBXBXBXjXpX9XXXN ; & & $ . . . . . . . . . .       . . . . . * . . .                     . * * . . . .             .     . . . . . . . . @ @ . o $ & & - 4 f T W _ ..oX9XdXfXfXfXfXjXjXjXjXjXjXjXjXlXjXjXlXlXlXlXlXlXlXlXlXlXlXjX{.UX$X*Xu.t.r.t.d.d.1.A.A.A.A.A.y.A.A.A.A.2.`.`.N.5.`.2.5.N.5.5.N.N.2.4.2.4.4.N.5.5.2.2.5.",
"fXfXfXjXfXfXfXpXpXpXpXpXpXpXpXpXiXiXiXiXiXiXpXiXiXiXiXiXiXiXiXiXaXiXiXiXwXwXwXwXwXwXwX7X7X7X7X8X8X7X7X7X7X7X7XwX7X7X7XwXiXwXwXiXiXwXiXiXiXiXiXiXpXiXiXiXiXiXpXpXpXpXpXpXfXfXfXjXfXfXjXNXNXBXBXBXBXBXBXBXBXBXBXjX&XoXT ; % $ @ . . . . . . .   .           . .   . .       . .                 . * * . . . .                   . . . . . . . . o @ . . @ $ & & 2 q T _ ..o.XX9X0XfXfXfXfXfXjXjXjXfXjXfXjXjXlXjXjXlXjXjXlXlXlXlXlXlXjXjX+.UX$X*Xu.u.r.t.d.d.1.A.d.A.A.y.G 2.A.d.A.2.N.N.5.4.`.2.N.A.5.5.5.N.2.2.5.4.4.A.5.N.2.3.5.",
"fXfXfXfXpXpXpXpXpXpXpXpXpXpXpXpXiXiXiXpXiXiXiXpXiXiXpXiXiXiXiXiXiXiXiXiXiXiXiXwXwXwXwX7X7X7X7X7X8X8X7X7X7X7X7XwXwXwXwXwXwXwXwXwXwXiXuXiXiXiXiXiXiXiXiXpXiXpXpXiXpXpXpXpXpXpXfXfXjXfXjXNXNXBXBXBXBXBXBXBXBXBXNXjX&X] 4 % % $ @ . .     .             .       .     .         . .               . . *       . . .       . .     . . . . @ . . . o @ o o @ $ $ & ; 8 K ..+..X$X9X0XpXfXdXfXfXfXjXfXfXfXfXjXjXjXjXjXjXjXjXlXlXlXlXlXlXlXlX+.{.$X#Xu.u.w.t.d.y.r.A.d.A.A.d.,.2.A.4.A.2.N.A.5.4.`.2.5.A.5.5.5.N.2.5.5.5.4.A.4.N.1.G 4.",
"fXpXpXpXpXpXpXpXpXpXpXpXpXpXpXpXiXiX9XiXiXpXiXpXiXiXpXpXiXiXiXiXiXiXiXiXiXiXwXwX7X7X7X7X7X7X7X7X8X7X7X7X7X7X7X7X7X7XwXwXwXwXwXwXwXwXiXiXiXiXiXiXiXiXiXiXiXpXpXpXpXpXpXpXpXpXpXfXfXfXjXNXNXBXBXBXBXBXBXBXBXBXNX9Xj.f ; & $ $ @ . .   . .             . . . . . .             . .               . . .         . .               .   . . @ @ . o @ @ @ @ o @ @ & & 4 f Y X..X$X9X0X0X0XdXfXfXfXjXfXfXfXfXjXjXjXjXjXlXjXlXlXlXjXjXlXlXdXjX+.{.&X$Xu.u.r.r.a.y.r.A.d.A.A.A.d.2.A.d.A.2.N.N.5.N.A.2.5.N.5.5.5.N.2.2.2.5.4.A.4.N.1.y 4.",
"pXpXpXpXpXpXpXpXpXpXpXpXpXiXiXiXiXiX0XiXiXiXiXiXiXiXiXiXiXiXiXiXwXiXiXiXiXiXiXwXwX7X7X7X7X7X7X7X7X7X7X7X7X7X7X7XwX7X7XwXwXwXiXwXwXwXiXiXiXiXiXiXiXiXiXpXiXpXpXpXpXpXpXpXpXpXfXfXfXfXNXNXNXBXBXBXBXBXBXBXBXBXfXoXW ; % $ @ @ . . .                   . . . . . .       . .   .                         X       .   X             . . o @ @ o @ @ @ o @ o o @ @ & 2 q q T O.OX9X0X0X0XdXdXfXfXfXfXfXfXfXfXfXjXjXjXjXjXjXlXjXjXfXjXlXlXfX+.{.$X$Xp.u.r.u.a.y.1.d.d.A.A.A.A.d.d.4.A.2.N.5.5.A.N.2.4.4.5.5.5.N.2.2.2.5.5.N.4.N.Z p A.",
"pXpXpXpXpXpXpXpXpXpXpXpXpXiX0X9XiXiX0XwXiXiXiXpXpXpXpXiXiXiXwXwXwXaXwXwXiXiXiXaXwX7X7X7X7X7X7X7X7X7X7X7X7X7X7X7X7X7X7XwXwXwXwXiXuXuXiXiXiXiXiXiXiXiXiXiXiXiXpXpXpXpXpXpXpXpXpXfXfXNXNXNXNXNXNXBXNXNXNXNXjXfX8XX.4 ; $ @ @ @ . . . .       . .       . . . . . . . . . . .     . .                                             . . . o @ @ o o @ @ @ . o o . @ $ & 2 8 Y ..OX8XiX0X0XdXfXfXfXfXfXfXfXfXfXfXfXfXjXjXjXjXjXfXjXfXfXfXdXfX+.{.&X$Xu.u.u.u.a.y.1.d.d.d.d.A.A.d.d.d.A.<.4.4.3.`.N.2.4.5.5.5.5.d.2.2.2.4.4.4.4.4.C 1.A.",
"pXpXpXpXpXpX0XpXpXpXpXpXiXiX9X9XiXiX9X9XiXiXiXiXiXiXiXiXwXwXwXwXwXiXwXwXaXiXiXwXwXwX7X7X8X7X7X7X7X7X7X7X7X7X7X7X7X7X7XwXwXwXiXiXuXuXiXiXiXiXiXiXiXiXiXiXiXpXpXpXpXpXpXpXpXpXpXNXfXfXNXNXNXNXNXNXNXNXNXNXfX8X.XT ; & @ @ @ @ o o . .       .           . . . . . . . . * . . .   .             X   .             X X             . . . @ o @ @ @ @ @ o o o . @ @ & & 2 T o.OX7XiXpXpX0X0XfXfXfXfXfXfXfXfXfXfXfXjXfXjXjXfXfXfXfXfXfXfXfX+.UX&X#Xu.u.r.r.a.y.r.d.A.d.d.A.A.d.d.d.A.<.5.4.3.`.N.2.4.5.5.5.5.d.1.2.3.4.4.4.4.4.C d.A.",
"pXpXpXpXpXpXiXpXiXiX0X0XiX9X9X9X9XiXiXwXiXwXiXiXiXiXiXiXiXwXaXiXwXwXwXiXiXwXwXwXwXwX7X7X7X7X7X7X7X7XyX7XyXyX7XwXwXwXwXwXwXiXiXwXiXiXiXiXiXiXiXiXiXiXiXiXpXpXpXpXpXpXpXpXpXpXpXpXfXpXNXNXNXNXNXNXNXNXNXNXpX9XOX_ f % @ @ @ @ . o . .                 . . . . *     . . . . .     . .         .     . .                             . . . . @ @ @ @ @ o o . o @ @ $ & & T j.<X9X9XpXpX0XpXfXfXfXfXfXfXfXfXfXfXfXfXfXfXjXjXfXfXfXfXfXfXfX+.{.&X$Xu.u.r.r.a.y.,.d.A.d.A.d.A.d.d.A.A.<.5.2.3.`.5.2.4.4.5.5.5.4.<.3.2.4.4.4.4.4.G 4.5.",
"pXpXpXpXpXpXpXpXiXiXiX0XiXiXiX9X9XiXiXwXiXiXiXiXiXiXiXiXiXiXiXiXwXwXiXwXiXaXiXaXwXwX7X7X7X7X7X7X7X7XwXwXwXwXwXwXwXwXwXwXwXiXiXiXiXiXiXiXiXiXiXiXaXiXiXiXiXiXpXpXpXpXpXpXpXpXpXpXfXpXfXNXNXNXNXNXNXNXNXNXjXiX9XL.T % $ $ $ . . o . .               . * @ .   .     . . . .       . .                 .         .                   . . . . . o o o o . . . . o o @ # & K UX8XwXiXiXpXpXfXfXfXfXfXfXfXdXfXfXfXfXfXfXfXfXfXfXjXfXfXfXfXfX}.UX&X$Xu.u.r.r.a.a.w.d.A.d.A.A.A.y.d.d.A.<.3.3.2.`.4.1.4.4.5.5.5.4.<.3.3.2.2.4.4.2.Z 3.5.",
"pXpXpXpXpXpXpXpXiXiXiXiXiXiXiXiXiXiXiXiXiXiXiXiXiXiXiXiXiXiXaXaXwXwXwXwXwXwXwXwXwXwX7X7XwX7X7X7X7X7XyXyXwXwXwXwXwXwXwXwXwXiXiXwXiXiXiXiXiXiXiXiXiXiXiXiXiXiXiXpXpXiXiXpXpXpXiXpXpXpXNXNXNXNXNXNXNXNXNXNXjXfX9X.X5 - & @ @ . . . . .     X         * * @ * .         . . .       . .                 .       .               X       . . o @ . . o . . . . . o . o @ & 4 +.OX8X9XiXiXpXpXpXfXpXpXpXfXfXfX0XfXfXfXfXfXfXfXfXfXfXfXfXfXfX+.{.&X$Xu.u.u.r.a.a.w.d.A.d.A.A.A.y.d.d.A.<.2.2.4.`.4.2.4.4.4.5.5.4.<.3.3.2.3.2.4.2.F 4.5.",
"pXpXpXpXpXpXpXiXiXiXiXiXiXiXiXiXiXiXiXiXwXwXiXiXiXiXaXaXiXwXwXwXwXwXwXaXwXwXwXwXwXwXwXwX7X7X7X7X7X7XyXyX7XwXyXwXwXwXwXwXwXwXwXwXiXiXiXiXiXiXiXiXiXiXpXiXiXiXiXpXpXpXpXpXpXpXpXpXpXmXNXNXNXNXNXNXNXNXNXNXNXNXpXOX0 ; & @ .       . .               . * * * . X       . .           . . .     X     .         .                   .   . o o @ . . . . . . . o o . o o & 6 Y .XOXOXiXiXpXpXpXpXpXpXpXpXfXfXfXfXfXfXfXfXfXfXfXfXfXfXfXfXfX}.{.8X$Xu.u.u.r.a.a.F d.d.d.A.d.d.y.4.A.A.<.3.2.4.N.5.2.4.4.4.5.5.4.<.3.3.2.2.2.2.4.Z 4.5.",
"pXpXpXpXpXiXiXiXiXiXiXiXiXiXwX9XiXiXwXwXiXiXiXwXiXiXwXwXiXwXwXwXwXiXwXaXwXiXiXwXwXwXwXwX7X7X7X7X7X7X7XwXwXwXwXwXwXwXwXwXwXwXwXiXiXiXiXiXiXiXiXiXiXiXiXiXiXiXpXpXpXpXpXpXpXpXpXpXpXpXNXNXNXNXNXNXNXNXNXNXNXNXpXOXT ; & @ .       . .         .     . * * *   X X       X X   .     . * . .         .         . .                     . . . @ . . . . . . o o o @ o @ ; 4 5 ^ .X.X9XiXpXpXpXpXpXpXpXpXpXpXpXpXfXfXfXfXfXfXfXfXfXfXfXfXpX}.{.8XoXu.u.) u.a.a.) d.d.d.d.A.d.y.y.A.A.<.<.4.2.A.4.2.4.4.5.5.5.4.<.3.3.2.2.d.2.4.G 4.4.",
"iXiXpXpXiXiXiXiXwXiXiXwXiXwX9XwX9XwXwXiXiXiXiXwXiXiXiXwXwXwXwXwXwXiXwXwXwXiXiXwXwXwXwX7X7X7X7X7X7X7X7XyXwXwXwXwXwXwXwXwXaXwXwXiXiXiXiXaXaXaXiXiXiXaXpXiXiXpXpXiXiXiXpXpXpXpXpXpXpXpXNXNXfXNXNXNXNXNXNXNXNXpX7Xj.Y ; & @ .     . . * * .     .     . * * .   X X       X X X . . . . . . . .     . . .       . .                   .   . @ @ . . . . . @ @ o @ @ @ % 0 f / ^ UX+X7XiX0X0XpXpXpXpXpXpXpXpXpXpXpXfXfXfXfXdXfXfXfXfXfXfXpX}.{.8XoXu.e.' u.a.a.F a.A.d.d.A.d.y.y.A.A.<.<.4.2.N.5.2.4.4.4.4.5.4.<.2.3.2.2.y.4.4.y 2.4.",
"pXpXpXpXiXiXiXiXiXiXiXiXiXwXiXwXwXwXwXwXiXiXiXiXiXiXiXiXwXwXwXwXwXwXwXwXwXwXwXwXwXwX7X7X7X7X7X7X7X7XyXyXyXwXwXwXwXwXwXwXiXwXiXiXiXiXiXaXiXiXiXiXaXiXaXiXiXiXiXiXiXiXiXpXpXpXpXpXpXpXpXpXNXNXNXNXNXNXNXNXNXpX8X_ ] 8 $ @ .     . . @ @           X . . *   X X X X       X X     . . . . . .     . . .           .       .     . . .   . . o . . .   . @ @ @ @ @ $ ; / ..O.UX+X<X9XiXiX0X0XpXpXpXpXpXpXpXpXpXpXpXdXdXfXfXfXfXfXfXfXfXpX}.{.8XoXX.e.) u.k.k.F a.A.d.d.d.d.t.y.A.A.3.<.4.3.4.5.1.4.4.4.5.5.4.Z 2.2.2.4.2.d.1., 3.4.",
"pXpXpXpXpXiXiXiXwXwXiXiXiXiXiXiXwXwXwXwXwXwXwXwXiXiXwXiXiXiXwXwXiXwXiXwXwXwXwXwXwXwX7X7X7X7X7X7X7X7X7X7X7XyXwXwXwXiXwXiXiXwXiXiXiXiXiXiXiXiXiXiXaXaXaXiXiXiXaXaXiXiXiXiXiXpXpXpXpXpXpXpXpXNXNXNXNXNXNXNXNXNXpX.Xf f & o       . @ @ *               . .   X   X X       X X     . . .           . * .           . . . . . .   . . * . . . . o . . . . @ @ $ & & $ & Y +XOXOX8XuXiX0XiX0X0X0XpXpXiXpX0XpXpXpXpXpXfXfXfXfXfXfXfXfXfXfXiX}.{.7XoXX.u.' u.l.).F a.A.d.d.y.d.t.y.A.A.3.<.2.2.d.2.3.4.4.5.5.5.4.Z 3.2.4.2.3.4.Z , 3.4.",
"pXpXiXiXiXiXiXwXiXwXwXiXwXiXwXwXwXiXwXiXiXiXwXwXwXiXwXwXwXwXwXwXwXwXwXwXwX7XwXwX7X7X7X6X7X7X7X6X7X7XyX7X6XwXyXwXwXwXwXwXiXiXiXiXiXiXiXiXaXiXiXiXiXiXaXaXaXiXiXiXiXiXiXpXpXiXpXpXpXmXmXmXpXmXNXNXNXNXNXNXNXNXNXpX.XT 0 . .     . $ . .       X       . .       X X     X         . .           . . * .   X X     . . .     . . . . * .         . . . . @ @ @ % q $ 2 0 OX7XwXwXiXuXuXiXiX0XiXpXpXiXiXiXpXpXpXpXpXpXfXdXdXdXdXfXfXfXdX9X}.{.9XXXX.u.' u.l.l.S y.A.A.d.d.d.t.y.A.A.2.<.2.3.4.2.1.4.4.4.4.2.4.Z 3.2.2.2.3.4.S y 3.4.",
"iXiXiXiXiXiXuXwXwXwXwXwXiXwX7XwXwXwXwXwXiXiXwXwXwXwXiXiXiXwXwXwXwXwXwXyXwXwX7X7X7X7X7X7X7X6X6X8X7X7X7X7X7X7XyXyXwXwXwXwXwXiXwXiXiXiXiXiXiXwXiXiXiXiXiXiXiXaXiXiXiXiXiXiXiXiXpXpXpXmXmXpXpXpXNXNXNXNXNXNXNXNXNX7XO.K @ o 2 @ . . @ . .           X       X X           X       . .               . . * .   X X     . .     . $ . . @ @     .   . . . . @ @ @ & K 6 2 ^ OXuXuXuXiXuXuX9XiX0XiXiX0X0X0XiXiXpXpXpXpXpXpXfXdXfXdXfX0X0X0X9X}.{.9X.XX.u.' ' k.a.S y.d.A.d.d.d.t.y.A.A.2.<.3.2.4.3.1.4.4.4.4.2.4.Z 1.2.2.4.3.4.1.s 3.4.",
"iXiXiXwXwXwXiXwXwXwXwXwXwXwXwXwXwXwXwXwXiXwXwXwXwXaXwXwXiXiXwXwXwXwXwXyXyXwXyXyX7XyX7X7X6X6X7X6X6X6X8X6X6X7X7XwXwXwXwXwXwXwXwXiXaXaXaXiXiXiXiXiXiXiXiXiXiXiXiXiXiXaXiXiXiXpXpXpXpXpXmXmXmXmXNXNXNXNXNXNXNXNXpX..q q 2 @ & & . . . . .     .     X X     X X                   . .               . . * . X X X           . . $ @ . @ . . .     . o . . @ @ @ & q ^ @..X;XuXiXiXuXuXuXuXiXuXiXiXiXuXiXiXiXpXpXpXpXpXpXpXfXfXfXfXpX0X0X9X}.{.0Xj.X.u.[ u.a.i.F y.d.d.d.d.d.t.y.A.A.2.<.3.<.4.2.,.4.4.4.4.2.2.Z 3.3.2.A.3.3.H M 3.4.",
"iXiXiXwXiXwXwXwXwXwXwXwXwXwXwXwXwXwXwXwXwXwXiXiXwXaXiXiXiXwXwXwXwXwXwXwXyXyXyXyX7X7X7X7X6X6X6X6X6X6X6X7X8X7X7X7XyX7XwXwXwXaXaXiXiXiXiXaXiXiXaXwXiXiXaXiXiXpXiXiXaXiXiXiXiXiXpXpXpXpXmXmXmXNXNXNXNXNXNXNXNXNX7XY 0 & % $ . @ @ . . . . . . .     X X             .       X     . .                 . . .       X         . . @ @ . @ . . . .     . . . $ @ @ @ q @.+XOXwXuXiXiXuXuXuXuXiXuXiXiXiXiXiXiXiXpXpXpXpXpXpXpXfXfXfXfXpX0X0X7X}.{.9Xj.h.u.' u.i.i.F y.d.y.d.d.d.t.y.A.A.2.<.2.2.4.2.,.d.4.2.3.<.<.Z <.2.2.2.z z 3.C <.3.",
"iXiXiXiXiXwXwXwXwXwXwXiXwXwXwXwXwXwXwXiXwXwXwXwXwXwXaXaXwXwXwXwXwXwXyXyX7X7X7X7X7X7X6X7X6X6X6X7X6X6X6X6X8X6X7X7X7XyXyXwXwXwXaXiXiXiXiXiXiXiXiXiXiXiXiXiXiXiXiXiXiXiXiXiXaXpXpXpXpXpXpXmXmXNXNXNXNXNXNXNXNXNX+X6 q 8 % $ o . @ . .   . . . .       X       .       .             .                 . . .       X         . . . * . @ . . . .       . o $ $ & % 0 ..{.+X8XiXiXiXiXiXuXuXwXwXwXwXiXuXiXiXiXiXpXpXpXpXpXpX0XfX0X0X0XpXpX8X}.{.0Xj.h.[ ' u.a.a.F a.d.a.d.d.d.r.d.A.1.2.<.2.<.d.1.Z d.4.4.G G h G <.2.2.H z z A.G <.3.",
"iXiXiXiXwXiXwXwXaXwXiXwXwXwXwXwXwXwXwXwXwXwXwXwXwXwXwXwXwXwXwXwXwX7X7X7X7X7X6X6X6X7X8X6X6X6X6X6X6X6X6X6X8X8X6X7X7X7X7XyXyXwXwXiXwXiXiXiXiXiXiXiXiXiXiXiXiXaXiXaXiXiXiXiXaXpXpXpXpXpXpXpXmXNXNXNXNXNXNXNXNXNXO.6 q 0 ; & @ . o . . . . . .     X X X X     .                   .             .       . .                   . . . . * @ . .         . o @ & % 2 2 ....+.+XuXiXiXiXuXuXwXwXwXwXwXwXuXuXiXiXiXiXpXpXpXpX0X0XpX0XpXpXpXpX8X}.{.iXj.X.[ ' u.k.a.) a.d.a.a.a.y.r.d.d.Z ,.<.2.<.d.<.,.d.4.3.1.2.C G <.2.3.H 3.3.A.C <.3.",
"iXiXwXwXwXwXwXwXwXwXwX7XwXwXwXwXwXwXwXwXwXwXwXwXwXwXwXwXwXwXwXwXwXyXyXyX7X7X6X6X6X7X8X8X6X6X6X6X6X6X6X6X8X6X6X7X7X7X7XyXyXyXwXwXwXiXwXiXiXiXiXiXiXiXiXiXiXiXaXiXiXiXiXaXaXpXiXpXpXpXpXpXmXNXNXNXNXNXNXNXNXNX..5 Y 5 6 6 & . .     @ . . .     X X X X                 X     X             . .       . .                   . . . o o @ . . . .   . o o $ & Y ..^ +.{.{.OXwXiXiXiXiXuXwXwXwXwXwXwXwXuXiXiXiXiXpXpXpXpXpXpX0XpX0XpXpXpX8X}.{.iXj.X.[ ' [ k.i.F a.d.a.d.a.y.r.d.y.Z Z <.2.<.d.,.t.A.4.4.2.2.2.G ,.1.A.A.A.A.2.M n <.",
"wXwXiXwXwXwXwXwXwXwXwXwXwXwXwXwXwXwXwXwXwXwXwXwXwXwXwXwXwXwX7XyXwXwX7X7X7X7X6X6X6X6X6X6X6X7X7X6X6X6X6X6X6X6X6X6X7X7X7XyXyXyXyXwXwXwXwXwXiXiXiXiXiXiXiXiXaXaXaXiXiXiXiXaXaXpXpXpXpXpXpXmXmXNXNXNXNXNXNXNXNXmXY q Y 6 4 0 6 @ .     . .         X X X X X X X         X   X X X               . .     . .         . .       . . . o o @ . . . o . o o @ & 4 ..+X+XOX;X;X8XiXiXiXuXuXwXwXwXwXwXwXwXwXwXuXiXiXiXpXpXpXpXpXpXpXpX0X0XpXiX8X}.{.iXO.X.[ ' ' k.u.) a._.y._.y.y.r.d.t.F ,.<.2.<.4.<.t.A.d.4.3.2.d.C 1.y.A.A.A.A.3.l n <.",
"wXwXwXiXwXwXwXwXwXwXwXwXwXwXwXwXwXwXwXwXwXwXwXwXwXwXwXwXwXyX7XyXyX7X7X7X7X6X7X7X7X6X6X6X7X7X8X6X6X6X6X6X7X7X7XyXyXyX6XyXyXwXwXwXwXwXwXwXwXiXiXiXaXaXaXaXaXaXaXaXiXiXiXaXpXpXpXpXpXpXpXmXpXmXmXNXNXNXNXNXNXiXY 5 5 ; ; ; & @ .     . .           X   X X X X X X   X     X X X X             . . . . . .       . . .         . . . o @   . . o o @ o $ - f O.8X8XwXyXwXaXiXuXuXtXuXwXwXwXwXwXwXwXwXwXiXiXiXiXiXiXiXpXpXpXpXiXpX0XiX0X8X}.{.iXj.X.[ ' ` k.u.) a.a.y.d.y.y.t.d.1.t.1.<.2.<.2.<.t.A.4.4.3.2.d.G 2.d.A.A.3.3.3.H 3.1.",
"wXwXwXwXwXwXwXwXwXwXwXwXwXwXwXwXwXwXwXwXwXwXwXwXwXwXwXwXwX7XyXwX7X7X7X6X6X7X7X7X6X6X6X6X7X7X6X6X6X6X6X6X6X6XyXyXyXyX6XyX6XyXyXyXwXwXyXwXwXwXiXaXaXaXaXaXaXaXaXaXiXaXaXaXpXpXpXpXpXpXpXmXmXmXmXNXNXNXNXwX+.Y 6 6 6 6 ; & $ @ .   .         .           X X   X X X X       X X X             . @ . . . . . . . @ $ $ @ . . . . . . o @ .   . . . @ @ $ & a UX8XtXtXiXiXiXiXuXtXtXuXwXwXwXwXwXwXuXwXwXwXiXiXiXiXiXpXiXpXpXpX0X0X0X0X0X$X}.{.iXO.X.[ ) ` k.u.) a.a.y.a.y.y.t.d.,.t.1.<.3.<.2.Z 1.A.2.2.<.2.d.Z 2.A.B.B.H c c.n n 3.",
"wX7XwXwXwXwXwXyXwXwXwXwXwXwXyXyXwXwXwXwXwXwXwXwXwXwXwXwXyX7XyXyXyXyX7X6X7X7X7X7X6X6X6X8X6X6X6X6X8X6X6X6X6X6X7X6X6X6X6X6X7XyXyXyXyXwXyXyXwXaXaXaXaXaXaXaXiXiXaXiXaXaXaXaXaXpXpXpXmXmXpXpXpXmXmXNXNXNXpX..2 . . . & 6 6 @ o @ . . .         . @ . .           X X X X X   X   X X           . @ & & @ @ @ . o o & > ; $ @ . . . o . o @   . . . . & $ $ & f +X7XtXtXiXiXiXiXtXuXtXuXwXwXwXwXwXwXwXwXwXwXwXiXiXiXiXpXpXiXiXiXiXiXiX0X0X;X}.{.iXO.X.[ ` ' k.u.) a.a.a.a.y.y.r.d.,.r.Z 3.d.1.2.Z 1.A.3.3.<.2.y.H B.B.c.c.c.c H l H 3.",
"wXwXwXwXwXwXwXwXwXwXwXwXwXwXwXwXwXwXwXiXwXwXwXwXwXwXwXwXwX7X7X6X6X6X6X7X6X6X6X8X8X6X6X8X6X6X6X6X8X6X6X6X6X6X6XyX6X6XyX7XyX7X6XyXyXyXwXwXwXwXaXaXaXaXaXaXiXaXiXiXiXaXaXpXaXpXpXpXpXmXpXmXmXmXNXNXNXfX&Xs > $ . . . . o . @   . . .         . $ * .             X X X   X         .       . @ - ; ; $ o @ @ o ; 9 g , ; & & $ o o o o @ . . . o @ 7 ; & & K ;XtXtXtXaXaXiXiXuXtXtXwXwXwXwXwXwXwXwXuXiXuXiXiXiXiXiXiXiXiXiXiXiXiXiX9X0XOX}.{.0XO.X.[ ` ' k.u.) a.a.a.a.y.y.r.y.,.1.F _._.).s._.).B.3.3.3.2.2.H c H c.c.c.c H l 3.3.",
"wXwXwXwXyXwXwXwXwXwX7X7XwXyXyXwXwXwXwXwXwXwXwX7XwXwXyXyX7X7X7X6X6X6X6X6X6X6X6X8X8X6X6X6X6X6X6X8X6X6X6X6X6X6X6XyX6X6X7X7X6X7XyXyXyXyXyXwXwXwXtXtXtXtXtXtXiXaXiXaXaXaXaXpXpXpXpXpXpXmXmXmXmXmXNX9XO.j.} l y y , > - - & . .                 . $ . . . . .         X     X X   . . o o .   o ; 7 a 7 & o & ; ; g A ` B a 7 9 > & @ o o @ o o o - ; g s ; ; f ;XnXtXaXaXaXaXiXiXuXuXwXyXyXyXwXwXwXwXuXuXiXiXiXiXiXiXiXiXiXiXiX0XiXiX9X9XOX}.{.0XO.X.] ` ` k.i.) a.a.a.y.y.y.r.y.1.s.H.' _._.Z Z Z d.2.2.<.2.2.3.B.B.A.3.3.-.n l 3.2.",
"7XwXwXwX7XyX7XyXyX7XyX7XyXyXyXyXwXyXwXyXyXwXwXyXyXyXyXyXyXyX7X6X6X6X6X6X6X6X7X6X8X6X6X6X6X6X7X8X8X6X7X6X6X6XyXyX7X6XyXyX6X6XyXyXyXyXyXyXwXwXtXtXtXtXtXtXtXaXaXaXaXtXaXaXpXpXpXpXmXmXmXmXmXmXpXW @ = i i t y y < < < > > & .           X   . $ . . @ * . .                   o # o @ o o - 7 g g a & @ 3 7 s F w.u.) D g A B 7 > & @ & ; ; - ; g A ` s 7 _ ;XnXnXaXaXiXaXtXtXwXwXwXyXyXyXwXwXwXwXwXwXuXuXiXiXiXiXiXiXiXiX0X0X0X0X9X9XOX}.{.iXO.X.[ ` ` i.u.) a.a.d.a.y.y.r.y.s.s.G s.A.y.1.,.F d.2.3.3.2.t.1.4.d.d.2.4.4.Z l 3.2.",
"7XyXwXwX7X7X7X7X7XyXyXwXwXyXyXyXyXyXyXyXyXwXwXwXyX6X6X7XyXyX7X7X6X6X6X6X6X6X7X6X8X6X6X6X7X6X8X6X6X6X6X6X6X6X6X6X6XyX6X6X6X6X6X6X7XyXyXyXwXwXwXwXwXwXtXtXtXaXtXaXtXtXaXaXaXpXpXpXmXmXmXmXmXaX+X4 + , y l M y y u y M d : , > - o       X X   $ @ & & $ $ @ @ . . o @ o @ # & ; ; & o # # 7 f T A a - ; a g g r.t.k.i.w.) u.u.A g a 7 7 s a 7 , B ) u.) A j.yXmXmXaXaXiXaXtXwXtXwXwXyXyXwXwXwXwXwXwXwXuXiXuXiXiXiXiXiXiXiXiX0X0X0X9X9XOX}.{.9X+.X.] ` ' k.u.) a.a.a.a.t.y.r.s.r.r.F A.A.d.<.1.1.2.2.<.<.2.2.2.y.y.y.y.2.2.1.C 3.2.",
"yXyXyXwXyXyX7X7XyX6XyXyXwXwXwXwXyXwXyXyXyXyXyXyXyX6X6X6X7X7X7X7X7X6X6X6X6X6X6X6X8X8X6X6X7X6X8X8X8X8X8X6X6X6X6X6X6XyXyX6X6X6X6X6XyXyXyXyXyXwXwXwXwXwXtXtXaXaXaXaXtXaXaXaXaXpXpXmXmXmXmXmXmXOX$ , F Z G G Z G u < y Z l y : < , , - + o o o   @ & & ; & & $ @ $ & ; ; ; ; 7 7 7 , ; # # ; g T W W a ; 7 s g A u.i.).l.u.r.a.l.i.S ) g A g B A A D u.a.i.) oXmXmXmXmXaXaXaXtXtXtXwXwXyXyXyXwXwXwXwXwXwXuXuXuXuXiXwXiXiXiXiXiXiXiX9X9X9XOX}.{.iX+.X.` ` ' i.u.) a.a.a.y.t.y.r.r.r.r.1.A.1.d.1.t.1.y.2.<.3.2.1.2.2.2.y.y.2.2.2.d 1.2.",
"wXyXyXyX7X7XyXyX7XyX7XyXyXyXwXwXwXyXwXyXyXyXyX7X6X6X6X6X6X6X6X6X6X6X6X6X6X6X6X8X8X8X6X8X6X8X8X8X8X6X6X6X6X6X6X6XyXyXyX6X6XyX6XyXyXyXyXyXyXyXwXwXtXtXaXaXtXaXiXiXaXaXaXaXaXpXpXmXmXmXmXmXpX*X' Z Z b v v Z Z G u < u l l y : < < < < ; - - & o & - ; - ; % $ & ; 6 7 7 7 a s s a 7 ; o ; W ` W B a a s a g S r.i.).l.i.i.a.).a.r.i.) ) d h D ) w.i.a.a.u.<XmXmXnXaXaXaXaXaXtXuXwXwXwXyXyXyXwXwXwXwXwXwXuXuXiXiXiXuXiXiXiXiXiXiX0XuXwX+X}.{.uX+.X.` ` ' k.u.' a.a.a.a.s.s.r.r.s.r.t.2.Z t.2.1.1.y.3.3.3.2.1.2.2.2.2.y.2.2.y.C 3.2.",
"wXyXwX7X7X7X7X7X6XyXyX7X7XyXyXyXyX6XyX6XyXyXyX7X6X6X6X6X6X6X6X6X6X6X6X6X6X6X6X6X8X8X6X8X6X6X8X8X8X6X6X6X6X6XyXyXyXyXyXyXyXyXyXyXyXyXeXyXyXyXwXwXtXtXtXaXaXiXaXaXaXaXmXmXaXmXmXmXmXmXmXpX#XA._.H Z Z 1.Z Z b Z G i : : l l y : < y i < , < > - o & ; ; ; ; & & ; 7 7 7 a s g g s a 7 - ; W ` W g s g g a d S F r.l.a.r.i.i.).l.a.l.a.u.S C ) r.w.i.a.i.p.uXmXmXnXaXmXmXaXtXtXtXtXwXwX7XyXyXwXyXwXwXwXwXiXiXiXiXwXuXuXuXuXiXiXiXiXuXwX+X}.{.9X+.X.] ` ' k.u.' a.a.a.a.t.y.s.1.t.t.t.<.1.<.y.Z 1.y.3.2.3.2.1.t.2.2.3.2.1.2.2.F 3.3.",
"yXyXwX7X7XyXyX7XyX6X7X7X6XyXyXyXyX6XyXyXyXyXyX7X7X7X6X6X6X6X6X6X6X6X6X6X6X6X6X6X6X6X6X6X6X6X6X8X6X6X6X6X6X6X6XyX6X6XyX6X6XyXyXyXyXyXyXyXwXwXwXtXtXtXtXtXaXaXaXaXaXmXmXmXmXmXmXmXmXmXmX*XA.1.b z z z b v z z l v u < = : l v y < < < y t < t , + $ ; ; - ; ; & ; 7 7 7 7 a g g g s a 7 7 g ` W g g g g d g A S w.i.i.r.i.t.a.l.l.).).l.r.S u.r.) r.a.i.g.aXmXmXmXaXaXtXaXtXtXtXtXwXwXyX7XyXwXwXwXwXwXwXwXiXuXuXwXwXwXwXuXuXiXiXiXuX9X+X}.{.9XO.X.[ ` ` p.u.' a.a.a.a.t.y.s.1.t.r.G y.d.2.y.Z t.y.1.1.1.3.F 2.2.1.1.2.1.2.2.Z =.1.",
"7X7X7X7X7XyXyX7X6X6X6XyXyXyXyXyXyXyX6XyXyXyXyXyX6X6X7X6X6X6X6X6X6X6X6X6XyXyX6X6X6X6X6X6X6X6X6X6X6X6X6X6X6X6X6XyXyX6X6XyXyXyXyXyXyXyXyXyXyXwXwXtXtXtXtXtXaXaXaXaXaXmXmXmXmXmXmXmXmXmX0XA.3.Z b b v z z z z x x z z u < = < l v y < i i y y y y < o & > ; ; ; $ ; 7 7 7 7 a s g g g a 7 ; a W B g g g g d h A S r.r.r.r.i.t.t.a.a.l.).).a.A u.i.r.r.a.i.k.iXmXmXmXtXtXtXtXtXtXtXtXyXeXyXqXyXyXyXwXwXwXwXwXiXuXiXiXwXwXwXuXuXuXuXuXuXuX+X}.{.9X+.] ] ` ` p.u.) i.a.a.a.s.y.t.r.t.r.r.y.t.d.2.1.r.y.1.<.1.2.F 1.2.1.1.t.,.2.2.Z 3.3.",
"yXyXyX6X7X7XyX7X6X7XyX6X6X6X6X6XyXyX6XyXyXyXyXyX6X6X6X6X6X6X6X6X6X6X6X6X6X6X6X6X6X6X6X6X6X6X6X6X6X6X6X6X6X6X6X6X6X6XyXyX6X6XyXyXyXeXyXeXyXwXtXtXtXtXaXaXaXaXaXaXaXaXmXmXmXmXmXmXmXpX).2.3.Z H 1.Z b v x x b b b v l u y = y v v y < y y l u i y , + ; 4 - ; & - , , , 7 a a a a a a 7 & 7 g g g g g g g h A S r.r.w.r.i.i.t.t.i.a.l.l.a.S r.a.i.r.i.u.) XXiXmXmXmXmXaXaXtXtXwXwXeXyX6X6XyXyXwXyXwXwXwXwXwXuXuXwXwXwX7XwXwXuXuXuXuX9X+X}.{.7X+.X.` ` ` u.u.) u.i.a.a.y.y.s.r.1.r.F y.d.1.2.1.1.y.1.<.<.3.F 1.3.1.1.t.1.2.1.u 3.1.",
"yXyX7X7XyXyXyX6X6X6X6X8X6X6X6XyXyX6X6XyXyXyXyX7XyX6X6X6X6X6X6X6X6X6X6X6X6X6X6X6X6X6X6X6X6X6X6X6X6X6X6X6X6X6X6X6XyXyX6X6X6XyXyXyXyXyXyXeXwXtXtXtXtXtXtXtXaXaXaXmXmXaXmXmXmXmXmXmXpX(.y.3.H Z b b v v v x v b n n b b v l i < u v l u i y u v z u y ; ; 4 ; ; - & , ; 3 , 7 , 3 3 , 3 3 ; 7 s g s g g g g h A S r.r.w.r.i.i.i.i.i.a.a.l.i.S r.a.l.i.t.r.A u L.mXmXmXmXaXtXtXtXtXtXeX6X6X6XyXyXyXyXtXtXwXwXwXwXwXwXwXwXwXwXwXwXiXuXuXuX.X}.{.7X+...` ` ` p.u.) r.u.a.s.y.y.r.r.s.s.y.d.y.d.2.F 1.t.1.<.3.3.Z 2.1.1.1.t.1.2.F u H 1.",
"yXyXyXyXyXyX6X6X6X6X8X6X6X6XyXyX6XyX6XyXyXyXyX6X6X6X6X6X6X6X6X6X6X6X6X6X6X6X6X6X6X6X6X6X6X6X6X6X6X6X6X6X6X6X6XqXqXqX6X6X6XyXyXyXyXyXeXyXwXwXtXtXtXtXtXtXaXaXaXmXmXaXaXmXmXmXmXpX#XA.2.3.Z v z z x x x b m m m m b b v v v u i z z l u i i l b v u y 4 - 6 - ; # ; - ; , ; ; ; ; : 3 ; 3 7 a s s s g g d h A S t.r.w.i.i.i.a.i.a.a.a.a.w.A w.a.l.i.t.r.g = t OXnXmXnXnXtXtXtXtXtXyXqX6X6XyXeXyXyXyXwXwXwXuXuXuXuXuXwXwX7XwXwXwXiXwXuX.X}.{.7X+.X.] ` ` u.u.) r.s.u.s.y.y.r.1.t.t.1.d.t.1.2.Z 1.t.,.<.3.1.Z 1.1.2.2.t.Z 1.F u Z 3.",
"yXyX6X6X7X7X7XyX6X6X6X6X6XyXyXyXyXyX6XyXyXyXyX6X6X6X6X6X6X6X6X6X6X6X6X6X6X6X6X6X6X6X6X6X6X6X6X6X6X6X6X6X6X6XqXqX6X6XqX6XyXyXyXyXyXyXeXeXyXyXtXtXtXtXtXtXaXaXaXaXaXaXaXmXmXmXmX*X_.2.1.v v z x x x x x m m m m m v v b l v b z r l v v l y i l v l u , - ; ; & # ; - ; , 3 ; ; ; ; : 3 3 7 , a s a s d d h A S r.w.r.i.t.i.a.a.a.a.a.r.C A ) i.k.u.r.w.a X O B mXnXnXnXtXtXtXtXtXeX6X3X6XyXeXyXyXwXtXwXwXuXiXiXuXuXwXwXwXwXwXwXuXwXwX.X| {.8X+.X.] ` ` u.[ ` r.s.u.u.y.t.s.1.t.s.r.t.d.d.2.F 1.t.1.,.<.1.Z 1.3.1.2.1.Z 1.F u Z 3.",
"yXyXyX6X6X6XyX6X6X6X6X6X6XyXyXyXyXyXyXyXyXyXyXyXyX6X6X6X6X6XyX6X6X6X6X6X6X6X6X6X6X6X8X8X6X6X6X6X6X6X8X6X6X6X6XqXqXqXyXqXyXyXyXyXyXyXyXyXyXyXtXtXtXtXtXtXtXtXtXaXaXmXmXmXmXmXiX_.3.3.b v v b v x x x x x m m x m b b b v r v v v z x v v v u i u v u y - ; & & # = - + , 7 3 3 3 3 : 3 7 ; ; 7 a a a d d h A S r.w.r.t.t.a.a.a.a.a.a.S u C F i.a.u.) ) 9 X X < 8XmXmXaXtXtXtXtXtXyXyXyXyXeXeXyXyXyXwXwXwXaXaXwXaXwXuXuXwXuXwXwXuXwXwX.X}.{.8X+.X.] ` ` p.u.` i.u.i.u.y.y.t.1.t.r.F 1.Z t.t.Z 1.t.,.,.<.1.Z <.1.1.,.Z Z 1.F h Z 3.",
"yXyXyXyXyXyXyXyXyXyXqX6X6X6XyXyXyXyXyXyXyXyXyXyXyXqXqXqXqX6X6X6X6X6X6X6X6X6X6X6X6X<X8X6X6X6X8X8X8X6X6X6X6X6X6XqXqXqXqXyXqX6XqXyXyXyXyXyXyXyXtXtXtXtXtXtXtXtXaXaXmXmXmXmXmXpX^.2.2.Z Z Z Z Z x x x x x m m m n n n n n b v v r b n x x v b b u i i v l t + + = + + ; + ; 7 7 , , ; 3 a 7 o o , a a s d h A A F r.w.r.r.i.a.a.a.a.a.i.d d C S r.u.w.) ) , X X t $XmXnXaXtXtXtXtXtXyXyXyXeXeXeXyXwXyXwXwXwXtXuXtXwXwXuXwXwXwXwXwXwXwXwX{.}.{.8X+..._ ` ' p.u.) r.i.u.u.a.t.r.1.s.r.r.d.t.Z 2.F 1.t.,.,.3.1.F 1.1.1.F F H 1.F h G 3.",
"6XqX6X6XqXyXqXyXyX6X6XyXqXqXyXyXyXyXyXqXqXyXyXyXyXyXyX6X6XqX6X6X6X6X6X6X8X6X8X8X8X-X6X6X6X6X<X8X<X6X6X6X6X6X6X6XyXyXyXyXqX6XqXyXyXyXyXyXyXyXtXtXtXtXtXtXtXtXaXaXmXmXmXmXmX&Xy.3.b Z Z Z Z b z x x v m n n n n n n n n n n b v i b n v x b b b l i u l u < o - - ; ; - - , 7 , , ; , s o   X ; , a s g h A A ) r.w.t.r.i.a.a.a.a.a.) j t d A ) ) F ) D ; X + b $XmXmXaXtXaXtXtXtXyXyXeXeXeXeXeXyXwXyXwXtXwXtXtXwXwXuXwXwXwXwXuXuXwXwX{.}.{.8XO.] _ ` ] u.' ) r.u.a.a.a.s.s.1.r.r.r.y.y.Z 1.S 1.2.,.2.2.1.F 1.1.,.F F G H F C G Z ",
"yX6X6X6X6X6XyXyXqX6XyXyXyXqXyXyXyXyXyXyXyXyXyXyXyXyX6X6XqX6X6X6X3X6X3X6X6X8X8X8X3X-X8X6X6X6X8X8X8X8X6X6X6X3X6X6X6XyXqXqX6X6XqXyXyXyXeXeXyXtXtXtXtXtXtXtXtXtXmXmXmXmXmXmXaXs.2.v b n Z Z Z v x x x b m n n n c c c c c H H n m b i b n x b b b b v i u r y O = , a a 7 7 - 3 ; ; $ : G     X - 3 a d h A A A w.r.r.t.r.i.a.a.a.a.a.A j y t t g A A D M + O u =.@XmXnXnXtXtXtXtXtXyXyXeXeXeXeXeXyXyXwXtXtXwXtXwXuXuXwXwXwXwXuXuXuXwXwX{.}.{.<X{...] ` ` u.' ` r.r.s.a.a.y.t.1.s.r.s.y.y.F 1.A 1.1.,.<.<.1.F 1.1.,.F 1.G H Z C G ,.",
"yX6XyXqX6XqXyXyXyXyXyXyXyXyXyXyXyXyXyX6XyXyXyXyXqX6X6X6XqX6X3X3X6X3X3X6X6X6X6X6X3X3X6X6X8X8X6X6X6X6X6X6X6X6X6X6X6X6XqXyXqXqXyXyXyXyXeXeXeXyXtXtXtXtXtXtXaXmXmXmXmXmXmXmX$X2.H b Z Z Z Z b x v v v b b n n c c c c c c c =.=.H c b i n H n n n n b v i l i : # t d s s s o   o X X O Z X   X - 3 7 g A h A S w.w.r.r.i.i.a.a.a.a.r.y i u y t d d C C h < u =.-.XXmXnXnXtXtXtXtXtXyXeXeXeXeXyXyXeXtXtXwXtXtXwXwXuXtXwXwXwXwXuXuXwXwXuX{.}.{.<X{...] ` ` u.' D r.r.i.s.a.a.s.r.t.r.y.a.a.Z t.S 1.2.1.<.1.1.F 1.1.,.,.1.Z H F C G ,.",
"6X6XyX6X6X6X6XqXqXqX6X6XqX6X6XqXqXyXyX6XyXyXyXyXqX6X6X6X6X3X3X3X3X-X3X6X6X6X6X6X3X3X6X6X6X8X8X6X6X6X6X6X6X6X3XqXyX6X6XyXyXyXyXyXyXyXyXeXeXyXtXtXtXtXtXtXaXmXmXmXmXmXmXiX_.3.v Z H Z Z b l v v b b v m n n n c n =.&.c c c =.=.=.n v i H =.n b b n n v i u < # , A A g ,   X X X X X h -     ; 7 7 M A A A F w.w.r.r.t.i.a.a.a.i.A < i i l r v v v b b n =.-.B.I.mXnXnXnXtXtXtXwXyXeXeXeXyXyXyXyXtXtXtXtXtXtXwXuXwXwXwXwXwXwXuXuXwXwX{.}.{.;X+.] _ ` ` u.) ` s.r.s.s.a.a.s.r.s.' F a.s.Z r.C 1.2.1.<.2.3.F 1.1.,.F 1.Z 3.1.Z Z 1.",
"3X-X6X6X6X6XqX6X6X6X3X6X6XyXqX6X6X6X6XyXyXyXqX6XqXqX6X6X6X6X6X3X3X-X3X3X6X3X6X6X6X6X6X6X6X6X6X6X6X6X6XqX6X6X6X6X6X6X6XyXqXqXyXyXeXyXeXyXyXyXtXtXtXtXtXtXnXmXmXmXmXmXmX9X3.b b H Z Z b l z z x v b x x n n n n =.=.=.=.&.c c &.=.&.H l r =.=.n m b n n r r u - o A D M ; X X X X X X d 3     ; 7 7 A S S ) w.w.w.w.r.r.i.a.a.a.F < < i r r r m n m $.=.-.-.*.>.H.mXnXnXnXtXtXtXtXyXeXeXeXyXeXeXyXtXtXtXtXtXtXtXtXuXtXwXwXwXwXwXwXwXwX{.}.}.;X{.] _ ` ` p.' ` u.u.a.s.a.a.r.r.s.' F Z G ,.r.C 1.2.1.1.3.<.S 1.1.1.1.1.G 1.F Z Z 1.",
"-X-X-X3XqXqX3X3X3X3X3X3X6XqX6XqX6X6X6XyXqXqXqXqXqXqX6X6X6X6X6X6X3X-X3X6X6X3X6X6X6X6X6X6X6X6X<X6X6X6X6X6X6X6X3X6X6X6X6XyXyXyXyXyXeXyXyXeXyXtXtXtXtXtXtXtXnXmXmXmXmXmXiXp.H v b Z n v v z z x z v x x x n n n =.=.=.=.=.=.=.&.&.&.=.n =.i m =.=.n x n n n r l < o 7 D g o X X X X X X a a   . o & ; g D w.r.w.w.w.r.r.t.i.a.a.r., = < i r r x x c c &.&.;.*.:.>.^.aXmXnXnXtXtXtXtXtXeXeXeXyXyXeXyXtXtXtXwXtXtXaXaXtXtXwXwXwXuXwXwXwXwX{.}.}.;X{..._ ` ` p.[ ( u.i.a.s.a.a.r.r.t.' t.F G s.1.C 1.2.1.,.<.,.S 1.,.1.1.1.Z 3.F Z 1.1.",
"-X-X-X-X6X6X6X6X6X-X3X6XqXqXqXqXqXqXqXyXyXyX6X6X6XqX6X6X6X6X6X6X6X3X6X6X6X6XqX6X3X6X6X3X6X<X6X-X3X6X6X6X3X3X3X6X6X6X6X6XqXyXyXyXyXeXyXeXtXtXtXtXtXtXtXtXtXmXmXmXmXmX8XZ b b Z Z b v v l z l x x x x x m H =.=.=.&.&.=.=.=.=.&.&.=.=.n b i =.=.=.n x n n n r l < o 9 > X X X X X X X a g     o . o ; s D ) ) ) w.i.a.a.l.l.r.C = : : i r r x x c m &.$.;.;.*.*.A.&XaXnXnXtXtXtXtXeXeXeXeXeXeXeXeXtXtXtXtXtXtXtXwXwXwXwXwXwXwXwXwXwXyX{.}.}.;X+...` ` ` p.[ ` u.a.a.s.a.a.r.r.s.) F y.y.r.1.C 1.1.1.<.<.,.F ,.,.,.,.1.Z 1.F Z Z 2.",
"3X-X-X-X6X6X6X6X3X3X3X6X3X6X6XqX3XqXqXqXyXyXqX6X6XqXqXqXqX6X6X6X6X3X6X6X6X6XqXqX-X3X3X3X6X<X6X6X3X6X6X6X3X-X3X6X6X6XyXyXyXyXyXyXyXeXyXyXtXtXtXtXtXtXtXaXtXmXmXmXmXmXoXH b b b b b v l l l l v v x b m m n =.=.=.&.&.=.=.=.=.=.&.&.=.n =.y x =.=.=.H x c n n x u =       X X X   X X 3 g X   o   . o - ; 7 a s B ) r.a.).a.G i : : < i r r r r c m $.$.&.&.&.;.-.2.@XmXnXtXtXtXtXeXeXeXeXeXeXeXeXyXtXtXtXtXwXtXtXtXwXwXwXwXwXwXwXwXyX{.}.}.;X+.] ` ` ` p.[ ` u.i.i.a.a.a.' r.s.) r.F 1.F 1.C r.2.1.<.<.<.Z ,.1.,.,.1.Z 1.F Z Z 1.",
"-X3X-X-X6X6X6X3X3X3X-X-X-X3X-X3X6X6XqXqXqXqXqX6XqXqX6XqXqXqXqXqX6X6X6X6X6X6X6X6X6X6X6X6X6X6X3X3X6X6X6X6X3X3X6XqX6XyXyXyXyXyXyXyXyXeXeXeXtXtXtXtXtXtXtXtXnXnXmXmXmXmX' Z b b b v G l l l l v v v m b n b n n =.=.=.=.=.=.=.=.=.=.=.&.=.&.n < c =.-.=.=.m n c n v i o   X X X X   X X = d t , - + & & & o @ $ & - > a A p.F r i < = i r r r x x c x c c $.&.&.-.&.;.3.7XnXtXtXtXtXrXeXeXeXeXeXeXeXyXtXyXtXtXtXtXtXtXtXtXwXwXwXwXwXwXwX{.}.}.OX+.] _ ` ` u.[ ` i.a.i.a.a.a.) r.y.' r.F G r.F F t.1.,.<.<.,.S ,.1.,.Z t.F 1.F Z G ,.",
"3X3X-X-X3X3X3X-X-X-X-X-X-X-X3X-X-X-X3X3X6XqXqXqX6X6X3XqXqXqXqXqX6X6X6X6X6X6X6X6X6X6X6X3X6X6X3X3X3X6X6X6X3X3X6X6X6XqXqXyXyXyXyXyXyXeXyXeXtXtXtXtXtXtXtXtXnXnXmXmXmXwXG Z b b v l G l u r z z z x x m n n n c n =.=.=.=.=.=.=.=.=.=.=.=.&.=.l z n =.=.-.n x n c n v =   X   X X X X X = h Z Z b u s s a > & o @ @ & & ; g M i v < = i x x n x $.c m x m $.&.*.>.;.&.&.OXnXnXtXtXtXrXeXeXeXeXeXeXrXtXtXtXtXtXtXtXtXtXtXtXwXwXwXwXwXwXwX{.}.}.-X+._ _ ` ` u.[ ` i.a.i.a.a.a.) t.s.' G y.y.,.,.A r.1.,.<.<.Z S 1.1.1.Z 1.Z 1.F Z G ,.",
"3X6X3X-X-X-X-X-X-X-X-X-X-X3X3X3X3X6X3X6XqXqXqXqX6X6X6X6XqX3XqX3X6X6X6X6X6X6X6X6X6X6X3X3X6X3X6X3X-X3X6X3X6X6X6X6X6XqXqXeXyXeXyXyXyXyXyXyXtXtXtXtXtXtXtXnXnXnXmXmXmX8X1.G v b l l G u u z l v v b x x x n H =.n =.=.=.=.=.=.=.-.-.=.=.&.=.c n i c &.=.=.=.b r n n n u o   X X   X X X - Z 3.=.=.n Z F A A g 7 ; & $ $ & 7 y : r u < i r x b r $.&.$.m $.$.;.:.*.-.;.-.8XnXtXtXtXtXeXeXeXqXeXeXeXeXyXtXtXtXtXtXtXtXtXtXwXwXwXwXyXwXuXwX{.}.}.<X+.@._ ` ` [ [ ` u.i.u.a.r.u.' s.y.' S t.y.,.1.C r.1.,.<.<.Z S ,.,.1.,.t.,.1.G Z G 1.",
"3X6X-X-X-X3X-X-X-X-X-X-X-X3X-X-X3X3X-X3X6X3X6X3X3X6X6X6X3X3X3X3X6X6X6X6X6X6X6X6X6X3X3X3X6X6X3X3X-X3X6X3X6X6X3X6X6XqXqXqXqXqXyXyXyXeXeXeXtXtXtXtXtXtXtXnXnXnXmXmXmX&X1.v v C u l G u u l z z b n b x x x x b =.=.=.=.=.=.=.=.=.-.=.=.&.&.c &.v x c &.=.-.=.M y n n b , .   X X X X X t 3.3.=.=.=.3.3.<.F ) ) A g 7 > & , i i i x r r i i r r r x c &.&.;.;.*.;.;.-.A.wXnXtXtXtXtXeXeXeXeXeXeXeXeXyXyXtXtXtXtXtXtXtXtXwXwXwXwXyXyXwXwX{.}.}.<X+.@._ ` ( [ ` ` u.i.u.a.F ' r.s.a.' F F r.F 1.d r.1.,.Z Z F S ,.,.1.,.t.,.2.r.a.a.a.",
"-X-X-X-X-X-X-X3X3X3X-X-X3X3X3X3X-X-X-X-X3X3X3X3X3X6XqX3X3X3X3X-XqX3X3X-XqXqXqXqX6X3X3X3X6X6X6X6X3X6X3X6X6XqX6XqXqXqXqXqXyXyXyXyXyXeXeXeXtXtXtXtXtXtXtXmXnXnXnXmXmX8XZ v v l l G G u u r r z v b b m n n n v x =.=.=.-.=.=.=.;.;.=.=.&.$.&.$.=.r c &.;.;.-.H , < x m v -   X X X X   y 3.=.c c =.-.=.3.3.1.r.w.) ) ' s - r r r r r x r r r r r r m &.;.;.&.&.$.&.-.^.tXnXtXtXtXtXeXeXeXeXeXeXeXrXeXtXtXtXtXtXtXwXtXtXwXwXwXwXyXyXyXwX{.}.}.;X{.@._ _ W [ ` ` u.u.u.a.D F ' s.s.) F C C F ,.u r.1.,.Z Z F A ,.,.,.,.1.Z F H.' F C ",
"-X-X-X-X-X-X6X6X3X3X3X-X-X3X3X-X-X-X-X-X3X3X3X3X-X-X3X3X6X-X-X-X-X-XqXqX3X3XqXqX6X3X3X3X6X6X6X6X6X6X6X6X6XqXqXqXyXqXyXqXyXyXyXyXyXyXyXeXtXtXtXtXtXtXtXtXnXmXmXmXmXoXb l v l l H b u u u u z z x v m =.3.=.=.b x &.c =.-.-.;.&.=.=.=.&.&.&.$.&.x c &.&.-.-.=.Z = = l b <       . X   y n n m m $.=.-.-.3.3.2.2.r.i.a.D : r r r r r r r r r r r x m c $.&.$.$.$.&.-.8XnXnXnXtXtXtXeXeXeXeXeXeXeXtXeXrXtXtXtXtXtXtXtXtXtXwXwXwXwXyXwXwX}.}.}.<X+..._ _ W [ ` ` u.u.u.a.F F ' s.i.) F d u r.,.u r.,.Z Z Z F C Z Z F Z F G C M s.a.F.",
"-X-X-X-X-X-X3X-X-X3X3X-X-X3X6X-X-X-X-X-X3X-X3X3X-X3X3X3X6X3X-X3X3X6X6X3XqX3XqXqX3X6X3X-X6X3X6X6X6X6X6X6X6XqXqXyXqXqXyXyXyXyXqXqXyXyXyXyXtXeXtXtXtXtXtXtXtXmXmXmXmXK.v v v v b H v l u u l l l x x x n -.-.-.=.n m m x =.-.-.;.=.&.&.&.&.&.c c b x c &.;.-.-.=.l = O y M @     . X o i z x m m $.=.=.-.-.-.-.3.y.a.i.s < i r x z r r r r r r r x m c c $.$.$.&.*.-.7XnXnXtXtXtXtXrXrXeXeXeXeXeXtXrXeXtXtXtXtXtXtXtXtXtXwXwXwXwXyXyXyX}.}.}.OX...._ } W [ ` ` u.u.i.p.' F ) s.a.) F h C r.,.d s.,.Z Z Z F C F Z Z F Z Z G u i y y ",
"-X-X-X-X-X-X-X3X3X6X6X-X-X-X3X-X-X-X-X-X-X-X-X-X-X-X3X-X3X3X3X3X3X6X6X6XqX3X3XqX3XqXqXqXyX6XqX6X6X6X6X6X6XqXqXqXqXqXyXyXyXqXqXqXeXeXyXeXtXyXtXtXtXtXtXtXnXmXmXmXmX{ b b v n 3.H l u u u z l v v v x n n =.-.-.3.=.n x x x =.;.;.=.&.&.&.&.&.c n r c &.&.-.-.3.H u + O , > $ . . $ , y x m c $.=.=.=.=.=.-.>.>.3.4.t.: < i i r x x x x x x x c c $.$.$.$.&.&.*.*.;.7XnXnXtXtXtXtXrXrXeXeXeXeXeXtXrXeXtXtXtXtXtXwXtXtXwXtXyXwXwXyXyXyX}.}.{.OX..o.] ` W [ ` ` u.u.i.u.u.' ) s.a.) F C r.F F d t.,.Z ,.Z ,.C ,.F ,.,.Z G Z C C h d ",
"-X3X-X-X-X-X-X3X-X-X-X-X-X-X-X-X-X-X-X-X-X-X-X-X;X-X-X-X-X3X6X3X6X3X6XqXqXqXqXqXqXqXqXqXqX3XqXqX3X3X3XqXqXqXqXqXqXqXqXqXyXyXyXqXyXeXeXeXrXtXtXtXtXtXtXtXnXmXmXmXmX} b b b H 3.n l u u l z l v v b b n m c &.=.-.-.=.=.c n r c =.x c &.&.&.&.c m z x &.&.-.-.-.3.b : O O & $ % . , u v n n c $.&.-.=.=.=.=.-.>.>.>.3.Z i i i i r x m m m c $.$.$.&.&.&.&.;.;.;.;.-.wXnXnXtXtXtXtXrXeXrXrXrXeXeXeXeXeXtXtXtXtXtXtXtXwXyXwXwXwXwXyX6XyX}.}.{.OX@.X._ ( W [ ) ` u.u.u.u.u.' ' a.a.D F F s.G F d r.,.Z ,.Z ,.C ,.,.F F Z S C G Z G G ",
"3X3X-X-X-X-X-X-X-X-X-X-X-X-X-X-X-X-X-X-X-X-X-X-X-X-X-X3X3X3X3X3X3X6X6X6XqXqX3X3X3X3XqX6XqX3X3X-X3X3XqXqXqXqXqXqXqXqXqXqXqXyXyXyXeXyXyXeXyXyXtXtXtXtXtXnXnXnXnXmXmXf.b b H 3.H v l l l l z l v v b b n n n c c &.=.-.-.-.-.=.c &.&.m m c &.$.c x v i c &.=.=.=.3.H i = + O . & - y v b c &.&.&.&.;.-.-.=.=.-.>.b.>.>.>.3.r i i r m m m m c &.;.c c &.&.$.$.$.&.;.-.7XnXnXtXtXtXtXrXeXeXeXrXeXeXeXrXrXrXtXtXtXtXtXtXyXyXwXtXyXwXyX7XyX}.}.{.OX@.X.( B W [ } ` u.u.i.' u.r.' a.a.` F s.s.G F d r.<.G Z Z F C F ,.F F F 1.,.Z <.G G ",
"-X-X-X-X-X-X-X-X-X-X-X-X-X3X-X-X3X3X3X-X-X-X-X-X3X-X-X-X-X-X-X-X-X-X-X6X3X3X3X3X3X6X6XqX-X-X3XqX3XqX6X3X3XqXqX6XqXqXqXqXeXyXyXyXyXyXeXeXyXeXtXtXtXtXtXvXnXnXnXmXmXp.b b 3.3.b v l l l l l v v b b m n n n =.=.=.=.;.;.-.-.-.-.;.;.&.&.c $.c c x i < x $.=.=.&.=.-.l < = = o : y z x n c &.&.;.-.*.-.-.;.=.-.b.>.:.*.>.b.=.i i x c m m m m c *.;.&.;.;.$.$.&.*.*.B.7XnXnXtXtXtXtXrXrXeXrXeXeXeXeXrXtXtXtXtXtXtXtXtXyXtXyXyXwXwXwXyXyX}.}.{.OX@.] ` W W [ ` ` u.u.u.r.u.u.) ) u.D F a.t.G ,.M r.<.G Z Z F C F ,.,.F F ,.Z <.,.<.<.",
"-X-X-X-X-X-X-X3X3X-X3X3X3XqX3X-X3X-X-X-X-X-X;X-X-X-X-X-X-X-X-X-X-X-X3X-X-X3X3X-X3X6XqX6X3X3X6X3X6XqX3X3X3XqX6XqX6XqXqXqXyXyXyXyXeXeXyXyXrXeXtXtXtXtXtXvXnXnXnXmXtX' v n H H b l u l l l v v v b n n n c n c c c &.&.&.&.;.;.;.;.;.;.=.=.=.=.&.c r i i c =.c c &.-.n < < : = < v v x n n c &.;.*.*.>.>.*.*.>.v.:.:.:.:.b.H i i m c c c m m c $.;.*.:.:.*.*.*.:.v.b.7XnXnXtXtXtXtXrXeXeXeXeXrXeXeXeXrXeXtXtXtXtXtXtXtXtXyXyXyXyXyXyXyX}.}.{.OX.._ W W W ' ` ` u.u.u.' u.u.A D ' D r.s.t.G F M r.Z G Z Z F C F F F Z F ,.Z <.<.<.Z ",
"3X3X3X3X3X3X3X3X-X3X3X-X-X-X-X-X-X-X;X-X-X-X;X;X;X;X-X-X-X-X-X-X-X-X-X6X3X6X-X-X3XqX3X6XqX3X6X6X6XqX3X3X3X3X3X6X6XqXqXeXyXyXyXyXyXyXeXeXrXeXyXtXtXtXtXtXnXnXnXmXwXF v n Z Z G u u l l l l v v b b n =.=.=.=.=.=.=.;.-.-.-.-.-.-.;.&.=.=.&.=.&.c c n : x c n m c -.3.y < < = y v z x n n c &.*.*.*.:.:.:.:.>.b.b.v.v.v.-.r i r &.c c c c c c c c &.;.*.*.*.*.*.v.B.wXnXnXtXtXtXrXrXrXeXeXeXrXrXrXtXtXeXtXtXtXtXtXtXtXtXyXyXwXyXyXyXqX}.}.{.OX.._ W W ` ' ` ` r.u.u.' u.u.) r.) ( s.d 1.G F M r.Z G Z Z F C F F F F F F Z <.G b G ",
"qX3XqXqX-X-X-X-X-X-X-X-X-X-X-X-X;X;X;X;X;X-X;X;X;X;X;X-X-X-X-X-X-X-X-X6X3X6X-X-X3X3X3X6X-X6X6X6X-X3X3X6X6X3X3X6XqXqXqXyXeXyXyXyXyXyXeXrXrXtXtXtXtXtXtXbXnXnXnXMX$XG l b b G C u u l l l v v b b b n n =.=.=.=.=.=.;.-.-.-.-.-.;.;.&.&.&.&.&.c c c =.n r m m m m =.3.b < < < i i i r x m m =.>.>.>.>.:.v.v.n.b.n.M.n.b.&.i < r c &.&.&.&.$.$.$.$.$.$.$.&.&.&.&.:.).aXnXtXtXtXtXtXrXrXeXeXeXeXrXrXeXtXeXtXtXtXtXtXtXtXtXtXyXwXyXyXyX1X}.}.{.+X.._ T T ` ' ` ` ' u.u.' u.u.' u.F D F d F G F M r.Z G Z G F M F F F F F Z Z ,.G v G ",
"-X3X3XqX-X-X-X-X-X-X-X-X-X-X-X-X-X;X;X;X;X;X;X;X;X;X;X-X-X-X-X-X3X-X3X6X3X3X-X6XqX3X-X6X6X3X-X-X-X-X-XqX6X6X6XqXqXqXqXeXeXyXyXyXyXyXrXrXrXtXtXrXrXtXtXbXnXnXnXMXoXy u l l C l u u u u z l v v v v m n n n n c c c &.=.&.;.;.;.;.&.&.&.&.$.c c c c c c b r x x x n H 3.i i u l r r r x m c =.-.b.>.v.v.b.v.b.b.n.M.n.n.v.3.i i x c &.-.-.*.*.*.*.-.*.;.;.;.;.&.-.#XnXnXnXnXtXtXrXeXeXeXeXrXrXrXeXeXtXeXtXtXtXyXyXyXtXtXtXyXyXyX7XyXqX| }.{.+X+...W T _ [ ` ` ' u.p.' u.u.' u.' M d d F S F M r.Z G Z G G M F F F F Z S Z Z G G G ",
"-X3X-X3X3X:X-X-X-X-X-X-X-X-X-X-X;X;X;X;X;X;X;X;X;X;X;X;X-X-X-X-X-X-X3X3X6X3X-X3X3X-X3X6X6X6X3X3X-X-X3XqX6X6X6XqXqXqXqXeXyXyXyXyXyXyXyXrXrXtXtXtXrXtXtXtXnXnXnXmXoXi y u M u M l l l l l z x v v v x x x n c c c c c &.&.&.;.&.&.&.&.$.c c c c c c c c c r r r x n c 3.b i r l n =.c c c c =.&.-.*.b.b.b.v.v.M.M.M.n.M.n.N.v i i x m &.v.v.b.v.b.v.>.:.:.>.*.&.y.wXnXnXnXtXtXtXtXeXeXeXeXeXeXrXrXeXeXeXtXtXeXeXtXtXyXtXtXyXyX6X6X6X6X| }.{.+X{...W T _ ] ` ` r.u.u.r.u.u.u.u.' d C S D S F M r.Z G Z G Z M Z F F Z Z ,.d.,.C M u ",
"-X:X-X3X:X:X-X-X-X-X-X-X-X-X-X-X-X;X;X;X;X;X;X;X;X;X;X;X-X-X-X-X-X3X3X3X3X3X-X3X3X3X3X6X6X3X3X3X6X6X3X3X3X3X3X:XqXqXqXeXeXyXyXyXyXyXyXyXeXtXtXrXrXtXtXnXnXnXMXmXT.M i t M d u l l v v v v v x b =.n v x m c =.c c c &.&.&.&.&.&.&.&.&.&.&.&.&.c c &.c c r i r x m n =.=.i i i x =.=.&.&.c c c $.$.:.v.v.v.b.v.v.M.M.M.m.b.v r r i x c *.*.>.v.b.b.>.:.:.>.:.*.).mXnXnXnXtXtXtXrXeXeXeXeXrXrXrXrXeXtXtXrXtXtXrXwXtXeXyXyXyXyXyX6X6X-X| }.{.+X{...T B _ ] ` ` ' u.u.u.u.u.' u.u.d F r.C S F M r.Z G G G Z d Z 1.d.`.[.[.[.2.t t y ",
"-X:X3X3X3XqX:X-X-X3X-X-X-X-X-X-X;X;X;X;X;X;X;X;X;X;X;X-X-X-X-X-X-X3X3X6X6X6X6X6X3XqX3XqX6X6X6X6X6X6X6X3X3X-X-X3XqXqXqXqXqXqXyXyXeXyXeXrXrXtXtXrXtXtXtXnXnXnXnXmXf.b t < t M y l l l v v v b b n =.=.n n m c =.&.=.&.&.&.&.;.;.-.-.-.=.$.&.&.&.&.&.c c m z : i x x b b 3.r u u i r x c &.;.&.$.c m $.*.v.v.m.v.v.v.M.v.n.-.v r p r i c ;.&.*.*.*.:.:.:.:.:.*.*./.mXnXnXnXnXtXtXrXeXeXeXeXrXrXeXeXrXrXeXeXtXtXtXrXeXeXtXeXeXyX6X8X8X-X| }.{.,X+.@.T B _ ] _ ` ' u.r.u.u.u.) u.u.M r.r.C F F M ,.Z G G ,.y.d.A.`.`.`.`.N.N.d.d.d.y.",
"-X:X3X3X3X3X-X-X;X-X-X-X-X-X-X;X;X;X;X;X;X;X;X;X;X;X;X-X;X-X-X-X-X3X-X3X6X6XqXqX6X6X6XqXqX3XqX6X6X3X3X3X3X3X-XqXqXqXqXqXqXyXyXyXeXeXeXeXtXtXrXtXtXtXtXnXnXnXnXmXP.Z y t < t u l u l l v v n H H H H n n n n n =.n =.=.=.=.;.-.-.-.-.&.&.&.&.$.c c c m x i = < r r b i n v b b r r r r x $.*.*.&.c c $.;.n.m.b.:.v.v.v.n.n v r r r x c &.&.&.;.*.*.*.*.*.*.*.*._.mXnXnXnXnXtXtXeXeXeXeXeXeXeXeXeXrXeXeXeXeXtXtXtXyXyXyXeXeXyX6X<X-X-X| }.{.,X+._ T T _ ] ` ` [ u.r.u.u.u.D u.' M s.s.A F S M d.A.[.[.[.[.[.[.[.'.'.`.`.A.N.N.A.`.",
"-X-X-X-X3X3X:X-X-X-X-X-X-X-X-X;X;X;X;X;X;X;X;X;X;X;X;X;X-X-X-X-X-X-X-XqXqX3XqXqXqXqXqXqX6X3X-X3X3X3X3X-X6X6X-XqXqXqXqXyXeXeXeXeXeXeXeXeXtXtXrXtXrXtXbXnXnXnXnXMXoXZ M y < < y u l l z z x x m b n n n b m m c c c c &.&.c =.-.-.-.=.&.;.;.;.=.&.c m m x : = : i r v i r b =.n l v b v u r &.v.*.;.$.c c b.m.m.v.v.M.M.v.m r m r r x m $.&.&.;.*.*.*.*.*.*.*.*.-.7XnXnXnXtXtXtXeXeXeXeXeXeXeXeXeXrXrXeXtXeXrXtXrXwXyXeXeXeXyX8X-X-X-X| }.{.,X+._ W T _ [ _ ` ' u.' u.u.u.F u.' A F ' F F S F `.'.'.'.[.[.[.[.[.[.[.[.[.[.[.[.[.[.",
"-X-X3X-X:X3X3X-X-X-X-X-X-X-X;X;X;X;X;X;X;X;X;X-X;X;X;X;X;X;X;X-X-X3X-X3X-X-XqX3XqX3X-X-X-X-X-X3X3X3X-X-X6X6X6XqXqXqXqXeXyXyXyXyXeXeXeXtXtXtXrXrXrXtXbXbXnXMXMXmXwXZ y y t < < t l u z z z x x x b b b b m m n c c c c c c ;.-.;.;.-.-.-.;.=.-.=.=.&.&.x : = = < r r i i z =.n b r n G u t r ;.v.v.*.&.c &.n.m.n.v.v.M.b.r r c m x r x m $.;.;.*.*.;.;.*.*.*.*.>.8XnXnXnXtXtXrXeX4X4XeXeXeXeXeXeXrXrXeXtXrXtXtXrXrXyXeXeXeX6X-X-X-X-X| }. X,X.._ W T _ [ ` ` ' ' ' u.u.u.F u.' M d C r.S S F `.`.`.`.`.`.`.`.`.`.V.`.`.`.`.`.'.'.",
"-X4X-X-X:X3X3X-X;X-X-X-X-X-X-X;X;X;X;X;X;X;X;X-X;X;X-X;X-X-X;X-X-X-X-X-X-X-X3X:XqXqX3X3X3X3X3X3X-X3X-X-X6X6XqXqXqXqXqXeXeXeXeXyXeXeXeXtXtXtXrXrXtXtXbXbXnXnXMXmXmX{ M y y < < < u l l z z v v v b v b x v v n n n c c m c -.*.;.-.-.-.-.=.=.=.&.&.&.&.m y < : : r r r i i n =.n l v G C M l x *.n.b.:.;.$.;.n.m.m.v.M.-.r r m c c m x x c &.*.*.:.*.;.*.*.*.-.>.7XnXnXnXtXtXeXeXeXeX4XeXeXeXeXeXrXtXtXtXeXtXtXrXrXyXeXeXeXqX-X-X;X=X| }. X,X ._ T g _ ] ` ` ' r.' u.u.u.) r.' B C u r.A A F `.`.`.`.`.`.`.`.`.`.`.`.`.`.`.`.`.`.",
"-X-X-X:X:X:X3X3X-X-X-X-X;X-X-X;X;X;X;X;X;X;X;X-X-X-X-X;X;X;X;X-X-X-X-X6X3X-X-X3XqXqX-XqX-X3X3X3X3X6X3X3X-X6XqXqXqXqXqXeXeXeXyXyXeXeXeXeXrXtXtXrXtXtXbXbXbXnXMXMXMXOXM y y y < < < l z l l b b b b v v u l v v b n c c c &.-.-.-.-.-.-.-.=.=.&.c &.&.&.&.x y < : r r r z u r ;.&.b u y G n n m c v.n.n.b.-.$.*.m.m.m.M.$.i r m m c c c x x c :.*.:.*.;.*.*.:.b.B.wXnXnXnXtXtXrXrXeXeXeXeXeXeXeXeXrXtXtXtXtXeXtXeXrXyXyXeXeXyX8X;X;X=X| }. X+X@.^ T B _ _ ( ` ' ' ' u.A u.F ' ) A ' F F A A F `.`.`.`.`.`.`.`.`.`.`.`.z.`.d.d.z.`.",
"-X3X3X4X:X:X3X3X4X-X-X-X-X-X-X;X-X;X-X-X;X;X;X;X;X;X-X;X;X-X;X;X-X-X3X3X3X-X3X-XqXqX-XqXqXqXqXqXqX3XqXqXqX-XqXqXqXqXqXeXeXyXeXyXyXeXeXeXtXtXrXrXtXtXtXbXbXnXnXMXMXmXV y y y < < < y l l l v b b v v u u l v v b b n n =.;.*.-.-.-.=.=.=.&.&.c $.&.=.&.&.n i : = n z x b v r c ;.c v i b n c c c *.n.n.n.n.*.;.v.Z.m.n.x i r m m m c c c c c ;.*.:.*.*.*.:.v.b.B.mXnXnXtXtXtXrXrXeXeXeXeXeXeXeXeXeXrXeXtXtXtXeXtXeXtXyXeXeXyX3X;X;X=X| }. X+X.._ W T _ _ _ ` ' ' ' u.A u.D ' ) D s.r.A S A F `.`.`.`.`.`.`.`.`.`.`.`.z.z.`.`.d.d.",
"-X-X:X4X3X:X3X3X3X:X-X-X-X-X-X;X;X-X;X;X;X=X;X;X;X-X;X-X;X;X;X;X;X-X-X-X-X3X3X3XqXqX3XqXqXqXqX3XqX3XqXqXqXqXqXqXqXqXqXeXeXeXeXyXeXrXrXtXrXrXtXrXrXtXtXbXbXbXnXMXMXmXj.y y y y < < < l z l v b b b v u u z l v v b n H n ;.-.>.-.-.=.=.&.&.c c $.-.=.&.&.m i : : &.x m n c z x *.b v i v n n $.=.;.:.v.n.m.M.*.v.m.m.>.r r r m c x x m c c &.&.;.*.*.:.:.:.v.b._.mXnXnXnXtXtXrXeXeXeX4XeXeXeXeXeXeXtXrXtXtXeXeXeXeXeXeXeXyXqX3X;X;X=X| }. X+X@._ T T _ _ _ ` ) ' ' ' ) u.D ' ) D r.r.A S A ,.`.`.`.`.`.`.`.`.`.`.`.`.`.`.`.`.z.d.",
"-X-X4X:X3X:X3X4X-X-X-X-X-X-X-X;X;X;X;X;X;X;X;X;X;X-X;X;X;X;X-X-X-X-X-X-X-X3X-XqXqXqXqXqX-XqXqX3XqXqXqXqX3X3XqXqXqXqXeXeXeXeXyXyXeXeXrXeXrXrXtXtXrXtXtXbXbXbXnXMXMXmX<Xu y y y y : : y l l v b b v z l u z z l v b n n n ;.-.-.-.=.=.&.$.c c c &.-.;.=.c r : < r &.m c &.n x r =.b G v r c =.c &.;.*.:.v.n.m.b.v.m.m.=.x x r x c c x x c $.&.;.;.*.:.:.v.v.b.b./.nXnXnXnXtXtXrXrXeXeXeXeXeXeXeXeXeXrXtXtXeXeXeXeXeXeXyXqXqXqX-X;X;X=X| }. X.X.._ W T _ _ ( ` ) [ ' ' ) ' D ' ) B d D F D A ,.`.`.`.`.`.`.`.`.`.`.`.`.`.A.`.A.5.5.",
"-X-X-X4X:X-X:X4X4X:X-X-X-X-X-X;X;X;X;X;X;X;X;X;X;X;X-X-X;X-X-X-X-X-X3X6XqXqX3XqXqXqXqX3XqXqXqX3X3XqXqXqXqXqXqXqXqXqXqXeXeXeXeXeXyXtXtXtXeXeXtXtXrXtXrXbXbXbXbXMXmXmX8XM y y y y < : < u l l b v v l l z z z z v b n b n -.-.-.=.c &.$.&.c $.&.*.-.;.=.m < < y m =.&.c &.c n z c =.=.n r m =.&.;.*.*.*.:.v.n.m.n.n.>.x x x x r c c m x x c ;.*.:.:.b.v.b.v.b.>.&XnXnXnXnXtXtXrXeXeXeXeXeXeXeXeXeXeXeXrXeXeXeXeXyXyXyXyXyXqXqX-X;X;X,X}.}. X.X.._ W T _ _ ( ( ) ' ' ' ) ) D ) ' B d d ) C A ,.`.`.`.`.`.`.`.`.`.`.`.`.z.`.`.`.V.0.",
">X-X:X:X:X:X:X3X4X:X:X-X-X-X-X;X-X;X;X;X;X;X;X-X-X-X-X-X-X-X-X-X-X-X-X3X3XqXqX3X3X3X3X:XqXqX3XqXqXqXqXqXqXqXqXqX3XqXqXeXeXeXeXyXeXeXtXtXtXtXeXrXrXrXbXbXbXbXnXnXmXmXyXM y y y y y : < < l v v z v l l z z l z v b b v =.-.-.=.c c &.c &.&.&.*.-.-.;.c x u i r n =.=.&.&.c n x x -.*.n x x =.&.;.*.*.:.:.v.v.n.m.b.m x x x x x x &.c c x m *.v.v.b.b.b.b.b.>.4.uXnXnXnXvXtXtXrXrXeXeXeXeXeXeXrXrXeXrXrXeXeXqXeXeXyXyXyXyXqXqX-X;X=X,X| }. X.X.._ W T _ _ _ ` ' ' ' ' ' ) A ) ' A D y F C A w.`.`.`.`.`.`.`.`.`.`.`.`.`.`.`.`.`.V.",
"-X-X=X:X:X:X:X:X4X4X:X-X-X;X;X-X-X-X-X-X-X-X-X-X-X-X-X-X-X-X-X-X-X-X-X-X:X3XqX3X3X3X3X:X3X3XqXqX3X3X3X3XqX3X3X3X3XqXqXqXqXyXeXyXeXeXeXeXrXeXtXtXrXrXrXbXbXbXnXnXMXmXiXM y u u y y < < < u l l l v v l u z u r v b v b -.-.=.c &.=.=.c c c *.b.b.-.c z x v u i &.&.&.;.=.;.=.c m -.*.&.x r n ;.;.*.*.:.:.:.:.v.m.-.i x x x x x x c &.c c m c :.v.b.b.v.v.v.>._.mXnXnXnXvXvXvXrXrXrXeXeXeXeXeXrXrXrXrXrXeXeXeXqXeXqXqXqX6X6X3X-X-X=X,X| }. X.X..^ W T _ _ _ ` ' ' ' ) ' ) A ) ) D r.C D A A d <.<.1.2.d.d.d.d.`.`.`.`.`.`.`.`.`.`.",
"=X-X=X-X:X:X:X4X4X4X3X-X-X-X-X-X-X-X-X-X-X-X-X-X-X>X-X-X-X-X-X-X-X-X-X3X:X3X3X3X3X3X:X:XqXqX3XqX3X-X-XqXqX3X3X3X3X3XqXqXqXyXeXyXeXeXeXeXeXeXtXtXtXrXrXbXbXbXbXMXMXMXmXD y y u u u y , < < l l l l v l l l z u l v v b -.=.n &.-.-.=.c c c -.b.*.&.r z x l b r &.;.c ;.-.;.;.=.&.-.b.;.m r c ;.;.;.*.*.:.v.v.:.m.c i x x x x m x m &.&.c c x c ;.*.:.:.:.:.>.#XnXnXnXvXvXvXvXrXrXeXeXeXeXeXeXrXrXrXrXrXeXqX4XqX3XqX3X3X3X3X-X-X;X=X,X| }.{.+X..^ T g _ _ ( ` ' ' ' ) u.) D ` ) M F ' C D A d G G h p C S M Z Z Z ,.<.2.2.2.4.d.d.",
"=X-X-X:X:X:X4X4X4X4X4X:X:X:X-X-X-X=X-X=X-X-X-X-X-X-X-X-X-X-X-X-X-X-X:X:X:X:X3X3X3X3X:XqX4XqXqX3X3XqXqXqXqX3XqXqXqXqXqXqXqXeXyXyXeXeXeXeXtXrXrXrXtXtXrXrXbXbXbXbXMXmXmX{ y i y u u y < < < y l l l v l l l z u z v v m =.c n =.-.-.=.n m c v.*.m c r r n r l b &.-.c ;.>.&.&.&.-.*.b.*.c x x ;.-.*.*.*.:.v.M.v.b.r i x m x m m x m &.&.&.c c m c &.*.*.:.*.4.7XnXnXnXbXvXvXtXrXeXeXeXeXeXeXeXrXrXrXtXrX4X3X3X3X3X3X-X-X-X-X-X-X;X;X,X| }. X.X..^ T K _ _ ( ` ' ) ' ) u.' D ` D s y r.C F A g G G d h G S M F F F F S F u t C C : ",
":X-X:X4X:X4X4X:X4X4X4X:X>X>X-X-X=X=X=X=X-X-X-X-X-X-X-X-X-X-X-X-X-X-X-X-X:X:XqX:X3X3X3X4XqXqXqXqX3X3XqX3XqX-X6XqXqXqXqXqXqXeXyXyXeXeXeXeXtXeXrXrXrXrXeXrXbXbXbXbXMXMXmXj.y y i i y y y < < < u l l l l l l l l z z x v n n n ;.-.=.=.b m *.:.&.x &.x i =.b r z c b.&.&.b.;.$.&.>.;.;.b.&.x x =.b.>.:.:.v.v.M.M.;.r r x m m m c m m &.&.&.&.&.c c c ;.*.:.-.@XnXvXnXnXbXvXvXrXrXeXeXeXeXeXeXeXrXrXrXrXeX3X3X3X-X-X-X-X-X-X-X-X-X-X;X,X| }. X.X .^ T f _ _ _ ` ' ) ' ' u.' A ) D M C C A D A g C p d u C ) A ) F S F F F d y C C , ",
":X:X:X4X4X4X:X4X3X4X3X:X>X-X-X-X=X=X=X-X=X=X-X-X-X-X=X=X-X-X-X-X-X-X-X-X:X3XqX:X3X3X3X4X4X:XqXqXqXqXqXqXqX3X-X-X3XqXqXqXeXeXeXeXeXeXeXeXyXtXeXeXyXeXrXrXbXbXbXMXMXMXmX.XM y y i i t y t i < t l l l l l l l l l l l x b n n =.;.=.H x c v.:.$.$.&.v r &.$.x r x -.-.&.b.b.;.&.*.*.c b.;.c x c b.b.v.b.v.v.v.n.c x r r $.m c c c m c &.;.-.;.;.&.c c ;.-./.tXvXvXnXnXvXvXvXrXrXrXeXeXeXeXeXeXrXrXrXrXrX-X-X-X-X-X-X-X-X-X-X-X-X;X;X,X| }. X+X .^ T K _ _ _ ` ' ) ' u.u.' D ' ) A ' d S D D B S G C C y S A ' ) F F F F d t C C , ",
"4X:X:X4X:X:X:X4X4X4X4X:X>X>X-X-X-X=X=X=X=X-X=X=X-X=X=X=X-X;X-X-X-X-X-X-X-X3XqX3X3X3X3X3X3X:XqXqXqXqXqXqXqXqX-X-X3XqX3XqXqXeXeXeXeXeXeXeXeXeXyXeXyXeXeXrXbXbXbXbXMXMXmXOXM y y y y y i t y y i y l l l l l l l l z l x v n n =.=.=.b r -.v.*.c =.=.b n n &.c v r &.B.&.v.b.b.>.:.:.c &.>.$.x x b.v.v.v.:.v.v.:.r x r r c c c c c m m c &.*.*.*.*.&.&.=.U.tXnXvXvXnXnXvXvXvXrXrXrXeXeXeXeXeXeXrXrXrXrXeX-X-X-X-X-X-X-X-X-X-X-X-X;X;X,X| }. X+X .^ T g _ _ ( ` ' ) ' u.u.u.( ) ) D u.D D S F A ' F G G S A A ' ) F F F F M d M C a ",
">X:X>X-X:X:X:X:X4X3X:X:X:X-X-X-X-X=X=X=X=X=X=X=X-X=X=X;X=X-X-X-X-X-X-X-X:X3X3XqXqXqXqXqXqX3XqXqXqXqX3X3X3X3X-X-X3X3XqXqXqXeXeXeXeXeXeXeXeXeXeXeXeXeXrXrXbXbXbXbXbXMXmXOXM u y y y y y < i y y t l l l l l l l l l l v v b n =.=.H x x b.v.*.&.&.=.n H b &.$.n v v -.-.b.>.>.v.b.v.=.m >.;.x x v.v.v.v.:.:.n.=.i x r r m &.c c c c m m c &.*.*.*.-.-.G.tXnXnXvXvXvXnXvXvXvXrXrXeXeXeXeXeXeXeXrXrXrXrXeX-X-X-X-X-X-X-X;X;X;X;X;X;X;X,X| | ,X+X..^ T f _ _ ( ( [ ) [ u.u.p.D ) ) M A ' C F D D u.Z G G S S A ' ' ' F F D C d C A a ",
":X>X>X:X:X:X4X4X:X:X4X:X:X:X-X=X=X=X=X=X=X=X=X=X=X=X-X;X=X=X=X-X-X-X-X-X:X3X3XqXqXqXqXqX4X4X3X3XqXqX3X3XqXqX3X3X3XqXqXqXqXeXqXyXeXeXeXyXeXeXeXeXeXeXrXrXbXbXMXMXbXMXmX8XA u y y y y y y i y y t y l l l l l z z l z l v v n =.=.m z m b.b.;.=.$.=.H n v >.c =.n r =.b.n.v.;.:.n.b.;.m &.*.c x -.n.v.v.v.:.n.n i r x r r &.&.c c c c c c c &.;.*.-._.wXnXnXvXnXvXnXvXvXvXvXrXrXeXeXeXeXeXeXrXrXrXrXrX4X-X3X-X-X;X;X;X;X;X;X;X;X;X=X,XU |  X+X .^ T f _ _ _ ( ) [ ' [ B h.) ' ) g d D A F A D u.G G G S A A ' ) ' F F S A d C D a ",
">X:X:X:X:X:X:X:X:X:X:X:X:X:X-X-X-X=X=X=X=X=X-X=X=X=X-X-X=X=X=X-X;X;X-X-X:X:X:X:XqXqXqXqXqXqXqXqX3XqX3X3XqXqXqXqX3X3XqXqXqXqXeXyXyXyXyXyXeXeXeXeXeXeXeXrXbXbXbXMXMXMXmXuXM u u u u y u u y y i i t u l l l l l l l l l z v b =.=.z b v b.b.;.=.=.c =.n v b.$.c =.m n b.n.n.;.*.n.b.*.c m *.&.x *.m.M.M.n.v.n.r y r x x r c ;.$.c c $.c c c c &.;.y.7XnXnXnXvXvXvXvXvXvXvXrXrXrX4XeXeXeXeXeXrXrXrXrXtX4X-X;X;X;X;X;X;X;X;X;X;X;X;X=X,XU |  X.X .^ T f _ _ W ( ) ) [ ) ` ' ) ' ) g C A A A A B u.A G G S D A ' ) ' F F A A M C D t ",
">X:X-X-X>X:X:X:X:X:X4X:X:X:X-X-X=X-X=X=X=X=X-X=X=X=X-X-X=X=X-X=X;X;X-X-X-X-X:X:X:X3XqXqXqXqXqXqXqXqX3XqXqXqXqXqX3X3XqXqXqXqXqXyXyXyXyXeXeXeXeXeXeXeXrXrXrXbXbXMXMXMXmXmXD u u u u u u u u y i < < i u l l l l l l l l l l b =.n r n v >.b.-.c -.x =.b.m v.-.m n =.x b.n.m.-.*.n.n.*.c x ;.;.m :.M.M.v.b.n.b.i r i r x x x ;.&.$.c $.c c c &.&.3.&XnXnXnXvXnXvXvXvXvXvXvXrXrXrXeXeXeXeXrXeXrXrXrXrXeX4X-X;X;X;X;X;X;X;X;X;X;X;X;X=X XU |  X.X .^ / Y _ _ W ( ) [ u.[ [ ) ) ' ) B D A D A A B u.A C G C D D ' ) ) F ' C D M C D t ",
">X>X>X-X-X>X:X:X:X:X4X4X:X:X-X-X=X-X=X=X=X=X=X=X=X=X=X=X=X-X-X-X-X;X-X;X;X-X-X-X:X3XqXqXqXqXqXqXqXqXqXqXqXqX3X3X3X3XqXqXeXqXqXeXqXyXqXeXeXeXeXeXeXeXrXrXbXbXbXbXMXmXmXmXX.u u u u u l u l y < : : < i u l l l l l l l l v v =.b b n l =.b.*.x -.r =.n.=.-.:.=.x =.m b.n.m.>.*.b.n.*.=.x c -.&.v.n.v.v.b.:.&.r r r r x x r &.&.&.c c c c c &.3.$XnXnXnXnXvXvXvXvXnXvXvXvXrXrXrXeXeXeXeXeXeXrXeXrXrXtX4X;X;X;X;X;X;X;X;X;X;X;X;X;X=X XU | +X+X .^ T K @._ ^ ( } [ { ) u.` ) ' ) B F A D D A A ' S G G C D D ' ) ' F ) C D M C F s ",
">X>X>X:X:X:X:X:X:X4X4X4X:X:X-X-X-X-X=X=X=X=X=X=X=X-X=X=X-X-X-X-X-X;X-X;X;X;X-X-X:X:XqXqX3XqXqXqXqXqXqXqXqXqXqX3X4X4XqXqXqXqXqXqXeXyXqXeXeXeXeXeXeXeXrXtXbXbXbXbXbXMXmXmX.Xu u u u u l l u y t < < i < t u l l l l l l l v v b b n n l m b.&.x =.b n >.b.&.v.;.n m n v.n.m.>.*.v.b.*.=.m x &.&.v.n.M.v.v.c =.r i x r r x x m &.&.$.c c c c 3.#XnXnXnXvXvXvXvXvXnXvXvXvXvXrXrXrXeXeXeXeXeXeXeXeXeXrXrX3X;X;X;X;X;X;X;X;X;X;X;X;X;X,X XU |  X.X| / T f @._ W ( ) [ [ ) [ ` ' ' ' B F A A D A A ' S G C C D D r.' ' ' r.C S M C F s ",
">X=X:X:X:X:X:X:X:X:X4X:X:X:X>X-X-X-X=X=X=X-X=X=X-X=X=X-X=X=X-X-X-X-X=X=X-X-X-X-X:X:X3XqX:X3XqXqXqXqXqXqX3XqXqXqXqXqXqXqXqXqXqXqXeXeXeXeXeXeXeXeXeXeXrXrXbXbXbXbXMXMXMXmX8XM u u u u l l u u u y y i < < t l l l l l l v v v v b b v u v b.x c v =.c =.N.=.>.*.=.x m *.n.m.v.*.:.v.:.;.m m c &.v.:.b.-.c r ;.g.D r x r r x x c &.$.c c c 3.@XnXnXnXvXvXvXvXvXvXnXvXvXtXvXrXrXeXeXeXeXeXrXrXrXrXrXrXrX3X;X;X;X;X,X;X;X;X;X;X;X;X;X;X XU |  X{. ./ T f @._ W ( ' ) [ ` ' ( ` ' } M F A A D A D ) S G C C A D ' ' ' r.r.C D M C F t ",
">X>X:X:X:X:X:X:X:X4X:X:X:X:X:X-X-X-X-X=X=X-X=X=X=X=X-X-X=X=X=X-X-X-X=X=X-X-X-X-X-X:X:X-X:X:X3XqX:X4XqX3XqXqXqXqXqXqXqXqXqXqXqXeXeXeXeXeXeXeXeXeXeXeXrXrXbXbXbXbXMXMXmXmXmXD l l l u l l l u u y y < < : = y l l l l v v v l v b b v u v -.r -.r =.n m N.=.*.>.=.n x &.b.m.M.:.*.v.v.*.c m m $.:.*.v.n x r ;.mXuXj.C x x x x c c $.&.c F $XnXnXnXvXvXvXvXvXvXvXnXvXvXvXrXrXrXeXeXeXeXeXrXrXrXrXrXrXrX3X;X;X;X;X;X;X;X;X;X;X;X;X;X,X XU |  X{. .^ T f @._ W ( } ) u.` A [ M ' ' M D A A D A D D D C G C A D ' r.' ' ' C F M C F d ",
">X>X>X>X:X:X:X:X:X:X:X:X:X4X:X>X-X-X=X=X=X=X=X=X=X-X-X-X=X=X=X=X=X-X-X=X=X=X-X-X-X:X:X-X-X-X:X:X3X4XqXqXqXeXqXqXqXqXqX4XqXqXqXqXqXeXqXeXeXeXeXeXeXeXrXbXbXbXbXbXbXMXmXmXmXj.C l l l l l u u u y y i < = O = y l l l l v v l v b b v u b n i -.r =.&.x B.3.&.b.;.=.x c >.M.M.v.:.b.b.:.&.c m &.*.:.b.i m x -.mXmXmX$XK.' G v x c c n p.&XnXnXvXvXvXvXvXvXvXvXvXvXvXvXvXrXrXrXeXeXeXeXrXrXrXrXrXrXrXrX3X=X;X;X,X;X;X,X,X;X;X;X;X;X;X{.U |  X X ./ T f _ _ W W } ) [ ` A [ s ' ' g D A A A A D D S G C C A D ' ' ' ' F A D C A F d ",
">X>X:X>X:X:X:X:X:X:X:X:X:X4X:X:X>X-X-X=X=X=X=X=X=X=X-X=X=X=X=X-X-X-X-X-X=X=X-X-X-X:X-X:X-X-X:X:X3X4X4XqXqXqXqXqXqX4XqXqXqXqXeXqXqXqXeXeXeXeXeXeXeXeXrXrXbXbXbXbXbXMXmXmXmXOXl G l u u u u u u y y u : O = - < u l l l v v l v b b l r H c u -.x =.&.x 3.3.c v.*.;.n m *.M.n.:.:.v.b.b.&.c c -.*.v.b.i n x 4.mXmXnXmXmXtX8XoXg.h.S.oXtXnXnXnXnXvXvXvXvXvXvXvXvXvXvXvXvXrXrXrXeXeXeXeXeXeXrXrXrXrXrXeX4X;X;X;X;X;X;X,X,X;X;X;X;X;X;X{.U |  X{. .^ T f ^ _ T W ) ) [ ) D } s ' ) g A A A A A D D A C C C A D ' r.' ) F S D C D D d ",
":X>X>X>X:X:X:X:X:X:X:X:X:X4X:X:X:X-X-X-X-X-X=X=X=X=X=X=X=X-X=X=X=X=X-X=X=X=X=X-X-X-X:X:X:X:X:X:XqXqXqXqXqXqXqXqX4X4X4XqXqXqXqXqXqXqXeXqXeXeXeXeXeXeXrXrXbXbXbXbXMXMXmXmXmXuXZ F u u u u u u u u l y = : : < < i u l l v v l v b b l r H &.r b.x =.;.m b -.=.;.v.&.=.x &.v.m.:.*.:.v.n.*.c c v.b.v.-.i n x -.tXmXnXnXnXnXnXmXnXvXvXnXnXnXnXvXvXvXvXvXvXvXvXvXvXvXvXvXvXrXrXeXeXeXeXeXeXrXrXrXrXrXrXeX-X=X;X;X;X,X;X,X;X,X;X;X;X;X=X{.U |  X X+.^ T f _ _ T W ) ) ) ) ( ) g ` ) f A A A D A D D G C h C A D ' r.' ' F S F D D B d ",
">X>X>X:X>X>X:X:X:X:X:X:X:X:X:X4X:X:X-X-X-X=X=X-X-X=X=X=X=X-X-X=X=X=X-X-X-X=X=X-X-X-X:X:X:X:X:X4XqXqXqXqXqXqXqX:X:X:X4XqXqXqX:XqXqXqXeXeXeXeXeXeXeXrXrXtXbXbXbXMXMXMXmXmXmXpXs.u u u u u u u u l u < y t < < i i < y l l v l l v b r r b -.i b.=.c -.m r >.-.c b.;.;.m c v.m.v.;.;.*.b.v.$.&.:.n.M.=.r n x b.$XmXnXnXnXnXnXnXnXnXnXnXnXnXnXvXvXvXvXvXvXvXvXvXvXvXvXvXvXrXrXrXeXeXeXeXeXrXrXrXrXrXrXeX-X;X;X;X;X;X;X,X;X,X;X;X;X;X=X{.U |  X X+.^ K f ^ W T W ` ` ` ' ` ` V ( ` g A A A A A D F A C d C A D r.r.r.' F F D A F M d ",
">X>X>X>X>X>X:X:X:X:X4X4X:X:X:X:X:X:X-X-X-X-X=X=X=X=X=X=X=X=X=X-X=X=X-X-X-X-X-X-X-X-X>X:X:X:X1XqXqXqXqXqXqXqXqX3X:XqXqXqXqXqXqXqXqXqXqXeXeXeXeXeXeXeXeXbXbXvXbXMXMXMXmXmXmX*XG r u u u u u u l l i y l y y i i i < : y u l l l v b u u v =.i -.>.c -.c x ;.b.m b.*.&.c c v.m.M.:.;.;.:.n.&.>.v.M.M.b r $.x >.H.nXmXnXmXnXnXnXnXnXnXnXnXvXvXvXvXvXvXvXvXvXvXvXvXvXvXvXtXrXrXeXeXeXeXeXrXrXrXrXrXrXrXeX-X;X;X;X;X;X;X,X,X,X;X;X;X;X=X X}.| {.{...^ Y f W W T ( ` ( ` ) } ( ( D ` s d A A A B D F A C d C A D ' r.u.' ) F D M F d d ",
"=X>X>X>X>X>X>X:X:X:X:X:X:X:X:X:X:X>X-X-X-X=X=X=X=X=X=X-X-X-X=X=X=X=X-X-X-X-X=X-X-X-X-X:X:X:X1XqXqXqXqXqXqXqXqX:X3XqXqXqXqXqXqXqXqXqXqXeXeXeXeXeXeXeXrXbXbXbXbXnXMXMXmXmXpXA.u u u u u u l l l l i l u y u y i < : = : y u l l l v u u v H r c b.;.b.c m m M.;.=.b.;.c m -.M.M.v.*.$.;.v.*.M.v.v.M.x r $.x >.N.mXnXnXnXnXnXnXnXnXnXnXnXvXvXvXvXvXvXvXvXvXvXvXvXvXvXvXtXrXrXeXeXeXeXeXrXrXrXrXrXrXtXeX-X;X,X;X,X;X;X,X,X,X;X;X,X;X;X{.}.|  X X+./ Y q W W T ( ` ( ( } ' D ` D ` a d D A A A D D A C h C A D ) ' ' F F D D M F d d ",
"=X=X=X>X>X>X:X:X:X:X:X4X4XqX:X:X:X:X>X-X-X=X=X=X=X=X=X=X=X=X=X=X=X=X-X=X=X-X=X-X-X>X>X>X:X:X:XqX4XqXqXqXqXqXqX:X:X3XqX3X4XqXqX1XqXqXqXqXeXeXeXeXeXrXtXbXbXbXbXnXMXMXMXmX#X3.u u u u u u l l l i v l u y u u t < : = : < i r u l v l l u n r b &.-.n.&.c r v.v.c b.*.$.m &.M.M.b.v.$.$.:.v.n.n.v.M.v r &.x >.b.9XnXnXnXnXnXnXnXnXnXnXvXvXvXvXvXvXvXvXvXvXvXvXvXvXvXtXrXrXrXrXeXeXeXeXeXrXrXrXrXrXrXeX-X;X,X,X,X;X;X;X,X,X;X;X;X;X;X{.U J {. X+./ Y q W W T W ` ` ( } [ V ` ( ( , s A D A B ( D A h d A A A ) ) F ) D F D M F y g ",
"=X=X>X:X:X>X>X>X:X:X:X:X:X4X:X:X:X:X>X-X-X=X=X=X=X=X-X-X=X-X=X=X=X=X=X-X=X-X-X=X>X>X>X>X:X:XqXqX:X4XqX3XqXqXqX:X:X3X3X3X:X:X:XqXqXeXqXeXeXeXeXeXeXrXrXbXbXbXMXMXMXmXmXmX[ Z u u y i y u l l i v l u r l l z u < = = < < < < y u v l l r n i n m c n.*.c x &.m.;.=.b.&.c c M.m.b.>.&.&.M.M.M.m.M.M.r x $.x >.n.#XnXnXnXnXnXnXnXnXnXnXvXvXvXvXvXvXvXvXvXvXvXvXvXvXvXvXrXrXrXrXeXeXeXeXeXrXrXrXrXrXtXeX-X;X,X,X,X;X;X;X,X,X;X;X;X;X;X{.U J {.{.+.^ Y f ^ W T T ( ( ( } } V ` ( ( , g A A M M ( D A h M C A M C D F ) C F A C F y d ",
"=X=X>X:X>X>X>X>X>X:X:X:X:X:X:X:X:X:X>X-X-X-X-X=X=X=X=X-X=X=X=X=X=X=X=X=X=X=X-X-X-X-X-X-X:X:X1XqXqXqXqXqXqXqX4X:X:X:X:X:X4X1X1XqXeXeXeXeXeXeXeXeXeXrXbXbXbXMXbXMXmXmXmXpXG z i i i i u l u i l l u r l v v z u i : : < < , < < i v v l r n r n n x *.b.&.m m n.b.b b.*.n c v.m.n.*.&.v.m.m.M.M.M.m.r x $.m >.n.A.nXnXnXnXnXnXnXnXnXvXvXvXvXvXvXvXvXvXvXvXvXvXvXvXvXvXrXrXrXrXeXeXrXeXeXeXrXrXrXrXrX4X-X;X,X;X;X;X;X;X;X;X;X;X,X,X;X}.U I {.+.{.^ / f W W T T ( ( ( [ } ( ( D ( , B B A M g ( A C u d A A M D D F ) S F M M A d d ",
"=X=X>X>X>X:X>X:X:X:X:X:X:X:X:X:X:X:X-X-X-X-X-X=X-X=X=X=X=X=X=X-X=X=X-X=X=X-X-X-X-X-X-X-X:X:X1X1XqXqXqXqXqXqX4X:X:X:X3X4X4X:XqXqXqXeXeXeXeXeXrXrXrXbXbXbXbXbXMXMXMXmXmX8Xn n r y u l M u i u v r r r l v v l u y < < < < , < < : i l l r b v c &.m c b.;.c x ;.N.=.&.b.&.c :.m.n.*.;.M.m.m.M.M.M.b.i x c m :.n.N.tXnXnXnXnXnXnXnXnXvXvXvXvXvXvXvXvXvXvXvXvXvXvXtXvXvXrXrXrXrXeXeXrXeXeXrXrXrXrXrXrX4X=X;X;X;X;X;X;X;X;X;X;X,X;X,X,X}.U I {.+...^ Y f W W T T ( ( ( ( ( ( ` ( ( , A B B M g D D C h d C M M D ) F D ' ' A M A d s ",
">X>X>X=X>X:X>X:X:X:X:X:X:X:X:X:X:X:X-X>X-X-X=X-X=X=X=X=X=X=X=X=X=X-X=X=X-X-X-X=X-X-X-X-X:X:X:X:X:XqXqXqXqXqX3X:X:X3X3X3XqXqXqXqXqXeXeXeXeXeXrXrXeXbXbXbXbXbXMXMXMXMXmX$X4.B.=.C 1.G u i i v r i r v v b v l u y y u y i , < : < < i l r z n c =.c x =.b.&.m m b.b.x n.*.c >.m.m.:.:.M.m.m.m.m.M.-.i m c m :.n.N.8XnXnXnXnXnXnXnXnXvXvXvXvXvXvXvXvXvXvXvXvXvXvXtXvXvXrXrXrXrXrXrXrXeXeXrXrXeXeXrXrX4X=X;X,X;X;X,X;X,X;X,X,X,X;X,X,X}.U / {.+...@./ f T W T B ( ( ( ( B } ` ( ( , ( B B d g D A A d d M M A A a F ' F ' A M A d d ",
">X>X>X>X>X>X:X:X:X:X:X:X:X:X:X:X:X:X:X>X-X-X-X-X=X=X=X=X=X=X=X=X-X-X=X-X-X-X-X-X-X-X-X-X:X:X:X:X:X:XqXqXqXqXqX4X3XqX3XqXqXqXqXqXeXqXeXeXeXeXrXrXrXbXbXbXMXMXMXMXMXMXmX$XN.N.N.F l r i i v z i i l v b b v z l i u l l y , < < < < i r r r b c -.=.n x >.*.n x &.n.c -.n.$.>.m.b.&.:.M.m.m.m.m.M.=.r m $.m :.n.n.#XnXnXnXnXnXnXnXnXvXvXvXvXvXvXvXvXvXvXvXvXvXvXvXvXvXrXrXrXrXrXrXrXeXeXrXeXeXrXeXeX3X;X;X;X;X;X;X;X,X;X,X,X,X,X,X,X}.U | +.{.+./ / q W ( T T W ` } ( V ( ( ( ( 9 ( B M d g D A A d d M M A M B u.u.D ' A M C s d ",
">X>X>X>X>X>X>X:X:X:X:X:X:X:X:X:X:X>X:X>X>X-X-X-X=X=X=X=X=X=X=X=X-X=X-X-X-X-X-X-X-X-X-X-X-X>X:X:X:XqXqX3X3XqXqXqXqXqXqX3XqX:XqXqXqXqXeXeXeXeXrXrXrXbXbXbXMXMXMXMXMXMXmX$X4.B.n r u i i v z i i u v b b v l z r u v v v l t , < < < i z v u r x &.=.n x $.b.&.b m ;.;.c n.&.v.m.&.&.v.v.m.m.m.m.M.$.r c c m :.n.n.).nXnXnXnXnXnXnXnXvXvXvXvXvXvXvXvXvXvXvXvXvXvXvXvXtXvXrXrXrXrXrXrXrXrXeXeXeXrXeXeX3X-X;X,X;X;X;X;X,X;X,X,X,X,X,X,X}.U | +...+.^ / q T ( T T W T B V D ( ( ( ( f D M M M M D A C d u M M D g u.' ' D F M M M d d ",
"=X-X=X>X>X>X>X:X>X>X>X:X:X:X:X:X:X:X:X:X:X>X>X=X=X=X=X=X=X=X=X=X-X-X-X-X-X-X-X-X-X-X-X-X-X:X:X:X:XqXqXqXqXeXqXqX3X3X:X3X:XqXqX1XqXeXeXeXeXeXrXeXrXbXbXbXMXMXMXMXMXMXMX8X3.H u u u i b l i i i l v b v v l r r l b b b l y t < < < u n v l r r m =.=.n x -.-.n b c -.$.:.*.b.B.c ;.:.v.m.m.m.m.M.c r c m m :.n.n.N.wXnXnXnXnXnXnXnXvXvXvXvXvXvXvXvXvXvXvXvXvXvXvXvXvXvXrXrXrXrXrXrXrXrXeXeXrXrXeXeX4X;X;X,X;X;X;X;X;X;X;X,X,X;X,X,X}.| }. X+...^ ^ f T W T T W ( ` V V W W ( ( g M M M M M D C C d y M M A u.u.' ' A F M A M M s ",
">X>X>X=X>X>X>X>X:X:X:X:X:X:X:X:X:X:X:X>X>X>X>X=X=X=X=X=X=X-X-X=X=X=X=X-X-X-X-X-X>X>X-X-X-X>X:X:X:X4X3XqXqXqXqXqXqX3XqX:X:X:X1XqX1XeXeXeXeXeXeXbXbXbXbXbXMXMXMXMXMXMXMX8X1.l l l r C v i i i l v b v v l z r z v b b b v l u y y y b H v r r r r m n n b m >.=.n n =.;.;.>.n.=.$.;.*.>.m.m.m.m.M.m r c c c :.M.n.N.&XnXnXnXnXnXnXnXvXvXvXvXvXvXvXvXvXvXvXvXvXvXvXvXvXvXrXrXrXrXrXrXrXrXeXeXeXrXrXeX4X-X;X;X;X;X;X;X;X;X;X,X,X;X;X,X}.| }. X{.../ T 0 T W T T W ( ( V V B N ( ( s B M M M d D C M d u M M ' ' ' ) ) A F M A M M d ",
"-X>X>X>X>X>X>X>X>X:X:X:X:X:X:X:X:X:X:X>X>X>X-X=X=X=X=X=X=X=X=X=X=X=X=X=X=X>X>X>X>X>X>X>X-X:X:X-X:XqXqXqXqXqXqXqXqX1XqX1X1X1X1X:XqXeXeXeXeXeXeXtXbXMXMXMXMXMXMXMXMXMXmX9XG u l u G Z r < i u v b b b v r r r v v b n b v l u u v b =.=.r l v u v x m n n m &.-.=.n c >.*.>.>.m c ;.*.v.m.m.m.m.m.x r c m $.:.M.n.n.(.nXnXnXnXnXnXnXvXvXvXvXvXvXvXvXvXvXvXvXvXvXvXvXvXtXrXrXrXrXrXrXrXrXrXrXrXrXrXeX3X-X=X;X;X;X;X;X;X;X;X,X,X,X,X=X}.U }. X{.../ Y q T T T T B ( ( V B V s ` ( g B B M d s D M d d u d g D ) ) D D D F B A M M d ",
">X>X>X>X>X>X:X:X:X:X:X:X:X:X:X1X:X>X:X:X>X>X=X=X=X=X=X=X=X=X=X=X=X=X-X-X=X>X>X>X>X>X>X>X-X-X:X-X:X4XqXqXqXqXqXqXqXqX:X:XqX1X1XqXqXeXeXeXeXeXeXtXbXbXMXMXMXMXMXMXmXmXmXuXG u u G Z z < < y l v b b v z z u l v v b n b v z z l n 3.3.=.u l n l b x v z x b x =.3.n =.;.>.-.c m c &.;.v.m.m.m.m.m.i r $.m $.:.M.n.n.A.nXnXnXnXnXnXvXvXvXvXvXvXvXvXvXvXvXvXvXvXvXvXvXvXvXrXrXrXrXrXrXrXrXrXrXrXrXrXeX3X-X;X;X;X;X;X;X;X;X;X;X,X,X,X;X}.U }.{.{.+./ K 0 T T Y B B W W B B B s ` ( M M M M g a ( M d u y d M D ' ) D D D D B A A M y ",
">X>X>X>X>X>X>X>X:X:X:X:X:X:X:X:X:X>X>X>X>X>X-X=X=X=X=X=X=X=X=X-X=X=X-X-X>X>X>X>X=X>X>X>X>X>X:X:X:X:X3XeXeXqXqXqXqXqXqXqXqX:X1XqX1XqXeXeXyXyXeXtXbXMXMXMXMXMXmXmXmXmXmXuXC l G 1.z < < y l v v v v l r l u v v b n n b v u z v =.-.4.n v v n x n v v i r r v m n n n &.>.$.x m c &.;.v.m.m.m.m.-.i x $.m $.:.v.b.n.N.7XnXnXnXnXnXvXvXvXvXvXvXvXvXvXvXvXvXvXvXvXvXvXtXrXrXrXvXrXrXvXrXrXrXrXrXrXrXeX3X-X;X;X;X,X;X;X,X;X,X,X,X;X;X;X}.U }.{.{.+./ K 0 T T N N B W W B B W s ` ` M s M M g s ( M d u y d g D ) ) D A D D B A M d d ",
">X:X>X>X>X>X>X>X>X:X:X:X:X:X:X:X:X>X>X>X>X-X-X=X=X=X=X=X=X=X=X-X=X=X=X=X>X>X-X>X-X-X>X>X-X-X:X:X:XqXqXeXqXqXeXqXqXqXqX:X1X1X1X1XqXqXeXyXyXyXeXtXbXMXMXMXMXMXMXMXmXmXmXpXG b H l i : y l l v v v v r l v z v v n n n b l z l b -.b.B.n H Z 3.c n v v r r r x n m m m &.N.m x m c &.*.v.m.m.m.m.=.i m $.x $.:.n.b.n.b.$XnXnXnXnXnXvXvXvXvXvXvXvXvXvXvXvXvXvXvXvXvXvXtXtXrXrXvXvXvXvXrXrXrXrXrXrXrXeX3X-X;X;X;X;X,X,X,X,X,X,X,X;X;X;X}.U }. X{.+./ K 8 Y T N B B W B N N ( f ` ( g a M M g a ( B d u y d s D ) ) D A D D M A M d d ",
"-X>X>X>X>X>X>X:X>X:X:X:X>X:XqX1X:X:X>X>X:X-X=X=X=X=X=X=X=X=X=X=X=X=X=X=X-X-X>X>X=X=X-X-X-X-X:X:X:X:XqXqXeXqXqXqXqXqX1X1X:XqX1XqXqXqXeXyXyXyXrXbXbXbXMXMXMXMXMXMXmXmXmXpX' b z y < i u l l v v v u z l l l v v n n b v u u l n -.b.-.m =.=.-.=.n b b u x v b n m x m =.N.m x m c &.*.:.m.m.m.m.=.i c &.x $.:.M.b.n.n.).nXnXnXnXvXvXvXvXvXvXvXvXvXvXvXvXvXvXvXvXvXvXrXrXrXvXrXrXvXvXvXvXvXrXrXrXtXrX3X-X;X,X,X,X,XOX+X+X+XOXOX,X,X,X}.U +.{.{.{./ K 8 Y T T B B B V f f W f } ( s 7 B M s s ( B d y y d g D D ) D C A D M M A g d ",
"=X>X>X>X>X>X:X>X:X>X:X:X:X:X1X1X:X:X:X>X>X>X=X=X=X=X=X=X=X=X=X=X=X=X=X=X-X-X>X-X=X=X=X-X-X:X>X:X:X:XqXqXqXqXqXqX1X:XqXqX1X1X1XqX1XqXeXeXyXyXeXtXbXbXMXMXMXMXMXMXmXmXmXpXu.l u < < u l l v v v z r l v l v z b n n b v r z v =.b.>.=.n H 3.>.-.H n b v b m n n m x m ;.m.c x x c &.*.:.m.m.m.m.b r c &.x $.:.M.b.b.n.A.tXnXnXnXnXvXvXvXvXvXvXvXvXvXvXvXvXvXvXvXvXvXvXvXrXrXrXrXvXvXrXvXvXvXrXrXtXeX3X-X;X+X.X{.O...........O.O..X+X}.U  .{.{.+./ K 8 Y N f B B B B f s W g ] _ a a B M s s D M d y t d g ` D ` D C A D V M A s d ",
"-X>X>X>X>X>X>X:X:X:X:X:X:X:X:X1X:X:X:X>X>X>X-X=X=X=X=X=X=X=X=X=X=X=X=X-X>X>X>X>X-X=X-X-X>X:X>X-X:X:XqXqXqXqXqXqXqX:XqX1XqXqX1XqXqXqXeXeXeXyXyXyXbXbXMXbXMXMXmXMXMXmXmXmX' u < < y u l l v v z r l v v l l v b n b b l r z b -.b.-.c =.n -.b.>.=.=.n n n c n b m x c *.m.c x x c &.;.:.m.m.m.m.r r c &.x $.:.M.b.n.n.N.7XnXnXnXnXvXvXvXvXvXvXvXvXvXvXvXvXvXvXvXvXvXvXvXrXrXrXrXvXvXvXrXrXvXtXrXtXeX;X+X.XO.X.X.X.X.X.X.X.] ] ] ..X.+.X.X.+.+.+./ K 8 N N f f N B B s s W B ] _ , s B M s s D M d y t d s ` D D D A A d , M A s d ",
"-X=X-X>X>X>X>X:X:X>X:X:X:X:X:X:X:X:X:X:X>X>X-X=X=X=X=X=X=X=X=X=X=X-X=X-X-X>X=X=X=X=X=X-X-X>X:X:X:XqXqXqXqXqXqXqXqXqX1X1X:X1XqX1XqXqXqXeXeXeXyXyXtXbXMXbXMXMXmXMXmXmXmXmX` y : y u l l l v z r z v v v l z b b b b v r u v c v.b.=.m H b >.b.b.-.-.=.=.=.=.n n m c &.:.n.m r x c &.;.:.m.m.m.m.x r $.&.x $.:.M.M.n.n.b.$XnXnXnXvXvXvXvXvXvXvXvXvXvXvXvXvXvXvXvXvXvXvXvXvXtXvXvXvXtXrXrXeXqX3XOX.XO.O.o.o.X.X.X.X.X.X.X.X.X.X.X.X.X.X.X.X.X.X.o.o.o.X.X.] ^ B f B N f 9 B B ] ( ; B M B s s D M d t t d s D D D D A D t > M A s d ",
"=X-X>X>X>X>X>X>X:X:X:X:X:X:X:X:X:X:X>X>X>X>X=X-X=X=X=X=X=X=X=X-X=X-X=X=X-X>X>X>X=X-X-X-X-X>X>X:X:XqXqXqXqXqX3XqXqXqX1X1X:X1X1X1XqXqXqXyXqXyXeXeXtXtXbXMXMXMXmXmXmXmXmXmX( < < u u l l v z r z v v v l l v b b b b v u l v ;.v.v.&.m n b b.n.b.;.-.-.-.-.=.n n c c &.:.n.c r x c &.;.>.m.m.m.m.b x c &.p $.:.M.M.n.n.b.).vXnXnXvXvXvXvXvXvXvXvXvXvXvXvXvXvXvXvXvXvXvXvXvXrXvXtXrXeX-X,X.XO.o.X.o.o.X.X.X.X.X.X.X.X.X.o.o.o.X.X.X.X.X.o.X.o.o.X.X.X.o.o.h.h.h.h.X.] _ f B B ] ( > ( M B s s V M d y t d s D D D D A ) D 9 M A s d ",
"=X=X>X>X>X>X>X>X>X:X:X>X:X:X:X:X:X:X:X>X>X-X-X-X=X=X=X=X=X=X=X-X>X>X=X=X=X>X>X>X-X-X-X-X-X>X:X:X:XqXqXqXqXqXqXqXqX1X1XqXqX1XqX1X1XqXqXyXyXyXtXtXtXtXMXMXMXMXMXmXmXmXmXmXM : t u l l l l r z l v v l v l v b m b b l r l n -.:.*.n b =.x n.n.b.>.>.&.;.-.;.&.n c c &.:.n.c x x c $.;.:.m.m.m.m.n x $.&.x $.:.M.n.n.n.b.A.tXnXnXnXvXvXvXvXvXvXvXvXvXvXvXvXvXvXvXvXvXvXvXrXeXeX-XOX.XO.o.X.X.X.X.X.X.X.X.X.X.X.X.X.o.o.o.o.o.X.X.X.o.o.o.o.o.o.o.o.o.h.h.h.h.h.h.h.h.j.X.N q N N f V g B M s D M y t t d s A A A A A D D V M D s s ",
"=X=X>X>X>X>X>X>X:X>X:X>X:X:X:X:X:X:X:X>X>X>X=X=X=X=X=X=X=X=X=X-X=X=X-X=X=X=X>X>X-X>X>X:X:X:X:X:X:X:XqXqXqXqXqXqXqX1X1XqXqXqXqX1X1X1XqXyX1XyXtXtXtXbXMXMXMXMXMXmXmXmXmX$Xi < u u Z l v z u l l v l l l l b v b b v u u v =.b.:.=.b b H v n.n.n.>.b.;.*.*.;.c c c c &.:.n.m x x c $.;.:.m.m.m.m.n m $.&.m &.:.M.n.n.n.n.N.yXnXnXnXvXvXvXvXvXvXvXvXvXvXvXvXvXvXvXvXvXrXrXeX;X.XO.h.o.X.X.X.X.X.X.X.X.X.X.X.X.o.X.o.o.X.X.X.o.o.o.o.o.o.o.o.o.o.o.j.j.j.j.h.h.o.o.o.X.f w w w w 6 6 4 4 7 9 7 B g y t t s a M M A A M D D V M D s y ",
"=X=X>X>X>X>X:X:X:X>X>X:X:X:X:X:X:X:X:X:X>X>X-X=X=X=X=X=X=X=X=X=X-X>X-X-X-X>X>X>X=X>X:X:X:X:X:X:X:X:X1XqXqXqXqXqXqX1XqXqXqXqXqXqX1X1X1X1XyXyXyXyXyXtXtXMXMXMXMXMXmXmXmX' < t u C G l l z l l l v z l l v b x b b v u l n -.b.-.n m m =.b n.n.n.v.>.;.-.;.;.c &.&.&.&.v.n.c x x c $.&.:.m.m.m.m.n c $.$.m &.:.M.n.n.n.n.N.&XvXnXnXnXvXvXvXvXvXvXvXvXvXvXvXvXvXvXrX4X-XOX+X.XY.Y.Y.R.R.K.j.o.X.X.[ X.X.X.X.o.o.X.X.X.o.o.o.o.o.X.X.X.X.o.o...X.X.j.j.j.j.j.h.o.] W q w w w 5 6 2 2 1 1 6 w w 4 4 7 7 , 9 9 M M A A M D D M M A s d ",
"=X=X-X>X>X>X>X>X>X>X>X>X:X:X:X:X:X:X:X:X>X>X-X=X=X=X=X=X=X=X=X-X=X=X>X>X>X>X>X>X>X:X>X>X:X:X:X:X:X:XqXqXqXeXqXyXqXqX1XqXqXqXqXqXqX1X1X1X1XyXyXyXyXtXuXMXMXMXMXmXmXmX2Xi < u l H l l z l l v l l z z v x x b b b l u v =.b.b.-.c m =.-.=.m.m.n.b.:.-.>.-.;.c =.=.$.&.v.n.c x x c $.;.:.m.m.m.Z.m c $.$.m &.:.M.n.n.n.n.N.(.vXnXnXnXvXvXvXvXvXvXvXvXvXvXrXeX-XOX+X.X.XL.L.j.j.j.j.K.L.R.L.L.Y.K.j.h.o.X.X.X.X.o.o.o.o.o.o.o.X.X.] [ o.o.X.Y X.W N X.h.o.] W f w w w w w 6 2 1 % 1 2 6 w 5 w 6 6 6 2 2 6 4 7 a g g M D D M M A s d ",
"=X=X=X>X>X>X>X>X:X:X:X:X:X:X:X:X:X1X:X:X:X>X-X=X=X=X=X=X=X=X=X-X-X-X=X>X>X>X>X>X>X:X-X-X-X:X-X:X:X:X:XqXqXqXqXqXqXqXqXqXqXqXqXqX1X1X1X1X1XyXyXyXtXtXuXMXMXMXmXmXmXmXh.i i G Z H l z l l l l l z l z v x b H n b u u b *.n.b.=.m n -.=.=.m.m.n.n.b.-.n.>.-.&.=.&.c &.v.M.c x x m c &.>.m.m.m.Z.n c $.$.m &.:.M.n.n.n.n.N.).nXnXnXnXvXvXvXvXvXvXvXrX3X;X.XL.L.L.j.j.j.j.j.j.j.o.h.j.j.j.L.j.j.j.K.L.R.R.j.j.j.j.o.o.X.o.o.o.X.o.o.o.X.[ 0 6 q ..^ w f w w w w w w w w 2 1 2 2 w w w w w w w 6 2 2 2 6 w w 6 5 5 6 4 7 s s s B s d ",
"=X=X-X-X>X>X>X>X>X>X:X:X:X:X:X:X:X1X:X:X>X>X>X=X=X=X=X=X=X=X=X-X=X-X>X>X>X>X-X>X>X=X=X=X-X-X-X:X>X:X:XqXeXqXqXyXqX1XqXqXqXqXqXqX1X1XqXyXyXyXyXyXtXuXuXMXMXMXmXmXmXpXd i l n 3.b z l l l l l l u z l v b n H Z v u l n v.v.-.n m =.>.=.=.m.m.n.b.>.;.b.b.-.;.=.=.&.;.v.n.c x x m c &.>.m.m.m.m.c c $.c c &.:.M.n.n.n.n.n.A.tXvXnXvXvXvXvXvXvX4X;X.Xj.j.L.L.L.j.j.o.o.j.R.R.K.K.K.L.L.h.o.o.h.L.Y.Y.R.R.K.K.R.Y.Y.Y.K.j.j.j.j.h.o.j.K.o.4 q w w w w w w w w w w w 2 2 6 w w w w w w w 2 2 2 w w w w w w w w 6 2 2 2 2 ; % & - - , ",
"=X=X=X-X>X>X:X:X:X:X:X:X:X:X1X1X:X1X:X:X:X>X=X=X=X=X=X=X=X=X=X-X-X=X>X=X=X>X>X-X=X=X>X>X:X:X:X:X:X:X:XqXqXqXqXqXqXqXqXqXqXqX1XqXqXyX1XyXyXyXyXtXtXuXuXuXpXMXmXmXmX2Xi i b H 3.l l l z z l l z z z v b x b H n l u v =.v.v.&.c m -.b.c =.m.m.n.n.b.&.>.b.>.-.=.&.&.;.v.n.c x r m c &.:.m.m.m.V.m m $.c c ;.:.M.n.n.n.n.n.N.8XvXvXvXvXrXeX3XOX.X.XK.L.j.j.j.h.o.j.j.j.K.K.j.j.j.h.h.h.K.R.Y.R.L.j.h.h.h.j.Y.XXY.Y.j.j.j.j.h.o.h.Y.T.T.Y.j.T w w w w w w w w 2 2 2 w w w w w w w w w w w w w w w w w w 6 w 6 6 6 6 6 4 6 6 2 & & & ",
"=X=X>X>X>X:X:X:X:X:X:X:X:X:X:X1X:X1X:X:X:X:X>X=X=X=X=X=X=X=X=X=X=X=X=X=X=X=X-X=X=X>X>X>X:X:X:X:X:X:XqXqXeXqXeXqXeXqXqXqXqX1XqXqXqXyXyXyXyXyXyXtXuXuXuXuXpXMXmXgXgX$Xi i H 3.Z u z z z l l l z l z v b x n H b u z b -.b.*.&.m n >.>.m &.m.m.m.n.>.&.>.n.b.>.=.&.;.;.v.n.c x r m c &.:.n.m.m.N.m m &.m c ;.v.n.n.n.n.n.n.N.$XvX4X;X+XXXXXXXR.R.L.L.K.j.h.X.X.L.L.K.L.K.K.j.h.h.h.j.R.L.K.K.L.j.j.K.R.Y.XXY.R.R.K.L.j.X.[ { h.T.Y.P.P.P.I.Y.j.T w 6 6 w w w w w w w w w w w w w 2 2 w w w w w w w w 6 6 2 w w w w w w 5 4 6 2 & & ",
"=X=X>X:X:X:X:X:X:X:X:X1X:X1X1X:X1X:X:X:X:X:X>X=X=X=X=X=X=X=X=X-X-X-X=X=X>X>X=X=X>X>X:X>X>X:X:X:X:X:XqXqXeXeXqXqXqXqXqXqXqXqXqXqXyXyXyXyXyXyXtXtXuXuXuXuXuXpXMXmXmXOXi l H 3.b u u u u u z l z l v b b b H n z r v &.v.v.;.n m =.n.*.m &.n.m.m.n.>.&.b.n.v.b.-.;.*.;.:.n.c x x x c &.*.M.m.m.N.x x &.m $.;.:.n.n.n.n.n.n.N._.@.Y ..o.o.j.j.K.K.K.K.L.Y.Y.R.R.L.K.j.j.h.o.j.L.R.L.L.L.L.j.j.j.j.R.XXR.R.K.R.K.j.j.h.o.X.} g.T.I.P.K.P.P.P.P.g.R.K.j.o.] / w w w w w w w w w w 6 w w w w w w w w w 6 w w w w w w w w w 6 2 2 % & $ ",
"=X>X>X>X:X:X:X:X:X:X1X1X:X1X:X:X1X:X:X:X:X:X:X=X=X=X-X=X=X=X=X=X-X-X>X=X=X=X>X>X>X>X>X>X:X:X:X:X:XqXqXqXeXyX3XqXqXqXqXqX1XqXqXqXyXyXyXyXyXyXtXtXuXuXuXuXpXpXMXmXmXOXi b =.3.z u u u u u u z z l b b v n n b u z b ;.v.*.=.c m -.n.*.m &.n.m.m.m.v.$.b.b.b.b.b.b.>.*.v.v.m x x x c $.*.M.m.m.n.x m &.m $.;.:.n.n.n.n.n.n.n.B.f J Y W W _ _ ] X._ j.K.K.R.R.R.R.R.Y.Y.Y.Y.Y.R.K.j.j.j.K.Y.Y.Y.Y.R.R.R.K.j.h.o.h.o.] ( j.T.T.T.T.Y.Y.P.g.g.o.P.Y.Y.Y.Y.XXXX.Xj._ _ _ T w 6 2 w w w w w w w w w w w w w w w w w w w w 6 2 1 & & @ @ ",
"=X-X-X-X:X:X:X:X>X:X:X:X:X:X:X:X1X:X:X:X:X:X>X=X=X=X=X=X=X=X=X=X-X-X>X>X>X>X>X>X=X=X>X>X:X:X:X:X:X1XqXqXqXeXqXqX1X1XqXqXqX1X1X1X1X1XyXyXyXyXyXtXuXuXuXuXuXpXpXgXpX$Xy H 3.H u r u l z z z u z b b b b n b v r l n *.v.;.=.m m -.b.*.m =.M.m.m.m.:.c >.b.n.v.v.v.b.v.v.;.c x x m c $.*.n.m.m.n.x x &.m $.;.:.n.n.n.n.n.n.n.N.T J J K K Y T _ / T W X.h.j.j.K.R.R.R.R.Y.Y.Y.XXXXXXY.XXXXT.Y.T.Y.R.j.j.h.o.X.] ( W ] XXoXT.T.T.Y.Y.P.K.j.j.Y.T.T.T.Y.Y.Y.Y.P.R.Y.Y.Y.XXXXj...W q 6 2 w w w w w w w w w w w w w w 6 6 2 1 % $ @ . $ ",
"=X-X-X:X:X>X>X:X:X:X:X:X:X1X:X1X1X1X:X:X:X:X>X=X=X=X=X=X>X>X>X-X>X-X>X>X>X>X>X>X>X>X>X:X:X:X:X:XqXqXqXqXeXqXqXqXqXqXqXqXqXqX1XqXyXyXyXyXyXyXyXyXuXuXuXuXuXuXpXgXgX2Xl H 3.G l u l l l z z z v n b n b n b l r v =.*.*.&.c x n -.b.;.x =.M.m.m.m.:.c >.b.n.:.b.v.v.v.M.&.c m x m c $.;.n.m.m.n.x m &.x $.;.:.n.n.n.n.n.n.n.N.B J J K / ^ @.@.^ ^ / W ^ ] [ X.h.j.j.j.K.K.R.R.R.Y.Y.Y.Y.Y.R.K.j.j.h.o.X.] ( ] j.XXE.Y.P.g.g.g.g.g.P.T.Y.Y.Y.P.P.P.P.P.P.P.R.XXY.T.Y.R.R.R.R.XXXX.XO._ Y 2 2 w w w w w w 6 6 6 6 2 1 & $ @ @ , a t ",
"=X=X-X-X:X-X:X1X1X1X1X:X1X1X:X:X1X1X:X:X:X:X:X=X=X=X=X=X=X=X=X=X-X-X>X>X=X=X>X>X>X>X>X:X:X:X4X4X4X4XqXqXqXeXeXqXqXqXqXqXqXqXqXqXyXyXyXyX2X2XyXtXuXuXuXuXuXgXgXgXgXuXF 3.3.v l l l l l l l l b n n n v n b r z n -.-.;.&.n x c -.b.&.v =.M.m.m.m.>.c >.b.b.b.b.v.v.M.:.&.c m m m c c ;.M.m.m.m.m m &.x &.;.:.M.n.n.n.n.n.n.N.) ` [ e.` K / / / ^ @.@.@.^ ^ _ _ _ ] X.o.h.j.j.j.j.K.P.K.j.j.h.o.[ [ X.X.X.oX@XXXY.T.Y.P.P.Y.P.P.Y.T.T.Y.P.P.P.K.K.P.Y.Y.Y.Y.Y.Y.Y.Y.R.P.K.Y.Y.Y.T.Y.Y.Y.K...q 2 w w w 6 2 2 2 2 1 & @ @ , d d y < ",
"=X=X=X:X:X:X:X1X1X1X:X:X:X1X:X1X1X:X1X:X-X-X-X=X=X=X=X=X=X=X=X-X-X-X>X>X>X>X>X>X>X>X>X:X:X:X4X4X4X4XqXeXqXqXeXyXqXqXqXqXqXqXqXqXyXyXyXyXyX2XyXyXuXuXuXuXuXgXgXgXgX0X1.3.H l l l l l z z l v n H n n v b v r b n -.*.&.c b x =.>.b.&.v ;.M.m.m.m.*.c -.b.b.n.n.v.v.M.*.&.c c m m m c &.v.m.m.m.c c $.x &.;.:.M.n.n.n.n.n.n.n.'.[.[.[.[.[.`.d.i.T / ^ ^ ^ ^ ^ / / / T W W _ ] ] ] ] ] j.h.K.@X#X$X#X@XoXT.T.XXY.K.K.g.P.T.oXT.T.T.T.Y.Y.P.K.K.P.T.T.T.Y.Y.Y.P.P.P.K.P.P.R.T.Y.Y.Y.R.R.P.K.K.L.O.Y 2 2 2 2 1 % % & 7 M A A h y t d ",
"=X=X>X:X:X:X:X:X:X:X:X:X:X1X:X1X1X1X1X:X-X-X-X-X-X=X=X=X=X=X=X>X=X>X>X>X=X>X>X>X>X>X:X:X:X:X4X4X4X4X4XqXqXqXeXeXyXqXqXqXqXqXqXqXyXyXyXyX2X2X2X2XuXuXuXuXuXgXgXgXgX9X1.1.n l l z l l z l l b 3.n n n b b z l b ;.-.;.&.c v x =.b.:.&.r -.M.m.m.M.*.c &.b.b.n.n.M.v.v.;.&.c c m m m c &.v.m.m.m.$.c $.m ;.*.:.M.n.n.n.n.n.n.m.V.V.V.V.V.'.[.[.[.[.l.` K K K K K / K K K K K f 0 ; q _ [ ( ( h.I.I.I.Y.T.T.T.Y.Y.Y.T.Y.T.T.T.Y.Y.Y.P.S.g.P.T.Y.T.T.Y.Y.Y.R.P.S.g.P.Y.Y.Y.Y.Y.Y.R.P.K.j.j.j.j.h.o.X.w $ @ $ & % f A F 1.Z y : = u d ",
"=X=X=X:X:X:X:X1X:X:X:X:X:X1X:X1X1X1X:X:X:X-X-X=X=X=X=X=X>X=X>X>X>X>X>X>X>X>X>X>X>X>X>X:X:X:X4X4X4X4X4XqXqXqXeXeXyXyXqXqXqXqXyXyXyXyXyXyX2X2XuXuXuXuXuXgXgXgXgXgXgX$X1.H b l l l u u z l v H 3.b n b v b r b n ;.;.=.&.m x x *.n.;.$.u *.M.m.m.M.-.$.&.b.b.v.M.v.v.:.*.&.&.c m m m c &.v.m.m.m.$.$.c m ;.;.:.v.n.n.n.n.n.n.m.V.V.0.0.0.'.'.'.'.[.[.[.[.l.) K K J w J J J J J q 8 N X.h.j.X.h.] ` { P.T.P.g.P.j.g.P.Y.T.P.P.Y.I.P.g.K.T.T.T.Y.Y.Y.Y.P.P.K.P.P.P.T.Y.Y.Y.Y.Y.P.j.j.j.j.h.o.X.] _ ^ 6 * @ > B ) r.F F d : : y t u u ",
"=X=X=X=X:X:X:X:X:X:X:X:X1X1X1X1X1X1X:X:X:X-X-X-X=X=X=X=X>X=X-X-X>X>X>X>X>X>X>X>X>X>X:X>X:X:X4X4X4X4X4XqXqXqXeXeXyXyXyXyXyXyXyXyXyXyXyXyXyXuXuXuXuXuXgXgXgXgXgXgXgX#X1.n b l u u l z z v n 3.H m b v z z v b =.;.;.=.c x x c v.n.&.c y >.n.m.m.n.-.=.&.v.v.v.M.v.v.v.*.&.&.c m m c c &.b.m.m.m.c c c m ;.*.*.v.n.n.n.n.n.n.n.V.Z.'.0.Z.0.0.0.V.'.'.'.[.'.[.[.A.a.' f w 2 w K ] h.L.j.j.j.K.K.R.P.X.} ] { P.h.g.g.P.P.P.T.Y.Y.P.P.P.T.T.T.T.Y.Y.P.P.K.P.T.T.T.T.Y.Y.Y.R.R.P.g.j.h.o.X.] _ W T N f g B A 1.1.r.D , = : : j v G v u ",
"=X-X-X-X1X1X1X:X:X:X1X1X1X1X1X1X1X1X:X:X:X-X-X=X=X=X=X=X>X>X-X-X>X>X>X>X>X>X>X:X>X>X>X:X:X:X4X4X4X4X4XqXqXeXeXeXyXyXyXqXyXyXyXyXyXyXyXyXuXuXuXuXgXgXgXgXgXgXgXgXgX~.H b Z u u u u l l n 3.=.n m v v z r G n =.&.&.&.c x v =.M.v.&.m i b.n.m.m.v.-.&.&.v.v.M.M.M.M.v.*.;.&.c c m c c &.n.m.m.n.c c m m ;.*.*.:.n.n.n.n.n.n.n.m.Z.'.'.'.'.'.V.0.0.0.V.V.'.'.'.'.[.[.).a.i.h.h.g.g.g.h.h.h.h.h.h.j.P.K.j.h.] o.[ P.T.T.T.Y.Y.T.T.T.T.T.T.T.Y.Y.Y.Y.K.K.T.XXT.T.T.T.Y.R.K.j.g.o.X._ ] ^ W N f g A r.r.1.t.,.F M 3 : : : : < v v p u ",
"=X-X-X1X-X1X1X1X1X1X1X1X1X1X1X1X1X:X:X:X-X-X-X-X=X=X=X=X=X=X=X=X-X-X>X>X>X>X>X>X>X:X:X:X:X:X:X4X4X4X4XqXeXqXyXeXeXyXeXyXyXeXyXyXyXyXyXyXuXuXuXuXgXgXgXgXgXgXgXgXgXH.n b G z u u l v b 3.3.m n m v v r b b n =.&.&.c v x b -.n.*.&.x y v.M.M.m.v.-.$.&.v.v.M.M.M.M.v.*.;.&.&.c c c c &.>.m.m.v.c m x c *.*.*.:.M.n.n.n.n.n.n.m.V.V.'.'.'.'.'.'.'.0.0.0.0.0.0.0.V.'.'.'.[.[.[.).).).).G.p.[ o.j.K.K.K.L.j.j.K.K.h.g.I.T.XXXXXXT.XXT.T.oXoXT.T.T.T.T.E.XXY.T.Y.Y.R.K.j.h.o.o.[ _ W W B f g A F 1.1.t.r.A < d M ; : : : : j p p <.A.",
"=X=X-X-X-X-X1X1X1X1X1X1X1X1X1X1X1X1X1X:X-X-X-X-X-X-X=X=X=X=X-X-X-X-X>X>X>X>X>X>X:X:X:X:X:X:X:X:X4X4X4XqXeXeXeXeXeXeXeXyXyXeXyXyXyXyXyXyXuXuXuXgXgXgXgXgXgXgXgXgXsXa.n Z b z z v b n 3.3.n b n x v v b n n =.=.&.&.c x v =.v.n.;.c r n :.M.M.m.>.*.c &.v.v.M.M.M.M.v.*.;.&.c c c c c &.*.n.n.:.&.m x $.*.:.;.*.v.n.n.n.n.n.n.n.V.V.V.V.V.'.'.'.V.'.'.'.'.`.`.0.0.0.0.0.V.'.'.'.[.[.[.[.[.[.).).j.j.h.j.j.j.h.h.K.R.Y.T.T.I.T.T.T.T.T.E.T.T.oX@XoXoXT.XXT.Y.Y.R.K.j.o.X.] _ W N f s M A r.1.F ,.F s O + - B V ; : : : : : <.`.[.[.",
"-X1X:X:X-X-X:X1X1X1X1X1X1X1X1X1X1X1X1X-X-X-X-X-X-X-X-X=X=X=X=X=X-X>X>X>X>X>X>X>X:X:X:X:X>X4X4X4X4X4X4XeXeXeXrXrXrXrXrXyXeXeXeXeXyXyXyXyXuXuXuXgXgXgXgXgXgXhXhXz.z.2.n Z b u l Z n 3.3.n v n b r l z x x n =.=.&.c v z b ;.b.n.*.c i -.v.M.n.M.:.;.c ;.b.M.M.M.M.M.v.*.*.&.c c c c $.$.&.b.n.v.;.m x $.*.:.*.;.:.v.M.M.M.n.n.m.V.V.0.0.0.V.'.'.'.'.'.'.'.z.z.d.`.`.0.0.'.V.'.V.0.'.'.'.'.'.'.'.`.).g.o.h.o.j.K.P.R.R.R.Y.Y.Y.Y.Y.T.E.T.oXoXXXXXXXT.E.oXE.XXY.R.j.o._ ^ W B f a s A 1.,.F ,.A : O O O O O 7 s = : : : ,.`.[.[.'.'.",
"-X1X-X1X1X1X1X1X1X1X1X1X1X1X1X1X1X1X1X1X1X-X-X-X-X=X-X=X=X=X=X>X-X-X>X>X>X>X:X>X:X:X:X:X:X:X4X4X4X4XeXeXeXeXrXrXrXrXtXyXeXeXeXeXeXyXyXuXuXgXgXgXgXgXhX(.[.0.0.0.0.3.n Z b z b H 3.3.=.x b n v u z v v n n &.=.c n x x n -.n.n.;.x j b.v.M.v.n.-.&.c ;.b.M.M.M.M.n.v.*.*.;.c c c c $.$.$.b.b.:.;.m x &.:.:.*.;.*.v.v.M.M.n.m.m.m.V.'.0.0.V.V.0.0.0.V.V.0.0.z.z.`.'.'.'.'.'.'.'.'.'.V.V.V.0.0.0.0.5.k.K.g.g.j.K.K.j.j.j.j.j.K.R.Y.T.XXXXT.XXY.Y.Y.T.oXT.T.Y.P.j.X._ W N f s d A S 1.1.F d - O O O O O O + - - : : : 2.[.[.[.[.'.V.",
"-X1X1X1X1X1X1X1X1X1X1X1X1X1X1X1X1X1X1X1X1X1X-X-X-X-X=X=X=X:X>X>X-X>X>X>X>X>X>X:X:X:X:X:X:X:X:X4X4X4X4XeXeXeXrXrXrXrXeXyXeXeXeXeXeXeX1X<Xu.e.hXhX).z.0.0.0.0.0.0.0.3.n Z b b =.H 3.b b x b b r z z b H n n =.=.n v z b &.b.n.v.$.r x v.v.M.v.v.-.&.&.*.M.M.M.M.M.n.M.v.*.;.&.c c c &.$.$.b.>.v.*.m x &.:.:.*.;.*.:.v.v.M.n.m.m.m.V.'.'.'.'.'.'.[.[.z.0.0.0.0.`.'.'.'.'.'.'.'.'.'.V.0.0.0.9.8.6.<.<.k.R.R.P.P.R.R.R.R.j.h.j.R.Y.XXY.Y.Y.Y.R.R.j.K.K.K.R.T.K.o.X.^ T f s M S ,.Z Z G Z D = = = + + + - , , , , , < < ;.V.[.[.[.[.'.",
"-X<X1X1X1X-X1X1X1X1X1X1X1X1X1X1X1X1X1X1X1X1X-X-X-X=X=X-X:X>X>X>X-X>X>X:X:X>X:X:X:X:X:X:X:X:X:X4X:X4X4XeXeXeXeXeXrXrXeXyXeXeX4X4X=X,XUXj.j.i.6.6.9.9.9.9.9.0.0.0.0.3.Z b b H =.3.u Z v x b v r l z n b n =.=.n b z v n -.v.M.*.c i &.v.v.v.m.>.;.&.&.:.M.M.M.M.M.n.b.b.>.;.;.&.=.c c &.&.n.*.n.b.x x ;.:.:.*.;.*.*.v.v.v.n.n.n.n.V.'.'.'.`.`.`.`.`.z.`.`.`.'.'.'.'.V.'.'.'.V.V.V.0.0.8.8.6.6.t.k.P.K.j.j.K.P.R.R.Y.Y.Y.XXXXY.Y.R.R.K.K.j.j.j.h.X.X..._ W _ _ W B g M F 1.2.t.,.F r.r.D , ; + = ; , , t , , t t t t %.%.V.[.[.[.V.",
";X-X1X1X1X1X1X1X1X1X1X1X1X1X1X1X1X1X1X1X1X1X-X-X-X=X=X:X=X=X-X-X>X>X>X:X:X:X:X:X:X:X:X:X:X:X:X4X:X4X4X4X4XeXeXeXeXeXeX3X-X;X+XUXj.j.j.j.j.g.l.d.q.7.9.9.9.9.9.9.0.3.Z b b Z G u u H x v b u r v v n b m c n n v x b =.v.M.v.*.m i :.v.v.v.b.;.&.&.;.:.M.M.M.M.M.n.n.n.v.-.;.&.=.c c &.;.m.v.n.b.m m ;.v.*.*.*.*.*.*.v.v.M.m.m.n.V.0.V.0.0.0.z.z.`.`.'.'.V.'.'.'.'.'.V.V.0.0.0.0.8.6.6.#.p #.k.K.R.R.R.R.j.o.j.R.Y.Y.XXY.Y.R.R.R.K.j.j.j.o.X.X._ W ^ T T W B M C S 1.y.1.,.,.t.a.a.r.M - + ; , , , , a t a t t s d 6.%.%.V.V.[.[.",
";X<X1X1X1X1X<X<X1X1X1X1X<X1X1X1X1X1X1X1X1X1X1X-X-X=X-X:X:X>X=X>X>X>X>X>X:X:X:X4X:X:X:X:X:X:X:X:X:X:X4X4X4X4X4XeX4X-X;X.XO.j.j.j.j.h.h.j.j.j.j.g.l.8.8.q.9.9.9.9.0.5.Z G b u u y G b v v v r v b b n H m c n v r b n *.b.M.v.*.x m v.M.M.M.v.;.;.;.;.v.M.M.M.M.n.n.n.m.b.>.;.=.$.c c &.:.m.M.n.b.m m ;.v.*.;.*.:.*.*.*.v.v.n.m.m.V.'.0.0.0.0.z.`.'.'.'.'.V.V.V.V.V.V.0.0.8.6.6.6.6.<.t t u #.w.j.j.j.K.R.Y.L.Y.Y.Y.Y.R.K.R.R.R.K.j.j.o.] _ ^ ^ W T f 4 9 g D i.r.t.1.C S r.r.r.r.F u.( a 7 , 9 , , , , t s d C C F <.%.%.%.V.[.[.",
";X-X<X<X1X1X1X<X1X1X1X1X1X1X1X1X1X1X1X1X1X1X1X-X-X-X-X:X-X=X=X=X>X>X>X>X>X:X:X4X:X:X>X>X:X>X:X:X>X4X4X4X4X>X=X,X.XO.j.j.o.o.j.j.j.h.o.o.h.j.j.P.P.H.l.d.z.9.9.q.9.5.Z b C u u u Z v v v u r G b n x n n n n z v n =.>.n.M.m.b.v &.v.M.M.b.*.;.;.;.*.v.m.m.v.m.m.m.m.n.b.-.;.&.c c c ;.b.m.m.M.v.x c *.:.;.;.;.:.>.;.*.:.v.n.n.m.V.'.`.0.0.`.`.'.V.V.V.V.V.V.V.0.0.0.8.6.6.6.6.<.p d S w.S G <.h.h.j.L.L.j.j.j.K.K.K.L.K.j.h.j.h.X.] _ _ T W q 4 N g g S 1.r.a.r.M = = F 1.F F F 1.M t a a a a s a s a d M A F Z S G G 5.%.%.V.Z.",
";X<X<X<X<X<X1X1X1X1X1X1X<X1X1X1X1X1X1X1X1X1X1X1X-X-X-X-X-X=X=X>X>X>X>X>X>X:X:X:X>X>X>X>X>X:X:X>X>X>X>X,X+X.XO.O.o.h.j.j.j.o.o.h.j.j.o.X.h.h.j.j.P.P.P.G.J.l.d.8.8.5.Z b C u u H b v v z r v Z v b m n n n x v n =.;.b.n.M.m.n.r b.:.v.v.v.*.;.;.*.*.v.m.n.:.n.m.m.m.n.b.-.;.&.&.c $.-.n.m.m.m.v.x $.*.:.;.;.&.:.v.;.*.*.v.n.m.m.V.V.z.5.0.0.0.'.'.'.0.0.0.0.0.0.6.%.6.6.6.p i y A r.y.,.1.C ,.[ o.j.L.K.K.K.K.L.j.j.j.j.j.X.] ] ^ W Y N 9 7 > 4 s F r.s.i.D t : d h M G F ,.Z 1.1.M , t a , t a d d C G F Z F F r.F + <.%.%.%.Z.",
";X<X1X1X1X1X1X1X1X1X1X1X1X1X1X1X1X1X1X1X1X1X1X1X-X-X-X=X-X=X=X=X=X>X>X>X>X>X>X>X>X>X>X>X>X>X>X,X+X.XO.O.O.o.o.h.o.o.o.o.o.j.j.j.j.j.L.L.L.j.h.o.j.j.j.j.j.R.T.U.).d.Z Z G l Z 3.z v l u r H b v b b n n b v n n &.*.v.n.M.m.-.x m.M.v.v.:.;.;.;.*.*.*.m.b.*.b.m.m.m.n.b.-.;.=.&.c &.-.m.m.m.m.:.x $.:.*.*.;.;.v.>.*.;.*.v.b.n.m.V.V.`.`.`.'.'.V.V.0.0.0.9.8.6.6.6.6.<.p y h ) i.t.t.Z 1.,.G w.e.j.j.L.L.L.K.j.j.j.j.o.X.] ^ Y Y N f 9 s M M D A 4 F r.A < = : : G Z ,.F 1.,.y.F ,.s , t , s d d C F F Z F 1.1.F M : = = <.%.%.%.",
"<X<X1X1X1X1X1X1X1X<X1X2X1X1X1X1X1X1X<X<X1X1X1X<X-X-X=X=X=X=X=X=X=X=X>X>X>X>X>X>X>X>X>X,X,X.X{.O.o.o.o.o.o.o.j.j.j.X.X.o.o.h.j.j.j.j.j.j.j.L.K.j.X.h.j.K.R.Y.Y.Y.Y.P.Z n Z n 3.b v v l l v Z v z v m n n x =.n =.;.:.v.M.M.M.&.n m.m.M.b.v.*.;.;.>.;.*.n.v.*.v.m.m.n.n.n.-.-.&.&.&.=.b.m.m.m.M.>.r &.*.*.*.;.;.v.*.;.&.*.:.v.n.m.V.V.'.'.'.'.V.0.0.0.8.8.%.6.6.<.p y d A F r.t.y.t.1.F r.F C ,.w.j.j.h.h.j.j.h.h.o.o.] _ W Y f s s M M A F r.,.F B s - = : = : : G <.1.1.1.1.1.,.t.g t s d A C F F Z ,.r.s.r.M : : - + = : %.%.%.",
"<X<X1X1X1X1X1X1X1X1X2X2X2X2X2X2X2X2X<X<X1X1X<X1X-X-X=X=X=X=X=X=X=X=X>X>X>X>X>X,X,X+X{.O.O.o.o.X.X.o.o.o.o.o.j.j.j.j.o.o.X.[ X.X.o.o.o.o.j.L.K.L.R.Y.XXR.j.j.R.R.Y.P.F b =.=.3.v v l l r b v z v v b n x =.n $.=.-.v.v.M.M.v.c =.m.m.M.M.b.v.:.:.:.b.:.v.:.*.v.m.m.n.n.n.-.;.&.=.=.;.b.m.M.M.M.;.x ;.*.*.;.&.;.:.*.;.&.*.*.>.n.m.N.0.0.0.'.'.0.0.8.6.8.%.6.<.p u A r.r.,.r.t.t.1.Z F S F G h F ) ] X.o.h.h.o.o.X.] ^ ^ T N s M M A ' a.i.t.y.' s f ; ; = = = : : Z ,.1.1.Z 1.Z ,.t.d C C A F F F r.t.y.r.A = : : : : + + = < %.%.",
"<X<X<X<X<X2X1X1X1X1X2X2X2X2X2X2X2X2X2X2X1X1X<X<X<X-X=X=X=X=X=X=X=X=X=X=X,X,X|.{.O.o.o.o.o.o.o.o.[ X.X.o.o.o.h.j.j.j.j.j.j.j.h.[ X.X.o.j.j.L.K.K.K.R.R.Y.XXR.h.j.R.Y.' b n H b v v l u v b x b v v v b b =.$.=.;.>.v.v.v.v.&.c $.m.m.M.M.b.n.b.b.b.n.b.:.:.:.M.m.m.n.n.n.>.;.=.=.&.-.n.m.M.M.M.c m *.*.*.;.&.*.*.*.;.;.*.*.:.v.n.N.A.4.6.%.6.6.8.%.#.#.#.u d F r.i.i.i.a.) d S G Z F S F ,.C A S _ _ ] X.X.o.X._ ^ T N f M A F s.a.y.a.a.) , X X 5 8 ; = = : : : Z <.t.Z Z G 1.1.y.,.r.r.1.F r.y.a.s.M = - O : : : - + + = = i %.",
"<X<X<X<X2X2X2X2X2X2X2X2X2X2X2X2X2X2X2X2X2X<X1X<X<X=X=X=X=X=X=X=X=X,X,X{.O.o.X.X.o.o.o.o.o.h.j.j.o.X.o.o.o.o.o.o.j.j.h.h.h.j.j.j.X.o.o.o.h.j.L.L.j.j.K.R.Y.XXXXR.XXT.s.3.H Z u u l u u Z x b n b b x v 3.c n =.*.:.v.v.M.:.&.n c m.m.m.m.n.n.b.b.n.b.:.:.:.n.m.m.m.n.n.n.b.;.&.=.&.>.n.m.M.M.M.m c *.*.;.*.&.*.*.*.*.*.*.*.*.v.n.n.N.s.S <.6.6.<.p p p <.,.i.a.t.a.s.A , = = F G ,.r.r.y.y.C h d W _ ] ] ] _ ] ^ f s N M ) a.y.t.y.y.A + X X X X . q O = = : : < Z ,.2.t.t.1.t.t.t.s.1.F 1.s.y.u.B O O + + O = = = = + = = = O : ",
"<X<X2X2X2X2X2X2X2X2X2X2X2X2X2X2X2X2X2X2X2X2X2X<X<X-X-X=X=X=X;X,X+X{.+.X.X.X.X.X.o.o.o.o.j.j.j.j.j.j.j.j.h.o.o.o.o.o.o.j.j.L.L.L.L.L.L.K.j.o.o.h.j.j.L.XXY.Y.Y.Y.K.P.s.3.3.l u u l l l Z b 3.3.3.=.n 3.n c =.=.*.v.b.v.v.;.&.c c m.m.m.m.m.v.v.n.n.v.:.v.n.n.m.m.m.n.n.n.n.-.&.&.;.>.n.m.m.M.v.x $.:.*.*.*.;.*.*.*.*.*.*.*.*.v.M.n.N.s.` j i y t d h <.<.y.y.y.S g : : < d d ,.a.y.y.r.t.r.,.h i M T _ _ ^ ] T f g M u.k.a.y.a.r.B O O O O . X o ; f , : = = = : G ,.2.2.1.t.t.r.F F r.t.y.u.B O $ + + + + O = = = = + + = - O + ",
"<X<X2X2X2X2X2X2X2X2X2X2X2X2X2X2X2X2X$X#X).l.z.l.).#X$X;X,X,X.X{.+...] ] ] ] [ X.X.o.o.o.o.o.o.j.j.j.j.j.j.j.X.] ] o.h.j.j.j.j.j.L.L.L.L.L.L.X.X.j.L.K.L.R.R.R.P.P.P.s.2.Z z l l l v H b 3.=.=.=.=.3.=.c n =.-.:.v.M.v.:.&.$.c =.m.m.m.m.M.:.n.b.v.v.b.n.n.M.m.m.n.n.n.n.n.b.=.&.*.*.n.M.M.M.&.x &.:.*.*.*.;.;.*.*.*.*.*.*.v.n.n.m.N.F f g A A F r.<.<.S r.A : = : : : < Z Z 1.2.r.,.r.F t.S h i s 7 T T W T a 9 A a.a.y.y.) a ; , + + + O & > 7 9 9 t t d t t t C Z 2.t.t.t.,.,.r.t.a.r.M + ; > > - = - - = = = = = + + + - O = ",
"<X<X2X2X2X2X2X2X2X2X2X2X2X2X2X$X).l.d.8.8.8.9.0.0.z.z.z.).UX+. .W ( ( ( _ ` ] ] [ [ X.X.X.X.X.o.j.j.j.j.L.L.j.X.o.o.o.o.h.j.j.j.j.j.L.R.Y.XXj.j.K.K.K.R.R.P.R.Y.Y.g.p.Z n H 3.H H 3.3.n 3.c =.&.-.3.c =.=.=.-.v.v.v.v.*.&.=.m -.m.m.m.m.M.b.b.v.v.v.n.n.n.m.n.n.n.n.n.n.n.n.-.;.*.*.n.M.M.M.$.c *.:.;.*.*.;.;.;.*.*.:.b.b.b.n.m.n.N.C ) i.r.r.t.t.S <.t d s - : : : < j G Z 1.1.,.r.r.F 1.Z G j t ; 9 N B ) p.!.r.r.r.F , 7 7 a s = + = , s s a s s t s y d C A F y.y.t.,.,.t.t.t.r.g - 7 9 9 , , , , , , , , , < > + = + ; + = ",
"<X2X2X2X2X2X2X2X2X2X2X2X$Xl.l.z.0.8.8.8.8.8.8.8.9.0.0.0.z.z.l.) g g B B B ( _ _ _ _ _ ] ] X.X.o.o.j.j.j.j.K.K.K.K.L.h.X.o.o.o.h.L.L.L.K.L.Y.XXXXY.XXXXY.Y.Y.j.P.K.h.[ G b =.=.=.-.-.3.B.H n =.-.B.=.n =.=.=.v.b.b.b.v.;.=.c n b.n.m.m.m.n.b.b.v.b.n.n.n.n.m.n.n.n.n.n.n.n.m.n.>.*.v.M.M.M.M.&.$.:.*.;.*.;.;.;.*.b.:.b.b.b.n.n.m.m.N.a.a.a.y.t.F C t <.t C 1.a : : : < i G Z 2.1.r.y.y.y.,.C G d y , B D y.t.).u.S S F r.A g s , - - , a a a a , , s s d C F F r.r.1.,.r.y.t.t.r.F M q N f s 9 , , , , 9 t a s t a , + + + - + = ",
"<X2X2X2X2X2X2X2X2X$Xl.l.d.8.0.9.9.9.8.8.8.6.8.8.8.8.8.8.8.9.0.0.d.A a 7 s f T T W ( ( _ ] _ ] [ X.o.h.j.j.K.K.K.L.L.R.j.X.X.h.j.K.Y.Y.R.K.L.Y.Y.Y.XXR.Y.Y.T.P.X._ / T S l n =.3.B.N.N.=.=.H -.B.=.n c =.=.;.n.n.b.b.*.&.n x n.n.v.n.m.m.n.b.b.b.n.n.n.m.n.n.n.n.m.n.n.n.m.m.n.n.b.M.M.M.M.M.;.&.:.*.*.:.*.>.*.*.>.v.n.b.b.n.m.N.4.2.l.a.u.D , : t , C : p y : : : < < i F ,.1.1.r.t.y.t.1.,.G h y : d C _.i.r.) r.r.y.r.D d - ; 7 a a , 7 , , a 9 s d A F ,.1.1.F r.a._.y.,.r.a.G M f N 9 , , , 9 9 a a s a s g M s + = = ; O - ",
"<X<X2X2X2X2X$Xl.l.z.0.8.8.9.9.9.9.0.9.8.%.6.6.6.8.8.9.9.0.0.0.0.0.z.2.t 3 , a s B B W ( _ _ _ ] X.o.h.h.j.j.K.K.L.R.R.R.K.K.R.Y.Y.Y.Y.XXK.h.j.K.R.R.R.j.o..._ K / K K F v v =.-.3.4.=.3.n n =.c n n x =.=.>.n.n.b.*.&.$.m -.b.b.:.n.n.n.n.n.b.n.n.n.n.n.n.n.n.m.n.n.n.n.n.n.n.n.M.M.M.M.M.M.v.&.*.:.b.:.*.>.*.*.>.>.v.b.b.n.N.d.y.a.D - O o + - - : d : p t : : : : < i Z ,.2.y.r.1.1.t.t.G C G u = d u S S r.u.r.Z F < - > , 9 , , , , 7 , , s s s S r.t.1.,.r.a.l._.s.F 1.y.Z F B 9 , , s s a a a s a a s A D D g + + = - O ; ",
"$X$X$X#Xl.l.d.6.8.8.8.8.9.9.9.9.9.9.9.9.8.8.6.%.8.8.9.9.9.9.9.0.0.0.0.z.h O = ; 9 s N B ( _ _ [ ] ] o.h.j.j.j.j.K.K.K.R.R.R.Y.Y.R.Y.R.K.L.Y.j.o._ / K Y / / / / / / K A G x v H 3.n n n b b b c c n z c =.v.n.n.:.;.$.c m b.>.:.v.n.n.n.n.n.n.n.n.n.n.n.n.n.n.n.n.n.n.n.n.n.n.b.v.M.M.M.m.m.M.&.*.:.v.*.*.*.*.>.>.-.B.b.N.N.A.l.' s O o & = ; - ; ; d = p < = = : : < t Z 1.2.y.a.t.t.t.t.G M p t = t i A i.i.r.S y.F a g s , t , a , 9 s g s t B A t.r.,.t.y.y.a.r.F i.F 1.,.1.t.s 9 s a s s s s s a a M ) D D V N + + + - O > ",
"l.z.z.0.0.8.8.0.9.8.8.8.8.8.8.8.9.8.8.8.8.8.8.9.7.7.8.8.9.9.9.9.0.0.0.0.z.z.C O ; , 9 N W ( _ ( ( ] [ o.h.h.j.j.j.j.j.L.j.j.L.L.L.K.K.K.L.] / K K K K / K K / / / / K T Z b v b v v b v v b b n c n r c =.-.n.v.;.&.&.=.-.n.:.:.b.v.n.n.n.b.n.n.n.n.n.n.n.b.b.b.b.b.v.b.b.b.b.M.v.v.M.M.m.m.M.;.;.:.*.*.:.*.*.B.B.3.H H l A ` , O + + = - : : ; ; : h : u , , : : : : t Z ,.t.y.t.r.y.t.t.Z M p , = t t d r.F S ,.1.' s s s a s s s g g d A F ) B s ' i.d.a.y.F , = F F Z 1.1.F 1.s a a a s s s a t g ) ) ( ( ( ( B + = + - O > ",
"0.0.0.0.0.0.8.7.8.8.8.8.8.8.9.9.9.8.9.8.9.8.9.9.9.7.7.7.8.8.8.9.9.0.0.0.0.0.z.z.t.d : , g W W W _ ` ] X.h.h.h.h.h.j.j.j.h.h.h.h.j.j.X._ Y K K K K K K / / / / K / / / T Z H G v l z l v v v m =.c x r b n *.v.*.&.&.-.-.b.n.*.*.v.v.b.v.v.v.b.n.n.b.b.b.b.b.v.v.v.v.v.v.v.b.v.v.v.v.M.m.m.m.M.*.*.:.*.*.>.=.3.H M - & & ; 2 ; ; > , 7 , , , : : , t <.d h d a , t s s t C G t.t.y.a.y.y.t.G M p t , y C r.r.C C ,.d.A s s s s s M A A C F r.y.' g D ) a.l.' , : < d Z 1.1.1.1.s.r.s a a s s t t d D ) ( ( ( ( W W f = = + = O 7 ",
"6.8.8.9.0.0.0.9.%.%.7.8.8.8.0.9.9.9.9.9.9.9.9.0.0.9.8.8.8.8.7.7.9.9.9.9.0.0.0.0.0.z.z.2.h a s B W ( ` ] [ [ X.o.o.h.h.h.h.h.o.X._ K J J J K K K / / K K K K K K K / / / ) 2.F Z v l r z l v n ;.c v r b b ;.b.;.;.-.=.c n.b.>.*.:.:.:.:.:.:.v.b.b.v.v.v.v.v.v.v.v.v.v.v.v.v.v.v.v.v.M.m.m.m.m.>.>.>.3.n u - $ & & & & % ; 2 4 a s s s s s a , , , t G d h d a s s g M A F y.t.y.a.a.d.d.r.C d u C d C F ,.,.r.F r.r.S d s d M A A S r.a.r.F F a.u.a.) ) , = : : < F Z 1.1.1.1.1.r.s a a a a s M ` ( ( W T W W W W f = = = - + f ",
"6.6.6.8.8.9.9.9.9.8.8.%.%.%.8.9.9.9.0.0.0.9.0.9.9.0.0.0.0.0.9.7.q.9.9.9.0.0.0.0.0.0.0.0.'.d.C 3 s B T W ( _ ] [ X.o.h.o.o.X.W K J J J J J J J K K K K K J J J J K / / / T 1.s.Z v v z z l z v =.&.b r v b &.-.-.-.-.c &.b.v.-.>.b.v.*.*.*.*.:.:.v.v.v.v.v.v.v.v.v.v.v.v.b.b.M.v.v.:.M.m.m.m.m.N.3.M $ @ @ $ & & & % % % % 2 ; s d B M s t , a s s t h d <.d d d g A C 1.t.y.d.d.A.d.y.t.Z d u i Z d G G r.F r.F G r.F d M A A F r.i.s.r.r.a.s.a.( ` ; = : : < : : Z Z 1.,.1.1.,.r.s a a a B ( D ( W W W W W W W W f = = + - = V ",
"8.6.6.6.6.6.8.8.8.9.9.9.0.%.%.7.9.0.0.0.0.0.0.0.0.0.0.0.0.0.0.9.7.9.9.9.0.0.0.0.0.0.0.0.0.0.'.d.S a s g B ( _ ] X.h.j.h._ K J J J J J J J J J J J J J J J J J J / / / / / F F Z l l v z r u r m =.b r v m c m r n c c =.$.c &.*.:.v.>.b.v.:.*.:.:.v.v.v.v.v.v.v.v.v.v.b.v.b.b.b.v.:.v.m.m.m.N.G @ $ $ $ & & % % % % % % % % 2 7 s a t 7 a s s a s a d d <.d d A S S Z 2.d.).).l.w.t.t.2.S = : j G F S r.r.t.y.d.r.a.F C G F r.i.r.S s.a.a._.u.D ; X X = : : : : < G Z 1.F Z 1.,.r.d s M A ( ( ( W W T T W W W W W f = = = ; ; ( ",
"8.8.6.6.6.6.6.8.8.8.8.0.0.0.8.%.7.7.8.0.0.9.9.0.0.0.0.0.0.0.0.0.8.9.0.0.0.0.0.0.0.0.0.0.9.9.0.0.0.d.t 7 s W X.j.j.h.T 0 w w w w w w J w J J J J J J J K / / / / K / / Y T ' v l l u y u i i r r x x i m n n x v x m ;.;.$.$.c $.&.&.;.*.*.*.*.:.v.v.v.:.v.v.v.v.b.v.M.M.v.v.v.n.n.n.M.m.Z.N.M & $ $ $ $ $ & & % % % % % % % % 2 9 a s s a a a a t t p d C G F r.,.t.a.A.).l.) t j ,.,.1.d = = t h Z F w.F t.r.r.a.y.y.y.a.a.i.t.i.a.a.d.a.D +   6 X X = : : : : < C G 1.1.1.r.F A M A W W ( W W W T W T W W W ( ( T = = + > 7 } ",
"8.8.8.8.6.6.%.6.8.8.8.0.0.0.0.0.0.0.9.8.7.8.8.9.9.9.9.9.0.9.9.0.0.0.0.9.9.0.0.9.9.9.9.9.9.q.7.7.%.<.` o.Y.@X@XoX@X@X$XXX..2 2 6 w w w w J J J J J J J K J J K K K / K J f f t : < t u u y l x b =.x i -.&.n =.=.m =.b.b.*.*.;.;.&.&.$.$.$.$.&.&.*.:.:.*.;.;.:.*.v.*.v.v.n.m.m.m.m.n.v.n.B.9 & & & $ $ $ & & & % % & % % % % % 2 4 s s s s s a t t t h C G 2.t.t.d.A.A.y.D j i i t j ,.1.M = : u p ,.,.a.,.,.y.d.d.d.y.t.s.r.a.)._.a.u.B O + $ $ 6 o + + = = = : < S Z r.Z ,.A M ( ( W ( W W W ( W W W W T W ( [ o.( = = + , 9 [ ",
"0.0.9.8.8.6.6.6.6.6.8.9.9.9.9.0.0.0.0.0.0.7.7.7.7.8.9.9.9.9.0.9.0.9.9.0.8.9.9.9.9.q.q.7.7.%.$.<.i.R.XXXXXXXXXXXXXXXXoX@X#XoX_ 2 2 w w w w w w J J J J J J J J K K K K J w 0 s d u u u u l b n =.;.n n -.=.-.-.-.-.=.n.N.b.b.v.v.b.>.>.-.-.;.;.-.*.*.*.>.*.>.v.b.>.b.n.m.m.m.m.m.b.N.3.H , & & & $ $ $ $ & & & & % % % % % % % % ; s s a a t t d d d <.S Z y.d.d.d.r.d : i i j i t i Z 1.A = = t u G ,.d.t.y.d.d.a.r.r.r.a.).).).u.B 6 6 > ; ; - ; s s 7 , - = = : C Z Z S C D D ( ( ( ( W ( W W W T T T _ h.J.U.I.[ = = = > 9 [ ",
"8.8.0.0.0.8.6.%.6.<.6.8.9.9.9.9.9.9.9.0.0.0.7.7.7.8.9.9.8.8.9.9.9.9.9.9.9.q.9.9.7.7.%.%.#.w.k.R.R.R.Y.R.Y.Y.R.R.Y.Y.Y.Y.Y.XX@XR.Y 6 w w w J J w K K K K K K J J K K / K K q B C M l l u l v n 3.-.$.;.;.;.-.&.-.-.=.b.n.n.n.n.n.b.n.n.n.m.n.b.m.m.n.n.m.b.n.m.m.m.m.n.m.m.m.N.3.3.M & % & $ $ $ $ $ & & & & $ & & % % % % % % ; ; 6 s d d h C G C h G r.,.d.a.) , : i t i t y y y t F 1.M O O = t C ,.a.y.a.s.r.r.t.i._.).).p.B 0 f T T N 7 , s f s a a s s a , t C S F F ( ( W ( ( ( ( ( ( ( ( W W ( { G.U.I.W.E.[ = = = 4 f [ ",
"8.8.8.0.0.0.8.6.6.6.#.6.8.8.8.8.9.9.9.0.0.0.0.0.0.9.8.9.9.9.9.9.8.8.9.8.8.7.%.%.%.#.<.e.l.P.P.P.P.P.P.R.P.j.j.g.g.j.h.h.g.R.T.oX$Xj.Y J K / J K K K J J J K K / / / / / / / ( Z M l l l l v n 3.-.B.B.;.=.n =.4.v c b.n.n.M.n.b.b.n.m.n.m.b.n.m.m.m.m.m.n.n.m.m.m.m.m.n.M.N.Z o @ & $ $ $ $ $ $ $ $ $ $ & & & & % % % % % % ; ; ; 2 7 A G ,.,.F F t.,.t.,.S s f ; , i i i i t t y t F 1.M O O + = C a.) S F F r.a.a.a.).[ f 7 N T T N f 9 s g a a a s s s s s M D F D ` ` ( W ( ( ( ( ( ( ( W ( ( [ J.U.U.U.U.U.U.] - = = 4 f { ",
"8.6.8.8.8.8.8.8.0.8.6.#.%.7.7.8.9.9.9.9.9.0.0.9.8.0.9.8.9.9.9.9.9.8.7.%.%.%.%.6.6.l.l.g.j.j.h.h.h.g.j.j.K.j.X.[ ] ] g.Y.Y.Y.Y.T.oX@X$XL.W w J K K J K K / K K K K K K K / / ( F l l l C l b n =.-.N.N.B.l O < , y n b.b.b.b.n.:.n.n.n.n.m.>.n.n.m.m.m.m.m.m.n.n.m.N.3.n v , $ @ $ $ $ $ $ $ $ $ $ $ & & $ $ & & % % 1 1 % % % ; % ; ; D 1.,.t.a.t.a.G s t A W f O , t i i i i t t t F 1.D s ; ; , A A D ) ' s._.)._.a.s 8 f T T T N s s g g g M d s s g s M F F D ( ( ( ( ( ( ( ( ( ( ( ( ( ( ] D.U.^.^.^.^.^.^.W.] - = - 7 f { ",
"6.6.8.8.9.0.8.8.9.9.9.%.#.6.8.8.9.9.9.9.0.0.0.0.9.8.0.8.8.8.8.7.7.%.%.%.6.6.2.u.k.h.g.h.h.h.h.o.o.h.h.h.h.h.[ W [ g.j.j.K.P.P.R.Y.XXXX@X$Xj.Y J J J J K K J J J J K K K / / Y 9 , , , 9 , > y u v b b y         . = < < u n -.-.-.>.b.N.-.B.n.b.b.n.n.m.n.n.b.B.H , o o $ $ & $ $ @ $ @ $ $ $ $ $ $ $ $ & & & & % % 1 1 1 % % % ; ; ; M y.y.y.y.F s h O t g - ; , t t j j j j i t t G F ) r., s W ` ) r.s.a.).).a.s.a.N V V N N s s s s s s s s s s M A ) r.) D ( ( ( ( ( ( ( ( ( ( ( ( ( ] h.U.^.^.^.^.^.^.^.^.W.] - = - 7 f { ",
"6.6.8.8.8.8.9.9.9.0.9.8.%.#.#.#.%.8.8.9.9.0.0.0.9.9.9.6.7.8.8.%.6.6.6.2.) p.g.j.j.o.X.o.o.X.X.X.[ h.j.P.Y.Y.Y.Y.Y.K.h.h.g.j.K.P.R.Y.T.oX@X#X#Xo.w w w J J J J J J J J K K K / w 6     X     X X           . . . . . . . . o = : < < y y y u z z z b H n b r y - @ $ $ $ $ & & & $ @ * @ @ * @ $ $ $ $ $ $ & & & & % % % % % % % % ; ; M y.r.D t - = C O + 9 M A C C M d u y t t j j S r.r.C a , t s A a.a.a.s.t.a.a.u.T B f 9 s s s s g s s s s s A F r.u.' _ _ ( ( ( ( W W ( ( ( ( ( } h.J.W.^.W.^.^.^.^./.^.^.^.} - - - 7 f { ",
"6.6.6.8.9.8.8.9.0.0.9.0.0.8.8.%.#.6.8.8.8.8.8.8.8.8.6.6.#.%.6.<.i.u.g.h.h.h.o.X.X.o.[ [ [ [ [ [ h.j.g.j.j.P.P.Y.Y.Y.Y.g.h.j.j.K.P.R.R.Y.XXXXoX#XoX] 2 w w w w J J J J J J K K J $                           . . . . o @ @ @ @ @ @ @ @ @ o o o . o @ @ @ $ & % % 1 % & & & & & & $ @ . @ @ @ $ $ $ $ $ $ $ & & $ & % % % % 1 % % % ; 7 k.A d g g 7 : G s A A A A A A A A A C C G w.r.t.r.d y s B B s d a.a.) r.r.a.a.D f s a s a s s s s s s d A ) ' r.' ] _ _ _ _ ( ( ( W W W ( W ( h.G.U.^.^.U.U.^.^.^.^././.^.^.( - - - 7 f h.",
"6.6.6.8.8.0.8.9.0.9.8.9.0.0.0.9.8.8.8.%.%.7.8.8.6.#.#.6.2.d.i.h.j.h.h.X.[ X.o.h.h.h.h.X.] ] o.h.h.h.g.g.j.j.j.K.P.Y.Y.XXj.X.h.K.j.K.R.Y.Y.XXoX@X#X$X$XX.4 2 w w J J J J w J J J 1                               . . @ @ @ $ $ $ $ $ & $ $ $ $ $ $ & % % % 1 1 % % % % % % % * . . . @ @ @ $ $ $ $ & & & & & $ $ & & % % 1 % 2 2 1 6 h.k.) A A a : d F D A A A A D A D S D S w.r.r.,.C d d M ) ) g t d r.s.F a.r.r.r.D s s s s s s s s s M C A F ) ` ` _ _ ] ] ] _ _ W ( W W W ( { I.I.I.^.^.^.^.W.^.^./.^.^./.^.^.( - - - 7 s f.",
"%.%.6.8.9.0.0.0.0.0.9.9.9.0.9.7.%.8.6.6.#.#.<.<.w.u.u.i.h.g.h.h.h.j.j.j.h.h.h.h.o.X.[ [ ] o.h.h.h.o.o.h.h.j.g.j.j.K.R.Y.oXj.P.j.j.j.P.K.R.Y.Y.T.@X@X#X$X$XL.W 6 w w w w w w w w 2                               . . * @ $ & & $ $ & & & % % % % 1 1 1 1 1 1 1 % % 1 % % % % . . . . * @ @ @ $ $ $ & & & & & & $ & & % % % 1 1 2 % [ ).l.i.s , g A A A A A A A A S ) F w.t.i.r.F d d y C r.y.y.t.M a d r.r.r.r.a.y.r.B s s s s s a a g B C S F ) ( ( ( _ _ ] ] ] _ _ _ _ ( ( { D.I.U.^.^.^.^.^.U.^.^.^.W.^./.(./.^.( - - - 7 s h.",
"<.%.6.6.8.9.0.0.9.9.9.9.7.7.7.%.#.#.<.t.e.u.u.h.h.h.h.h.h.h.h.h.h.h.h.h.h.h.h.h.h.j.j.j.K.j.h.X.o.h.h.h.h.o.h.h.j.K.P.Y.Y.Y.Y.R.R.g.h.h.j.j.j.P.Y.XXoX@X#X#X$X$X$XXXj.j...Y w w 6                           . . . * @ $ $ $ $ & & & & & % % % % % 1 1 1 1 1 1 % % % % % % & . . . . @ @ @ @ $ $ & & & & & & % & $ & & % % ; % % ' ).).l.k.( M A A M A A A D S S S r.i.a.r.S C d d A w.r.r.r.F C d d A r.a.r.y.) r.y.s s s a s s s B A D ) ) ` } _ _ _ _ _ _ _ _ _ _ _ ] [ D.U./.^.^.^.(.^.^.W.^.W.U.G.^.^.^.^.^./.( - - - 7 f S.",
"h <.$.%.6.8.9.8.8.8.8.7.%.%.#.p S e.u.{ o.o.o.h.h.h.h.h.h.o.o.X.X.X.[ [ h.h.h.h.h.j.g.j.g.j.j.j.o.X.o.o.h.h.h.j.j.j.K.P.Y.Y.Y.Y.Y.Y.K.o.X.X.h.P.Y.XX@XoXXXoXoXoXoXoX@XoXXXXXO.w w * .                     . . . . * @ $ $ $ $ & % % % % % % 1 % 1 1 1 1 1 1 2 1 % % % % % $ . . . . * @ @ @ @ $ & & & & & & & & & $ & & % 1 6 u.~.).).l.a.u.d M M A A A A D F r.i.a.y.F A d t t r.t.,.F G u h C d ) r.r.r.F F C S r.B s a a s B A D ' ' } W T ( _ _ _ _ _ ( ( _ _ _ ] o.I././././.(.^./././.^././.^.^./././.^.U.^.( - - - 7 s S.",
"q f h G <.6.8.%.8.%.%.%.<.<.) h.h.h.h.h.h.h.h.h.h.h.h.j.h.h.h.[ ] _ X.h.h.h.h.h.h.h.h.o.h.g.g.g.g.h.[ X.h.j.j.j.j.g.j.K.K.R.Y.Y.Y.T.Y.Y.] o.P.T.Y.Y.Y.Y.R.K.K.R.R.R.L.XXj.j.j...w % @               .     . . . * @ @ $ $ $ $ & % % 1 % 1 1 % % 1 1 1 1 2 2 1 1 1 % % & & @ . . . . . * @ @ @ $ $ & & & & & & % & & $ & $ 7 k.).).).).).l.i.d g M A A A D r.a.k.i.F M M t t d d u C u u d u h G d F F F F F A D M A A s a B M F ' ' } ( _ _ ( ( ( T T ( _ _ ( ( { g.U.E./.^./././.(././.(.(.(././.(.^.(././.^.U.^.W - - - 7 9 S.",
"w w w 7 t <.6.6.8.6.6.G ) { X.[ [ X.X.X.X.o.o.o.h.h.h.h.h.h.h.X.] X.o.h.h.h.X.o.h.h.h.j.g.g.g.h.h.g.g.X.h.h.h.h.h.j.g.g.j.K.P.Y.Y.T.T.T.XXXX@X@XoXY.P.K.P.K.j.j.j.j.j.O.X._ W w 5 % *                 . . . . . * @ @ $ $ $ $ & % % 1 1 1 1 1 1 1 1 2 2 2 2 1 % 1 % % % & .     . . * * @ @ @ @ & $ $ & & & % % % & $ ; ` l.).).).).).l.l.i.h d d d d r.l.).a.) A C A S d t d d y d d h h Z 1.t.A C ) D ' ) F r.w.F A B ' ' ) D ` ( ( ( W _ _ ( ( ( W W T ( } g.U././.(.(.(.(././.^.(./.(.(.(./.(.(././.(./.(.^.U.W - - - 9 9 D.",
"2 2 2 2 2 : j j p p F [ } } ] [ [ [ [ X.o.o.h.h.h.h.h.j.g.j.j.j.j.j.g.h.X.X.X.X.o.h.h.h.h.j.j.P.j.K.P.R.j.h.h.h.h.j.j.K.K.K.P.Y.XXY.Y.Y.Y.Y.T.T.T.@XoXY.g.K.K.j.j.o.X._ ^ W 6 1 1 $                 . .   . . . * @ @ @ $ $ & % % % % 2 1 1 1 1 1 1 2 2 2 2 1 1 % 1 % % &       . . . . * . @ @ $ @ @ & & & % % % - B i.).).l.).).).).l.).i.) y d S i.a.a.) F S S r.a.y.A t : + s C d S 1.,.,.2.M M ` A A ) r.D ) F ' u.f.) ( ( W W W W W W W W W ( ( ( ] f.U.J.G.I./.#X(.(.(./.(././.^./.(.(.#X#X#X/././.(.(.^.U.W - - - 7 9 D.",
"2 3 h ,.t.d.z.8.6.h A ( ` ` ` ` ] ] [ X.o.h.h.h.h.h.h.h.j.h.h.h.h.j.j.g.h.[ [ [ X.h.h.g.j.j.j.K.R.P.P.R.P.P.j.h.h.h.h.j.j.g.K.P.Y.T.XXXXT.P.P.Y.K.P.P.Y.Y.Y.K.j.O...^ ^ T ;   $ % *                   .     . . * * @ $ $ % % 1 1 1 1 2 2 2 1 1 1 2 2 2 2 1 2 % % % 1 % @       . . . . . . @ $ @ $ @ @ & & % % 7 u.l.k.l.l.).l.l.).).).).l.u.A r.r.' S F F F i.a.y.d.s.a + = = y ,.r.t.t.1.1.1.M g A F D D ` ) F u.u.[ _ ( ( W W T W W W T T T W W _ h.I.I.^.^.^.(.^.H.U.^.(.#X(.(.(./.(././.(.#X(.(.(.(.(./././.T - - - 9 9 D.",
"t.z.0.9.9.9.0.0.0.z.t.A D ( ` _ ` ] ] [ X.h.h.h.j.h.h.j.j.h.h.h.h.h.h.g.g.h.` ] X.h.j.j.j.j.K.R.Y.Y.Y.Y.Y.Y.Y.Y.K.h.X.{ o.j.K.P.Y.P.P.P.Y.T.P.P.Y.j.j.g.j.j.h.X._ W W ( V f ; & @ * . .               . . . . . * . . * @ $ % 1 1 1 2 2 2 1 2 2 2 2 2 2 2 2 1 % % % % &           . . . . . @ $ $ $ $ @ $ & ; W k.i.i.l.l.l.l.l.l.).).).l.l.a.S A d d C A r.a.y.).a.B O + + + g t.t.r.,.,.F 1.F s M A F ) ) ) ) u.[ _ _ ^ W W W W W W W T T W W _ [ h.P.U.^././././.(.(.(.^.H.I.J.(.(.#X(./.(.^./.(.(.(.(.(.(.(./.T - - ; 9 9 S.",
"9.8.8.8.9.9.9.9.9.0.0.d.S B A W ( _ ` ] [ X.o.h.h.h.h.j.j.j.j.h.h.j.g.j.K.K.h.X.o.o.h.j.j.j.j.j.j.j.j.j.K.P.Y.Y.Y.Y.K.g.g.j.j.Y.Y.Y.Y.Y.K.P.j.g.j.j.j.j.h.X._ W T W [ u.u.( N a s &   .                 . . .   . . . * @ % % 1 1 1 2 2 2 2 2 2 2 2 2 2 2 2 1 2 % % % &             . . . . . @ $ & & $ $ g u.l.l.i.a.k.l.l.l.l.l.l.).).).l.l.u.d d C C ,.i.a.i.M O O O O O = M 1.,.1.F Z G A r.t M A F ) ) ' [ ( W W W W W W ^ ^ W W W W T _ X.K.P.I.U.U.^.U.U.^.^.(.(././.(.#X/.H.I.J./.#X#X(./.(.(.(./././././.B - - ; 7 7 D.",
"7.7.q.q.9.9.q.9.9.9.9.0.z.1.d B W ( ( ( ] ] X.o.h.h.h.h.h.h.j.g.g.j.g.g.j.j.K.P.P.j.h.o.o.X.X.X.X.[ [ o.j.j.h.[ ( } h.P.P.P.Y.K.P.P.K.P.K.j.j.o.X.h.X.o._ T T T T B ) r.i.' ( ( ` f . .             .   . . . . . . * * $ $ % 1 2 2 2 2 2 2 2 2 2 2 2 2 2 2 2 2 2 % % &             . . . . . @ $ & & B u.k.k.l.k.i.i.k.l.l.l.l.l.l.l.).).l.l.i.h C G G F ) 9 O O O O O O O O d Z Z ,.,.,.S A F , , A ) u.[ ( W _ _ _ _ ^ ^ W _ W W W W _ o.K.I.U.U.U.U.^.^./././.^././.(././.(.(.(.#X#XU.G.J.^.(.#X#X#X#X(././.(.N - - ; 7 , I.",
"7.7.7.7.q.7.7.7.9.9.9.9.9.0.z.,.M B D ( _ ] [ [ X.X.X.o.h.j.g.g.g.j.g.g.g.g.j.j.K.P.P.g.{ [ [ [ [ g.R.Y.P.R.P.P.g.] [ h.K.h.[ j.Y.P.h.h.j.h.h.o.X.] _ T T T N B B A ) a._.r.t g ) ( * *             . . . . * . * * @ @ $ $ % 1 2 2 2 2 2 2 2 2 2 2 2 2 2 2 2 2 2 % % $ X             . . . . @ $ f ) a.a.k.k.k.i.i.i.a.a.l.l.l.l.l.).l.).l.l.l.) A d s ; X X O O O O O O O + d Z Z G ,.S C S F > 7 ] [ _ _ _ _ _ _ _ _ _ _ W W W W _ [ K.T.T.^.^.^.I.~./.^.^.U.U.U.^./././.(.^././././.U./.#XU.F.G.U.(.#X#X#X#X#XB - - > 7 , I.",
"7.7.7.7.7.7.7.q.q.q.q.q.9.9.9.0.d.F A A ( ( ( ( } ] [ X.h.h.h.h.h.h.h.j.j.j.j.j.j.j.P.P.j.] ] X.j.P.R.Y.T.T.T.T.T.g.( } h.Y.h.} { P.Y.h.o.X.X._ _ T T T N g B B ' k.).).).i.< B ( g.$ *             . . . . . * * @ @ @ $ $ % 1 2 2 2 2 2 2 2 2 2 2 2 2 2 2 2 2 2 1 % @ X             . . . & s ` r.i.i.i.i.i.u.i.i.u.i.i.l.l.l.l.l.).).).).l.l.u.t O . X X X O O O O O O O O u Z C C C S A A A 7 f T W _ _ _ _ _ _ _ _ _ _ W W _ ] h.T.U.E.E.^.U.^.^.T./././.^././.^.^.^./.^.^.T.^.^.^././.(.(./././.I.H.J./.#X#XN - - > 7 , W.",
"%.%.7.7.7.7.7.7.q.q.q.q.q.9.9.9.0.0.d.C B V ( ( ` ] [ [ X.X.o.o.o.o.h.h.g.j.j.g.j.j.P.R.Y.Y.R.Y.Y.Y.Y.Y.Y.Y.T.T.T.oXY.o.[ P.T.K.h.o.h.j.X.] W T Y Y N T B A u.).).).).)._.u.- s s ( ; @               . . * . * * @ @ $ @ $ 1 1 2 2 2 2 2 2 2 6 2 6 2 2 2 2 2 2 2 2 % .               + , s A ) w.r.w.u.i.i.u.e.u.u.u.i.i.a.k.a.l.l.l.l.l.l.l.l.i.B & + + o + = + O O O O O O y G F F F F ) ) ( W W W ^ ^ ^ ^ W W _ ^ _ _ W ( _ X.j.I.U.^./.#X(.^.(./././.^.#X/./.^././.^.^.U.U.U.U.^.U./.^.^.^./././.(.(.(.I.G.U.f - - > 7 , E.",
"%.%.7.7.7.7.7.q.q.q.q.q.7.7.q.9.9.0.0.0.,.M D ( ( ` ] ] ] [ [ X.X.X.o.o.h.g.K.K.P.P.K.P.P.Y.Y.Y.R.Y.Y.R.P.K.P.P.T.Y.Y.T.P.o.P.R.K.h.] _ _ W Y Y N B B ) a.).).).).).a.r.F r.= t d ` B @ .             . . . . * * @ * @ $ $ % 1 2 2 2 2 2 2 2 2 2 2 2 2 2 2 2 2 2 1 %           # - , s t d A ) ) e.w.r.u.u.i.u.u.u.r.u.u.a.a.a.l.l.l.).).l.l.l.k.' 7 ; - - ; - = = + + O O O d G F Z F F ) ( ( ( W W ^ _ W _ _ _ _ _ ( W _ [ { h.h.I././.^.^./././././.#X#X#X/.^.U.U.^.T.T.~.U.^.~.~.U.I.U.^.U.U.^.^.^.#X/.(.(.#X9 ; - > 7 , /.",
"%.%.%.%.7.8.9.9.9.9.7.q.7.7.q.q.9.0.0.0.z.y.g D ( ( ( ` ] ] ] [ [ X.X.X.h.j.j.j.g.j.j.P.R.R.Y.R.Y.P.P.P.j.K.K.g.j.K.P.j.Y.X.X.X._ W T T N f f g B ' k.).).).).).u.C S S S F , t d F A & .             . . . . * * @ @ $ $ $ % % 1 2 2 2 2 2 2 2 6 2 2 2 2 2 2 2 2 1 $       o ; 3 t a d t d y A ) w.w.e.e.u.u.u.i.i.i.i.i.i.a.a.l.l.l.).).l.l.l.l.u.s 7 7 > , > > ; ; ; ; ; = d S S A F D ( ( _ _ _ ^ W W ^ _ _ _ ( ( _ ] X.h.S.I.E./.^././.^././.#X/././././.^.T.T./.T.^./.U.^.^.T.^.^.^.^.U.^./.^.^.^.^.^.^./.#X9 ; - ; 7 , f.",
"7.9.9.7.%.%.7.7.7.7.q.q.q.9.9.q.9.9.9.0.0.0.z.S g B D ( ( ( } [ X.X.o.j.j.j.j.g.j.j.K.K.P.P.P.P.R.P.P.P.g.g.g.h.o.o.o.o.[ X.W T T N f f f g ) u.).).).).).l.) C h u d G G F s d C S D $                 . . . . * @ $ $ $ & % $ 1 2 2 2 2 2 6 2 6 2 2 2 2 2 2 2 2 1 @ X X - , , : < t d d d d C ) w.w.e.e.e.u.e.u.u.u.u.i.i.i.a.k.l.l.l.l.l.l.l.l.i.( 7 7 > 7 > , , , , , a g A S A ( ( _ _ W W ^ W W W ^ ^ ^ _ ^ _ ] X.h.g.I.^./././.^.^./.^./.(./.#X/.^.^././.^.~.T.^.^.T.U.U.U.U.U.T.^.^.T./././.^.^.U.^.^.^./.7 ; - > 7 7 /.",
"9.7.7.9.9.%.%.7.7.7.7.q.q.q.q.9.9.9.9.9.9.0.0.0.1.g M V ( ` } [ [ h.h.j.g.j.j.g.j.K.K.j.K.j.K.K.K.P.j.K.j.h.h.] ] _ W W T T T f f s f B ' k.).).).).).a.F u h u C d h u.k.a.d C F ) D               . . . . . . * * $ $ $ & & & 1 2 2 6 2 2 6 6 6 2 2 2 2 2 2 2 ; - o ; , t t t t t t a a d d d S S F w.e.) ) e.w.w.e.u.e.i.i.i.i.a.l.l.l.l.l.l.l.k.e.s 7 7 7 7 7 7 a s a g A A B ( ] ] _ _ _ ( W W ^ W T W ^ _ ] X.h.h.G.U./././././././././././.#XU./.^.^.~.^./.^.^./.^.^.^.U.T.U.I.U.U.T.T.U.~.T.^.^.T.^.^.^./.7 - - ; 7 , @X",
"8.9.7.7.9.8.%.%.%.7.7.7.7.7.q.9.9.9.9.9.9.0.0.0.0.d.d B ( ` ( ] [ [ X.o.h.h.j.j.K.K.P.K.j.g.g.g.j.j.h.o.h.h.X.] W T T f f f f f B D u.F.).).).).).i.F u u u u u C ) k.k.k.a.A d A F A                 . . . . . * * * @ $ & % % 1 2 2 2 6 6 6 6 6 2 2 2 2 6 2 ; ; ; s g d d d d s s t t t d d d d A S F ) w.) w.w.w.w.r.e.i.i.i.i.a.l.l.l.l.l.l.l.l.i.( a a a a s s s s g M B ( _ _ _ ] _ _ _ _ W W W W W W _ ] o.g.G.U./././././.^./.^.^././././././.^.T.T./.^././.^.T.^.U.~./.^./.U.^.^.T./././.P.~.U.T.~.^.U./.7 - - ; 7 , #X",
"7.7.7.7.q.9.7.%.%.7.7.7.7.7.9.9.9.9.9.9.9.9.9.0.0.0.z.,.M B B ` ` ] [ { o.h.h.g.g.g.j.j.g.h.o.o.X.[ X.[ _ _ W T T N f s s f B ( p._.).).).).k.r.r.S p p h u S r.r.u.u.a.a.a.A d A F M                 . . . . . * * * @ $ $ % 1 1 2 2 6 6 6 6 2 2 2 2 6 6 6 2 2 ; , s d d d d C d d d d y t s d d C A A S ) ) w.w.w.e.e.w.i.i.i.i.a.a.a.l.l.l.l.l.l.k.e.g 9 s g s g B N B B ( ( ( ( _ _ W _ W _ W W W W W _ [ o.g.I.^./././././.^./.^./.U.U.^.^./.^././././.^././.^././.U.^.^./././.T.^./././.^.~.U.U.T.T./.T././.7 - - ; , > G.",
"8.8.9.9.9.9.8.8.8.7.7.7.7.7.9.9.9.9.9.9.9.9.9.0.0.0.0.0.d.S d g A ` _ [ { o.{ o.h.h.h.o.X.X.] _ ( T T T T N f f f s g B A ) k._._.l.)._.u.g = s 1.u p h F r.r.D D ) ' D ) a.F d D F s .           . . . . . . * * @ $ $ $ & % % 1 2 2 2 6 6 2 2 2 2 2 2 6 6 2 2 ; a d d d C C C C C G Z r.F t a d d C A A S S S ) w.w.w.e.e.e.i.i.i.a.a.a.a.l.l.l.l.l.u.` a g N B B B B ( W W W W W W ( ( W W T W T W ( ] h.g.J.^./.W.^././.^.^.^.^.^.^.^.^.^./.^.^.^.^.^./.^.@X^.^././.T.^././././.^./.@X/./././.^./.^.T./.T.U./.> - - ; > , /.",
"8.8.8.8.8.8.8.8.7.7.8.7.7.7.8.7.7.q.q.9.9.9.9.9.0.0.0.0.0.'.z.t.d g W ( ] ] [ h.h.X.X.] _ W T Y N N f f f 9 9 f N M ` u.).)._.k.).k.( ; = = : t F G ,.i.a.) ) s.t.r.t.s.) s.) d A F 7 .   .       .   . . . . . * @ $ $ $ & % % % 2 2 2 6 2 2 2 6 6 2 2 6 2 2 2 ; s g C C C C C G 1.r.r.F C s t a y d h A A A S ) ) w.w.e.r.u.r.u.i.i.a.a.i.l.l.l.l.l.i.u.A W ( B ( ( ( ( ( T W T T W W ( W T T W ( ] { g.P.U.^./.^./.^.^./.(.(././.^.#X/./.#X^.^.^.^././.^.^./.T.^.^.~.T././.U.^././././././.^.U./.^./.^.T././.@X> - - - , 7 #X",
"8.8.7.7.7.8.8.8.7.7.q.9.8.7.7.7.7.7.q.9.9.q.9.9.9.9.0.0.0.0.0.z.`.,.d B ( ] ] ] ] _ W T N N f f f 8 4 9 a g M ` a.a.F.J._.l.).u.g O = = = : t y v ,.t.i.` u.r.u.S F t.s.r.r.F d A F f . . . . .   .   . . . . . . * @ $ & % % 1 1 1 2 2 2 2 6 6 6 6 2 2 6 2 2 2 7 g C C C C F r.t.t.,.d d d d d d t d d d C A A S ) ) w.e.u.r.r.r.u.e.i.i.a.a.a.l.l.l.i.u.e.A W _ _ ( W W W W ( T T T _ ] ( ( ( [ { h.g.H.^.W.^.^.^.^.^./././.W.^.^.U.!.^.^.^.^./.U.I./././.^.@X^./.@XT.U.U.U.U.T.^././.^.U.T.^.U.^./././././.@X@X; - - ; , 7 #X",
"%.7.7.7.8.8.8.8.7.7.q.9.9.7.%.%.7.7.7.9.q.q.7.9.9.9.9.0.9.0.0.0.0.'.d.A g B 7 6 q f f f f q 7 7 9 f N B B u.k.).).a.k.).J.) > X X = = = = : t u h F t.D ) S A M d F r.t.r.s.r.t A ) W . . . . .     . .   . . . * * * * $ % % % 1 2 2 2 2 2 2 6 6 2 2 2 2 2 2 2 g d d M F t.t.t.F C d C F r.C d d t t t d h A S S S S w.u.i.r.w.w.w.i.i.i.i.a.l.l.l.l.a.i.u.' ( ( ( _ ( ( ( ( ( W ( ( ( ( } [ { p.f.G.U.^.^.^.^.H.H.H.H.H.^.U.^.^.^.^.U.^./.^./.#X/.#X@X/./.T.^.^././././.!.^./.^.U././.^./.T./.^./.(.^./.@X@X@X@X; - - ; , 9 /.",
"7.7.%.%.%.%.7.7.7.7.7.9.8.8.7.8.8.7.7.7.7.q.q.7.q.q.9.9.9.9.9.9.0.0.0.z.F ; ; 6 8 q 8 7 7 9 f B B B ` u.J._.l._._._.p.V o X X X X = = = = : t u p F S ) D r.M A B S F r.r.a.s.t D ) ( . . .   .       .   * * * * * * * @ & % 1 1 2 2 2 2 2 2 2 6 2 6 2 2 2 2 2 s C F t.t.t.F d u C ,.r.t.t.F d < < < t d d A A S S S ) w.u.r.r.r.r.r.r.i.i.i.i.a.l.l.a.u.i.i.B T ( ( ( ( _ ( ( _ ( W W ( [ p.F.J.^.^.^.^.^.^.H.!.U.^.!.^.^.^.^.^.^.^.U.U.^.^.^./.^./.^.^.#X/.^./.^.T./.~./.^.^.^.T./././././././.@X/./.#X@X/.P.P.- - - ; > f @X",
"%.%.%.%.%.%.7.7.7.8.9.8.9.8.9.9.8.q.7.7.7.7.7.7.7.7.q.q.q.7.7.7.8.8.8.6.8.A & & 4 4 7 f f M V V ' k.).a.l._._.J.u.s X X X X X X X + = = = : t u p F F 1.M r.D D ` F ) F y.a.s.y C A D . . .   .       . . * * * * * * $ $ $ % 1 1 1 2 2 2 2 2 6 2 2 2 2 2 2 ; ; D t.t.t.F C h A w.t.1.1.t.D t t t j : < t d d h A S S w.w.w.e.r.t.w.r.r.r.r.r.i.i.i.l.a.i.i.k.( W W T T ( _ _ ( ( ( ( ( ] f.G.U.^.^.^.^.^.^.^.^.^.^.U.!.!.!.H.H.^.U.U.U.U.U.U.U./.U.^.^.~.T.#X/.#X^.^.U./.^./././.^./.^.T./.^.^./.@X@X#X@XT.g.E./.- - - ; , f #X",
"%.%.%.%.%.%.7.8.7.7.7.7.7.8.7.7.7.7.7.7.7.7.7.7.7.7.7.7.7.7.7.%.%.%.%.%.6.t > 4 9 s s f M B ' k.l.k.a.l.).k.` > O X X O X X . X X O = = = : t u d Z ,.r.F t.F ' r.i.F r.a.a.r.d A r.p.@ . . . . . .   . . . . * @ @ @ $ $ $ & 1 % 1 2 2 2 2 2 6 6 2 2 2 2 2 ; 7 s.t.Z C C Z r.t.t.2.1.M - = t t t d S h a t d d h A S w.w.r.r.r.w.w.w.r.r.w.r.i.i.i.a.i.i.i.k.` ( ( _ _ T T T ( ( _ } { G.U.^.(.^.^.^.^.^.^.^.(.^.U.^.^.H.J.H.U.H.W.H.!.U.U.U.H.U.!.^.^.U.U.^.^.^.^.U.^./.@XT.T.T.U./.@X/./.@X/.@X#X@X@XG.I./.@X/.- ; ; ; , f #X",
"%.%.%.%.%.7.7.7.7.7.7.7.%.7.7.7.7.7.7.7.7.7.7.%.7.%.%.%.6.%.%.%.%.%.6.<.G A s s s g g ` u.k.a.k.k.l.J.u.f X O O O O O O X X X X X O = = = : < u d G ,.t.A F s.r.) ) s.i.a.y.) g A F a.f . . . . . . . . . . . . * $ $ $ @ $ $ % % 1 1 2 2 2 6 2 2 2 6 6 2 2 ; B S h v F y.y.y.t.r.A - + + = t C F F S A A , t d d A S F w.e.u.t.r.r.r.i.r.w.w.r.r.i.i.i.w.u.i.` W W ( ( ( ( ( W ( { S.U.^.^././.^.^.^.^.^.(./.^.^.^.^.^.^.^.!.H.H.I.H.U.H.H.U.H.U.U.U.J.J.U.U.U.U.^.U.U.U.T./.^.^.T.@X/././.~.@X#X#XI.P.#X(.@X#XE.- ; ; ; > s /.",
"%.%.%.%.%.%.%.%.%.%.%.%.%.%.7.7.7.7.7.7.7.%.%.%.%.%.%.%.#.#.#.#.6.<.p u d A r.) ' i.k.i.i.a.k.l.k.) > X X X X X X O O O X X X X X O + = = : < d h C ,.G F F w.F r.a.y.a.i.u.u.( d G F A @ . . .       . . . . . * @ @ $ @ @ $ % % 1 1 2 1 2 6 2 2 6 6 2 ; 6 a d C F s.y.2.y.1.t O O + = = = C 1.,.F F S D t < a d h A S ) e.i.i.r.r.i.r.r.r.w.w.w.r.u.e.w.r.u.` ( ( ( ( ( _ ] h.G.G.D.G.^./.(.(.(.(.(.^.^.(.^.H.^.^.^.H.H.^.U.H.G.H.J.F.U.U.U.H.U.U.H.H.J.U.U.J.U.U.I.I.U.^.^.^./.^./.#X/./.@X/.^.g.I.#X/.#X#X#X@X- - - ; > f #X",
"%.%.%.%.%.%.%.%.%.%.%.%.%.%.%.%.%.%.%.%.%.%.%.%.%.#.#.#.#.<.<.#.p t a d A r.a.a.a.i.a.a.a.l.u.B # O O X X X O O X O O O X X X O O O O = = = : y u C 1.r.w.r.r.r.a.a.i.i.r.' ) A ) r.t.~.; .           . . . . . . * @ $ $ $ $ $ % 1 2 2 2 2 2 2 6 6 6 2 6 s C Z s.t.2.y.1.d O O O + + + - = d 1.Z h C M d d t , d d A A F w.e.t.r.r.w.w.r.r.w.w.w.e.w.) w.u.u.( W ( ( _ ] { f.U.^.(.(.(.H.D.H.(.(.(.(.^.^.^.^.^.^.^.^.^.^.H.U.H.H.H.G.J.J.U.H.U.U.U.^.U.U.H.H.H.H.J.J.U.U.U.U.U.U.^././.(././.F.G./.@X@X/./././.E.- - - ; > N @X",
"%.%.%.%.%.%.%.%.%.%.%.%.%.%.%.%.%.%.%.%.%.%.#.#.#.#.#.6.6.p j t t d ) a.)._.s.r.a.a.k.k.) 9 O O X X X O O O O O O O O O O O o o o + O + = = : y u C ,.,.r.t.a.a.y.i.u.) D A A r.a.t.S k.o .         . .   . . . . * @ $ $ $ $ & % % 1 2 2 2 2 2 2 2 6 2 9 S 1.2.t.t.F t X X O O + + O O O = d ,.C u d d M d t : t d d A S w.w.r.t.r.r.t.i.i.u.r.r.r.w.w.e.u.[ T W ( _ o.K.T././.(.(.(.(.(.#X(.G.F.^.(.(.(.^.^.(.(.(.^.^.^.^.H.H.G.H.H.J.F.J.H.U.U.H.H.J.G.G.F.J.J.J.F.J.G.G.U.U.U.U.^./.^./.f.J././.@X@X#X@X/.E.E.- - - ; > N @X",
"8.8.8.6.%.%.%.%.%.%.%.%.%.%.%.%.%.$.#.#.#.#.#.#.#.p p p <.h t S a.).A.t.1.r.u.i.a.u.B - + + O X o & & + O O O O O O O - ; ; ; ; ; ; - = = + = y u d F r.a.a.i.i.r.) A A F r.y.a.a.,.w.u.$     . .     .   . . . * @ @ $ $ $ & & % % 1 2 2 2 2 2 2 2 6 2 M ,.Z F M = o   X X O + + + O O O = , F G u t M d t s t , a d h S S w.r.t.t.i.i.i.i.i.i.i.i.i.u.u.u.` T _ ] h.I.^./.(.(.(.(.(.(.(.(.(.#X#XH.f.f.^.(.(.(.^.^.^.^.^.^.^.^.^.W.U.G.f.J.J.H.U.U.U.U.H.J.J.F.J.J.H.G.J.G.H.H.H.U.U.H.f.h.J.T././.T.@X@X@X@X/.I.- - - ; > T @X",
"7.%.%.%.8.8.8.%.%.%.%.%.%.%.%.%.#.#.#.#.#.<.h p : : : : #.<.A.A.y.r.,.r.i.a.p.) M : = + O o ; > > - = - + + + + + > 4 7 7 7 7 7 s s s s s s s s d ) a.a.i.a.r.F A C ) y.a.d.y.,.G F r.p.; . . . . . . .   . . * * * @ $ $ $ & & $ % 2 2 2 2 2 2 2 2 3 g D M , # $ $ $ o X X O O + + + O o = t G C y d t t d d s : , a g A S F w.t.i.i.i.a.i.a.a.a.k.i.u.u.) A } f.S.U./././.(.(.(.(.(.(.(.#X(.(.(.(.(.^.J.F.H.^.(.(.^.^.^.^.^.^.^.^.U.U.U.H.H.H.U.U.U.U.U.U.U.U.U.H.F.J.J.G.H.H.U.U.F.{ f.J.J.P.I.U.U.E.#X@X/.#XT.- - - ; > T #X",
"7.%.%.%.%.%.7.8.%.%.%.%.%.%.#.#.#.#.#.<.p j : , , : A F 6.<.2.,.w.r.i.i.u.) g 9 , - o 4 f f s 9 7 , , ; - + - > 7 7 9 9 9 9 s s s s s g g g d ) i.a.i.i.) A S S w.a.a.d.y.,.F Z F h S ' 4 . . . . . . .     * * * * @ $ $ $ & & $ % 2 2 2 2 2 2 2 2 B V > $ $ & % & & + o o + + O O + + + - t A A g d d d d d d t : a d h A S F w.r.e.u.i.i.i.i.l.a.i.u.w.D [ J.W.^./.W./././.^.^.(.(.(.(.(.(.(.(.(.(.(.(.(.!.F.f.H.#X#X(.^./.^.^.U./.U.I.U.H.H.U.U.U.U.^.^.^.U.U.H.G.J.G.F.H.J.G.p.{ G.G.F.f.F.F.J.U.U./././.@XT.- - - ; ; W /.",
"8.7.7.6.%.%.%.%.%.%.%.%.#.#.#.#.<.<.j j < , t d w.d.A.t.%.#.<.r.r.u.r.` d s s - & 8 N B f f s s 9 9 7 ; ; > 7 9 9 a s s f f f g M M ` ` B d A u.a.i.F S ) r.r.y.d.a.t.G C G F G h h S ) f . . .   . . * *   . * * * @ $ $ & & & & 1 1 2 2 ; 2 2 ; W g $ $ ; 6 > % + + + - ; ; - - - + + + - < C d d d d d d s s g , : s d h S F w.w.r.w.r.i.i.i.i.i.r.) F ) U.^.^.W.^.^.^.^.^.^./.^./.(./.^././.(.(.^.^.^.(.(.(./.H.f.f./.(.(.(.(.(.^.^.(.U.U.W.H.W.U.^.U.U./.^.^.U.H.J.J.G.F.f.[ f.G.F.F.F.F.F.F.J.J.P.P.^.^.E.I.- - - - + W @X",
"7.8.%.8.%.%.%.%.%.$.#.#.#.#.<.#.j j , t t C t.A.d.1.G p #.<.6.r.F M g B s - 7 N T B N s s s s s 7 > > 7 7 9 a s s s g g g M M B ( u.u.' D r.t.r.F S ) r.a.a.a.y.D p G u h h h G S C ) S D B g 4 ; 2 2 % @ * . * * @ @ @ $ $ & % % 1 1 1 ; - 4 W k.l.A ; 4 7 4 > > ; ; - ; ; ; ; ; ; ; ; - = : d d d g d s s N N g a : t d d h S F w.w.w.w.r.r.u.i.r.) ) D h.^.!.U.^.^.^.^.^.^.^.^.^.^.^.^.U.U.^.^.^.^.!.^.^./.^./.^./.^.F.f.F./.^././.(.^.U.U.U.H.H.^./.^.^.^.^.U.U.^.U.H.J.{ { J.U.J.F.F.F.J.F.f.f.f.F.J.H.I.U.S.- - - - + _ /.",
"%.%.%.%.%.%.%.%.#.#.#.#.#.p j j t t t F a.A.y.,.G F F h p <.6.d s s > ; 8 T T B B s s s s a , , , 9 7 9 s s s s s g g g g D [ ' ' u.u.) ' ' F F F r.a.a.l.t.g + : u u u C S F S C C S S A A A s 4 7 8 5 4 3 2 ; & - @ @ @ @ & & & 2 7 f W ' k.l.l.l.` 4 , > > > > > > ; ; ; > ; > ; ; > ; : , d d d s s f N B f d d t < t d h S S F w.w.w.r.r.w.w.S A A ` U./.^.^.U.^.(.^.!.^.!.^.^.^.W.^.H.^.^./.^.^.^.U.U.^.^.H.U.^.^.(.(.^.p.p.J.^.^./.^.U.H.G.G.U.U.U.U.H.^.^.^.U.U.F.[ H.H.J.G.F.F.G.F.F.f.f.f.g.g.F.f.G.D.h.= - - ; + ( E.",
"%.%.%.%.%.%.%.#.#.<.p j j t t t h r.A.A.t.Z G G Z F F h p h #.7 # 6 f B B B f s 9 9 a 9 , , 9 9 9 9 9 s s s s s s s g D ` ' ' ' ) ' u.) F A F y.a.d.a.r.s = = = = y C F S F S G A A A S C C C g 4 7 7 9 a a f K ` ` ' ` ' e.u.) e.u.u.k.a.k.l.l.l.l.` 4 4 , > > > ; > > , , > > ; ; , 7 , s g d s f B B T B N f d d a t t t d h S S ) w.w.r.r.F F D A A p.^.^./.^.U.^.^.^.^.U.U.^.^.^.^.^.^.U.^.^.^.^.!.H.U.^.^.U.H.H.W.^.^././.^.H.p.p.G.^.^.H.J.G.G.G.G.H.U.U.U.U.G.[ p.U.U.H.U.H.H.U.G.F.f.f.f.f.f.g.f.F.f.f.{ - - - ; + W I.",
"%.%.%.%.#.#.#.%.#.i t t i t F y.A.d.1.F F F F F F A M a p u p 4 f B f s s s s 7 , , , , 7 9 9 a a s a a s s s s s D ` ' ' ) ) u.u.) D D ) r.d.d.i.F , + = = = = = d F F G G G G S C C C C A C d 7 7 9 a a 7 f K ` ' w.u.u.a.i.i.i.i.a.l.a.a.a.l.l.l.' 7 , > > ; ; ; ; > > > > ; ; ; 7 9 s s s g B B N T T N N s d s s t t t d h C S F F w.r.w.) F S A A H.^.^.^.^.^.^.^.U.^.^.U.^.^.^.^.U.U.^.^.^.^.H.!.U.^.(.^.^.U.H.H.J.J.^.W.U.^././.F.p.F.W.^.U.G.J.F.G.F.U.!.f.[ U.!.^.U.H.U.U.U.U.H.G.F.F.f.f.F.f.g.f.F.f.p.- - ; ; + T D.",
"%.#.#.#.%.6.p j t t t h r.A.d.1.,.F ,.,.r.r.F A g s 7 & j p h s 9 7 , , , 7 , : - > , 7 9 7 9 s s s s s a s g ( ' ) ) ) ) ' u.) F F r.a.a.l.t.A o X O = = = = = = d A S C C G G S C C C C C C d 7 7 7 7 a a s T ` ) e.u.i.i.i.i.i.i.l.a.a.a.a.l.l.l.` > > > > > , , > > > > , 7 a a s s s g N B T B B B T N N s a t t t t t d d h C S F w.w.w.F F F A A /.^.^.^.^.^.^.^.^.^.H.^.^.^.^.^.^.^.^.!.^./.^.^.^.H.H.U.U.^.U.U.J.J.G.U.H.U.^./.(.^.H.f.p.D.U.U.U.G.G.J.[ f.U.^.U.U.^.^.U.U.H.H.G.f.F.G.f.f.f.f.f.f.f.G.{ - - - ; ; T P.",
"%.%.6.#.p j : t y F y.A.d.2.,.F ,.r.r.w.A M s a > + - 4 a p p : ; ; ; ; , ; ; > > > , 7 7 7 9 a a s a a f D ` ) ) ` ) r.r.' F ) a.l.l.a.r.g X X X X O + = = = = = t C C C h C C S A d C C C d d 7 7 a a a a s g ` ) e.u.i.i.a.i.i.a.a.a.a.a.l.l.l.k.` > > > > > > , , , > , s a g g g f T T T T T T B T T N N g d t t t t d d u h C S F ) w.w.) ) D A [ !.!.^.^.^.^.^.^.^.H.H.!.^.^.U.^.^.H.H./.^.!.^./.^.U.U.^.^.!.U.H.F.f.F.G.G.H.W.^./.^.^.U.!.H.p.{ f.G.h.} J.U.^./.^.^././.^.H.U.U.U.U.J.F.f.f.f.f.f.f.g.g.{ - ; ; > ; ( S.",
"p p j j i i d r.A.A.d.1.,.,.1.1.r.,.C d C C = $ ; > ; > - p #.- - = + - ; , , 7 > > > 7 7 9 9 a a s B ` ` ( ` ` ) u.' ) D ) a.a.a.a.) , X X X X X X O + + = = = = t C G C C C C C C y u u C F ) s 7 a a a a s g ` ) u.r.i.i.a.i.i.a.a.a.a.a.a.a.l.l.` 7 > > 7 7 , , > , 9 s g A B B W T T T N N T T T B f N B d d d t t d d u u h C S F ) w.w.w.) D A g.^.^.^.U.^.^.^.^.H.U.^.U.!.!.!.H.U.H.^./.^.^.^.^.!.^.^.^.^.!.H.H.G.F.F.D.F.F.H.^.^.^.^./.^.U.U.H.p.V ` U.U.H.U.^.^.^.^.^.^.^.U.^.U.W.J.J.G.f.f.F.f.F.f.F.{ - ; ; ; - ( g.",
": : j i C y.A.A.y.,.,.F 1.1.1.Z h v C C d C > - - = = + + j <., - - ; > , , , 9 , , 7 7 9 9 7 a f B ` ` D ` ) ' ' S F r.a.a.d.y.D - X X . o o X X X O + + = = = = , C ) C C C h u t d A w.) F M 7 7 7 a a a s g ` ) w.w.r.i.a.a.a.a.a.a.l.l.l.l.l.a.` > > , , , , 7 a s g M A W ( T T T T B T T N N N T N B g d d d d d d d d d h C S F F ) ) ) ) A M ~./.^././.^.^.^.U.^.^.U.^.^.U.!.U.H.H./.^.^.^.!.U.U.!.U.^.U.U.U.H.H.J.F.F.F.f.G.H.^.^.^./.^.^.U.F.} J.G.p.p.F.H.H.^.^.^.^.U.^.U.U.J.G.F.G.F.F.F.f.g.F.F.F.{ - ; ; ; ; ( F.",
": y F d.A.d.1.,.,.,.,.r.,.C u C C G v h h u = O O O + + + : <., > , , > , , 7 7 7 , 9 9 9 s V ( ( ( ` ` ' ' ) C A r.a.a.l.r.V o X X o o o O X X X X O O O + = = = , C w.C C u y t a d w.S d u d g 7 7 a a a s g A ` ) e.t.i.a.i.a.i.a.a.l.l.l.l.l.a.A > > , , t a a g B B D ( ( W T T T T T N N N T B T T B s d d d y u d d d h C C S S S F F F D A A U.^.^.^.^.^.^.^.H.H.H.U.U.H.U.U.U.^.U.U./.^.^.^./.^.^.^.U.^.!.^.U.U.J.J.F.f.F.f.H.H.!.^./.^.!.p.F./.U.U.U.U.f.[ p.H.^.^.^.U.H.U.U.J.G.G.G.G.f.g.g.f.g.F.F.p.- ; ; ; ; ( P.",
"r.d.d.1.F ,.,.r.r.,.S d u u G G C h p h C , + + + + + = + : #.t > > , , , 7 7 7 9 9 9 s D ` ` ` D ) [ ' ) M F r.y.a.a.) s X X O O O o o X X X X X X O + + + + = = : D r.C C y t t g D d t u C D A 7 7 a a a a d h S ) e.r.i.i.i.i.i.i.i.l.l.l.l.l.a.g > , 7 s s s g B ( ( ( W W W T T T T T T N N N N N T B a d t t y d d d C A C S S S F S S S S A D /.^.^.U.^.!.^.^.U.U.U.U.^.^.U.!.H.!.H.^.^.^.^.^.^.U.U.^.^.^.^.!.U.U.U.J.F.f.G.F.G.F.J.H.H.g.p.^./././.U.U.F.I.U.G.{ { F.^.U.H.H.G.J.F.F.J.f.g.f.f.F.F.P.g.{ - > ; ; ; ( J.",
"y.1.G Z 1.r.r.,.G u u d h C v p p C Z Z S t + + + + = - ; = #.p , > 7 7 7 7 7 , a N ( ( ( ( D ) ' ) D M g , ) y.a.F , X X O O O O O O O O O X O + + + + + + + + = = A r.h u i d ) ' ` d D A S ) ` a 7 a a a a g g A F w.w.i.r.i.i.i.i.i.a.l.l.l.l.a.s a s s s g B W ( ( ( W W W W W T T T T N T N N T N B T s d d y y d h C C S S S F F F S S S S A [ ^.!.^.^.^.^.^.^.U.!.^.!.!.^.^.^.^.!.U.U.^.^.!.!.^.^.U.U.U.^.!.!.U.U.H.G.H.G.F.F.G.f.f.F.{ f.^.U.U.!.^.^.^.H.G.H.G.F.J.F.{ p.F.F.G.F.F.f.F.J.f.J.J.G.J.G.G.{ ; > ; ; - } P.",
"Z F 1.1.r.F h u p G G C h u v G Z Z G Z G d + = - ; ; ; ; - p <.7 7 7 7 7 7 9 g B A ( ` ` ) u.' A A ) r.A ; , d + X O o O O O O O O O O O & ; > > ; + + O + + + O = M C y A ) u.' D d d M A D g 7 7 7 a a a s s g A S ) w.e.i.i.i.i.i.i.l.l.l.l.a.i.d s s g M T ( ( ( W ( W W W W T T T T T B B B N T W [ h.d d d y d d h C A S F ) ) F F S S S A M p./.^.^.^.^.^.U.U.^.!.^.^.^.^.^.^.^.!.!.U.^.^.U.!.^.W.U.U.U.U.H.U.H.H.H.H.J.H.J.H.F.f.p.p.H.H.U.U.U.U.U.U./.^.U.H.J.F.F.F.F.J.p.[ u.F.F.F.J.P.F.f.f.g.F.P.P.{ ; > ; - - } { ",
",.r.r.Z p p p u p p p u C G G Z Z Z G Z F M - ; ; > ; ; ; ; p <.a 7 7 , 7 s ( ( A ( ) ' ' ) A A r.a.r.r.t O X O O o + - O O O O O + + > 9 9 9 7 7 > , > ; & - - + O g ) u.i.u.) M M F ) M s 3 ; ; 3 7 7 a a a s g A A ) w.e.r.i.i.r.e.i.a.l.l.l.l.i.s s M B ( W ( W W W W W W W W ( W T T T T T T T ] h.I.P.s d d d d d C C A S F F F F F S S S A g g.^.^.^.^.^.^.^.^.^.U.U.^.H.^.^.U.U.^.^.^.^.^.^.^.^.^.^.U.H.U.J.J.U.U.U.U.H.U.U.U.F.{ f.J.H.J.H.U.U.P.H.U.U.U.U.U.F.G.f.f.f.F.G.F.f.p.[ p.F.J.P.J.g.F.F.F.G.[ ; - - - ; 9 M ",
"F G h v v v v p p v G F G G G Z ,.Z Z Z Z C ; ; ; ; 3 , , ; i <.h 7 9 s s M ( A ` ' u.) A D w.i.i.u.D , + - & + O = - + O O + + ; f f f f 9 9 7 9 9 9 7 ; 9 s g A ' u.i.i.r.S M F ) s.' = - ; - ; 3 7 7 a a a d g d A S ) w.w.w.e.e.w.r.i.l.l.l.l.u.s s N W W W W W W W W W ( W W W W T T W T ( } h.J.!.~.g.s s y y d d C A C S F F F ) F S F S A M G.^.^.^./.^.^.^.^.U.U.U.H.H.H.H.^.^.^.^.U.U./.^.!.^.U.H.H.U.U.U.J.H.J.U.U.U.U.J.f.p.U.U.U.G.J.F.G.G.J.J.U.U.J.H.U.F.f.F.f.F.F.f.F.J.J.F.f.{ { J.G.G.F.f.g.G.] ; - - - - 9 M ",
"= d C C v p p v G G G G G G G Z ,.Z ,.F F A ; ; ; ; 3 , , ; j %.S g B g g A ` ' u.D D ' u.i.a.u.B - & > , > - + + = O X + ; ; 9 N s s 9 7 , 7 , 9 9 > ; 9 g A ' p.a.a.i.) F F 1.1.r.r.D = = ; ; a 7 7 a a a a a d g h A ) ) ) w.w.w.w.i.i.a.l.a.i.) B B B s f W T W W W W T W W W W T T T W _ o.g.U.^././.u.t t d d d d A A A S ) ) F F S S S A A M W.(.^./.^.^.^.H.^.^.U.U.^.^.^.^.^.^.^.^.^.^.^.^.^.U.U.U.U.U.U.!.H.H.^.^.U.U.f.{ F.U.U.U.U.U.G.U.F.F.G.J.U.F.f.F.J.U.F.f.F.f.F.f.F.F.f.F.J.J.P.} ( { F.G.P.G.] - - - - - s N ",
"= d C v p p G G Z G G G G G <.<.,.,.,.F F A - ; > , , , > > , #.h A B g A ' ) D F ) r.i.a.' M + & 7 g A g , = + O o > > > a s N 9 9 , , 7 9 9 a 9 ; , a B ' p.a.a.i.r.) u.i.r.1.F F u d = = s g A s 7 a a a a a a g g A A A S F S w.w.w.i.i.a.a.a.` N B T T N s B W ( ( W W W W ( W W T ( ] g.U./.(.(./.^.' t t d d d d C A S S ) ) F F F S S A M B /.^.^.(.(.(./.^./.^.^.^.^.U.U.H.^.^.^.U.U.!.U.!.H.!./.U.!.^.U.^.^.^.^.U.U.{ p.U.U.U.U.U.U.U.U.G.J.J.G.J.J.F.J.g.F.f.F.f.J.F.F.f.F.F.f.G.G.J.J.I.G.h.p.{ f.g.] - - - & o 7 7 ",
"= t u u G G G G Z Z G G Z Z Z Z <.,.Z F Z C , - - - - ; 7 s a h #.S ` ` D C F ' a.y.a.' s = ; 7 N ( ( A g ; O + 7 , , s f N f a 7 7 9 s s 7 - - > a A u.a.a.a.i.F ) u.a.i.F F M d d A d 7 d M d B f a a a a a s a g g h h h h A F w.w.w.i.i.i.a.i.` B B B B T T B f B W ( ( T W W ( ( [ h.f.J.^./.(./.(.(.) t t d y u h C S S S F ) ) S S S A A M D (./.(.(.(.(.^.^.H.H.H.H.G.J.J.H.H.!.!.U.U.U.!.U.!.^././.(.U.H.^.U.U.H.f.p.H.U.^.U.^.U.U.U.U.U.J.H.H.U.J.J.F.J.U.f.f.f.f.F.f.f.g.g.f.g.F.g.G.P.G.F.P.J.J.f.[ V - - - & O ; > ",
": i i u Z G v G Z G G G v G G Z Z Z Z Z Z G t - - - ; , a g B d #.#.F C ) s.i.y.t.F s = ; s B ( ( D g , O ; > > 7 f g s s 9 , 9 s s s s , , a s A u.i.a.a.s.F ) s.r.r.,.S C t d d A M d g D D t g a a a a a a s s g g g d d h C F w.w.w.r.i.i.i.i.W B B B B B B B T B f B W ( ( _ [ h.G.!.^.^.(.(././.(./.` t a t y d h C A S F F F F S S S A A g [ (.(.^.^.^.U.^.^.^.U.H.H.U.J.J.H.H.H.H.U.U.H.U.U.^.^././.^.^.^.^.^.H.' f.U.U.^.^.U.H.H.J.J.U.J.H.J.H.J.G.G.G.J.G.F.J.G.G.F.G.F.f.g.f.F.f.F.F.F.J.J.F.G.P.J.G.} = = - & . > 7 ",
": i u u Z Z G G G Z Z G Z Z Z Z <.G Z Z F G s , , 7 s s g B A A #.#.,.i.a.a.r.D a = > s B ` ` ` B > o > 7 , , s s s 7 > > 7 s f f s > , s B F r.a.a.a.s.F r.y.a.r.r.F M t d A A A D A A M ) A s 7 7 7 7 a a a s s a a a d d h h S w.w.w.w.r.u.u.u.N N B B B B B B T W T B f W [ h.J.^./././.(.(.(././.(.(.A t t t d d h C S F F F F F F S S A M g p./.^.^.(.U.^.^.^.^.H.U.H.J.H.H.H.U.U.U.H.U.U.U.!.^.^.(.^.H.^.^.U.f.p.U.U.U.H.U.U.U.U.U.G.J.U.J.G.U.H.P.U.P.J.g.P.F.J.J.F.F.F.f.f.G.F.F.F.f.F.G.F.F.F.F.F.G.F.} - = = & . 4 W ",
"= i u u G Z G Z G G Z G G Z <.Z Z Z ,.,.1.Z t M A ` ` ` ` A d y #.#.2.i.r.M ; + ; s B ` ` ( M > o > 7 , 9 s a a , - - , s g s 9 , , s A r.s.a.a.a.a.r.t.y.a.a.y.r.C y g d A D F A A ) ) d D M g , 7 7 7 a a s s a a a a d d d A S w.w.e.w.e.u.u.w.N N B B B T T T B B V ( } o.p.g.^.(.#X(./.(.(.(./.(.(.#XA t t t t d C A A S F F F ) ) S A A g d H.^.^.^.^.^./.^.^.^.H.F.F.H.U.H.H.!.^.U.!.U.U.!.U.U.U.^.!.^.U.G.p.F.U.U.U.^.U.U.F.H.G.U.H.U.H.H.F.P.H.U.U.U.U.F.g.F.F.F.G.F.f.g.G.J.J.J.G.J.P.F.f.f.J.G.g.f.D.( ; - - $ & 7 X.",
"= i i i Z Z v G G G Z u G Z G G Z F ,.,.F F ) ) ) ) ` B s d d S <.#.<.s - - 7 s B D ( A s + + > 7 7 > 7 a 9 , > ; , 9 a s s , , a A ' i.i.y.y.t.1.1.y.y.y.y.r.S h A ) ) t M D A S F ) ) d d A M 7 7 7 a a a s g a 7 a s d d h S F w.e.e.r.u.u.u.) B B B N B B T T T ( { f.H.U.^.^.f.F.(./.(.(.(.(.(.(.#X#X( t t t t d h A S A ) ) F F F A A A g M U.^.^.^.^./.(.^.!.J.H.F.U.!.U.U.U.U.U.H.U.U.U.!.!.^.U.U.U.U.p.p.U.U.G.^.^.U.U.U.H.H.U.H.U.U.J.H.F.F.U.H.J.U.I.f.f.f.U.P.G.J.J.J.J.G.J.F.g.U.J.U.F.G.J.G.f.g.F.] ; = - $ 4 4 L.",
"= i i y G G G G G G G C G G G G C Z Z ,.1.F S ) ) M d A ) w.S C p #.<.: 7 s B B M s > o + ; > 9 7 > 7 , , - - ; , 9 9 , : , a B ) r.s.a.a.r.1.1.t.y.y.y.t.S C S F ) r.F M G S C F F F D s y d d s 7 a a a s g g s 3 a s g h A S S w.w.e.u.u.e.e.e.B B B B B B T W ] f.U.^.^.^././.(.^.f.F./.(.(.(.(.(.#X(.` t t t t y h C A S F w.F F F A A A d A ^.(./.^.^.^.!.!.U.U.!.H.J.U.U.J.H.!.U.H.H.U.U.U.^.^.^.U.G.{ f.H.U.U.H.U.H.U.U.F.J.U.U.J.J.U.U.H.U.H.U.U.H.^.U.U.U.J.U.I.J.J.J.P.J.G.J.F.f.J.G.J.J.f.f.P.f.f.g.P.g.] 4 % 9 N L.",
"= j i i C Z G Z G G C G Z G Z F ,.Z ,.,.F F F M y A ) r.r.) t = = p p g g W B s ; X + ; ; 7 s 7 > > ; = - , > , , , ; > t M ) r.t.t.y.r.1.1.y.t.d.y.s.F , C F F r.F ' F F Z F S G r.F D s t d d s 7 a a a a g g g , a a h h A S S w.w.i.i.u.e.) ' N B B B B T ( { F.U.^.^.^.^./.(.(.(.(.^.F.f.(.(.#X(.(.(.` t t t t d h h C S S S F S S A A A M [ /././.(.^././.^.^.!.U.!.U.!.U.U.H.U.H.U.H.H.U.U.^.U.J.p.p.J.U.U.F.U.H.^.U.U.G.H.F.G.!.U.J.U.J.U.J.H.J.U.U.U.U.^.I.U.G.U.P.P.I.G.P.P.G.g.G.S.U.G.F.g.G.f.f.g.G.U.D.S.I.o.9 ] j.",
"= < i u p Z G G Z G h G G G ,.,.,.,.Z ,.F C d S ) r.w.S s = - > a p h S M s ; X + ; ; 7 9 7 , > ; ; > > , , 7 , ; - , A F F r.r.r.F F r.a.y.t.2.1.C : = + M F ,.F ,.F F S F S A A F ' M a t d d s 7 7 a a a g g g 7 7 g h h A A S w.i.i.i.e.w.e.` N B B B ( [ h.H.^.(./.^.^.^.(.(./.(.(.(.(.^.p.f.^.(.(.(.} t t t t d d h C S S S F S S S A C d F./.^.^.(.!.^.^./.^.^.U.!.^.U.!.U.H.U.!.U.!./.^.^.U.G.{ G.U.U.H.^.U.U.H.U.U.U.^.U.U.J.U.U.U.U.U.U.^.U.J.H.J.J.U.~.^.P.U.U.J.U.H.P.P.F.G.g.g.G.g.G.J.G.f.f.f.f.F.f.g.S.S.S.> O...",
"O < i y G Z Z G G v C G Z F F F ,.,.Z h G F F w.) A , + ; 7 s s g h p h ; X $ & - 4 7 7 , ; , > > > 7 7 7 7 , : t A ) r.1.r.t.,.F 1.t.y.y.y.r.C = : : , , g ,.,.t.r.F F F M C M d D A A s t s a 7 7 a a a a a g g 7 3 f h A A A F e.i.i.i.e.e.u.B N B T ` { F.H.^.^.!.^.^.^.^.(.(./.^.^.(./.(.(./.G.F./.(.[ t t t t d d h C S S S S S S S A C d H.^./.(.!.^.^././.^.^.!.!.^.!.!.^.^.!.U.H.!.H.U.U.p.f.^.H.U.^.U.U.U.H.J.F.H.J.U.H.H.H.H.H.H.H.^.!.H.U.P.U.G.U.^.T.U.T.U.G.J.F.G.P.G.J.P.G.f.g.G.G.G.G.G.g.f.f.f.f.f.g.g.{ 9 L.] ",
"= : j i p G G G Z Z Z F G G Z F C h S r.1.1.F A - & ; 7 f B f a a u j #.t - ; 7 7 > , > 7 7 7 7 7 7 7 7 > - s A ) 1.r.1.,.Z <.1.t.y.t.y.r.g O = = : - , d C C 1.,.G A F A D d M M M M A 9 , 7 7 a a a a a a a g g 3 3 a h A A A w.e.i.a.i.i.u.u.g B ( [ f.G.W.H.^.^.^.^.^.^.^./.^.(.^.^.^./.^.(.(.#X/.f.F.[ t t t t d d h C S S S S S S S A C M H.^././.(.^.(./.^.^./.U.U.U.U.U.H.U.!.U.U.U.U.F.p.U.^./.U.U.J.H.U.U.U.U.U.U.H.U.U.U.U.U.U.U.U.G.U.H.U.G.U.U.I.I.U.P.U.^.U.J.H.P.g.G.I.P.G.D.S.g.g.P.G.G.J.D.f.f.g.D.G.f.T W j.] ",
"= : t y u G G G F Z G C C C h h Z ,.r.r.,.M = = 4 9 f B B M 9 - X i t p d 7 7 , 7 7 9 9 9 7 9 7 7 7 , ; s D ' w.r.,.Z G G 1.2.t.t.t.F g   X o - = = : , d S G ,.r.Z F A C D M F A g A A a , s s 7 a a a a a a a s 3 3 a A A A ) e.i.i.a.i.i.u.) ( [ f.F.H.^.U.H.U.^.^.H.U.H.^././.(.(.U.^.^./././.(.(.#X(.p.t t t t d d h C S S S S S A C A C D (.(.(.(./.(.!.!.(./.^.U.^.!.U.!.U.U.U.!.U.U.p.p.^./.^.^.^.U.U.U.U.U.U.U.^.U.U.U.U.U.J.P.U.P.U.U.U.U.U.P.J.P.F.J.J.P.U.^.U.U.U.P.J.I.P.D.G.G.G.P.G.G.P.G.f.G.D.g.D.G.G.P.s X.o.] ",
"= = t i u G G G C G G C h C F ,.r.1.,.C y ; 4 9 f B M s 7 + X o # i p p S 7 7 a s s a 9 9 9 9 9 7 , s ` ' r.) ) G C C F 1.1.2.1.F s X X . X O - = - : : d G G 1.F ,.S F A F C A d d A A a ; s s 7 a 7 a a a a a a 7 3 a A A A w.i.i.a.a.i.i.u.` h.F.H.U.^.^.H.U.H.^.!.^.^.^.^.^.H.^.^./.^.^./.^.^.(.(./.(.G.t t t t d h h C S S S S S C C S A u.(.(.(.(.(.^./.U.!.^.H.^.!.!.!.U.H.U.U.U.f.p.U.U.U.^.!.U./.U.U.H.^.U.U.H.U.F.H.U.U.U.P.U.U.U.U.U.U.U.U.U.U.U.P.P.U.P.U.I.U.I.U.U.J.g.G.P.g.G.G.G.F.G.G.f.f.D.D.D.G.g.g.h.7 L.X.h.",
": , < d C G G F S C h G ,.1.1.,.G p u u y g N B B g , O O & ; - - u h p <.s f s s 9 7 9 9 7 7 7 g D ) r.' F M h C Z F F 1.1.F s O . o o o . X - = - : : d C G F S ,.F C M S F d M A M M g > 9 f f 7 7 7 a a a a 7 7 7 g h A ` e.u.e.i.i.i.u.) u.I.U.U.^.^.H.H.U.H.^.^.^.^.^.^.^.(.^./.^.^.^.^.^./.^./.^./.U.s t t t d d h C C C S S S C A A A H.(.(.#X#X(.(./.^.^.^.U.U.U.U.!.U.U.U.H.{ p.U.(././.^.^.!.H.U.U.U.J.U.U.^.U.U.U.U.U.U.^.I.U.U./.^.U.^.U.J.U.U.J.U.U.U.U.U.U.I.P.J.G.I.P.P.I.P.g.f.G.g.S.F.G.G.f.h.G.S.g.] T j.o.g.",
", t d C C F F G C F 1.1.1.1.G p u u i u t B B s > X O + ; ; > 7 7 t d d d f s a 7 7 , , > ; 9 ` ) ) r.S G C S Z Z Z F F F , . . $ $ o o o o X = = - = - d C C ,.F Z G F C M C A C M A M f f f f a 7 7 7 7 a a a a , a g g A ` e.w.w.r.u.i.w.` H.U.J.^.^.^.^.^.^.^.^.^.^.^.^.(.(.(.(.^./.^.^.^.^.^.^.(.(./.^.( t t t y u d C C C C S S G S A A ~.(.(./.(.(.^.^.^./.^.^./.!.U.!.!.U.f.{ g.H.U.U.U.U.J.^.U.H.U.H.H.I.U.H.U.J.U.P.f.P.U.U.T.U.F.I.P.U.U.J.G.P.U.U.I.P.U.J.J.U.P.I.I.P.I.I.T.T.I.S.P.g.g.f.g.h.g.g.g.G.D.P.T ] o.h.g.",
"d u C G G C G ,.1.t.t.,.C i u u u u i u d s ; X o - ; > 7 7 7 9 a a a 9 a s a 7 , > , , g D r.r.r.F A C S F F Z Z Z A , X . + ; ; ; + O o & + + = - = ; u C G G ,.Z A A M D A d A A B B f f f f a 7 7 7 7 a a a a a a g A A ` ) ) w.r.i.u.) [ U.!.H.H.^.H.^.^.^.!.H.^.^.U.^.^.^.^.(.(./.^./.^.^.^.^.^./././.) t t t t d d h C C C C C C A A ` (.^.^.^.(.#X(.^.^.^.^././.U.U.H.G.{ F.U.J.U.U.!.U.U.^.U.^.H.H.U.U.U.U.J.G.U.J.U.U.U.U.U.F.J.J.G.F.U.U.U.U.J.U.J.J.U.U.U.J.U.U.I.I.S.G.D.U.T.T.P.I.P.G.S.g.g.g.f.f.g.S.S.f o.[ D.g.",
"A F S h F t.2.2.1.,.h u u u u u y h h h d + o + - > 7 7 7 9 9 7 a a 9 7 9 9 9 7 7 7 g ) ' u.r.F A C F r.r.w.Z Z C , X X + - ; ; - - - + = - = = = = = - t C C F F r.F D A d C D A W B f f f f 7 7 7 7 7 7 a a s a a a g g A ) ) ) w.u.i.) A f.U.^.U.^.!.^.^.H.^.^.W.^.^.^.^.^.(.^.^.(./.U.U.H.U.^.^.U.^.^./.{ t t t t d d h C C C C A A A A u.(././.(.(.^./.^.^.^.^./.^.^.H.p.{ H.U.^.W.U.^.U.U.U.U.U.J.^.U.U.J.H.J.U.G.H.U.P.U.U.U.^.J.U.U.J.P.U.H.U.U.U.U.U.U./.!.J.U.^.P.T.E.I.D.G.G.I.T.T.I.P.G.G.D.D.g.g.g.G.g.o.B o.[ P.D.",
"A h F r.t.t.t.G u p u u u u p h p h u h d , ; ; , 7 7 7 7 9 9 9 9 9 9 9 9 9 , a M ) r.u.r.) S A F r.r.F F S A , X O + ; > > - - - - - + - = = = = = = = t d u Z 1.) C d A ` ` D V B T B N N f a 7 7 7 7 7 a a s a a a g g h ) ) w.) e.u.D ) U.^.^.!.^.^.!.U.H.^.^.H.^.^.^.!.^.^.^.^.^.^.H.U.^.^.U.^.U.^.^.^.f.t t t t d d C C h S S S A A C f.(./././././.^.^.!.U./.^.U.f.[ f.U.U.^.U.U.!.^.U.^.U.U.J.U.U.U.F.F.G.F.J.H.J.G.U.U.P.U.J.U.U.U.U.P.U.P.J.U.T.U.J.J.U.U.U.U.T.I.U.U.U.I.D.D.G.I.T.U.I.I.I.P.G.g.f.g.S.P.} _ o.{ P.S.",
"F r.t.t.r.D : O : p u u h h C C u d u u C t ; , 7 7 7 7 7 7 9 9 7 9 7 7 7 s A ) r.u.u.) A S r.r.r.F Z F A , O O ; > , , > ; > - = - = = - - - - = - - = , d d Z F C M ) ) ( B B T T T T T B f 7 7 7 7 7 a a a a a a d g h h A S A S w.) M p.^.^.^.^.^.^.H.!.!.^.!.W.U.H.^.^.^.^.U.^.!.H.^.^.H.^.U.U.^.^.^.^.F.t t t t d d h h h C C S C C C U.(.(./././.!.U.^.^.^.U.U.[ p.^.U.^.U.U./.U.U.U.U.U.H.U.H.H.J.H.U.J.G.J.U.J.F.H.U.J.U.U.U.U.U.U.U.U.f.J.U.I.U.T.U.U.U.U.U.U.J.P.I.I.P.U.P.P.T.I.U.I.U.E.E.U.S.D.G.g.f.g.T X.X.g.D.h.",
"t.y.r.B + O O O = u h p C h h h u d C u u d , , , 7 7 7 7 9 7 9 7 9 7 a A r.r.r.r.w.S Z r.r.r.,.F F C , o o ; , 9 , , 7 , > ; = = - - - , , , ; - = = - , y d C A ' ' D B B T T T T T T T T f 7 7 7 7 7 a a a a a a d g h A A S S S ) d D U.^.^.^.H.!.^.H.^.H.!.H.^.J.H.^.^.^.J.H.^.!.^.^.^.H.U.U.H.U.^.^.^.f.t t t y d d h h h C S S C C A p.J.#X#X/././.^.U.^.(.F.p.U.^.^.^.!.U.U.U.H.U.U.U.H.U.J.J.J.U.J.U.H.J.H.F.U.U.U.U.F.U.U.I.U.J.J.J.U.U.T.I./.^.I.I.P.P.U.T.^.U.P.U.T.E.T.I.I.I.E.E.I.I.I.T.U.I.I.S.g.D.g.T o.[ g.g.S.",
") s O O O O O O < C C C C p u u h S S u u d , > > 7 7 7 7 7 7 7 7 s A S ) r.r.) G F r.u.i.w.r.) d - + & > 9 9 7 7 7 , , > , - ; , , , , , , , ; : , a M g A u.u.u.) V V B T T T T T T T T T s 7 7 7 7 7 a a a a a a a d g A S ` S ) A C ) ^.^.^.^.^.^.^.^.U.!.^.^.^.H.^.U.H.H.H.H.H.^./.^.^.^.H.U.U.H.U.^.^.G.t t t t y d h h h C S S C A ) ^.^.f.G.(./././.!.U.{ J./.!.U.U.U.^.U.H.G.H.J.H.H.G.U.H.H.U.J.U.^.U.J.J.J.J.J.J.J.U.U.U.U.~.U.J.J.J.P.I.U.U.~.U.I.U.U.U./.U.U.I.I.I.U.E.I.U.I.T.E.T.T.U.U.U.E.I.g.I.I.p.W o.X.S.G.g.",
"t O O O O O O O : C C C u u d d C C u j y d , , , > , , > > , g D F w.) F F C S r.r.r.r.r.) g ; % ; 7 f f s 9 9 7 , , 7 , > > , , , , , > > ; : , a M A ' p.u.' ( W W T T B B B B T T T T T 7 7 7 7 7 7 a a s s a a a a d A A S S A A D u.!.!.U.^.^.^.^.U.^.^.H.H.U.H.J.H.J.H.H.H.^.^.^.^.!.^.!.H.H.H.U.^.^.F.t t t t y d h h h C S C A A [ (.#X(.^.p.h.^.^.f.{ (.(./.^.^.^.!.!.U.G.G.J.U.G.H.U.H.U.G.U.I.U.H.J.J.J.G.J.U.J.U.U.H.H.U.U.~.U.^.T.I.T.^.P./.T.T./.~.^.T.U.P.G.D.P.P.U.U.I.I.S.U.T.E.T.E.U.E.I.P.P.I.( ] X.g.P.S.g.",
"<.O O O O O O O = C G C u i h d u i u u d s , , , , , , , s A ) ) ) ) S C F ) r.) ) F D d - & & 8 f f f 9 s 9 , , , : ; , 7 ; : , , , , , ; : , , M A ' u.' ` ( W W W T T T B T T T B T T B 7 7 7 7 7 7 a a g s a a a a d A A A A A ` ) !.^.^.^.!.^.^.^.^.^.H.J.^.H.H.F.J.H.J.^.!.!.J.^./.^.U.^.!.^.^.^.U.^.f.t t t y y d h h C A G C D D p././.(.#X/.U.B V U.#X#X/.(././.U.^.U.U.U.U.U.G.J.J.U.J.U.J.U.U.J.U.H.J.U.F.f.J.F.G.G.J.U.P.U.U.U./.^.I.U.U.T./.T.I.T.U.P.U.U.U.P.S.G.I.I.E.U.I.P.U.E.I.U.T.E.U.S.G.I.G.W X.[ I.I.P.g.",
"6., = O O O O O O C C h u u d u i u h h d t , , , , , g D D ) ) ) D C C w.w.F F S M , - - > 8 f 4 9 f f f 9 , > - : > > > > 3 : , , , , < , 9 , : D r.r.) ( ( W W T T W T B T T B B T N T f 7 7 7 7 7 7 a a g s a a a d d g d A A D ` u./.^.^.^.^.^.^.^.!.^.U.^.!.H.H.H.J.J.J.J.^.U.^.U.^.^.^.^.!.^.^./.^./.G.t t t d u d h h h C S S S A G./.^.^.#X(.p.} F.{ f./.(./.^.^.U.U.^.^.U.^.H.U.F.J.H.H.U.U.U.U.U.^.U.U.U.U.J.J.G.J.U.U.J.U.U.U.U.U.^.T.U./.T.I.I.T.T.U.U.I.I.U.I.I.P.P.P.T.E.I.G.I.U.E.E.E./.T.U.I.P.f.W o.o.I.S.G.g.",
"p C O O O O O O O p G p u y y u h C p h h M , , , M A F ) r.r.A C S F r.r.F A d - & - > 9 f f 9 7 , > 4 ; > : , , , > > , , , , , , : , s g a : B r.) ( ( W W T T T T T T B T T B B T T T 7 7 7 7 7 7 a a s g B a a a d d d A S D D A G.^.!.^.^.^.^.^.^.!.^.U.H.F.G.H.J.J.G.J.^.U.H.^.U.^.U./.^.^././.U.^.^.g.t t a d d d h d C C S S A A J.^.^.^.F.[ U./.^.^.U.p.f.(.(./.(././.U.U.U.U.U.F.U.U.^.U.U.U.U.H.U.H.J.J.U.U.H.H.U.U.G.J.P.I.U.U.U.U.U.U.I.U.^.T.U.T.I.I.P.P./.E.U.U.E.G.P.E.U.G.G.U.T.U.I.U.T.T.P.I.{ ( X.h.S.S.g.g.",
"O h = O O O O O O C C u C y C C C C u C A A s A ) ) ) r.F A d A ) r.r.1.F M : + & ; 7 s 9 9 7 7 7 > - - - = > , ; , , , , , , , , , s d d s 9 ` ` D ( ( W W T T T T T B B B N B B T T T T 7 7 7 7 7 7 a a s g A a a d d h h S S ) D A !.^.!.!.~./.^.!.J.U.!.^.!.H.J.J.J.J.H.H.U.U.U.^.U.U.^.^.^.^.^.^.^.^.^.F.t t a d d h h h C C S S S A !.^./.p.f././.(.^./.^.U.^.{ p.^./.(.(./.^.U.H.U.U.^.^.U.^.^.J.U.J.H.^.H.U.U.J.U.H.U.J.J.I.J.J.J.J.U.U.!.^.U.T.I.I.U.T.T.T.P.J.I.U.U.U.U.I.G.I.I.G.S.I.I.I.U.I.U.I.P.I.( _ [ P.S.S.S.g.",
"O j h O O O O O O y u u C d C C C C p C A A ) ) ) ) F d u A r.1.1.1.) M - + & ; 4 9 9 7 7 7 7 , - + - ; > - = , , , , , , , , , , t t d d ( ` V T W W W W T T T T T B B N T T T T T T T W s 7 7 7 7 7 a a s g B d d g h A S ) ) ) D ( ~.!.!.^.^.^.^.^./.^.!.U.^.H.F.F.H.H.G.H.U.U.J.H.^.H.^.^.(./.!./.^.!.^.f.t t t y d h C C S S S S A D !.J.{ ^.U.(.^./.^.!.^.^./.(.H.{ p.U.^.U.^./.U.U.U.H.U.^.U.U.U.!.U.H.U.H.U.U.J.U.U.^.U.U.G.U.P.^.U.U.I.~.^.~.^.T.I.U.U.I.I.T.I.T.I.G.U.I.I.G.P.G.S.G.D.I.I.I.G.P.P.I.D.W X.[ U.g.P.S.S.",
"O : p t O O O O O < p C C C C u h C S F r.r.r.r.S C u C ) r.F 1.F A > + & - > , , > > > > ; - = = - ; ; , , , , , > > > , , 7 9 , a t ` ) ( V W B B T T T W W T T T T T N N N B B B ( _ X.f 7 7 7 7 7 a a d A g d g C A S ) ) ) ) D ` ^.^.^.!.U.^.!.^.^.U.!.H.H.!.H.J.J.^.H.H.J.H.^.U.^.G.U.^./.^.U.^./.U.H.p.t t t y d d h S S S S A A D u.f.(.^./.^./.(.!.^.U.^.^.U.U.U.G.{ p.U.U.!.U.^.^.^.U.J.U.^.U.^.^.!.U.^.U.!.U.U.~.U.J.U.P.U.P.U.J.G.U.J.^.T.I.P.U.U.U.I.I.E.E.I.U.U.U.E.I.I.P.I.G.g.D.g.G.U.P.U.I.P.h.W X.h.E.I.P.I.S.",
"+ = p <.; + O O O < h h C C C h S r.s.t.r.r.F h d F r.r.1.G G C , o + - ; > > ; ; ; ; ; - = = - - = - ; > , , , ; ; ; ; , , , < : W ) ( ( ( ( T B T W T T T W T T T T B N N N T W ` o.g.g.f 7 7 7 7 7 a a g h h A d C A A ) ) w.) A ` /.^.!.!.!./.^.^.^.U.U.^.H.H.H.^.G.H.H.J.G.G.H.H.H.U.J.U.H.^.^.H.^.U.^.f.t t t d d d C S S S S S S ) H.^.^.^././././.^./.^.^.^.U.U.U.U.U.J.p.p.U.U.G.U.U.U.U.^.^./.U.^.^.U.J.H.U.^.^.U.U.P.G.J.J.P.U.U.U.F.U.U.^.P.J.I.U.U.T./.T.T.U.G.I.I.I.U.I.G.G.I.P.P.S.g.P.P.P.G.K.} _ [ h.I.I.G.P.P.",
"; = j <., = + O O , C C u C S i.s.r.t.r.F C C Z r.r.r.F C d = O o & ; > ; ; ; ; - + + = = = - - - - ; ; ; > > > > , , > , ; - s ( W W B B B B B B B T T B T T T B T T T N B T ( { g.U.I.h.s 7 7 7 7 7 a d g h A A h A A S ) w.) ) M u.^.!.!.^.^.!.^.^.^.!.H.^.U.^.U.H.J.H.H.J.H.F.G.!.H.U.^.U.H.^.H.H.^.^.U.p.t t t t d C C C C S S S S u.(.(.^.^.^.(.^.^.^.(.^.^./.U.U.J.U.^.^.^.G.{ p.G.U.J.U.U.^.^.U.^.U.U.U.U.U.U.U.U.U.T.U.J.U.U.J.U.U.U.T.U.I.U.G.P.I.U.P.I.I.U.U./.I.U.U.E.T.U.I.I.P.I.S.S.P.I.E.P.P.S.( ] ] P.I.T.P.S.g.",
", , : < : - - = O , C h Z r.r.r.t.s.F C G ,.r.r.r.r.S C , O o + ; ; ; - - - - - + O + = - ; - - : ; ; : : > > , , , ; ; , g B V B B B f B B B B B B T W T T T W W T T T T ( [ h.f.H.U.I.h.7 7 7 7 7 7 a d d d A A h A S ) ) r.) D A p./.!.^.^.^.^.H.!.^.U.^.H.^.^.U.U.^.!.H.J.J.J.G.J.U.U.H.H.U.!.U.^.U.^./.f.t t t y d h h C S S S S S p.^.(.(.^.^./././.^.U.(.^.^.^.^.H.U.U.!./.^.^.G.p.p.H.U.^.U./././.U.U.U.U.H.J.U.J.U.P.J.P.U.I.P.U.U.U.U.U.J.P.P.P.P.U.P.P.I.U.T.U.E.E.E./.T.E./.U.P.P.S.g.g.P.G.I.g.h.W [ [ I.I.T.P.S.S.",
"a , t a a a 7 , , s S r.r.t.y.y.r.F F F r.t.r.F F d y d s + - ; ; - - - - = + + + = - - ; ; - ; ; ; ; : : , , 7 , , a s s f s N f B B N N B f B T W T W W T B T T T T ( } p.F.J.H.U.U.U.f., 7 7 7 7 a a d d h A A A A F F ) ) D A A p././.H.U.^.!.!.U.H.J.J.J.U.U.U.^.H.H.H.H.J.^.^.^.H.H.^.!.^./.!.H.U.^.^.g.t t t y d h C S S S S S F k.(.(././.^.U./.^.^././.^.^.^.!.!.^.U.!.J.U.^.U.U.U.p.p.U.U.^.^.U.U.U.U.!.^.U.U.U.U.U.U.U.~.U.P.J.J.P.U.J.J.G.I.J.I.G.U.T.P.G.I.I.I.I.T./.E./.E.E.T.P.I.g.P.G.T.T.T.{ W ] h.U.G.I.P.g.S.",
"s s s s a a s d F s.s.t.r.t.t.Z 1.t.t.r.t.F C d i i u M M - - - - = + + = + + + - - - - - - - ; ; ; > , : , , a , 7 g N f 7 f B f B B f B B f B B V B V T W W W W ( [ p.D.G.G.^./.^.U.H.p., 7 7 7 7 a a a d h d C S S S S ) ) S A D p.(.(.(.U.U.J.H.J.J.F.F.F.U.H.!.U.!.U.U.U.H.^.U.^.U.^.^.^.^.^.U.^.^.^.^.f.t t t y u C G S S S F S S U.(.(.^.^.(./.(.!.^.!.^.^.U.^.U.U.!.U.U.G.H.U.H.U.U.U.J.p.[ F.U.U.U.U.H.H.U.H.I.I.U.I.U.H.~.U.U.U.!.U.U.J.G.D.P.P.U.U.P.I.U.U.I.I.T.U.P.I.I.T././.T.I.I.I.g.K.T.I.P.( _ ] I.I.I.I.I.S.g.",
"a s a s s g F r.t.s.a.y.1.G 1.y.1.t.t.1.G u t t t t d M s - - - = - - + + + + - - - - - - - - - - > > ; ; s d t s V B B f B 9 9 N N f N N N f f N T N B T ( } [ { f.g.G.G.H.H.H.H.H.U.U.f., 7 7 7 a a s a d h d A ) A S ) ) ) ) A D p.(.^.(.!.!.^.H.H.U.H.U.H.H.H.U.H.U.U.^.U.H.H.H.H.G.U.^.H.U.^.U.^.U.U.U.p.t t t y d C S S S S S S S U.^.(.(.^.^.^.(.^.!.U.^.^.H.^.H.H.U.H.U.U.U.^.^.U.H.G.H.F.H.{ p.U.J.H.J.P.J.P.U.I.U.P.U.P.U.U.P.U.I.P.P.I.U.I.G.I.G.U.T.T.T.I.I.I.I.I.P.P.I.I.I.G.I.T.I.U.S.S.P.P.S.( [ ] Y.I.I.G.U.P.g.",
"a a s g ) s.i.y.a.a.F Z 1.y.y.t.2.t.,.h u d t t t d C C s = - - - - + + + = + = - - - - - - - - ; ; ; - , t M B V B B B N B B N 9 f B N N N s s f f N V ( [ p.D.F.J.H.H.H.H.H.J.J.J.^.H.p., 7 7 7 a a a s d d h A S A S ) ) ) D A A f.(.(.(.!.^.^.^.^.^.^.!.H.H.H.H.U.U.H.U.J.J.F.J.H.J.G.F.J.^.^.(.^.U.U./.f.t t t y u C C G S S S S S H.(.^.^.H./.^.!.U.!.U.U.^.^.^.H.^.U.U.U.U.U.U.^.^.U.G.J.H.U.U.U.[ p.f.P.U.U.U.U.U.I.U.U.U.I.J.J.P.J.T.T.I.P.I.P.I.U.U.P.J.G.U.I.G.I.I.I.I.E.P.I.P.P.E.I.I.S.h.K.P.h.] X.h.T.I.I.I.T.T.I.",
"a g ` u.a.a.i.F 1.Z F t.y.t.1.1.Z G C h i y C t d F F G M - - - = + + = - - + + - - - - - ; , : : ; ; , s B V W T V V N B N B N B s s N N N f f N N B ( ' f.D.J.H.J.J.J.H.J.H.J.J.J.H.F.p.7 7 7 7 a a a d d d h A A S S ) ) D D D A p.(.(.(.(.^././.^.(.^.!.^.U.H.H.J.H.^.U.^.H.F.F.H.H.G.H.^.^.(./.U.^.H.U.h.t t t y u h C S S S S F S F.^.^.^.^.H.U.H.U.U.U.U.U.!./.^.^.!.!.H.U.^.U.U.U.U.U.U.U.J.U.J.U.U.p.{ J.U.^.U.^.U.U.U.U.U.J.J.U.U.P.I.I.I.P.P.P.^.U.U.G.I.E.U.I.I.I.I.I.I.P.T.I.E.I.U.T.P.h.g.K.X.] ] g.T.I.I.I.T.T.I.",
") u.s.a.a.r.,.Z ,.t.t.y.t.t.F C t d u i i u F F F F Z Z M - = + O + = - - = - - - - - ; > > , , , , s B W W V B B B N B B N N N N B f 9 N N B N f V ( ' f.F.H.H.J.J.H.J.J.J.H.J.H.J.J.H.f., , 7 7 a a a d d d d A A A S F ) S S D A p.(.(.(.(.(.(.(.^.^.H.H.^.^.U.H.U.H.J.H.H.H.J.G.G.J.J.H.U.^.^.^.^.^.!.!.u.t s y y u d C S S S S F F k.(.^.(./.(.^.^.^.H.H.U.U.U.U.U.U.U.^.H.J.J.U.U.H.U.!.^.U.F.J.G.H.J.F.P.p.{ G.U.U.U.P.U.U.U.U.U.U.E.I.I.I.U.U.I.I.I.T.U.U.I.P.T.P.I.T.I.I.I.I.P.P.I.T.I.P.S.S.g.h.] X.] T.I.T.T.Y.T.Y.Y.",
"r.s.y.r.F 1.r.,.1.t.1.1.F d t t y u u u d F F G G ,.C Z A - + + = - - - = - - - - - ; > ; - 7 : s N B B B V W B V B B B B B B N N N B f 9 s N V ( } p.F.F.H.H.H.H.J.J.J.H.H.J.J.H.H.H.H.F., , 7 7 a a a d d d h A A A S ) F S A D ( F.(.(.(.(.(.(.(.(.(.^.^.^.!.^.^.^.^.^.^.^.J.H.U.J.H.H.!.!.U.U.U.^.U.^.H.D d d y d d h C G S S S F F u.^.^.^.(.^.^.^.U.U.!.^.!.U.U.G.G.U.U.U.J.U.U.U.H.U.H.U.U.G.J.F.J.H.U.T.I.P.p.{ G.U.U.U.T.U.U.U.P.P.I.E.I.T.T.I.U.I.^.I.G.I.I.U.T.U.U.T./.E.T.I.I.I.I.I.I.T.S.o.( ] X.X.T.I.T.E.@XT.T.T.",
"r.F Z F 1.1.1.1.1.,.F u y u d y t y C ,.1.F F ,.F Z Z 1.D = - - - = - = = = = - ; ; ; = + s s f f B N N N B B V V B T B T B f N N N B V B f f } p.F.F.J.H.H.H.H.H.H.H.H.H.!.H.J.H.H.U.H.F.9 , 7 7 a a a d d d h A A A D ) S A A D ` ^./.(.(.#X(././.^.(.^.^.^./././.H.^./.^.U.^.^.H.H.H.J.^.^.H.J.G.U.^.p.p.) d t y u d h C S F F F F F r./.^.^.!.^.!.U.^.U.^.U.U.U.H.H.U.U.U.U.U.U.U.U.U.U.H.U.U.J.U.U.J.H.F.I.U.U.G.U.p.p.g.U.U./.^.U.U.I.I.E.U.U.U.I.P.I.J.U.I.T.E.I.I.I.I.I.U.U.T.I.G.I.I.T.T.S.h.( 9 % q W T.T.E.E.oX@XT.T.",
"Z Z 1.1.1.r.1.1.F d d u u u d d A ,.1.,.1.Z Z G F ,.Z F F - - - = = = = = - - = - - ; , 9 f N N f f f f f N B B B B W T T B B N N B V V ( [ u.D p.G.H.H.J.H.H.H.H.H.F.H.H.H.H.U.U.H.H.H.H.s , 7 7 a a a d d d h C C A ) S A A A D ' ^./.(./.^./.(./.(.(.^.^.(.(.H.U.U.^.G.^.U.^.H.U.H.H.H.H.^.^.H.H.G.[ J.^.D d y y u d C C F w.w.F F F ,.J.^.(.^.^.U.!.U.U.U.U.!.U.U.U.H.H.U.U.U.U.U.U.U.U.U.U.J.J.J.G.J.H.J.U.U.U.U.~.F.I.p.{ F.I.T.^.U.U.T.U.I.I.I.I.I.I.I.P.P.I.T.I.U.G.I.P.U.U.I.I.I.I.I.I.U.I.S.] f - $ & [ K.K.P.P.P.P.Y.",
"t.r.r.r.r.1.A , O d h u u u C r.,.,.1.F F Z 1.r.,.1.G Z G : - - = = - - - - = = > s f f N N N N f f N f f f N B B T T V B B V B V V D ' u.p.F.H.{ [ J.H.H.U.H.H.H.H.H.H.!.H.J.H.!.!.H.U.U.f , , , a a a d d d C C C A F A A A A A ' ^.^./.(.(.!.^.(.(././.(./.(./.(.^.^.^.H.U.^.H.U.J.H.J.F.J.J.U.p.f.U.^.H.C d d d d d h S ,.r.r.,.F F 1.r.a.!./.^.^.^.U.U.U.U.!.^.H.!.^.U.H.H.U.U.U.U.f.U.U.U.H.J.f.J.U.U.I.U.U.U.~.^.I.T.U.G.{ ( g.U.U.U.E.E.U.P.I.I.I.U.U.U.I.U.I.I.T.I.I.I.E.I.E.U.G.P.T.I.I.I.T.T.] 9 4 f ] h.K.P.K.K.K.g.",
"r.r.r.r.A , + O O M C h C F F Z 1.1.1.F 1.1.t.1.F Z Z F S , - - - - - - + - 7 s M N B B N N N f f f f f f f M N B V T T W B B B D ) [ p.H.U.H.J.J.J.' F.J.H.H.H.H.H.!.^.U.H.H.H.H.^.^.!.U.N , , 7 a a a d d d h h C A A A D A A A [ ^.^.(.^.^.^././.(.^././.(./.(.^.^.(.(.^.U.U.H.^.U.H.H.J.F.F.[ H.^.H.J.J.C A d d u d C S w.r.r.w.F F r.r.r.r.F.(.!.^.^.^.^.U.^.H.J.!.H.!.^.!.U.U.^.U.W.U.U.U.H.U.J.H.G.U.U.U.U.U.^.^.I.U.U.P.I.G.{ { P.I.I.U.I.I.I.T.I.T.T.U.G.U.P.S.I.I.U.E.E.E.U.I.I.S.I.E.T.T.I.E.Y.K.h.o.h.g.g.K.Y.oXT.I.",
"r.r.A > O + = = : y d ,.r.,.1.G t.1.1.,.G t.1.r.1.F F r.S t - - - ; - ; s N s s f B f f f N N f f N N N f f f M B B B B T V ( ' u.p.J.J.U.U.H.H.U.H.H.' { H.H.U.U.U.H.H.H.H.H.H.^.!.!.!.U.` 7 , 7 a t a d d d h h C A A A D A A A p.^.^.^.H.^.^.^.H.^.^.(.(.(./././.(.^.U.^.U.U.!.!.U.U.H.G.) p.H.H.U.H.H.k.C A d d d d S F w.r.r.r.w.r.w.w.,.t.t.s.F.g.P.~.^.^.^.^.U.^.H.^.U.^.U.U.U.H.^.H.U.H.H.U.U.U.J.U.U.P.J.U.U.U.I.I.I.U.I.U.T.P.f.{ g.G.I.I.E.I.I.I.U.I.I.U.T.P.I.I.I.T.I.E.T.T.P.I.P.I.T.I.I.T.T.T.j.j.g.S.K.g.S.g.P.T.",
"M + X O + + = = d y G F r.F t.,.t.1.1.F r.1.Z F F ,.F F F t > - - 7 B W N s s f f f f f f f f f f f s f f f N N N B N B ( } { f.F.F.J.H.H.J.).H.U.J.J.J.F.D F.U.U.^.^.^.H.H.H.H.^.^.^.U.H.} , , 7 7 a a d d d h h C A A A S A A A G.!.!.^.!.U.(.^.^.U.U.H.^.(.(./.(.(.^.^.H.!.U.!.U.U.U.G.{ F.U.H.G.H.J.).u.A A C d d h C F ,.r.r.r.r.r.t.r.1.t.t.r.r.M O 4 { ^.U.^./.!.^.^.H.^.^.U.H.U.^.U.U.U.U.F.U.U.J.U.^.P.U.P.U.^.U.U.P.^.^.U.T.I.P.I.h.( { P.I.I.U.T.U.T.I.I.U.U.I.I.I.I.I.I.P.T.E.T.T.P.I.I.P.P.I.I.I.K.g.P.oXY.g.K.g.g.",
"X X X O O = = = y d C Z ,.Z 1.,.1.1.,.r.r.r.F F F A F F A < , , B ( ( f f f f f f f f N f f N N N N f f f f f g g N B ( [ p.F.J.J.J.J.J.H.H.H.H.H.).U.H.J.F.' p.U.!.!.^.U.W.J.G.H.H.^.H.U.f., , 7 7 a a d d d h h C A A S D A A ` U.^.^.^./.^.^.^.^.H.H.H.U.^./.^./.^.^.^.(.(.^./.^.!.p.p.J.H.!.U.U.H.H.H.F A A C C d C C S F r.r.r.r.r.t.t.r.t.t.t.t.r.A = = , [ #X/./.^.!.(.^.^.^.U.^.U.^.U.U.G.U.U.U.U.U.U.U.U.I.^.@X^.U.U.U.^.I.I.U.T.I.I.S.[ ( { I.J.U.I.I.E./.T.P.E.T.I.I.I.G.U.I.P.T.T.P.I.I.T.T.g.T.T.P.K.K.P.T.oXY.Y.K.",
"O O . O O = = = y d d F t.,.t.1.1.r.F F C r.F F C S F C A g ( [ ( B B B f f N f f f f B N f B B N f N f f f N s N V } { F.H.H.F.J.J.J.J.H.H.U.H.H.J.^.H.H.J.H.F.' J.H.!.^.!.U.U.^.^.H.^.U.G.7 , 7 7 a a d d d h h C A S S D A A ' U.U.^.^.!.^.U.^.H.^.U.^.U.H.^./.^./.^.^./.U.^.#XU.p.H.H.H.^.^.^.^.^.H.J.G S S A C C A S S F w.r.t.t.r.r.t.r.r.r.t.t.t.r.r.H.^.h.s f.(.(.(.^.^.^.(././././.^.^.U.U.^.^.^.^.^././.U.^.^./.~.^.U.U.I.U.I.I.I.E.U.T.I.[ ` g.U.P.T.@XT./.@XE.E.T.U.U.P.I.I.P.P.I.P.I.P.I.T.T.Y.Y.T.P.K.K.K.Y.E.T.T.",
"O O O O O O + = y h h G 1.1.F 1.F F C r.F F F r.F S A A ` u.[ ( B T B B N f f B B B B B N N N N N B B B B B B W ( [ f.F.F.H.J.H.J.J.H.H.H.^.).H.).H.H.^.^.^.^.U.H.' u.H.H.H.H.H.H.^.H.U.U.U.g 7 , 7 a a d d d h h A A S S S D A p.!.^.!.U.U.^.^.^./.U.^.U.^.^././.^.U.^.^.!.U.U.p.f.^./.^.^./.U.J.H.U.H.a.S S S S C C A S F F F w.r.r.r.r.r.r.r.r.r.r.t.t.,.F ) ' B > ( /.(.(.(.(./.(././.(.^.^.U.^./.U./.U.^././.^.^.U.~.^.U.U.T.T.I.I.T.E.E.P.I.I.T.I.h.[ f.U.I.T.I.T.T.E.@X@XE.P.T.P.I.I.P.I.T.I.I.P.T.E.I.E.T.P.K.Y.P.Y.Y.oX",
"O O O O O O + = t u u G t.r.w.1.F 1.s.t.S C ) ) F D ' h.[ V V B T T B N N N N B B B B f B B B T T B B B B B ( { p.F.H.H.J.J.J.J.J.U.!.!.^.^.^.U.).^.^.^.^.H.^.U.^.^.p.[ U.^.H.^.H.H.^.H.U.J.B 7 , , a a d d d h h C S S S S A A G.(.!.^.^.!.^.^.^.^./.U.^.^.U.!.^.^.!.^.!.H.f.[ U.^.!.^.U.^.U.U.!.U.U.f.A S S S S A A A S F F F F w.r.r.r.r.r.r.w.r.r.r.t.r.,.F ) d 4 6 9 F.^.^.(.(.^.^.^.^.^.^././.(./././.^.^.^.^.^.^.^./.U.~.T.I.T.T.T.E.E.U.U.U.U.U.I.P.{ } { P.P.T.@XE.@X@XE.T.I.T.T.T.E.E.T.T.T.T.T.E.T.T.T.T.Y.P.Y.T.T.oX",
"O o O O O O O = < y u Z 1.1.1.Z F r.1.r.) ) ' u.u.f.f.( V V ( W W T B B N B T B B T B B B B B T T B T T ( [ p.G.G.J.H.F.G.J.H.J.H.H.!.!.U.!.^.U.^.^.^.^.!.^.!.!.^.^.^.!.[ f.^.!.^.H.^.^.U.H.( 7 , , t a a d d h C A A A D D A A U.^.!.^././.!.^.^.^.^.^.^.^.^.^.^.^.^.^.J.{ f.U.U.!.!.^.U.^.^.H.H.H.J.{ s A F F F F S S S F F F F F w.w.r.i.t.r.r.r.r.r.w.r.r.r.,.1.s ; 6 s a._.^.(.(.^.^.(.^.^./.#X(.^./.^./.I././.^.#X#X/.T.^.@XU.T.E.E.T.E./.U.I.E.T.T.E.T.U.g.} h.I.E.@X@X@XT.@XT.I.T.I.T.I.I.I.I.T.T.T.T.T.T.Y.Y.I.Y.T.T.T.",
"+ - + + O O O = : u u v 1.1.r.r.F S F F F u.p.f.g.[ ( ( ( V B B T T B B B B T T T T T T B B B B T W _ [ p.f.F.F.J.H.H.F.J.H.H.^.J.U.!.!.U.H.U.H.U.^.^.^.^.^.^.^.^.!.^.(.^.f.[ J.^.^.U.U.U.U.' 7 , t t a s d d h C A A S D D A ` ^.^.^.^.(./.^./.^./.^./.^././.!.^.!.!.g.[ J.U.!.U.^./.U.H.H.^.U.J.F.F.} 7 A F F F ) F F F S F F F F F w.r.i.i.i.t.r.r.r.w.F F ) S D F 7 > 4 a r.a.^.(.^.^.^.U.^./.#X/./.^.^./.P./.^./././././././.#X/.T./.E.^.E./.E.E.I.E.@X@XE.E.I.g.{ K.I.E.E.E.P.E.T.@XE.T.T.I.T.I.I.T.E.oXE.oXP.T.oXY.Y.Y.oX",
"- - - - + O O = : d u u Z F r.C G ) u.u.f.g.g.{ ( ( ( V V W T T T T B T B B B B T T T W T B T T ( [ f.f.F.H.H.H.J.H.H.J.U.H.H.H.J.U.H.^.U.!.U.^.^.^.U.U.^.^.^.^.^.^.^.^.^.^.U.' F.^.^.(.^./.p.9 7 a a a a d d h C A A D D D A p.^.(././.#X^.^.^.U.!.^.^.^.!.^.U.^.U.[ p.U.U.U.U.U.U.U.G.J.^.U.!.U.F.f.( > A F w.w.) F ) ) F ) F ) ) w.) w.r.r.t.t.r.) D g 7 ; - - ; ; > ; 6 4 A i.r.a.H./.(./.^./.^./.U.!.U.^.^.I.I././.P.T.^.~./.#X/././.^.E.E.U././.U.E.E././.T.E.I.E.h.[ S.I.E.E.E.T.E./.E.E.T.I.T.T.P.E.I.T.Y.oX@XoXoXY.P.Y.",
"; ; - = = = + O = u u u F G F S u.a.p.k.k.[ } _ ( ( ( W W T T W T W W T T W T B T T W T T W ( [ h.F.g.H.U.I.H.G.H.H.H.H.H.U.H.H.J.H.^.U.H.^.U.U.^.^.^.!.(.U.H.!.^.^.^.^.^.H.^.T.f.{ ^.^./.~.P.9 7 a a a a d d h C A A F S A A G././.#X(././.(.^./.^./.^.U.U.U.U.f.[ J.^.^.!.U.U.U.U.!.H.H.G.H.U.F.F.p.V 4 s F r.u.u.r.) ) ) ) ) w.u.u.r.r.) ) ) ) B 7 ; - ; ; ; ; > > > 6 > > ; A t.y.' ' U.^.U.!.^.^.^.^./././.^./././.@X/./.#X/.^././.U.E.E.U././.T.T.T.E.T.E.T.E.@X/.E.T.h.[ g.E.E.E.@XE.T.T.T.E./.E.@XE.T.oXoXT.E.oXoXT.Y.Y.",
", > - = - = = = = t u u C S u.p.p.f.g.{ } } } ( ( ( ( W W ( ( T W W ( W T W W T T W T W ( } { f.G.G.F.H.J.F.J.U.H.H.G.U.H.U.^.U.J.H.!.^.^.^.^.^.^.^.^.^.^.^.^.U.^./.(.^.^.^.!.!.E.T.[ P.^./.^.f 7 a a a a d d h C A A S D S D ^.#X(.(.(././.^././.(.^.^.!./.U.{ f.^./.^.!.!.^.H.G.G.G.J.U.J.J.J.J.^.J.( > + A ) u.i.u.r.) ) ) ) r.' ) ` W B s , ; & % & & % ; ; 7 M A A g 7 & ; , F t.y.r.' D.U.^.(.(./.^./.(.#X^.^.^.^.^./.U./.^.T./.@X/./.^.W./.#X@XT.E.E.T.@X@X/.T.@XE.E./.@XK.[ S.@X@X@X@X@XE.E.@X@XE.@X@XT.oXE.oXoXY.oXoXoX",
", 9 , , , , 7 9 , , y C ' i.p.f.g.p.` ` ` ( ( ( W ( ( ( ( ( ( ( W W ( ( W W T T W W W _ { f.F.J.G.J.H.F.U.U.H.H.J.G.I.G.U.G.G.H.H.H.^.U.U.^.^.^.U.^.U.^.H./.^.^./.^./.^.^.^.!.^.U.T.T.h.o././.T 7 t t a a d d h C A S D ) S ' #X(./.(.(.(.(.#X#X(.^.(.^./.F.p.^./.!.U.U.U.^.H.F.J.G.G.U.U.H.H.J.^.^.U.h.> % - M r.u.u.u.u.u.' ` A f 7 & o o o $ $ & & $ $ ; g ` ' u.r.r.w.D g o - G ,.t.a.(.D f.W.^./././.^./././.T.I.~./.^.^.T.T./.T.E./.#X/.W./.#XE.@X@XE.E.E././.@X/.@XU./.@X@XT.S.{ S./.@X@X@X#X@X@X@X#X#X@X#X@X@X@X@X@X#X@X",
"9 , , 7 9 s a 7 ; : A u.a.p.u.[ [ [ ( ( ( ( ( ( ( ( ( ( ( ( ( W W ( W W W T ( W ( } ] h.h.f.H.H.H.H.H.J.F.U.H.H.U.H.G.J.U.U.U.H.H.U.^.U.U.H.^./.!.^.^.^./.U.^.^./.(.(.^.(.^.^./.^.E.P./.I.} P.` 7 t t a d d d h C A A F D D f.(.#X#X(.#X(.#X#X^./.^.(.U.p.U.^.U.!./.U.U.H.U.H.U.^.H.H.H.^.U.^.^.^.^.I.P.[ 4 & + , g M B M s 7 &     . . . . o o o @ % 8 W [ u.u.r.r.r.t.r.r.F M ; F t.t.t.i.) B g./.U./.^.U.^././.U.^./././.T.@X@XU./././.#X/.E.E.E.E.E.@X@X@X#X/.@XE.E.E./.T.T.E./.@XE.S.[ h.E.#X#X#X@X@X#X#X#X@X#X#X#X#X#X#X@X",
", , 9 s 9 , , 7 7 ` p.k.u.' ` ' [ [ } ` ( } ( ( ( ( W ( ( ( ( W ( ( W W W W _ } [ p.h.D.F.I.G.G.J.F.H.U.G.J.J.G.J.G.H.H.J.H.H.G.H.H.U.^.H.U.U.^.^.^.^././.^.^.!./././.^.U.^.^./.#X@XE./.E./.{ B , t t a d d d C C S F F D D U./.#X(.#X(.#X(.(./.^./.F.p.^./.U.!.U.U.!.H.U.!.^.^.^.^./.(./.^.(.^.^./.U.U.U.o.W 8 & + + o + o o o $ $ o o o o o . .   % f ` u.u.u.r.w.r.i.i.r.r.) ) S w.,.t.l.).B V U.^./.^.!.^././.^.^.T.~.@X/././.^.#X/./.E.W.W./.U.#X/.E.E.@X@X/.@X@XE./.@XE.@X@XE./.T.E.T.P.[ { I.@X#X#X#X@X@X#X@X#X@X#X#X@X@X",
"7 9 9 , - ; s B [ p.p.' } } [ } [ ] [ } ( ` ( ( ( ( _ ( ( ( W W ( ( W ( ( } { f.D.F.G.J.J.H.U.G.H.f.f.G.G.H.G.G.F.J.H.H.U.U.J.f.U.U.J.H.H.!.!.U.^.(./.^.!./.U.!.^.^.^.^.U././.^./.T.@X#X@X@XE.o.a a t a d d d C C S ) ) ) ` ^.^.(.(./.(.!.!.U.!.H.{ g.U.!.^./.#X^.U.!.U.^.U.!.!.^./.(.(.^.H.(.^./.(.^.H.U.F.f.h.{ T f q 8 8 > ; ; $ $ o o o o o o o o . > W ) u.i.w.w.r.i.i.r.S F ,.r.w.a.l.l.B B [ /./././././././././.^.^./.T././.@X#X#XT.E.@X@X/.#X#X#X/./.E.@XE.#X/.@X#X@X@XT.@XE.T.E.E.@X@XS.} h.@X@X@X#X@X@X#X#X@X#X@X@X@X",
", , - - ; g [ f.h.{ [ [ [ } [ ( [ } } ] ( _ ( ( _ _ ( _ T N B ( ( ( _ [ { f.F.J.U.U.P.F.G.F.H.H.G.f.F.F.f.J.F.F.F.J.H.U.H.H.U.U.G.F.U.^.U.U.U.^.^.^./.(.(.U.^./.^.^.^.!./.^.T././.I.U.@X#XT.T.S.a a a a d d d h C S ) ) D ' #X/./.^.^././.^.^.p.p.U.~.^.U.!./.^.!./.(.!.^.!.U.U.^.(./.^.(.^.^.(.^./.(.U.H.H.f.g.D.h.h.{ ] ] W T W T N N f 0 6 & o o o o o $ g ' u.i.u.w.i.i.i.r.r.w.r.t.l.l.).V B B I.^./.^.^././.@X^.@XT.U.T.T./.#X@X#X#X#XE./.#XE.#X/./.T././.E.U.E./.E././.E.E.E.E.T.U.E./.E.#XE.g.] { T.E.@X#X#X#X#X@X@XT.[ ",
"- ; - , ( h.f.h.[ [ } [ } } [ [ [ } } ( ( ( ( _ ( ( ( ( W ( ( ( _ _ { h.D.G.G.H.U.U.P.H.F.J.J.F.J.H.H.H.f.G.J.F.J.U.H.G.H.H.U.H.H./.U.U.U.U.H.U.J.!.U./.(./.^.^.^.U.^.^./././.^.I.I.@X@X#X@X@XP.a t a a a d d h A S ) ) ) p./.#X/.T.^./.U.G.u.U.!.J.^./.!.!.^.^.^.(././.U.U.U.!.^.H.^.^.^.(.^.(.^././.F.U.U.F.f.P.f.f.f.f.f.h.[ ] ( ( W W T T W N 8 ; o o o o ; B ' u.u.` ) ' u.r.r.t.i.l.l.).` B s f.U.U.^.^.^.@X/.^././.~./.#X@X/././.E.E.E.P.T.U.E.T.U././.@X@XI.E.E.E././././.E./.@X/.U.E.E.#X/.E.E.P.[ h.@X@X#X@XE.E.I.] h.",
"; 7 B { h.h.[ [ } } ' ( ( } ] } } } } } ` _ ( ( ( ( W ( _ ( ( ] [ X.g.g.H.U.U.J.H.U.f.G.G.G.J.G.f.U.H.F.J.H.F.f.H.H.J.U.H.U.U.G.U.F.U.H.F.J.U.I.U.U.U./.^.^.^.^.!.^.^.^./.(./.^.U.@X#X#X@X@X@XE.s a a a d d d C A S ) ) ) U.#X#X#XU.^.U.[ p.~.I.U.^.^./.U./.(./.^././././.^.^.^.^.H.^.U.^.^.^.(./.^.^.H.!.H.H.p.f.F.f.D.p.f.f.f.f.{ [ _ _ _ _ ( _ W T q 5 $ @ $ @ ; s g f ; ; g ) u.i.l.l.l.k.B B N f.F.I.~.^.~.@X/.T./.@XT./.T.E.@X@XE.E.E.E.I.U.E.T.T./.@XI.U.E./.E.E.E.E.@X@X@XE.@X#X#X#X@XE.@X#X@XE.@X@XP.{ o.T.oXT.Y.( g.@X",
"V } [ ( } [ [ [ } } [ [ ( ( ( ( ` ] } ( ( ( ( ( ( ( ( ( _ } [ h.X.P.F.U.U.U.J.H.H.G.J.F.J.G.F.G.H.J.F.f.J.U.F.f.U.J.J.U.U.U.U.U.U.U.J.J.H.U.U.T.G.U.U./.!.(.(././.^.!.U././.^.#X@X/.E.#X@X@X@X@XB a a a d d d C A S ) ) D T.(.@X#X^.F.{ I.U.^.U.U.^.^.^.T.U.!.H.U.^.^.U.(.^.U./.(.^././.(.^.^.^.^./.!.U.!.J.H.F.f.g.f.f.f.f.f.D.h.f.f.o.[ ( } } ] } ] _ W Y q ; & & $ $ $ @ o . 7 ` e.u.e.` a 7 N N h.G.U.J.P.I.I.U.U.^.T.I.T.T.E.T.T.U.E./.U.E.U.U.T.E.E.T.T.T.T.E.T.E./.E././././.@X@X@X/.#X/.E.E./.T.T.T.T.E.T.} } { N Y.#X@X",
"[ [ [ } } ( } } ( ` ( ] ( ( ( ( ( } ( ( ( W ( W ( ( ( ( [ h.h.G.I.U.J.!.U.G.H.G.I.F.F.G.G.G.f.F.G.F.F.F.G.U.G.G.G.G.F.U.J.P.J.P.P.f.J.U.U.U.U.^.U.U.U.U.^.^.^./.^.(.#XU./.T.U.T.[ P.E.@X@XE.@X@X_ a a s d d d A S F ) ) ) /.#X#X@X{ S./.T.U.U.J.J.U.U.U.U.U.!.~./.^.U.^.^.^./.^.^./.^.^.U.^.^./.(.(.^.H.!.^.U.U.f.g.f.g.f.f.f.g.f.f.S.h.f.h.{ [ ] ] [ X.] [ ] _ T 7 ; & & & & & @ # O O o o $ > 9 W p.F.J.P.G.P.I.P.J.T.T.T.E.E.T.E.T.T.U.@X@XE./.U.T.T.E.T.E.E.T.@XE.U.E.E.U.T.@X/.@X/./.@X/./.@XE.T.T.T.I.I.T.E.T.{ , ( Y.#X#X",
"] [ } ( ( ( ( ( ( ( ( ` ( } } } ( ( ( ( _ _ ( ( W ( { [ f.I.I.U.U.H.J.H.H.U.J.H.G.F.F.F.G.f.G.G.p.F.H.f.H.J.g.g.G.G.G.P.P.P.F.U.U.U.U.U.!.~.J.J.U.U.J.U.U./.^.#X(./.@XT.^./.^.T.@X#X/./.@X#X@X@Xh.s a s d d h A S F ) ) ' /.@XP.} I.@X/./.#X@X/.T.T.T.U.U.^.U.^.^.!.!.H.^.^.^.H.^.^.H.U.U.^.H.^./.^.U.!.U.U.H.U.f.f.g.f.f.g.h.f.f.g.g.h.g.f.g.h.{ [ [ [ ] [ [ o.X.] ( T Y q 8 > & - ; - ; % > f _ ] h.h.P.G.g.G.I.P.G.G.P.I.I.I.I.P.U.I.U.U.U.E.T.U.T.E.U.U.E./.E.T.U.E.T.T.U.U.@X/.T.T./.E./././.I.T.E.E.T.T.E.E.g.V P.P.] [ I.",
"_ ( ( ( ( ( ( ( ( _ ( _ ( ( ( ( ( ( ( ( ( ( ( W [ o.} h.F.U.H.F.J.H.H.G.F.U.H.H.F.H.G.J.f.F.p.F.F.F.G.f.F.U.P.G.J.U.F.U.U.U.U.T.T.I.I.U.U.P.U.P.I.J.J.U.U.~.U.U.^.U.T./.U.^././.T./.U.@X@X@X#X@XK.s a s d d h A F w.) ) ' f.[ P.#X/.T././.@X/././.I.I.J.J.G.U.H.J.!.U.U.^.H.U.H.H.^.H.!.H.!.J.H.^.^.!.!.U.U.U.^.H.f.g.f.G.g.f.g.h.g.f.g.D.f.h.f.f.f.h.[ [ [ [ [ _ ] ] ] ] ] ] _ _ W W T T T _ ] [ g.P.G.g.P.P.P.I.P.S.g.P.g.P.P.I.I.P.I.I.T.I.T.E.I.E.T.E./.E.T.T./.U./.E.I.T.U.E./.^././.E.E././.U.T.E.E.E.T.E.S.W P./.@XT.P.( ",
"( ( ( ( ( ( ( ( ( ( ( ( ( ( ( ( ( ( ( W ( ( ] { { ( } { f.F.G.H.H.U.H.U.U.G.G.U.J.F.F.J.G.f.F.U.G.H.F.g.F.G.U.U.I.P.G.P.G.J.U.^.T.U.P.U.I.T.U.^.I.I.I.I.U.U.^.U.~.U.U.U./.@X@X@X@XI.T.P.I.E.E.@X@Xs a d d d h S ) w.w.) M M } P./.E.T.I./.^./.T.I.T.U.J.G.U.J.F.F.G.H.H.J.J.H.H.^.^.J.U.U.^.^.^.^.^.H.H.U.U.U.U.U.F.f.f.f.g.f.f.f.h.f.g.g.f.h.h.h.g.g.h.{ [ { { o.] [ ] ] ] [ { { [ X.[ } [ { o.S.P.I.g.S.P.g.P.P.G.S.g.g.G.P.g.S.G.G.P.G.P.P.P.P.P.P.T.T.T.@XE.E.E.U.U.E.E./.E.U.U.E././.E.E.T.T.E.E.T./.E.E.S.W P./.@X@X@X@X@X",
"( ( V V ( ( ( ( ( ( ( ( ( ( ( ( ` ( ( ( ( [ p.f.G.G.I.h.p.f.F.G.H.H.F.U.G.H.H.H.J.H.J.F.J.J.U.H.F.F.F.F.G.U.J.P.U.P.J.I.U.G.I.^.U.J.I.^.U.^.U.U.T.T.I.I.P.U.J.U.U.^.^.~././.#XU.@XI.I.T.T.E.E.@X@Xg a d d d C S ) w.w.) ' ( V oX#X#X@XT.P.I.T./.I.P./.U.H.U.P.H.U.H.!.H.U.H.H.H.U.^.H.^.H.F.H.^.^.H.U.U.U.U.U.U.~.U.G.g.G.G.p.g.S.S.D.g.h.f.h.h.h.I.P.I.U.P.S.K.h.h.{ o.o.h.h.g.h.g.g.g.g.g.g.P.P.P.P.I.P.P.S.S.S.K.G.S.S.g.S.S.g.S.S.g.S.g.S.P.P.P.I.I.T.I.T.T.E.E.T.I.f.E.I.I./.E.#X@XU.T.I.T.T.T.E././.@XS.( E.T.@X@X#X@XE.#X",
"( W ( ( ( W ( ( ( ( ( ( ( ( ( ( ( ( _ [ { f.D.J.I.H.D.G.F.J.U.H.U.U.U.U.J.H.U.H.U.U.J.J.H.G.F.J.f.F.U.F.J.U.U.U.U.G.F.I.U.U.U.F.U.U.T.U.U.U.U.U.T.T.I.U.G.U.I.^.U.U.~././.@X@X@X/.@XT.T./.@X@X@XT.g a d d d A S ) w.w.) p.#Xo.h.&X@X@X#X#X@X#X~.T.U.I.H.^.U.J.F.J.G.H.^.^.J.U.U.H.H.H.^.H.H.U.^.!.H.H.U.U.U.U.U.^.I.g.g.F.g.g.P.S.I.P.g.g.f.D.h.f.P.G.G.P.I.T.I.S.S.g.h.h.f.g.f.g.S.G.S.P.I.P.P.S.S.P.P.S.G.I.S.P.P.P.P.T.P.P.I.S.f.S.S.S.g.K.P.P.I.P.P.T.T.I.T.T.T.T.@XE.E.T././././.@XE./.T.E.E.T./.@XT.S.} @X@X@X@X@X@X#X@XoX",
"V ( W W ( W ( ( ( ( ( ( ( ( ( ( _ } p.f.D.H.H.U.I.U.I.H.H.H.H.G.^.^.J.G.H.H.G.U.U.^.J.G.J.U.U.U.U.#X#XU.U.U.U.U.U.U.P.U.J.U.U.U.^.U.J.P./.U.^.U.U.I.U.I.I./.I.I.T.I.~././.@X@X@XT./.T././.E.E.T./.g s d d h A S ) w.w.) u.@X/.T.[ T.@X@X#X#X/.@XT.T./.^.U.J.f.J.U.F.G.U.J.H.H.H.U.J.U./.^.^.U.(.H.H.J.J.^.U.H.G.U.U.P.P.g.F.G.S.g.S.g.g.g.D.f.h.h.h.g.S.I.I.I.I.P.I.U.G.D.D.S.S.P.I.P.I.P.P.P.P.P.I.I.I.P.S.S.S.P.P.S.I.Y.P.S.g.P.g.S.P.S.S.S.S.S.I.P.P.P.I.S.E.T.I.E./.E.I.T.^./.@X@X#X#X#X@XE././.I.T.h.( E.#X@X#X@XE.@XE.@XoX",
"W ( ( ( ( W V ( ( ( ( W W ( ( [ ' p.f.f.H.J.J.H.J.H.H.U.H.J.H.U.G.J.F.U.U.U.F.G.G.G.J.U.H.U.U.J.U.J.U.J.U.U.I.J.U.U.I.^.I.^.P./.U.U.J.U.^.I.I.U.T.I.U.U.P.I.T./.T.I./.T./.@XT.@X@X@X~./.@X@X@X@XXXg s d d d A S F w.w.r.' T.E.@XoX] { E.#X#X/.@X/.^.T.I.J.G.F.J.G.F.U.^.^.^.^.^.^.^./.U.^.^.^.^.H.!.U.U.U.!.~.U./.I.T.G.G.G.G.g.S.g.g.h.g.h.g.g.h.S.D.P.I.P.T.T.T.^.^.T.J.J.G.G.T.P.P.I.P.I.P.P.P.P.P.S.P.S.P.I.S.S.g.P.P.S.g.g.g.S.P.P.P.g.P.g.g.K.P.S.I.I.S.I.T.I.T./.@XT.E.@X@X@X@XT././.@XE.@X/.I.p.( T.E.@X@XT.@X@X@XE.oXoX",
"W W ( ( V V V B ( V V V ( ( [ [ p.F.F.H.J.H.J.H.U.G.H.H.U.H.^.H.f.F.G.J.F.F.H.J.H.U.F.F.F.U.U.F.U.H.U.U.^.I.J.U.U.J.U./.U.U.U.T.^.^.I.U.I.G.~.U.T.~.T.I.I.T././.I./.T./.U.T./.U.T.#XT./.#X@X@X@XP.g s d d h A A F w.r.r.) #X#X@X@XI.h.` T.I.~.^.T.I.I.I.U.U.U.U.^.H.^.^.^.^.^.H.^.U.U.^.U.H.(./.U.G.H.J.G.U.~.U.^.I.U.G.g.g.P.h.S.g.P.S.S.S.I.P.f.h.g.f.I.I.E.E.^.U.T.U./.T.U.J.I.P.P.P.I.S.P.I.S.P.S.S.G.S.P.P.g.g.S.P.P.P.g.K.g.g.g.S.K.P.S.P.P.P.P.P.P.P.P.T.P.I.T.E.@XE.@X@X/.@X@XT.T.I.T.E.E.I.{ ( P.@X@X#X@X@XE.@XE.T.E.@X",
"W V V W W ( W ( ( W ( ( } p.p.f.G.G.H.H.f.J.F.J.H.G.H.H.H.H.H.H.H.H.H.F.F.F.U.U.H.G.H.U.!.!.^.J.U.!.^.^.U.U.J.P.U.^.U.U.U.U.~.U.^.^././.I.T.^./.T.U././.T.U.U./.~./.T.T./.I.~.T./.#X^.P.T.@XE.@Xg.g d d d h A A S w.r.r.F ~.#X@X#X@X@X#X} f.@X/./.^./.^./.^./.^.!.#X^.^.^.^.^.U.^.G.H././.^.U.U.U.J.G.U.J.f.U.^.T.^.I.G.f.g.g.h.h.{ S.P.G.P.P.g.h.h.S.g.U.U.E.@X/.U.T.@X/.@X/.E.I.P.P.P.P.S.S.P.P.P.S.P.P.P.P.S.S.G.P.K.P.K.S.S.P.P.P.g.S.S.K.S.S.P.P.P.I.P.P.S.I.T.T.T.T.T.E.@XE.T.oXE.E.T.E.T.S.[ [ @X@X#X#X@X#X@XE.E.T.E.E.E.",
"W ( W ( ( V V W W ( } [ f.F.G.G.J.H.J.H.J.H.F.F.J.G.J.J.G.F.H.U.H.J.G.f.J.H.J.H.G.F.U.J.U.H.U.U.U.H.U.^.U.T.U.U.T.U.U.^.U.U.U.U./.^.~././.T.P.U.I.U.U.T.T./.^.U.~.U./.T.T.U./././.@X@XU.@X@XT.@X} g s s d h h A S w.r.w.w.k.#X#X@X/./.@XP.p.} T.U.^./././.(.#X~.(.U.!.^./.^.(.^.(.^.^.H.H.U.~.U.F.J.T.T.P.I.T.T./././.P.F.h.h.g.g.S.P.P.P.P.P.S.G.f.S.P.I.T.T.@X@XE./.@X/.@X@XT.U.T.I.I.I.I.g.P.I.P.P.S.G.P.G.P.S.S.P.g.S.S.g.g.I.P.P.S.S.g.S.P.g.S.I.S.P.S.S.I.T.T.E.T.Y.I.E.T.oXT.E.E.E.E.P.S.( ( T.E./.@X#XE.E.T.E.@X@XoXT.@X",
"V V T V s V W ( } { p.p.G.H.J.J.F.J.F.J.J.^.F.J.H.H.F.F.U.U.^.H.H.G.F.F.U.J.U.G.J.U.!.U.!.U.U.U.G.U.^.^.I.U.U.U.U.^.U.^.~.U.U.U.T.T.@X~./.U.U.T.I.J.P.I.^.T./.U.I././.T.I.T.~.I./.T.@X#X@X@XT.P.B g s a d g h A S F w.w.w.u.#X#X#X#X/.~.@X(.G.` { I././.(.#X^.(.#X(.(.(.(.U./.^.^./.^.U./.!.U.!.f.U.J.U.T.T./.I.~.I.T.G.g.G.{ h.S.I.P.I.I.P.g.P.P.P.P.S.S.@XE.E.T.E.U.E././.E.#X@X/.T.I.T.T.S.S.I.T.I.P.g.S.P.I.S.S.g.g.g.g.P.P.P.S.g.P.I.K.P.S.P.g.I.P.g.g.g.g.P.T.Y.Y.P.P.I.P.Y.I.P.T.E.I.I.[ o.K.T.@X@X@XE.@XE.@XE.@XE.@XE.E.",
"( W V V s W } [ { p.f.F.F.J.F.F.F.F.J.F.F.J.F.F.G.F.F.H.J.F.J.F.U.G.U.U.U.f.U.F.U.^.!.U.U.U.G.F.U.!.U.J.U.I.^.U.U.^.T.T.I.U.T.U.P.I.T.T.U.I.U.U.U./.T./.T.U.U.~.T./.I./.T./.P.T.T.E.E./.@X@Xg.h.g g s s d g A S S w.r.w.w.u.#X#X(.(.(./.^.(.#X#Xp.[ /.#X/.@X/.#X#X#X#X(.(.^./.^.#X/.^.U.^.^./.U.U.J.U.I.I.I.T.I.T.T./.I.U.P.g.P.I.P.S.T.P.I.P.P.S.I.I.P.S.T.I.T.Y.T.E.E./.I.U./.@X@XE.E.E.E.T.I.I.T.E.G.I.I.g.P.g.g.S.g.P.S.S.g.g.K.S.S.S.P.g.K.S.K.P.K.S.h.h.h.P.P.Y.K.g.K.K.P.g.K.K.g.K.g.} o.I.T.I.oX@X@X@XE.E.E.T.E.T.T.T.T.",
"T B B T ( ` { f.F.F.J.J.J.J.F.p.F.F.F.F.J.F.F.G.F.F.J.J.H.J.H.J.H.J.F.F.p.( p.U.U.!.U.H.U.U.H.F.U.U.U.U.U.U.U.I.^.U.U.U././.U./.~.I.I.U.^.!.U.U.T.I.I.T.T.T.T.U.I./.T.T.U.~.U.U./.@XE.E.I.h./.T.g g s s d h A S F r.r.w.w.i.*X#X#X/.#X/.(.#X(./.@Xg.} P.^././.#X#X#X#X#X#X/.#X^.^././.^.^.!.@X/.U.G.I.T.T.T.~./././.U.T.g.f.g.P.G.I.P.P.I.P.S.P.G.S.P.P.P.S.I.I.E.E.@X@X@XE./.T.@X@X@X@X@XE.E.T.I.U.U.T.I.P.I.S.P.I.P.P.P.S.P.S.g.P.S.S.K.g.g.S.g.g.g.g.S.g.K.g.K.g.K.P.P.K.h.K.K.K.K.j.g.] h.Y.P.T.oXI.E.oXoXT.Y.T.E.E.I.T.P.I.",
"B B N ( { p.p.p.F.F.H.J.F.F.p.F.F.F.F.F.F.F.F.G.G.F.H.G.F.W.U.f.p.p.p.p.[ ( F.G.G.H.U.U.H.U.!.U.H.F.U.^.U.U.U.U.U.U.U.U.T.U.U.U.J.J.U.U.U.U.U.I.I.U.P.T.~.T.~.~./.T.U./.U.~.U.U.U.T.P.h.P.@X/./.B g s d d h A S ) r.t.r.r.k.(.#X#X/.#X/.#X/./.^.#X/.U.} { U.I./.#X(.(.#X(.(.#X^.!.^./.(.^.^.^.T.T.U.^.T.G.g.T./.T.P./.U.G.P.P.P.T.P.I.I.P.T.g.I.P.P.K.g.S.g.I.T.T./.E.E.@X@X@X/.@X@X@X@X@XE.E.T.E.T.I.P.I.P.S.g.S.G.S.P.P.S.K.K.P.P.P.S.S.S.S.S.S.g.K.S.g.g.S.S.g.K.h.g.g.K.g.g.h.j.h.j.} [ K.P.K.P.Y.P.Y.K.Y.Y.T.Y.T.oXY.K.R.P.",
"W W ( ] p.F.F.F.J.F.J.F.F.F.F.F.F.F.F.F.F.F.J.J.J.J.F.f.J.F.f.p.G.f.{ p.p.f.G.H.J.G.H.J.U.U.F.U.U.U.H.!.U.U.U.U.U.U.J.J.J.J.F.f.f.U.P.U.U.U.I.U.T.I.I.T.U.U.U.I.I.U.U.P.U.U.U.U.^.f.f./.T.T.E.@X[ d d d d h A S w.i.i.r.r.J.#X#X#X#X(.(./././.#X#X#X/.U.{ } T.@X#X#X(.(.(.#X/.(./.!.^.^.^.!.U.I.P.T.T./.P.I.T.I./.T.U.T.P.g.P.I.I.T.I.G.P.I.P.S.S.K.P.g.g.g.g.P.I.E.T.@X@XE.E.T.T.@X@X#X@X@X@X@XT.E.I.T.I.P.S.S.S.P.P.P.P.P.K.g.S.S.g.S.S.P.g.K.K.S.S.S.g.S.K.g.j.j.g.g.g.o.g.j.h.j.h._ [ j.o.K.j.R.R.j.P.R.P.Y.P.j.P.P.Y.P.P.Y.",
"} ' { p.F.J.J.H.F.J.F.F.J.J.F.F.F.F.p.p.F.F.J.F.G.J.J.G.J.p.p.F.p.p.F.H.F.F.H.f.f.f.f.J.J.J.F.J.U.U.U.U.U.H.U.U.J.U.J.f.F.p.p.U.T.T.U.U.^.U.P.U.T.T.I.U.I.P.G.U.I.^.U.P.I.P.P.P.f.f.@X@XK.( B 9 s d d d d h S S w.i.i.i.r.H.#X(.^./.(.(./.(.#X(.#X#X^.U.U.U.` g.#X^.(.^.^././.#X/.@X/.#X#X(.U.I.U.T./.P.U././././.~.~./.T.P.P.I.I.I.S.P.I.P.P.P.g.I.P.g.P.g.h.P.P.E.#X/./.^.*XE.@XE./.@X/.@XE.#XE.E.E.U.U.T.I.S.g.I.S.S.g.g.K.P.g.g.P.S.P.P.P.K.P.K.g.g.K.P.P.j.j.j.j.h.h.h.g.j.h.o.W ] o.j.j.j.K.K.j.j.K.Y.Y.Y.Y.R.R.g.P.T.K.K.",
"[ p.p.F.F.J.F.J.F.J.F.F.F.J.f.F.F.p.F.F.F.f.F.F.J.J.J.p.p.F.p.F.G.H.J.U.J.U.G.H.H.H.H.U.J.F.F.U.U.U.G.G.U.U.U.U.H.J.U.U.U.U.U.U.I.I.U.U.U.U.U.U.T.T./.~.U.I.U.P.~.T.U.J.P.P.p.h.I.T.E.] % - - ; A d A d g h A S w.r.i.i.r.J.(.(.(./.(.#X^.#X#X#X#X#X/.^.(.#X/.G.[ !.^./.^.^.#X#X^./.(.#X/./.U.U.T.I.U.I.~.T./.@X/./.^.T.T.I.P.I.P.I.I.I.I.I.P.P.g.P.I.P.P.g.S.P.P.I.T.E./.T././.E.E.E.E.@X@XE.@XE.P.@X/./.@XT.I.P.I.P.P.g.K.g.g.h.S.P.P.P.P.K.K.g.S.g.S.Y.K.K.j.j.j.h.j.o.X.o.o.o.W o.j.h.L.j.K.R.j.j.L.K.L.R.Y.R.P.R.P.K.Y.K.P.",
"p.F.F.F.F.J.J.p.F.F.F.F.F.J.f.p.F.J.F.F.F.F.J.F.F.G.F.p.F.J.F.G.F.U.J.F.H.J.H.H.H.U.F.U.H.f.G.F.G.H.J.J.G.U.U.H.U.U.P.U.J.J.U.U.I.U.U.~.U.U.^.U.T.T.T./.^.^.U.U./.U.U.U.G.[ g.U.I.U.h.- ; ; ; g D A S A A A S S w.t.i.i.r.(.#X(.#X^.(.(.(.(.(./.#X#X#X#X(././.#XT.( f.@X/.#X#X#X@X#X#X@X^././.^.~.I.P.P.P.T.I./.T.@X^.T.P.I.T.T.P.I.P.I.I.P.I.S.P.P.P.P.S.I.g.P.P.I.I.T.E.I.@XE.@X/.E.T.E.E.T.E.@X#X@XE.E.E./.@XI.I.I.P.I.P.S.S.S.P.P.S.P.P.S.K.P.P.g.g.h.K.j.g.K.K.h.h.h.X.o.X.W ] j.j.j.L.j.j.L.L.j.j.h.j.L.K.P.R.K.Y.P.R.P.Y.",
"p._.F.F.F.F.F.F.F.p.p.F.F.F.F.F.p.F.F.F.F.F.F.p.p.H.J.F.G.G.G.F.F.F.J.F.F.H.H.F.H.U.U.U.G.J.H.U.G.J.J.p.U.U.U.P.J.I.U.J.U.P.U.G.f.J.U.U.U.U.U.P.^.U.I.U.~.U.U.U.J.P.F.[ h.F.D.f.f.D.B 4 4 4 4 D S S F S S F F ,.w.r.i.t.r.(.#X#X(.#X(.^.(.#X(.#X/.#X#X*X#X/.#X#X#X@Xg.[ @X/.#X#X#X@X#X#X@XI.P.T.^.U.P.U.P.I./.~.T./.T.T.I.P.P.I.T.T.T.I.T.P.S.K.P.P.P.g.K.P.g.S.P.P.P.Y.I.I.I.T.@X@XT.@X@X@XE.T.E.@X@XE.T././.@XT.E.E.P.I.P.S.S.P.T.I.P.P.K.S.P.Y.P.P.P.Y.I.E.@Xh.K.j.j.h.o._ V [ h.g.j.j.L.j.j.h.j.L.L.j.L.j.h.K.K.K.K.P.K.Y.Y.",
"F._.F.F.p.F.p.F.F.p.F.F.F.F.F.F.p.p.p.F.F.H.f.p.F.G.F.F.f.J.F.F.G.f.U.H.J.G.J.H.U.U.H.U.U.H.J.G.J.U.F.f.J.J.J.G.H.U.J.J.U.P.G.g.F.U.I.U.~.T.!.U.^.U.P.P.J.f.U.J.F.p.' g.J.f.f.f.F.g.7 > 4 4 7 ) S S F S S ,.w.w.w.r.t.r.r.(.#X#X#X(.^./.(.(.(.^./.#X#X#X#X/.#X#X#X#X#XT._ P.#X#X#X#X@X#X/.T.T.T.P.I.U.T.T.I.@XT.T./.T.I.T.T.P.P.I.S.E.I.I.T.T.S.I.P.P.g.h.S.I.P.P.K.P.g.T.T.T.E.E.@XE.@XoXE.Y.T.I.@XE.E.I.U.E.T.E.@X@XT.T.P.Y.T.T.I.g.P.P.P.Y.S.P.Y.Y.S.P.P.P.g.j.K.j.j.j.X.B X.h.h.j.j.j.j.j.L.j.K.L.K.L.L.j.j.K.L.P.P.K.L.Y.Y.",
"_._.p.p.F.F.F.J.J.F.p.F.F.F.p.p.p.p.F.J.F.F.F.F.p.F.F.F.F.U.J.J.G.f.f.F.J.F.G.G.f.G.F.f.U.U.H.F.f.p.f.F.F.J.H.J.J.J.G.H.U.f.J.G.J.J.G.U.P.P.P.U.J.P.J.J.U.I.G.F.{ p.T.U.G.F.f.f.f.S.> > > , s ) S S S S S w.w.w.r.t.t.t.r.(.(.^.(.(.^.(.(.#X#X#X#X#X#X#X#X/.#X#X#X(.#X#X#X[ { /././.#X#X/./.@XT.~.I.U.I.I.I.T.T.P.T.T.T.T.I.I.P.E.I.P.T.T.E.I.P.T.I.I.P.P.g.S.P.P.P.P.P.P.E.oXE.Y.T.E.T.T.T.E.T.I.Y.T.U.U.P.T.T.@X@X#X@XI.I.@XE.T.T.T.I.P.P.P.I.T.Y.Y.K.P.S.K.K.K.K.K.j.[ ( o.j.K.j.j.K.K.h.h.j.K.K.L.L.j.j.L.L.K.L.K.K.K.K.Y.K.",
"p.s.p.F.F.F.F.J.p.F.F.p.p.F.F.p.p.p.F.F.p.F.F.F.F.p.F.F.f.G.J.H.G.f.f.p.f.f.f.H.F.f.F.J.U.F.H.f.F.J.J.J.J.F.G.U.U.J.G.F.F.F.J.J.J.J.J.I.H.G.G.U.P.U.U.^.U.G.p.[ f.I.I.P.H.F.G.f.f.f.> 7 9 a B D S S S S F w.w.r.t.t.t.r.t.(.(.(.(.(.(.(.(.#X#X(.#X^./././.^.(.#X#X#X@X#X@X@Xg.` P.@X@X#X#X/./.T.@X/./.~.I.I.T.T.T.T.T.P.I.I.I.P.T.I.T.E.P.T.T.T.T.I.I.T.I.P.g.g.P.g.S.T.I.I.I.E.T.I.T.E.T.E.T.P.I.P.I.P.I.T.T.T.E.E.@XE.E.E.@X#X@X@XE.@X@X@XT.oXT.T.oXY.K.P.P.P.P.j.h.o.W j.K.j.j.K.j.j.K.L.K.K.L.L.L.j.j.L.L.K.L.L.j.K.K.L.j.j.",
"J.F._.F.p.p.p.F.F.p.p.p.p.p.p.F.F.F.F.p.p.p.p.F.F.p.p.F.p.F.F.F.F.F.G.H.F.J.H.H.H.H.J.U.G.F.U.G.F.J.G.P.J.F.U.J.U.F.G.f.F.F.G.F.J.J.P.U.G.J.U.J.G.P.J.P.G.[ p.U.U.H.H.G.H.H.H.F.f.f., > > 4 B A S S S F F w.w.r.t.i.t.r.t.^.^.(.(.#X(.(.#X(.#X#X/././././.#X#X/.#X#X@X#X#X#X@XT.[ { ~.@X/.@X@X#X/.#XT.~.T./.T.@XE.T.E.T.I.I.I.P.G.I.E.E.T.I.P.I.I.I.T.Y.P.T.P.S.g.P.I.P.P.g.I.T.T.T.Y.T.T.T.T.P.T.E.I.U.T.E.T.@XE.@X@X/.E.@X@X@X@X@X#X#X@X@X@X@XoXoXY.I.P.K.P.K.g.j.} ( L.R.L.L.L.K.K.j.K.L.L.L.L.j.j.j.K.K.j.K.j.L.j.K.j.j.j.j.",
"F._.F.F.F.s.p.F.F.p.F.F.F.p.p.F.F.p.p.p.F.p.p.F.p.F.p.F.p.D.p.F.F.G.F.F.H.J.J.f.G.U.U.H.H.G.J.F.f.H.H.J.F.F.U.U.H.F.G.F.f.F.J.F.J.f.U.G.P.I.U.J.U.G.F.f.' G.P.U.U.U.!.G.H.U.H.G.F.{ 7 9 f 9 A A S S S F F w.r.t.i.i.t.r.r.~.!.(.(.#X(.(././.(.#X(.^.U./.#X#X#X#X#X#X#X@X/.I.@X/.T.g.` P.I.T./.#X~.@X~.T.T.T.T.@X@XI.E.I.T.P.E.T.I.I.T.I.T.I.E.I.E.I.T.P.g.P.P.I.I.K.P.I.I.T.T.I.I.@X@XT.T.P.T.I.I.S.I.T.T.I.E.@X/.E.@X@X@X@XP.@X@X@X@X#X@X@X@XE.T.Y.R.Y.T.P.P.P.j.[ ( j.j.K.K.K.K.L.j.j.K.h.j.j.L.K.L.o.j.j.L.L.j.L.j.j.h.K.j.j.",
"F.F.F.p.F.F.F.p.p.F.F.F.F.F.p.p.p.p.u.p.p.p.F.p.p.F.p.p.p.f.F.F.F.H.G.F.H.G.F.G.G.G.U.F.G.F.f.J.J.F.F.I.U.P.J.F.J.U.P.U.P.U.J.G.G.J.F.J.P.G.P.G.J.F.[ p.g.F.G.U.U.H.U.U.H.J.G.f.p.[ 7 4 7 > D S S S F ,.,.,.r.t.t.i.r.r.r.!.(./.(.(.(.(.#X(./.(.(.#X^./.@X#X@X@X/./././.#X@X/.T.#X@XT.` h.T.@X@XT./.T.T.T.T.T.I.T.E.E.T.T.T.E.P.T.T.I.T.I.Y.T.T.E.I.T.P.P.P.P.I.E.P.I.P.T.T.I.T.I.@X@X@XT.E.T.P.P.G.I.T.T.P.T.T.T.E.E.T.T.@X@X@X#X#X#X#X#XE.oXT.T.T.T.T.Y.P.P.I.o._ P.Y.g.K.K.Y.j.Y.K.h.L.j.j.j.L.j.j.o.j.K.L.L.K.K.L.j.j.j.j.K.",
"F.p.F.F.F.F.p.p.p.p.p.p.p.F.F.p.p.p.p.p.F.p.F.F.F.p.f.p.p.p.D.F.F.F.F.F.H.H.G.G.F.F.J.F.U.U.f.F.P.U.I.g.P.J.f.U.G.F.U.U.I.~.U.H.G.F.P.U.J.J.J.F.u.' f.G.G.U.J.J.H.H.U.U.H.H.F.f.{ } 9 9 f , F A A S F w.w.w.w.t.t.i.r.w.r.G.^.(././.(.^.(.(./.^.^.#X/.#X#X#X#X#X@X/.@X/./.~.@XT.U.^.T.T.{ ( P.T./.P.I.T.T.T.@XT.I.@XE.I.E.E.I.P.I.g.T.T.P.P.P.I.P.I.T.Y.I.P.h.P.S.I.I.T.P.P.Y.P.T.oX#X@XT.I.T.P.P.P.T.T.I.T.E.E.T.P.T.T.T.@X@X#X$X@X@XoXT.@X@XT.T.Y.Y.Y.Y.Y.Y.[ ( K.Y.Y.Y.R.R.K.Y.K.R.K.Y.K.L.L.L.L.j.h.j.j.L.L.K.j.j.K.K.L.K.K.",
"F._._.F.p.F.p.J.F.F.F.F.p.p.F.p.p.p.p.p.F.F.F.p.p.f.F.p.f.f.p.f.G.F.F.G.F.F.J.J.G.H.J.F.f.J.J.F.G.J.G.J.J.J.U.J.J.U.U.U.^.P.U.P.J.G.P.G.F.G.f.' f.J.J.J.F.H.U.G.H.U.U.!.H.G.F.f.p.{ f , > s S A A S F ,.w.w.w.r.t.t.r.r.r.F.H.^.^.(.(.(.#X#X(./.^.@X/.~.@X#X#X#X#XU.^././.U.T.T./.U.I.~.T.T.( h.T.~.@X/.T.T.T.T.I.T.E.T.@XT.I.P.g.P.T.P.I.P.P.T.P.P.P.K.P.P.S.P.P.P.I.P.P.P.P.T.T.T.T.E.E.T.P.I.T.I.I.I.I.E.T.I.T.Y.T.I.I.E.@X@X#X@X@X@X@XT.T.Y.Y.K.P.K.P.Y.{ ] P.K.Y.Y.Y.Y.K.L.K.j.L.L.K.j.j.j.j.j.j.j.j.h.j.K.j.o.h.L.L.K.K.j.",
"F.s.p.p.F.F.F.F.D.p.F.F.F.F.F.p.p.p.p.F.p.' p.p.p.p.F.F.p.p.F.F.f.G.G.D.f.F.f.G.J.J.J.F.f.f.F.F.F.f.P.J.F.U.G.J.U.U.U.U.J.G.U.P.P.G.J.f.J.p.[ f.F.F.J.D.J.U.U.H.H.U.U.H.G.F.p.F.p.[ > & $ M A C A S ,.w.w.w.w.r.t.i.t.r.t.' H.F.H.^.^.(.#X/.^.~./.#X/.@X/./.@X#X/./././.^.@XP./.^.P.~.I.P.P.P.[ ( T.@X/.@XT.T.T.T.I.I.T.T.T.I.I.S.I.T.S.I.P.I.P.P.P.K.P.T.T.P.S.I.P.S.P.P.P.P.S.T.T.T.E.E.T.T.T.T.T.T.T.P.T.T.T.E.E.I.@X@X@XE.@X@XoXT.Y.P.T.T.Y.P.R.Y.P.T.o.} T.T.Y.R.XXT.Y.Y.R.Y.K.L.L.L.L.L.j.j.L.L.K.L.K.K.L.j.j.j.j.j.K.K.K.",
"F.F._.p.p._.p.p.p.p.p.F.F.p.F.u.p.p.p.u.' p.p.F.p.f.F.p.F.F.G.G.F.F.G.H.F.f.f.G.H.J.G.F.J.H.J.f.f.J.U.H.G.H.F.H.U.J.U.U.U.J.U.P.G.J.G.f.' f.F.J.f.f.G.J.H.U.U.H.U.H.H.H.G.G.F.F.{ } > $ & s g g S S w.w.w.w.w.w.r.i.y.r.r.g ' f.G.^.!./.#X/././.^./././.I./.#X#X@X/./.#X^./.J./.@XI.U.U.I.I.I.P.G._ g.T.~.T.I.I.I.I.g.I.E.T.I.I.I.T.I.I.P.G.T.I.I.T.T.P.S.S.I.P.P.P.P.g.P.S.P.P.T.P.I.P.E.@XE.T.T.I.T.@XI.Y.T.E.E.@XE.@XE.T.oXE.@XT.T.Y.P.Y.P.P.K.I.Y.K.o.{ T.T.Y.T.Y.XXY.R.K.K.K.Y.Y.Y.R.j.K.K.j.o.L.R.R.K.K.K.j.j.j.j.j.L.K.R.",
"F.F._.F.p.F._.F.F.p.p.' ' ' ' ' ' ' ' p.p.F.F.F.F.F.F.F.G.F.J.F.F.G.F.F.F.G.f.G.G.G.F.G.G.f.F.J.f.G.J.J.G.F.F.H.U.U.^.U.U.U.J.U.U.G.p.[ f.J.J.H.U.J.U.U.U.H.J.U.U.U.U.H.G.G.F.p.{ [ > $ f + - , A S w.w.w.r.w.,.w.i.i.r.F 7 [ F.G.G.G.^./.(.^.^.^.@X#XU.~.^.#X@X/.@X#X#X@X/./.@X/.T./.~.I.~.T.T.T.T.[ [ T.U.T.U.E./.T.T./.@XT.P.T.I.I.P.g.S.S.I.P.I.P.S.I.P.P.P.P.S.h.g.P.h.P.T.Y.Y.Y.Y.T.I.E.T.T.T.T.oXE.T.@X@XoXT.T.T.T.T.T.@X@XT.I.I.K.P.T.T.K.j.Y.[ [ K.P.T.Y.@XoXT.oXXXR.R.XXXXL.L.R.L.L.j.R.j.j.j.K.L.L.K.K.K.R.L.L.j.j.j.",
"_.p.F.J.F.F.F._.p.p.F.p.' s.s.' ' ) ' p.p.p.f.F.F.F.F.F.G.G.H.F.J.F.F.H.G.F.f.J.G.F.F.F.U.J.U.G.J.J.G.F.F.P.U.U.U.U.U.U.U.U.U.U.F.p.f.U.U.J.H.H.G.G.U.!.U.^.U.!.U.H.G.G.G.F.p.f.p.[ ; > O.W q ; ; g ) r.w.w.w.,.,.i.a.t.g 7 [ f.f.F.F.F.J.^.^.^.U./.U./.@X@X/.~.#X#X#X#X#X/./.@X@X~././.^.^.I.T.T.I.I.h.W g.T.T.@XT.I.I.@X/.@XT.T.T.S.P.Y.T.Y.P.I.I.P.P.P.P.P.P.g.I.P.K.P.h.K.P.P.Y.Y.P.Y.I.T.T.E.E.T.T.#XT.E.oXE.@XT.T.oXT.T.E.T.T.T.Y.Y.Y.Y.Y.Y.Y.o.[ Y.Y.K.oXT.E.oXoXY.XXY.L.R.L.K.K.L.R.L.L.L.L.K.L.L.L.L.K.K.L.K.K.j.L.L.j.",
"F.F.F.F.F.F.p.p.p.p.F.p.' ' ' ' ' ' ' p.p.F.F.F.p.F.J.F.G.J.G.F.J.J.H.G.H.J.J.G.f.J.J.F.U.U.J.P.J.G.G.g.U.P.U.U.^.~./.^.U.T.G.p.f.~.U.U.U.U.G.F.G.p.f.H.U.!.^.U.H.H.H.H.f.F.f.p.p.{ & & & f O.L.T ; , ) t.w.t.r.w.i.a.w., 4 [ G.F.F.H.f.F.G.U././././.@XT.^.@XT././.@X@X#X#X/./.#X~.@X/.T.U./.^.E.U.U.T.I.} { P.T.@XT.T.T.T.E.T.I.T.T.P.I.T.@XI.T.E.I.I.S.P.P.S.I.P.P.P.Y.K.g.K.Y.P.K.K.I.P.E.P.E.@XE.@X@XT.E.I.@X@X@XI.I.T.T.Y.P.Y.Y.T.Y.Y.Y.Y.g.[ o.T.T.R.T.T.E.@X@XXXXXY.T.Y.K.Y.L.K.L.L.L.L.L.R.K.L.Y.L.L.L.L.L.L.L.L.L.j.j.",
"_._._.F.F.F.F.F.p.p.F.p.' u.p.' ' s.p.p.F.F.G.F.F.G.G.H.U.H.G.G.U.J.F.G.J.G.H.J.F.J.H.G.U.I.U.G.J.P.J.J.T.^.U.^./.U.^./.U.g.p.G.U.U.T.T.U.J.G.U.U.H.H.G.H.U.U.U.H.H.G.H.F.f.p.f.p.{ % + > - + 8 ^ 6 ; ; A w.t.t.r.i.a.g ; 4 _ g.f.F.F.g.f.f.G.I.T.@X~.U.T.T.T.T././././.^.U./.~.@X^.U./.@X#X^.I.I.P.I.P.U.I.h.( I.E.T./.#XE.@XE.I.S.T.E.T.@XT.T.T.T.T.T.I.P.S.P.P.S.P.Y.K.g.P.P.P.I.g.Y.T.oXY.E.I.I.E.#X@XE.@XoXT.@XoXT.oXT.Y.P.j.K.Y.Y.T.T.Y.g.] ` P.@XoXE.T.E.T.oXY.oXoXY.Y.XXoXL.Y.L.L.L.L.L.R.L.R.L.K.L.j.L.K.K.L.L.h.j.K.R.",
"F.F.F.F.F.F.F.F.F.F.F.p.p.D.F.F.F.G.f.f.F.F.p.F.H.G.F.G.H.F.F.G.G.H.F.G.J.F.G.J.J.U.U.U.I.J.f.J.J.~.P.U.U./.^.^.U.U.I.J.f.f.U.J.T.^.U.T.^.I.^.U.U.U.H.H.H.U.F.H.J.G.F.F.J.F.p.p.p.[ o , g 7 6 ; > 4 6 ; > M r.t.t.i.) ; ; 4 W F.f.f.f.g.G.F.f.g.G.I.I.F.T.^./.T.U.@X/.@X@XU.I.I.T.P.T.#X@X@X@X/.E.T.P.I.I.P.G.g.B [ T.T.@X@XE.E.I.Y.T.T.E.T.@XI.I.T.Y.E.P.I.P.P.S.P.K.K.S.P.P.P.g.P.P.I.S.Y.T.I.I.I.T.E.@X@X@X@X@X@XoXT.Y.T.Y.P.P.P.P.Y.Y.P.g.] o.Y.T.Y.T.@XoXoXoXoXP.oXXXXXK.XXY.XXY.Y.Y.K.L.R.Y.R.Y.Y.K.L.j.L.K.L.L.j.j.L.j.j.",
"F.F.F.F.F.p.F.F.p.F.F.F.F.F.F.F.F.F.F.F.G.F.f.G.G.f.G.J.G.G.G.G.J.U.J.F.H.U.H.U.U.^.^.T.U.J.U.U.I.J.U.U.U.I.~.U.U.U.f.{ P.U.^.^.P.U.@X#X^.^.^.U.G.U.G.U.U.H.H.H.G.G.F.F.G.J.f.f.p.` & g ) B B 7 > 6 6 6 > > B i.r.r., ; 8 8 ' f.f.F.f.g.p.p.g.f.g.g.P.U.~./.~./.@X^./.~./.T.P.I.@X/././././.@X@X@X/.T././.T.P.P.g.] ] T.T.E.E./.E.I.P.T.I.K.T.I.E.I.I.E.P.P.I.S.I.I.I.g.P.K.K.Y.P.P.Y.P.P.P.T.I.E.Y.T.I.T.@X@X@X@X@X@XE.T.T.P.P.K.K.P.h.Y.j.[ h.Y.oXT.Y.oXE.oXT.T.T.T.Y.oXY.oXY.Y.oXj.L.Y.Y.R.L.Y.Y.L.R.j.L.K.j.K.K.L.L.j.L.L.j.",
"J.J.J.J.H.J.F.p.F.p.p.F.W.H.F.F.F.F.H.F.G.G.F.H.J.D.J.G.F.F.H.J.J.U.U.U.U.U.U.!.U.U./.U.^.J.U.P.J.^.U.U.U.U.U.U.U.u.g./././././.^.U././././.U.U.!.!.G.G.H.H.J.G.G.G.G.F.F.G.H.f.p.` # A w.w.u.( s 7 > 6 4 4 7 A r.D & 6 8 B p.J.F.J.f.f.F.f.h.g.g.g.f.F.G.I./././.^./.@X/././.I./.T./.T./.#X~././.@XT.E.I.I.T.I.P.K.{ ( g.T.E.@XU.T.T.T.I.I.T.P.T.@XE.T.I.Y.T.T.I.P.K.P.P.P.K.Y.T.K.K.P.I.P.T.T.E.E.T.E.oX@X@X@X@X@XT.E.T.T.Y.j.K.K.g.K.g.[ g.Y.Y.oXXXoXoXT.T.Y.T.oXY.R.@XXXoXoXXXY.Y.Y.Y.L.Y.Y.K.oXL.L.j.K.Y.Y.L.L.K.L.L.j.j.K.",
"H.H.H.H.J.J.p.F.F.F.G.F.H.J.H.F.F.F.F.H.J.G.F.} F.J.J.G.F.J.H.F.H.H.U.U.J.U.U.U.^.F.U.U.T.U.U.J.U.I./.I.U.G.U.h.f.J.^.@X#X@XT./.^.@X^./.!.^.^./.!.H.f.H.H.F.F.F.G.H.f.f.F.H.F.p.h.W ; ) r.i.w.) ) A s 7 > 5 7 7 B 7 ; 4 7 i.p.F.f.f.J.F.f.f.f.P.G.G.f.f.G.I.~././././.T.U.T.U.T.P.I./.T.@X^.T.@X~./.E.T.T.^.~.U.P.I.S.K.{ { E././.T.I.I.I.P.T.I.@XE.T.P.P.I.T.P.P.P.S.P.g.P.K.K.Y.P.P.K.P.P.P.P.I.T.I.T.@XT.@X@XoXoXI.T.T.Y.Y.Y.R.j.Y.h.} h.XX@X@X@XT.oXoXT.E.Y.oX@XoXXXY.Y.Y.XXXXXXY.Y.Y.XXL.Y.R.Y.Y.L.L.R.L.K.L.L.K.L.R.L.L.K.",
"p.J.H.F.J.J.F.J.G.F.F.f.F.J.F.F.F.J.H.H.U.G.G.J.G.G.G.G.U.F.f.G.U.J.U.U.U.^.^.^.^.^.U.U.U.T.J.P.U.~.P.U.U.J.{ g.I.^.@X#X#X/./././.#X/./.T.U.^.~.U.U.H.H.H.U.H.H.f.U.G.f.H.H.J.f.{ B ; w.w.t.r.w.w.) ) A 7 6 8 8 6 & 2 4 ) l.a.p.H.F.H.f.f.G.F.g.P.g.g.G.g.F.P.T.T./.T.U.T./.U.^.U.~.T./././.U.U.I.P.T./.I.P.T.U.^.I.U.T.T.g.( g.I.T.T.T.I.I.I.T.@XT.I.Y.T.P.P.Y.T.P.I.I.P.P.K.K.Y.P.Y.K.K.P.Y.T.P.T.T.E.oXE.@X@X@XoXT.Y.g.Y.Y.XXY.K.g.} j.T.Y.oXoXT.Y.Y.Y.P.@XE.oXoXY.XX@XXXY.XXoXXXL.Y.XXXXXXK.Y.L.Y.XXXXL.K.L.j.j.L.R.L.j.K.j.",
"J.J.J.J.J.F.F.F.J.F.H.!.U.U.F.H.U.H.J.J.F.H.G.H.J.F.G.J.U.J.G.J.U.J.U.f.U.I.U.^.^.~.U.U.^./.^.^.U.G.g.g.f.f.U.P.I.U.^.(././.#X#X~./.#X^./.!.^.U.U.!.H.P.H.!.U.H.G.U.J.F.J.G.f.f.{ N 7 F ,.r.r.r.w.,.r.r.A f 4 0 4 1 ; s a.l.a.k.H.J.J.J.f.F.I.P.G.g.G.G.G.G.g.g.I./.!.U.~.P.G.g.I.P.^./.T.T.I.P.U.I.I.I.I././.T.U.T.T.U.^.I.T.( [ T.E.E.I.I.P.T.E.T.T.T.T.T.T.T.T.K.P.Y.Y.P.I.P.K.Y.K.P.K.Y.Y.Y.I.Y.oX@XT.@XE.T.@XoXT.T.T.T.Y.K.j.h.] j.T.Y.Y.Y.T.T.Y.oXoXP.oXY.T.oXT.oXoXXXT.XXXXXXoXY.Y.XXY.Y.XXY.XXY.R.j.Y.Y.j.j.L.R.R.K.K.K.",
"F.F.J.H.J.F.p.F.G.H.^.J.J.J.U.F.U.H.F.f.G.G.H.U.H.G.H.W.J.J.U.J.J.J.U.U.U.U.U.^.U.T.U.U.^.U.^.U.F.J.f.[ { T.U.I.U.U.T.^./.^./.#X@X/././.^.U.~.U.^.^.U.H.U.H.U.U.H.G.H.G.f.F.f.h.{ N s F ,.r.t.r.,.,.r.t.w.B f 4 0 2 ; D a.).a.k.G.f.F.J.g.g.P.g.P.G.g.P.P.G.g.P.P.g.T.^.P.G.U.G.U.U./.U.T.~.I.T.T.T.T.U.~.U.^.T.T.T.T.I./.T.I.I.h.( P.T.I.T.T.T.P.T.I.T.T.oXT.T.E.Y.T.T.P.P.K.Y.g.K.P.K.g.P.P.Y.T.I.T.@XE.E.@X@XoXoXoXI.Y.Y.P.R.h.] j.R.oXT.oXT.T.K.P.P.oXT.oXY.P.T.oXK.oXoXoXR.R.Y.oXY.oXXXXXXXL.Y.Y.L.Y.K.L.Y.j.R.R.K.L.Y.L.L.",
"p.J.F.J.F.G.F.J.F.J.H.H.H.G.G.G.H.J.H.H.G.H.J.H.H.G.F.G.F.G.J.G.f.J.J.U.U.U.U.U.U.I.U.U.~.U.U.U.J.f.f.I.U.I.T.I.P.g.~././././././.#X@X^.U.J.U.^.U.^.H.H.J.f.H.U.U.^.G.U.f.f.f.p.{ f 9 D S F t.r.w.w.t.i.r.u.` 7 w 2 7 w.d.l.a.p.G.G.J.G.F.J.G.P.g.G.f.G.g.g.S.h.g.f.F.P.J.I.G.P.P.G.I.U.U.U.T.P.P.I.U.U.^.T.P.U.P.P.I./.U./.I.I.I.P.( o.T.P.I.T.T.P.T.T.T.oXI.Y.I.I.P.T.P.Y.Y.Y.Y.h.Y.P.P.P.Y.E.E.T.oXoXoXT.oXoX@XE.E.P.T.T.Y.R.[ j.Y.Y.oXY.T.oXP.R.Y.R.Y.XXXXXXXXY.XXP.XXXXY.R.K.R.oXoXXXY.XXXXK.R.Y.R.Y.Y.R.Y.L.Y.L.L.L.L.Y.L.",
"s D f.J.F.p.H.J.J.H.H.H.J.J.F.H.U.F.H.H.U.H.f.F.G.G.F.H.J.U.G.F.H.U.J.H.F.J.H.U.P.I.T.U.I.I.!.U.h.P.U.U.U.U.T.T.I.T.#X#X/.@X/.@X(./.^.U.~.P.J.J.U.U.J.(.!.U.U.U.U.G.F.U.J.J.F.p.{ f 6 A S ,.y.w.,.w.r.t.i.y.r.B 2 6 s w.d.d.a.F.k.H.G.F.F.G.P.G.G.T.P.g.g.g.g.g.f.g.g.f.f.P.P.P.T.T.T./.U.G.P.U.P.T.I.J.J.J.P.U.T.P.I.I.T.E.U.E.@XT.T.o.} D.G.P.K.T.T.I.S.Y.P.Y.I.E.Y.P.Y.Y.T.P.Y.K.P.K.K.K.P.Y.Y.T.T.T.oX#XoXE.E.E.E.Y.T.oXK.] R.XXXXXXR.R.Y.Y.K.Y.Y.Y.Y.Y.T.Y.Y.Y.K.T.XXR.K.R.j.Y.oXoXXXXXoXoXY.K.XXoXY.Y.Y.XXR.Y.L.Y.R.L.L.L.",
"} M p.G.U.F.J.J.H.H.^.W.H.H.H.U.U.G.U.H.U.J.H.H.H.F.G.f.G.F.G.F.F.J.U.U.U.U.U.J.P.U.^.G.I.G.f.G.P.T.U.U.U.U./.^././.#X#X/.#X/.#XU.P.I.J.E.P.U.U.^.~.~.U.U.^.H.H.U.U.U.U.U.U.F.f.{ f 6 s S ,.a.,.S w.w.r.y.y.i.F 9 2 g w.a.d.a.k.G.J.F.g.f.g.P.P.I.S.I.S.P.P.G.g.G.P.g.f.h.g.f.G.P.P./.^.T.T.U./.U.U.T.I.U.U.G.T.I.I.T.T././.G.E.@XE.T.T.P.( o.f.P.T.E.T.I.T.K.P.@X@XT.T.oXT.Y.K.Y.Y.P.K.K.K.Y.Y.K.T.Y.T.T.T.oXE.T.I.T.E.T.K.] K.L.R.Y.K.XXXXoXY.R.XXoXR.R.T.oXT.Y.Y.R.T.Y.Y.K.oXY.K.Y.Y.XXoXoXoXY.K.XXY.XXL.Y.XXY.XXoXXXK.L.R.L.",
"D.) N p.G.G.G.H.U.U.^.J.G.H.H.I.H.H.J.J.U.G.G.F.F.H.U.F.U.U.g.J.J.J.J.G.J.J.U.^.I.U.G.I.g.{ P.T.T.I.I.T.^.I././.T.T././.@X/.@X#XT.P.U.U.F.U.J.U.U.~.T.U.^.^.U.J.U.G.J.^.G.f.G.f.p.f 4 & h ,.a.r.S F ,.F t.r.t.r.M % g F y.y.r.u.F.F.F.G.G.G.g.P.P.P.P.g.P.P.P.G.P.P.g.g.g.g.g.f.P.P.I.P.I.I.P.I.U.T.P.p.U.~./././././.T.T.U.E.@X/.@X@X@XE.I.{ ( P.Y.I.T.Y.T.T.I.E.T.P.T.Y.Y.I.T.Y.Y.P.P.oXK.T.T.Y.I.T.T.T.T.T.T.T.Y.T.Y.g.} j.Y.Y.Y.Y.L.oXY.I.T.Y.oXXXR.Y.Y.T.Y.L.Y.Y.Y.K.j.oXoXXXXXY.Y.oXY.Y.K.Y.Y.oXoXY.Y.L.Y.XXR.L.oXoXY.XXY.",
"f.D.s V f.F.^.H.U.H.H.J.J.U.H.I.G.J.F.G.H.J.G.G.G.U.U.F.F.G.G.U.J.f.F.U.U.U.U.J.U.P.f.h.P.I.U.^.T.^.U./.U.~./.I.U././././.E./.^.T.I.^.^.!./.^.U.^.U.^.^.^.^.U.H.U.U.U.H.H.J.f.f.{ f 8 & , F a.r.F ,.Z C F G S F F ; a F t.1.F ' J.F.g.f.G.g.g.P.P.g.g.P.P.P.P.P.T.K.g.g.g.h.g.h.g.G.G.g.G.U.T.P.P.I.U.g.P.U.U.^.^./.@XT.I.@X/.#X#X#X#X#X/.T.T.S.( { Y.T.P.T.T.Y.E./.Y.I.T.Y.T.oXK.Y.P.I.T.K.P.T.I.I.T.P.T.T.T.T.oXoXT.h.o.K.Y.oXXXY.Y.XXY.Y.T.Y.Y.oXK.Y.P.Y.Y.Y.R.K.Y.Y.Y.Y.Y.oXY.Y.XXXXY.Y.XXK.Y.Y.oXY.XXXXXXL.R.Y.Y.XXXXY.XXXX"
};
