/* XPM */
static char *c594e8d33c8f4cfdad3c879e195b368fYkZtT3B5KCil2T6g[] = {
/* columns rows colors chars-per-pixel */
"256 455 256 2 ",
"   c #09060A",
".  c #0C090D",
"X  c #090506",
"o  c #110C0D",
"O  c #170B06",
"+  c #1B120C",
"@  c #120D11",
"#  c #180F15",
"$  c #151213",
"%  c #1D1A1B",
"&  c #1B1616",
"*  c #0E0C10",
"=  c #25160C",
"-  c #241A13",
";  c #261C18",
":  c #311A0D",
">  c #29231B",
",  c #36261B",
"<  c #3A2710",
"1  c #221C22",
"2  c #3D1C26",
"3  c #2B2A25",
"4  c #2C2D2A",
"5  c #272524",
"6  c #372B24",
"7  c #2E312D",
"8  c #33322D",
"9  c #3B3428",
"0  c #333432",
"q  c #393935",
"w  c #302C34",
"e  c #1E1C21",
"r  c #583A09",
"t  c #472B18",
"y  c #4B3417",
"u  c #563818",
"i  c #4A2B0E",
"p  c #663911",
"a  c #452C24",
"s  c #473728",
"d  c #583926",
"f  c #473C35",
"g  c #543B33",
"h  c #643D28",
"j  c #481D0D",
"k  c #3A423D",
"l  c #5C4315",
"z  c #5C430B",
"x  c #684809",
"c  c #795708",
"v  c #654916",
"b  c #775916",
"n  c #6F5010",
"m  c #5A432B",
"M  c #4B4337",
"N  c #564839",
"B  c #544B36",
"V  c #674629",
"C  c #78552A",
"Z  c #684935",
"A  c #6A523A",
"S  c #785638",
"D  c #724D2E",
"F  c #7B6422",
"G  c #3B3648",
"H  c #453D4C",
"J  c #723746",
"K  c #3E4C4C",
"L  c #3C4546",
"P  c #3E4452",
"I  c #3D4C70",
"U  c #424E4C",
"Y  c #4A4645",
"T  c #564B45",
"R  c #44514D",
"E  c #49544E",
"W  c #5C5348",
"Q  c #4A5552",
"!  c #475552",
"~  c #575857",
"^  c #494856",
"/  c #675849",
"(  c #785A45",
")  c #665B55",
"_  c #6E534C",
"`  c #79634A",
"'  c #6B6358",
"]  c #776957",
"[  c #7D735B",
"{  c #6D624D",
"}  c #4F566C",
"|  c #5C6668",
" . c #696766",
".. c #766C64",
"X. c #7C7368",
"o. c #787878",
"O. c #6C7075",
"+. c #5F5F61",
"@. c #8F3714",
"#. c #855A09",
"$. c #B35416",
"%. c #886609",
"&. c #9A7508",
"*. c #876715",
"=. c #987516",
"-. c #926D0B",
";. c #A37C09",
":. c #A57B15",
">. c #835C38",
",. c #8B542B",
"<. c #89643A",
"1. c #966A37",
"2. c #926E2C",
"3. c #AB7632",
"4. c #AF5728",
"5. c #CE651C",
"6. c #C96726",
"7. c #D46C26",
"8. c #D7742F",
"9. c #D56922",
"0. c #845C47",
"q. c #845B50",
"w. c #886647",
"e. c #936B47",
"r. c #97734A",
"t. c #886855",
"y. c #946B57",
"u. c #86775C",
"i. c #987557",
"p. c #8C724B",
"a. c #A77A4F",
"s. c #857A63",
"d. c #8B7D64",
"f. c #8B7D6B",
"g. c #837769",
"h. c #977864",
"j. c #877D73",
"k. c #8B6E64",
"l. c #A67B69",
"z. c #B67C6E",
"x. c #884F60",
"c. c #CE7849",
"v. c #79837B",
"b. c #7C8305",
"n. c #AA830B",
"m. c #AA8516",
"M. c #B58C17",
"N. c #BB9218",
"B. c #B58C0C",
"V. c #B68830",
"C. c #98832B",
"Z. c #C29715",
"A. c #CF8F37",
"S. c #ECA838",
"D. c #E2943B",
"F. c #B2854C",
"G. c #8E816C",
"H. c #8C8165",
"J. c #938365",
"K. c #94846B",
"L. c #9A8A6D",
"P. c #98886B",
"I. c #8D8274",
"U. c #8B847A",
"Y. c #938573",
"T. c #968975",
"R. c #9C8C73",
"E. c #958A7B",
"W. c #9B8D7A",
"Q. c #938678",
"!. c #9E917C",
"~. c #9D9175",
"^. c #9D916D",
"/. c #A48C74",
"(. c #A29275",
"). c #A4937B",
"_. c #A9997C",
"`. c #AB876F",
"'. c #95845E",
"]. c #CE8F48",
"[. c #E7A948",
"{. c #DC9851",
"}. c #71768A",
"|. c #59678C",
" X c #7B8785",
".X c #7C839A",
"XX c #7B86A3",
"oX c #898985",
"OX c #968D83",
"+X c #9A9387",
"@X c #999898",
"#X c #899192",
"$X c #A39581",
"%X c #A89A85",
"&X c #A79B94",
"*X c #98A598",
"=X c #A9A598",
"-X c #B4AA94",
";X c #9A9AAE",
":X c #9698A8",
">X c #9B9CB3",
",X c #969BB2",
"<X c #888FA6",
"1X c #A49DB4",
"2X c #A79CAA",
"3X c #9DA1B3",
"4X c #9EA1AD",
"5X c #A4A4AD",
"6X c #ACAAAD",
"7X c #A8A5A5",
"8X c #B3ADAA",
"9X c #BAB3AA",
"0X c #A3A4B3",
"qX c #ACADB4",
"wX c #A6ABBC",
"eX c #ABACBB",
"rX c #A8A6B7",
"tX c #B3ACB5",
"yX c #AFB0BC",
"uX c #B3B2B5",
"iX c #BAB5B4",
"pX c #B4B3BA",
"aX c #BCB8B9",
"sX c #A8B4A6",
"dX c #C4BBA9",
"fX c #C3BCB7",
"gX c #C5AAB5",
"hX c #C7B195",
"jX c #CAC3BA",
"kX c #D5CAB7",
"lX c #D4CBB1",
"zX c #E4D6BA",
"xX c #E7D4B4",
"cX c #E0CDA4",
"vX c #A9ADC1",
"bX c #ACB3C6",
"nX c #B6B6C4",
"mX c #B3AFC4",
"MX c #C2BBC2",
"NX c #CBC6C2",
"BX c #D3CCC3",
"VX c #DBD3C6",
"CX c #D7D6D3",
"ZX c #E5DBC8",
"AX c #E4DDD3",
"SX c #ECE2CA",
"DX c #F6EBD6",
"FX c #FCF4DA",
"GX c #F1E6CE",
"HX c #FCF9E6",
"JX c #FDFBFC",
"KX c #FCFBF4",
"LX c #EFEBE5",
"PX c #D8E0C8",
"IX c #B8C5AF",
"UX c #837D84",
/* pixels */
"5 % 8 q 0 4 3 5 5 4 5 > ; & $ . @ $ & $ & $ 3 > % & > 3 4 9 6 M 9 M M q q 5 4 5 5 & $ $ $ $ & & & ; ; & 3 9 3 > > 6 > , 6 M M M M M M M M M M M M s 9 9 9 9 3 > > > 3 6 , 6 3 , > , 6 6 , , s 9 s s M B B B B u.H.u.B B B B / W ] [ H.H.G.H.s.[ u.[ H.u.d.u.s.s.d.[ u.u.s.d.d.d.d.s.s.u.[ [ ] s.s.s.u.s.s.s.s.s.s.[ f.s.s.s.s.s.s.d.f.s.s.[ ] [ u.[ s.u.[ / / ] { { / / N N W B W ' ..X.X.X.X...) T Y Y Y Y Y T T T T Y Y Y Y Y Y H Y T ~ ~ ) ) '  ... . . . . . . . . . . . . . . .~ ~ T Y Y Y f f q q q 0 q q q 0 0 0 q q q q ",
"3 > 8 M 0 4 4 5 5 5 > 5 5 5 % . $ $ $ @ @ > % > > % 3 3 4 6 9 f 9 8 4 > > > 5 > & & @ $ & $ & % & > > ; 3 > > 3 > 6 9 9 9 W B M M M s M B M M s 9 6 9 9 > 6 3 > > 9 9 , > > 6 , > > , 6 , 9 9 9 M 6 B B B B B K.H.] B s 9 s , 6 6 6 B { H.T.K.s.u.u.s.d.d.d.d.d.d.s.d.s.s.d.d.d.s.s.] ] [ s.s.s.s.u.[ s.s.s.f.s.f.s.G.G.s.s.s.s.u.s.s.s.s.s.[ u.[ s.d.G.f.s.[ [ [ ] ] { { { / / / W W W ) ..X.X.X.X...' ~ Y Y Y Y Y T T T T T Y Y Y Y f Y Y T ~ ) ) )  . . . . .'  .'  . . . . . . . . . .) ~ T Y Y Y Y f q q q 0 q 0 q q q 0 q ",
"4 > 8 8 0 4 3 5 5 5 5 ; > 5 % . $ & $ $ @ > 3 3 5 5 8 8 4 q 3 9 4 8 > > % & & & > @ @ o $ $ @ $ & ; > ; 3 > > 4 6 q M M 9 M M M M s s M M q 6 > ; > 6 9 > 3 9 > > > 3 > > 9 6 , 9 6 > s 9 M 9 M B s M B B B B [ u.B s , 6 s 9 9 9 9 , , B / { G.G.K.d.s.d.[ ] s.K.G.d.f.G.H.s.d.d.s.u.s.s.s.s.f.s.s.u.s.d.d.s.[ d.s.d.G.f.d.d.s.d.s.s.f.s.s.s.u.] [ u.s.G.d.s.s.s.s.[ { [ [ [ ] { / { B W W W { ] X.X.X.X.X. .) T Y Y Y Y T T T T T Y Y Y Y Y f Y T ~ ) ) ) ) ' ' ' ' ' '  . . . . . . . . . . .) ~ T Y Y M f q q q q q q q 0 q ",
"3 5 8 M q 0 4 4 4 7 4 5 5 5 > $ @ & % & & > > 5 4 5 4 8 8 4 3 3 4 4 5 5 5 % & & % $ @ @ & & $ $ & % > & > > > 9 M f M 9 M M 9 M M f M 6 > > > > % & ; > > 3 9 > > 9 6 , > 9 > > 9 9 9 f s M M s B M B M B B B M M s s 6 9 , , 6 , 9 , , s 9 s M B { ] d.K.K.G.Y.G.d.s.f.G.G.s.G.K.G.G.G.G.d.s.G.f.f.s.d.f.s.s.s.s.s.s.G.K.f.d.d.G.s.[ [ s.[ [ [ u.s.s.u.s.s.s.s.d.s.d.u.[ [ [ X.] { { / / / W W / / W ] X.X.X.X.X...' W Y Y Y Y T T T T T Y Y Y Y Y Y Y T ~ ) ) ) ) ) ' ' '  .'  . . . . . .'  . . . .+.~ ~ T Y Y H f q q q q q ",
"5 > q M q 0 4 3 4 4 3 5 5 5 > > & % 5 5 % > & % % ; 3 4 4 5 5 3 3 3 5 5 % % . $ & o @ & @ & & $ & % > ; > 9 M f M f 9 9 M 9 9 M 9 > > & & $ $ ; + > > > 3 3 3 > > 9 9 > 6 6 3 9 6 6 M M s M M f s M B B s B B s 9 9 9 9 6 , 6 , , s 6 9 9 s M M s M B B / / ] G.K.d.G.K.G.d.K.K.H.G.G.G.d.s.d.d.G.f.s.s.s.[ ] [ [ [ [ s.d.G.f.s.G.G.f.s.s.] [ s.[ [ u.s.s.u.u.u.s.u.s.u.u.s.s.s.[ ] [ ] { { W B B B W { W B ' ..g.j.j.o.X. .~ T Y Y Y Y ^ ^ ^ T T Y Y Y Y H Y Y W ) ) ) ) ) ) ' ' ' '  .'  .' '  . . . . . . .) ~ T Y Y Y T ~ ) ",
"5 > q Y q 0 4 8 3 5 5 5 5 5 5 % % % 5 5 5 5 5 5 ; > 3 3 4 3 8 4 5 5 4 3 % & @ $ & $ @ & $ @ % & $ % 3 3 > 4 f f 9 M f M 9 6 8 > & - & & $ $ & & ; > - 3 3 3 3 > > 8 9 9 3 3 9 q 9 s B M B B B M M 9 M , s 9 9 s s 9 9 9 9 , , 6 , 6 9 9 s B M B B B B B B A A B { { { / { s.Y.K.K.T.K.G.K.K.K.H.s.[ s.s.u.[ [ s.s.G.G.s.s.s.u.s.s.f.d.s.[ ] { [ u.[ u.u.u.s.s.s.[ [ ] u.] [ [ s.[ [ [ [ ] { W B B B / W / W { / B / ' X.j.j.j.o...) T Y Y Y Y T T T T T T T Y Y Y Y Y ~ ) ) ) ) ) ' ' ' ' ' ' ' '  . . . . . . . .~ W ~ ) ) ' ) ",
"> > 4 M q 3 5 3 5 > 5 5 > 5 5 & % 5 5 8 3 5 3 0 4 3 8 4 3 3 4 4 5 > 3 3 > % $ $ o $ $ & $ @ & & & > 4 3 9 4 8 9 9 9 q f 9 > & % & & $ & $ $ $ $ & & > > > > 3 8 > 3 > > M 9 M M M B B M B B M 9 s 6 9 , M 9 6 s 9 9 9 9 6 > , 6 9 9 M M M B B B B B B B B B B B s 9 , 6 , 9 , M W s.G.K.G.G.K.G.f.s.d.G.d.s.s.s.u.s.G.G.G.f.s.[ ] [ u.d.d.u.s.s.s.s.s.d.d.d.d.f.s.[ [ [ ] [ ] [ ] [ [ [ ] { { { / { { / / / { { { / W B N ' ..j.I.j.j.X. .~ Y Y T T T T T T ^ ^ T Y Y Y Y Y W ~ ) ' ' ' ' ' ' ' '  .' ' ' ) ~ ~ ~ ) ' ' ' ' ' ' ",
"5 5 5 3 q 3 3 3 5 % & % & % 5 % & 3 4 4 4 4 4 4 4 4 3 3 4 4 4 4 4 3 5 4 5 > & $ o @ $ @ & & & & % 4 8 > 8 8 9 9 4 4 4 3 > > & & $ $ @ $ & $ & & & % > > 3 > 3 9 8 3 9 s M M M M B M M s M s 9 > 6 9 9 6 6 , , > > 9 9 > 6 , 9 , s s B B B B B B B B M B B B M > , > , , 6 , , 6 , 9 s B / [ ~.G.K.T.K.Y.K.G.s.d.s.s.s.s.s.s.G.s.[ s.s.{ s.s.s.s.u.s.s.[ u.] ` s.s.[ [ [ ] [ { ] ] [ [ u.u.[ [ [ ] { { ] { ] { { { { / / W M T T ) ..g.I.U.j.X...) T Y Y T T T T T T T T Y Y Y f T ' ' ' ' ' ' ' ' ' ) ~ ~ ) ' ' ' ' '  .' ' ' ' ",
"4 3 5 4 q 5 5 5 5 5 % e 5 > % & % > 5 3 8 0 4 3 4 4 4 4 8 4 4 8 3 7 3 3 3 5 % $ . o $ @ % & 5 & % q 4 4 8 9 8 > 3 4 > & & & & $ $ $ $ & ; & $ & & 3 > 3 9 4 8 M 9 9 9 M M M M M M M 9 9 - > 6 > , 9 3 s 3 > , 6 , 9 9 , 9 9 9 s M B M B B B B B B M B M f , > > , - s 9 , , 9 9 9 9 9 M M M H.K.K.R.T.Y.H.K.K.G.G.f.s.s.d.d.d.s.s.s.[ u.u.s.u.[ [ [ s.s.s.{ u.` [ [ ] { { ] ] ] ] ] ] [ u.H.s.H.s.s.[ [ [ [ X.{ { ] { W / { B / / W / ) ' ..j.I.j.j.X.' ~ T Y T T T T T T T T T ) ' '  . ...' ..' ' '  . . . .' ' ' ' ' ' ' ' ' ",
"4 3 3 3 q 3 4 3 4 5 5 5 3 4 4 3 5 $ $ % 3 > 5 3 5 3 3 3 3 4 4 8 8 8 4 4 4 5 % $ @ $ $ $ % 5 > 5 > 8 3 4 4 8 3 > 3 > 5 > & & $ $ @ & & & & $ & & % > ; 3 8 9 f f M f M M s M M s 9 > & & $ ; > > 4 6 6 9 6 > 9 9 9 , 9 6 s M M M M / M B B B B M M s s , > > , , > 6 s 9 9 9 9 9 s s M M M B B B A ] u.T.u.G.H.u.f.G.G.G.u.s.d.s.G.s.[ ] [ u.s.s.u.u.s.[ u.u.H.[ ] [ ] { ] ] ] ] ] ] [ s.s.s.u.H.s.[ s.H.s.s.[ [ ] { { { { { ' { [ { ] / / W { ) ] X.j.j.j.j...' T Y Y T T T T ) X.................'  . . . .' ' ' ' ' ' ' ' ' ' ",
"4 4 4 4 4 q 4 8 8 3 3 4 4 4 4 4 4 > 5 5 > 5 % 5 5 5 > > 5 5 5 4 8 0 4 3 4 8 3 & & & & $ & > > % % 4 4 f 3 8 > 4 4 3 5 5 & @ o $ & & & $ $ $ & % & ; % 9 8 9 f M M s M s M f > & & & & & & $ & > 3 3 3 6 4 > 9 s M f s M M B M B s B M M B M s > , , , , > > , 9 6 M s 9 , 9 s f s s M B B B B B B A A ] / ] G.T.Y.K.d.d.d.K.G.G.G.G.G.d.u.s.u.u.[ [ s.[ [ u.u.u.[ d.[ ] ] ] [ ] ] u.u.[ [ u.] u.[ ] ] [ s.[ [ s.s.X.[ s.s.s.s.s.] ] [ { ] { / / ) ) / ' X.X.j.j.j.X. .~ T T T W W ) ) ' ' '  ... . . .' ' ' ) ~ ) ) ) ) ' ) ' ' ",
"0 0 q q 5 q 4 4 8 4 4 5 0 4 4 8 4 4 8 4 3 3 5 > 5 3 5 5 5 4 > 3 3 5 4 4 4 4 7 5 > 3 & & % 5 % & > 3 > 3 3 8 8 8 8 8 5 5 & & @ o $ & & @ % & & ; & ; 3 9 9 9 f f M q 9 f M > & & & & & & & & & > > > 8 9 9 9 s M B M M M M B M M f M M M 9 > , > , > , 6 6 > M 9 9 6 s s 9 s s B M M M B B A B B B B s , 9 9 s s / [ T.K.d.K.G.d.G.G.d.s.s.u.u.u.[ u.s.s.u.d.u.u.u.H.d.s.u.[ ] [ u.[ ] ] [ [ ] [ [ [ [ [ u.s.s.s.H.H.[ s.s.s.H.s.s.s.X.[ ] { ] ] ' ' ] { ] ' W ] ..j.j.j.j...] g.X...' ' ' W W W W W ~ ~ ~ ) ' ' ) ~ ~ ~ W ~ ' ' ",
"8 8 0 0 5 4 8 4 4 0 0 4 4 4 8 0 8 0 3 q 0 0 0 3 3 5 3 4 % 5 5 5 3 5 5 5 5 3 4 3 5 4 > % % 5 3 3 3 4 4 8 8 8 4 3 4 4 4 3 & $ $ . o % % $ & & & 5 > > 8 9 8 9 9 q q 8 > % > $ @ & & & & & % & ; & & 6 6 6 f 9 M M B M B s M B B B f 9 > > > > 3 , > > 6 9 9 , B s 9 s s s B B B B B B B B / A s M 9 , , 6 9 6 y 6 6 9 B s.K.T.G.d.G.K.K.G.H.G.u.u.d.G.d.u.u.H.G.s.u.H.H.H.d.u.] u.[ [ [ ] { { ] ] ] ] [ u.u.[ u.u.u.s.s.[ [ [ u.u.u.d.s.[ s.X.] ] ] [ ] W ] { { ' / W W ] ..j.j.j.g.g.X.X.X.X.X....... .' ) ~ W T ~ ~ T ~ W W ~ ~ ",
"0 8 7 0 5 0 4 8 4 0 0 7 0 8 4 8 8 0 4 0 8 0 0 8 4 8 4 8 5 5 3 5 4 4 5 3 5 5 5 e 5 5 3 5 5 4 3 3 3 3 8 8 4 3 4 4 3 3 3 5 > $ $ $ o & % & & & 5 3 5 8 8 3 4 > 3 4 % & @ & $ o $ & $ & > ; & > > & ; 9 9 s s M M M M M T N f M B 9 > 9 > , > > 3 > > > 9 , 9 , s s s B B B B M B B B W B B M M 6 6 9 6 , 9 9 6 9 6 , 9 s M B G.P.R.G.P.K.K.K.K.d.H.d.u.u.u.H.s.u.s.u.u.H.s.u.d.s.H.s.s.s.] ] u.d.u.u.u.u.u.s.u.s.u.u.[ s.s.[ s.s.H.H.s.s.G.s.s.s.[ ] ] [ [ [ ] ] [ ] ' ' { W B / { ..X.j.j.X.X.X...' W T Y T T W W ~ W W W ~ W W W ",
"0 0 q 0 5 3 0 8 0 4 0 4 7 0 0 8 0 7 5 7 7 7 3 3 3 q q 0 0 5 3 7 4 3 4 4 4 4 5 > 5 5 5 4 5 5 5 3 5 3 8 8 8 4 4 4 5 3 4 8 5 $ @ @ @ & > & & > > 4 4 3 > > 8 3 3 ; & $ & & & @ o $ > > > > > > > & 3 > > M M 9 M M s M f M , > , 6 > , > > > 8 > - , 6 M 6 s s M B B B B B B B B B B M , , , 9 9 , 6 , 6 9 6 9 9 9 s 9 s B s A / { d.s.K.H.H.G.K.H.H.u.[ [ [ u.u.u.d.u.u.d.d.s.d.K.H.f.G.H.H.G.H.d.d.u.H.d.u.s.u.u.s.u.d.u.[ [ u.H.G.d.d.G.s.[ s.s.s.[ [ [ [ [ ] [ [ ] ] ] { W ' W W / B W W Y T T M M Y T T Y T T W T W W W W ~ W ",
"7 0 q 0 5 5 0 4 4 8 4 4 0 7 0 0 q 0 4 7 4 0 0 q 4 0 0 0 0 8 8 q q 0 7 5 4 5 3 4 3 5 5 5 5 5 5 5 3 5 5 3 4 4 3 4 3 3 4 4 3 e % & & & % & & ; ; ; 3 3 8 4 8 3 5 > & . & $ % $ @ $ > > ; > > & $ > 3 9 3 W f f s M 9 q > > > > , 3 3 > > > 6 8 , > , , M 9 B B B M B B B B B B s s , , , , 9 9 9 6 9 M s 9 9 s 9 M M M B B B B / A B B / K.K.G.u.d.G.d.u.] [ u.u.[ [ u.u.u.s.[ [ s.s.s.[ s.u.u.u.u.s.u.u.d.d.d.s.s.d.s.d.[ s.d.s.u.d.H.G.G.u.u.H.[ s.[ [ s.s.s.s.] [ ] ] ] { ] ] { ..[ ' W W M M M T M M M Y M Y W T Y W T T T W W ",
"5 4 0 q 0 5 4 4 7 0 0 0 7 0 0 7 7 7 4 7 7 q 0 3 7 4 3 3 0 4 8 7 4 4 0 7 4 7 4 5 5 4 3 5 5 5 5 5 4 3 3 4 3 5 5 4 4 5 3 3 4 4 > 5 > & % e 5 5 5 3 4 4 8 4 8 4 3 > % @ $ & & $ $ & & % > % % $ > 3 f M M s q q 9 6 3 3 > 3 > > > 3 > 3 , 9 , , 6 9 6 s B B B B B B B B B B s 9 > > > 3 3 , 9 , 9 9 9 9 s 6 s M s s B B B B B B A / B B M B ] [ K.H.K.P.H.d.u.d.u.H.H.u.u.u.[ [ [ u.[ u.u.[ [ u.[ u.[ ] ] u.d.H.s.d.d.s.d.s.s.d.s.[ u.s.s.d.d.G.u.H.s.] u.d.d.[ s.[ [ [ ] [ [ [ ] [ ] ' { { ' B ' ) ' M M M Y Y Y T T T W T T Y T T ",
"3 3 0 q q 5 7 0 0 7 4 7 4 7 0 0 7 4 7 7 0 0 0 7 7 q 0 4 0 7 4 0 q 4 0 0 7 0 q 7 4 3 4 4 4 3 5 5 3 4 3 3 5 3 5 5 4 5 > > 4 5 5 5 5 5 5 5 5 4 8 8 3 4 8 8 8 4 3 5 % @ $ & & $ $ & % % ; ; ; ; 3 M M 9 3 9 8 3 3 3 3 > ; & ; > > > > 3 > 9 9 9 s M B M B M B B B M M f , 9 6 > > > 6 6 3 6 6 s s M s M M 9 M M B B B M B B B B B s s , , 6 6 9 s m { [ [ [ u.u.[ [ [ H.G.s.d.u.[ ] [ s.s.[ [ [ [ [ s.s.[ s.[ s.s.s.d.d.s.[ u.u.u.[ u.f.d.s.d.H.s.s.[ u.u.[ s.s.[ [ [ X.[ [ [ [ [ ] [ ] [ ] ] ] { ' ' ' W M M Y q Y Y T W T T T M T ",
"q 0 7 q 0 & q q 0 7 7 0 0 0 q q 7 0 7 0 7 0 4 4 4 7 0 4 7 7 3 0 0 4 0 0 7 0 0 0 7 0 4 7 4 4 4 3 4 3 3 4 4 4 5 > 3 3 3 > 3 5 5 5 > % 5 4 5 > 4 8 8 8 0 4 8 8 5 5 > % $ $ & % % & % % % > 3 > > f M 8 4 3 > - 3 > ; ; & > 8 ; > > > 3 6 6 q M f M M f f B B s M M 9 6 , 6 9 8 > > > 9 > , 9 9 s M s 9 B B B B B B B B B s f 9 6 , s 9 9 9 , s 9 9 s s s y m B B A B B ] { [ G.P.G.G.G.s.u.s.[ [ ] [ s.u.u.d.G.d.d.s.u.u.u.d.s.u.s.u.s.u.u.s.H.H.G.K.H.d.d.G.s.s.s.s.[ s.[ [ X.[ [ [ ] [ ] [ ] X...] [ ] ' W W W W M Y M T M M M T ",
"q 0 4 0 0 % 7 7 0 4 7 q q q 7 7 7 0 0 4 3 7 0 4 7 0 0 7 0 0 3 7 7 0 0 0 7 0 7 0 0 0 0 7 0 7 0 q 8 4 4 8 8 8 4 4 4 4 4 3 7 7 5 3 > > % 5 % > 3 5 4 4 4 4 3 4 3 0 4 > & & & & % > > > > 3 3 4 8 q M > 8 3 > ; > > $ % > & 5 5 > > 3 6 f M 9 M M f T f 9 B 9 3 > 6 9 6 3 > 6 3 6 > 6 6 6 9 9 6 9 s B s B B B B W W B f 6 6 9 9 9 , s 9 9 6 6 s s s s s B M B B B A A A / A B s { s.L.L.H.H.[ s.[ u.s.H.s.s.s.d.d.H.G.d.H.H.s.s.[ u.u.u.[ [ u.u.[ s.H.s.d.G.G.Y.s.G.s.s.s.s.s.s.[ s.H.[ [ [ ] [ [ X.[ ] ' ' { ' ' ' ~ W q f M M T T ",
"0 q 4 4 3 e 7 4 0 7 4 0 0 0 4 0 7 q 0 5 4 0 q 0 4 q 0 7 0 0 4 4 0 7 7 7 7 7 0 0 q 7 7 0 0 4 0 0 0 0 8 8 8 0 8 0 7 4 3 4 8 8 4 0 8 4 3 % > 5 5 > > > % 5 3 % ; 4 4 5 & > % & & > > > 4 8 4 4 9 8 q 3 8 4 > > & & & & > ; > > 4 > 9 M 9 M q M M M s 3 > > & > > > 8 > > > > 6 6 6 9 s 9 9 9 M 9 M B B B B W B B M 9 9 , 9 , s 9 , s s 6 s s s M B M B / B B B B B A B M M s 9 M s B { u.G.K.s.H.s.K.K.K.G.T.K.K.G.P.G.d.d.H.H.u.u.s.[ [ u.s.u.H.u.u.d.d.s.s.s.H.G.s.G.s.s.H.H.H.G.s.[ s.H.[ X.s.] [ ] [ { [ ] ] ] ' ' W ~ T q M T ",
"4 4 4 4 3 > 4 4 7 4 7 7 0 7 4 4 4 7 4 0 7 7 q 7 q 0 7 0 0 0 4 7 7 4 0 4 0 0 0 0 0 4 3 7 0 7 8 8 7 8 7 4 8 8 0 0 8 7 4 4 7 8 0 q 0 8 0 8 8 8 8 5 > 3 5 > $ & & % > 3 > 5 % > > > 4 8 8 8 8 3 8 8 q 4 8 8 > & & % & > > > 3 > 6 3 f f 9 f f M M 9 > 3 > > & > > - 4 8 > > 6 9 9 9 q 9 M s 9 B T M M B B B M 9 6 , 9 s 9 9 6 f 9 9 s M s B B B B B B B B B B B M 9 9 9 9 s s s y s s m B B ] [ { u.K.~.~.K.K.T.K.G.H.d.d.K.K.K.J.K.K.s.u.s.u.[ d.d.d.G.d.H.s.d.H.G.G.H.H.s.G.G.H.H.s.d.s.s.s.s.X.[ s.[ X.[ ] ] ] ] ' ] { ] ' { ' T ",
"U L L q 0 5 7 7 4 4 4 5 7 4 4 4 4 7 3 7 4 7 7 4 4 0 7 0 4 7 0 0 7 7 0 3 0 0 0 7 0 7 5 4 q 0 q 0 8 0 8 4 0 q q 8 7 7 7 7 8 8 0 0 0 7 0 0 0 q q 0 8 8 8 3 > > ; % & & % % % 5 3 3 > 8 8 8 9 3 9 8 8 q 8 0 3 & & & ; > 3 3 3 8 4 > 3 q 9 9 q 9 > & & 6 > ; ; > 3 > 8 9 6 > 9 9 9 9 9 f 9 s M M M M 9 9 , , > > > 8 9 6 9 9 9 s 9 s M W M B B B B / B B B s 9 , 9 9 9 9 s 9 9 s s s M m B M M B A B A ] H.K.Y.R.T.G.G.K.K.G.s.s.u.d.T.H.[ d.u.u.d.d.s.G.G.s.s.d.s.G.G.G.s.d.G.G.G.K.H.K.d.s.u.s.s.d.[ [ s.s.s.[ ] ] ] [ [ [ ..X.] ] ",
"U U U U U U U L L q 0 7 4 4 4 7 4 3 4 4 4 4 4 5 4 0 0 4 7 0 0 7 0 0 7 3 4 7 q 0 7 0 0 0 7 7 0 0 0 0 7 4 8 q q 8 3 4 8 8 0 7 0 8 0 0 8 0 0 0 8 0 0 8 4 3 8 3 8 8 > > e % @ & 3 5 > 4 4 9 8 8 8 8 f q 8 q 3 > 3 > 3 8 5 3 > 9 8 8 8 8 4 9 8 3 & & ; 3 > & ; > 3 > 3 f 9 6 M M 9 M q M 9 M 8 8 > > > > , 3 3 > 3 6 4 3 s s 9 f B B / M B / W M M M s , 9 9 9 9 9 9 9 9 M , s s B B B B B B B B A A B M 9 s B s.f.f.Y.T.G.K.K.H.[ u.K.G.K.u.] [ u.u.s.s.s.[ [ u.s.G.G.G.G.G.G.G.H.G.K.G.G.G.G.H.s.H.s.u.s.u.H.u.s.u.u.u.X.X.s.g.X.[ ",
"U U U U U U K R U U U U U U L q 0 4 4 4 4 3 4 4 4 4 4 5 7 7 7 7 0 0 7 4 4 4 0 0 0 7 0 q 4 0 7 4 7 4 0 4 8 4 8 8 0 0 q 0 8 8 0 8 0 q 8 0 q 0 8 0 0 8 3 4 8 4 4 3 5 4 4 4 8 4 4 3 > > > 3 3 8 4 8 M 8 8 8 5 3 > ; 8 8 3 3 4 q q 9 9 9 9 9 8 5 & ; 3 3 ; > > 4 3 3 8 9 6 9 9 s M q 9 8 3 ; ; > > > > > 6 , 3 6 > 3 6 9 M M M M B M B B M s s 6 , > > , 9 s 9 9 s , s 6 M M B M A B B B / B B M M M , , s 9 s s M s s ] G.T.G.K.u.H.H.H.P.u.u.u.] ] [ [ [ u.u.u.u.s.s.s.s.d.s.s.u.u.H.H.K.H.K.G.d.H.s.d.s.H.d.d.G.G.H.H.G.d.G.f.X.[ ",
"U U U U K K K U R R K U U R U U R U U L q 0 7 7 7 4 4 5 4 7 5 5 4 4 4 4 4 7 7 7 4 7 0 q 4 0 7 0 0 0 0 8 8 8 0 q 8 0 0 0 7 8 7 8 8 0 0 0 q 0 0 0 0 0 8 5 8 q 0 4 0 8 4 7 8 8 8 8 4 8 3 4 > 3 > 4 q 3 4 8 5 3 4 3 8 > 4 q q 8 9 q 9 9 9 8 8 > & > 8 > % 3 3 8 8 4 9 q 9 q M 6 9 5 % ; 5 & % > > ; 3 > 3 9 6 9 9 8 9 9 M s M M f s 9 6 > > 6 > > > 6 > f 9 s s 9 f s s B B B B B B B B s M s 9 s 9 9 9 9 9 9 s B s s B B / H.K.L.H.H.K.P.H.K.u.] [ u.u.u.u.[ s.d.s.u.[ ] [ u.d.u.d.d.s.u.d.d.K.H.G.H.d.u.H.d.s.H.d.G.H.G.u.G.G.s.G.",
"U U U U K U K U K K K K K R R R K K U U U U U K K L q 0 0 4 5 5 5 5 4 4 4 7 7 4 5 4 4 7 3 7 7 7 0 0 7 0 0 8 8 7 4 7 7 0 7 4 q 0 q q 8 0 0 q q 0 0 0 4 4 8 8 4 8 0 8 7 7 8 7 8 7 4 4 8 4 8 8 8 4 8 3 4 8 > > 3 4 8 3 4 8 8 8 q q 9 q q q 4 5 > > 8 5 3 3 3 4 4 4 8 8 4 3 ; > > & & ; 4 ; > > > > 8 8 > f f f 9 f M M 9 M M 3 > 6 > > 3 > 8 > 4 9 9 9 s 9 M M B M s B B B B M B 9 s 9 6 f 9 , s , 6 , 6 M B M B M M B B A B { [ J.P.P.P.P.L.H.s.u.d.s.s.s.d.d.H.H.s.s.s.s.d.s.H.d.G.K.G.s.G.K.d.H.H.J.H.H.u.u.u.s.[ s.s.u.G.G.K.G.",
"U K U U U U K K K K K K K K K U K K K K K K K K K K K U U U L L q 0 4 5 7 7 3 5 3 3 7 7 4 4 0 0 0 7 4 4 0 7 4 4 7 0 4 0 8 4 0 0 0 8 0 q q q 0 0 8 8 8 8 q 0 8 8 0 0 0 8 8 4 8 q q 8 0 q k q q q q q q 8 9 8 > > 3 4 4 4 > 3 8 8 8 8 9 q 8 3 3 > 4 > 3 3 8 8 9 4 8 8 3 % & & & $ > 3 > > > > > 3 3 9 6 8 9 9 6 9 s 9 > 4 > > > 3 > 3 > 4 9 > 3 6 6 s f M M B B B B B B M s , , > M > 6 f s , 9 9 9 s M B B B B B B B B B B B m s M { ~.~.J.J.K.H.K.P.H.H.P.K.H.u.u.[ u.u.u.s.d.H.d.H.s.s.d.H.u.u.u.H.u.u.s.[ u.[ u.u.u.u.u.s.s.d.",
"U U K K U U K K K K K K K K K K K K K K K K K R K K K U U R U U U U U U L L q 0 7 4 7 7 4 4 7 7 0 4 4 7 7 8 7 8 0 7 5 7 8 0 0 0 4 0 q 0 0 7 0 0 4 8 8 8 8 0 q 0 4 8 0 q 0 8 4 8 q 0 q 8 q q q q 8 q q 8 q q 8 9 9 8 8 8 8 3 4 4 5 4 3 9 8 4 8 3 3 3 3 4 4 4 8 4 4 4 8 5 $ & & $ $ 3 4 5 & & 3 > > 3 6 3 f 9 3 3 8 & > > 3 > > > 5 > > 9 9 8 6 M s M M M B T M 9 s 9 3 9 9 , 6 > M 6 9 s M f M M B B B B B B B B B B B s 9 s s s s M B [ u.J.u.{ ] { s.L.P.T.L.H.H.d.H.H.H.d.d.K.H.H.G.K.u.H.H.H.H.H.H.u.d.s.d.u.s.u.s.u.u.d.d.s.",
"K U U K K K K K K K K K K K K K K K K K K K K K K K K U R R R R R R K U U R R U U K L L q 0 0 7 4 5 3 7 3 7 0 8 0 4 5 7 4 q q 0 0 q q q q 0 q 0 8 8 8 8 8 q 4 8 8 8 q q 8 8 8 0 8 q q 0 q 0 8 0 8 f q 8 q 8 8 q 9 q 8 M q 8 8 q 8 8 3 3 > 4 8 4 4 4 3 4 4 4 8 8 8 4 4 3 > % & $ > ; % 3 5 > 3 3 3 > > f 4 & > % ; $ 4 4 6 > > > > 3 3 9 f 9 M T s f N s 6 > 3 - 9 9 3 9 9 , 9 , s 9 9 M B M B M B B B M B B f s , s B 9 9 M M s s B m s M A B B A B A / ] u.u.K.~.P.K.K.K.G.H.G.K.H.G.H.G.H.K.K.H.H.H.K.G.d.d.u.u.u.u.u.u.u.s.d.",
"U U U U K U K K K K K K K K K K K K K K K K K K K K K K R R K K K K R R R R R R R K U U U U U K L L 0 0 4 5 4 8 7 4 3 4 7 q 4 7 8 0 0 8 0 0 0 8 7 0 0 4 8 q q q 8 8 0 0 8 q 0 q 8 8 0 8 q q 0 q 8 M q 0 q q q 8 q M q q q q f q q 8 8 8 7 8 4 4 3 8 4 4 3 4 > 8 8 4 4 8 3 ; % & > 5 & % > 3 4 4 4 > > 9 3 & 5 & % & > 3 > > ; 3 8 3 9 9 q q M q 9 9 9 > > > 3 > 6 9 6 f 6 , M s B s B B B M B M M M 9 9 6 9 s 9 s M M s s M s m M M M B B A B B B / A A / B B M / { { u.K.K.K.G.K.P.H.H.[ u.H.u.H.[ u.u.u.u.u.u.s.H.u.u.u.u.u.] ",
"U U U U U K K K K K K K K K K K K K K K K K K K K K K K K K K K K R R R R K R R K R R R U U U U U U R R U U L k 0 7 5 0 7 7 4 0 7 4 7 7 8 0 0 0 0 8 0 8 8 0 8 q 8 0 0 8 q q q 8 4 8 0 8 9 8 q 0 8 q q 8 q q q q q q q q q 8 q 8 q q q 8 0 0 8 8 4 8 8 3 > > ; 5 5 5 4 > > 3 > % 4 5 > ; > > 3 4 3 3 5 5 > % & % % % > 7 & 3 4 3 9 8 8 8 9 9 8 > > > > > > > > 3 9 9 9 6 9 s M M B B B f s M , , 9 , > > 9 f s 9 s s 9 M s B m B B B B B A B B B B B B M M f M M M M M B B ] u.R.P.^.J.H.u.u.u.u.u.u.[ [ u.] [ u.u.u.u.u.u.u.[ u.",
"K K U U U U K K K K K K K K K K K K K K K K K K K K K K K K K K K K K K K K U R R U R R R R K K U U R R R R R R U U U U L q 0 7 5 4 0 q 8 7 7 8 8 7 8 0 q 0 8 8 8 8 q q q 0 8 8 q 0 4 q q q q q 0 q q q 8 q q q q M q 8 q q 8 8 q q q 0 8 0 q 0 0 q 4 8 8 3 3 3 > > % > % > % > > 5 5 3 4 4 4 4 3 3 3 > > & $ % % % 3 5 ; 5 4 5 4 3 5 5 % ; 3 % % % > > > > 8 4 8 9 9 M M M T M N M 9 6 6 6 , 9 9 > 9 6 M 9 > 6 M s s B M B B B B B W B B M s s 9 s s M M M M M B M B B B B B m M [ J.u.u.u.u.u.u.[ ] u.[ ] u.u.u.d.u.H.s.d.u.u.",
"U U U U K K K K K K K K K K K K K K K K K K K K K K K K K K K K K K K K K K K K U K K R R R K R R R R R R R R R U U U R R R R U U L L q 0 7 7 7 7 7 7 0 8 8 0 8 4 7 q 0 0 q q q q q 8 8 q k q k 8 q q q q 8 f M q f q q q q 9 q q q 0 q k q 8 0 q 8 4 8 8 7 8 4 4 4 3 3 > > 5 > 3 5 > 5 3 5 3 3 5 7 5 5 & % & & & & 3 > ; 5 5 4 3 % ; ; & & % 5 & & 8 > 3 > 8 4 6 f 9 M M M Y 9 6 3 > 9 4 > 9 9 3 6 9 6 f 9 f M B M B B M B M B B M f , 6 M f 9 s M s M M M M M M M M M s 6 - + & - B [ H.H.H.J.P.H.H.H.u.u.[ u.u.H.u.H.u.d.H.u.",
"U U K K K K K K K K K K K K K K K K K K K K K K K K K K K K K K K K K K K K K K U U K U U U R R R U K U R K U R R K K R R R R R U U U U U U U Y q q 0 7 4 4 7 7 8 4 8 0 8 8 q q q q 0 q M M M k q q q q q 8 q q q q q q 8 q q q q q q M 8 q 8 8 8 0 4 4 8 8 8 8 8 8 4 4 8 3 3 5 3 4 3 5 5 % % % ; 5 5 ; 5 ; > ; > > 5 5 5 5 5 5 5 5 ; & % & % ; > % 4 > ; > 4 8 4 8 9 9 4 3 > ; 6 6 > 6 6 , 9 9 6 s 9 9 B M M B B M B B M M 9 , 9 9 9 9 9 M s M M M M M f f f s 9 3 > & & & & & & 3 9 M M B B { H.P.J.u.H.u.u.u.u.u.H.u.u.s.u.u.",
"U K K K K K K K K K K K K K K K K K K K K K K K K K K K K K K K K K K K K K K K K K U K K K K R K K K K R K K R K R R R U U U R U U U U R U U U R U U U U k q q q 0 7 4 7 0 0 8 q q q q k 0 q M q M q q q q M M q q q q q q q q q 0 0 q q q q 4 8 9 4 4 4 7 8 0 8 8 8 8 8 8 8 4 3 7 4 4 4 3 5 5 5 % > % 5 5 > ; > 3 3 5 4 4 3 3 3 3 > % % > % ; > 5 > & 5 5 5 5 3 4 5 ; > ; & > 9 4 ; 8 3 > , s M f M M 9 M 9 f f 9 6 6 9 3 9 3 9 f 9 9 M s s s f s 9 9 9 6 > ; ; & & - & & & & ; 9 M B B B B B M H.^.P.J.H.H.H.u.H.H.u.u.] u.[ ",
"U K K K K K K K K K K K K K K K K K K K K K K K K K K K K K K K K K K U K K K K K K K K K K K K K K R R R R K K U R R K U R R R R R R R R U R R R R R U U U R R U U U L q q q q q 0 q q q q q 8 0 q q q q q q q q M q q q q q 0 q M q 8 8 q 8 8 8 8 8 8 8 8 8 7 4 4 8 8 4 4 4 8 8 4 4 4 4 3 3 3 8 3 3 & 5 5 % > > 5 5 5 3 4 3 4 4 4 5 5 ; 5 5 ; 5 > > 5 3 3 5 ; 5 5 > & ; ; & > 9 5 3 6 3 > 9 M M M s M f 9 > - 8 4 4 3 6 6 9 6 f f f s f f 9 9 6 > > > ; ; ; ; ; ; - - & & & $ + 9 s B B B B M M s / s.H.H.u.H.K.P.K.u.H.H.d.] ",
"U U K K K U K K K K K K K K K K K K K K K K K K K K K K K K K K K K K K K K K K K K K K K K K K K K K R R K K K K R K K R K R R K R R R U U R R R R R U U U U R R R R R R R R R U U k q 0 0 q 0 8 q q q 8 q q q q q 8 0 q q 8 8 q q q 8 8 0 0 q 8 0 q 8 8 0 0 8 8 8 0 8 8 8 8 4 4 8 4 8 8 3 4 4 0 3 5 % 4 4 5 5 5 5 5 5 > > 5 5 3 4 5 5 5 3 4 5 3 3 3 4 5 5 5 % % ; > % % % & > 8 8 > > 3 8 M M 9 9 > > > 4 & 3 8 3 8 8 9 8 8 9 f 9 s 9 8 3 ; > > - & ; > > ; ; ; ; & & & $ $ @ $ > M B B B B B M M 9 9 ] H.W o s s.s.K.K.K.K.u.",
"U K K K K K K K K K K K K K K K K K K K K K K K K K K K K K K K K K K K K K K K K K K K K K K K K K K R K K K K K K K K K R R R R R R R U U U U U U U R U U R R R R R R R R ! R R ! ! Q R U L k q 8 0 q q 8 4 8 q 0 q 8 q q q q 0 8 q 0 8 8 0 8 8 8 8 8 8 8 0 8 7 7 4 4 8 8 8 3 8 8 0 4 8 4 4 4 8 4 4 5 5 7 3 5 3 5 3 5 5 5 5 3 5 5 ; 5 5 3 5 3 4 4 4 3 3 3 5 % ; ; % & 5 & & % % % % > 4 M q - > 5 & 5 > 3 ; 3 8 3 9 9 q 9 9 6 8 8 > > ; & ; > ; > > > > ; ; & & & + + $ $ o . o 9 M B B B B B M 9 6 ; 3 { X X X X @ & / ^.H.H.",
"L L K K K K K K K K K K K K K K K K K K K K K K K K K K K K K K K K K K K K K K K K K K K K K K K K K K K K K K K K K K K R R K U U U U U U U U U U U R R U R R R R R R R R R R R R ! ! Q ! ! R E R U U U M 0 8 8 8 q 8 9 8 4 q 0 8 q q q q 0 0 q 8 8 0 8 8 8 0 4 0 4 4 8 8 4 4 8 8 8 4 4 8 8 0 4 4 4 3 5 4 4 4 3 4 7 3 5 5 5 3 3 5 3 5 5 5 % > 5 5 5 5 5 5 5 % & & % % % % % % > > > > 8 T 4 & % > % 5 > 3 > > 3 4 8 8 8 3 > ; ; > > > > > > > ; > > ; ; & & & & $ $ o o o . . o 9 M W B W W B B s 9 ; . X X X X X X X X B s.^.",
"7X#XoXo.| R L K K K K K K K K K K K K K K K K K K K K K K K K K K K K K K K K K K K K K K K K K K K K K K K K K K R R U U U K K K R U U U U U U U U U U U U U R R R R R R R R R R R R R R ! ! ! ! ! ! ! ! ! ! R E U Y k 0 8 8 4 8 0 q 0 7 0 q 0 8 q q q 0 8 0 8 8 0 8 0 8 4 8 8 8 8 8 8 8 4 4 4 4 4 4 3 5 7 4 4 3 3 4 3 5 3 3 3 3 3 3 3 4 3 3 5 > 5 % 5 5 5 5 ; & % % ; ; 5 5 5 > 5 > > 4 M > $ > ; ; 5 5 > 5 > > > > ; & & & ; ; ; > 5 > > 5 > ; & - & & $ o o o . . . . . . . . 3 B B B / W B B M 6 % @ o   X X X X X X X o T ",
"sXsXsX=X=XsX*X#X Xo.O.+.R L L L L L L L L K K K K K K K K K K K K K K K K K K K K K K K K K K K K K K K K K K K K K K K K K K K K K U U U U U U U U U U U U U R R R R R R R R R R R R R R ! R ! ! R ! R R Q R R ! ! Q E Q E E U Y L q q 7 4 8 q q 4 8 8 0 0 8 0 0 4 3 0 8 8 8 q 0 q 8 0 8 4 8 4 4 3 4 4 4 4 4 4 4 4 4 0 4 4 3 3 3 4 4 3 3 5 5 3 5 5 % 5 > % 5 5 & % % 5 > ; ; 5 & > ; % 4 0 % % > % & > 5 % & ; & & & & & & % ; % ; ; ; ; ; % % & & $ $ o o o o o o o o . . . . . > M B / W / B B M 6 % $ & & . .     X X X   X ",
"sXsXsXsX*X*X*X*X*X*X*X*X*X#X#X Xo.O.| Q K L L K K K K K K K K K K K K K K K K K K K K K K K K K K K K K K K K K K K K K K K K K K K U R U U U U U U U U U U U U K K R R R R R R R R R R ! ! R R R ! ! ! ! ! ! ! ! ! ! ! Q Q ! ! E Q Q ! R U k k q 4 8 8 8 0 8 7 7 7 8 8 4 8 0 8 8 8 4 0 0 0 8 8 4 3 8 4 5 0 0 8 8 4 3 4 3 3 3 4 3 4 4 4 3 4 4 5 5 4 5 5 5 5 5 5 5 5 5 % 5 5 % ; % ; > ; 3 4 % % & % & & % % % & & & & & % % ; ; & % & % & $ + $ $ o o o o o o o o o . o . .   . . 6 B W / / / B M M 3 > & % % $ $ . . . . X X   ",
"sXsXsX=XsX=X*X*X*X*X*X*X*X*X*X@X@X@X#X#X#X#X Xv.O.| ~ ! K K K K K K K K K K K K K K K K K K K K K K K K K K K K K K K K K K K K K K U U K K U U U U U U U U U U K K K R R R R R R R R R ! R R R ! ! ! ! ! Q ! ! ! ! ! ! ! ! ! ! ! Q ! ! ! Q Q Q Q E U U k q 0 7 0 8 8 0 7 8 8 8 8 4 4 0 8 0 8 0 8 8 0 4 5 0 4 4 3 4 4 4 4 3 4 3 4 3 3 3 4 4 5 5 5 5 5 5 3 3 5 5 5 5 5 5 5 5 > ; % 5 % & 5 8 ; ; % % % % % % % & & & & & & & & % & & $ o o o o o @ $ @ o o o o o o o o .     X X X > B B / / / W B M 8 3 % > 5 & $ $ $ .       X ",
"sXsXsXsXsX=X*X*X*X*X*X*X*X*X*X*X*X@X#X#X#X#X#X#X#X#X#X#X#X Xv.O.O.| Q R K K K K K K K K K K K K K K K K K K K K K K K K K K K K K K U U U K U U U U U U U U U U K K R R R R R R R R R ! ! R R R R ! Q ! Q Q Q Q ! ! ! ! ! Q Q Q ! ! Q Q ! ! ! Q Q Q Q Q Q Q Q ! U Y q 0 4 4 3 8 8 8 4 8 8 4 8 0 0 4 4 4 3 0 8 0 4 8 4 4 8 8 0 3 3 3 4 4 4 8 4 3 3 5 5 5 5 5 5 5 5 5 5 5 5 5 5 5 5 > > > 8 3 % ; % % % % & & % & & & & $ $ $ $ $ $ $ o @ @ o o o @ o o @ o o . . . . . X X X X X X $ f B B / / B B M 8 > > > 5 & & $ @ . . . . X ",
"sXsXsXsXsX=X*X*X*X*X*X*X*X*X*X*X*X@X@X#X#X#X#X#X#X#X#X#X#X#X#X#X#X#X#X#X X XO.| | Q K K K K K K K K K K K K K K K K K K K K K K K K U U U U U U U U U U U U U U R R R R R R R R R R R ! R R R R R ! Q Q R Q Q ! ! ! ! ! ! ! Q Q Q ! Q Q Q Q Q Q Q Q Q Q Q Q Q Q Q Q ! ! E U k k 0 8 4 4 4 4 3 4 3 4 4 4 5 4 4 4 4 8 4 0 4 4 8 4 4 8 3 4 4 4 3 3 4 5 3 3 3 3 5 5 5 5 5 5 5 e 5 5 5 5 > % 4 > % % % & & % & & & & & & $ @ @ @ @ $ $ $ @ @ o o o o o . . . . X X X X X X   X         . 9 B B W W B M f 8 5 > 3 > $ $ $ @ o o . . . ",
"sXsXsXsXsX*X*X*X*X*X*X*X*X*X*X*X*X@X#X#X#X#X#X#X#X#X#X#X#X#X#X X#X X X X X X X X X X X Xo.O.| | ! K K K K K K K K K K K K K K K K K U U K K U U K U U U U U U U R R R R R U R R R R R R R R R R R R Q Q Q Q Q Q ! ! ! ! Q Q Q Q Q Q Q Q Q Q Q Q Q Q Q Q Q Q Q Q Q ! ! ! ! ! ! ! ! E U U L q 0 4 4 4 3 5 5 5 3 3 3 3 5 4 4 4 4 4 4 4 4 4 3 4 4 5 5 3 4 3 3 3 5 5 5 5 5 5 3 5 5 5 5 5 5 > 3 5 % & % % % % & & & & & & $ $ $ $ $ $ $ @ o . . . . . .         X                       . > M B T M M M q 8 3 5 5 > $ @ @ $ o @ $ . . ",
"*X*X*X*X*X*X*X*X*X*X*X*X*X#X*X#X#X#X#X#X#X#X#X#X#X#X#X#X#X#X X X X X X X X X X X X X X X X X X X X X Xo.O.| ~ R K K K K K K K K K K K U K K K U U U U U U U U U K U R U K R R R R R R R R R R R R R R ! R R ! ! ! ! ! ! Q ! Q Q Q Q Q Q Q Q Q Q Q Q Q Q Q Q Q Q Q ! ! ! ! Q Q Q Q ! ! ! ! ! ! E U U L q 4 5 3 5 3 3 3 5 5 4 4 4 5 5 5 4 5 3 3 5 5 3 3 3 3 3 5 5 3 5 5 3 5 5 5 5 5 5 5 5 5 3 % % ; % & & & & & & & $ $ $ $ @ @ o o $ o o . . .             . . . . . . . . . . . . . o 9 M M M M M q 4 3 3 5 & $ $ @ . . o . . . ",
"#X#X#X#X#X*X#X#X#X#X#X#X#X#X#X#X#X#X#X#X#X#X#X#X#X#X X#X X X X X X X X X X X X X X X X X X X X X X X X X X X X X X XO.| | Q R K K K K K K K K U K K K K K K U U K K R R R R R K R U R R R R R R R R R ! R ! ! ! ! ! Q ! Q Q Q Q Q Q Q Q Q Q Q Q Q ~ Q Q Q Q Q Q Q Q Q Q Q Q Q Q Q Q Q Q Q Q ! ! ! Q ! ! Q E R Y k q 0 5 5 3 3 5 5 5 5 5 5 5 3 3 5 5 5 5 5 5 5 5 4 3 3 5 3 5 5 5 5 5 5 5 3 3 ; % % % % % & & & & & & $ $ $ @ o . . . $ . . o . . . . . . . o o . . . . . . . . . . .   + 3 9 9 9 8 4 > 5 > % $ $ $ $ . . . .   . ",
"k 0 k R ~ | O.o. X X#X#X#X#X#X#X#X#X#X#X X X X X X X X X X X X X X X X X X X X X X X X X X X X X X X X X X X X X X X X X X X X X XO.O.| | Q K K K K K K K K U U U U U K R R R R R R R R R R R R R R R ! R ! ! ! ! ! ! Q Q Q Q Q Q Q ~ ~ ~ ~ ~ ~ Q ~ ~ Q Q Q Q Q Q ! Q Q Q Q Q Q ! ! ! ! ! Q ! ! ! ! ! ! ! ! E ! ! Q ! Q U U k q 7 3 5 5 5 5 5 5 5 5 5 5 5 3 5 5 5 5 3 5 3 3 5 5 5 5 5 > > 3 % % % ; > % & & & & & & $ $ $ $ $ o .   o . . $ o . . o @ o o o o . . . . . . . .   . X X X $ > > > 3 > > % % $ $ @ . . . . . . . . ",
"#XoX XO. .+.~ U 0 7 q L ! | | O.o.v. Xv.v. X X X X X X X X X X X X X X X X X X X X X X X X X X X X X X X X X X X X X X X X X X X X XoXoX#X#X#XoXv.o.O. .+.! K U U U U U U U R R R R R R R R R R ! ! ! ! ! ! ! ! ! Q Q ! Q Q ~ ~ ~ ~ ~ ~ ~ ~ ~ ~ ~ ~ ~ ~ Q Q ~ Q Q Q Q Q Q Q ! Q ! ! ! ! Q Q ! ! ! ! Q ! ! ! ! ! Q ! Q ! ! ! ! ! Q R R U k q 7 5 5 5 5 5 5 5 5 5 5 5 3 5 5 5 3 3 5 5 5 % 5 3 % % % % % % & & & & & $ $ $ $ $ $ $ $ . . . $ $ @ @ $ @ $ $ o o o . . . . . . . . .   X X X X . & & & % % & $ @ $ . . . . .       & ",
"@X@X#X#XoXoXoXoXoX Xo.O. .~ Q L 0 7 q L R Q | | O.O.O.O.o.o.o.o.o.o.o.o.o.o.o.o.o.o.o.o.o.o.}.o.o.}.o. X X X X X X X X X X X X X X X X XoXoX#X#X#X#X#X#X@X*X@X#XoXo.O.| ! K K K K R R R R R R R R R ! ! ! ! ! ! ! ! Q Q Q Q Q ~ ~ ~ ~ ~ ~ ~ ~ ~ ~ ~ ~ ~ ~ ~ ~ Q Q Q Q Q Q Q Q ! ! Q ! ! ! ! ! ! ! ! R ! R ! ! ! ! ! ! ! ! ! ! ! ! ! ! ! ! ! ! R U L L k q 7 5 5 5 5 5 5 1 5 5 5 5 5 > % 5 5 % & & % & & & & & & & $ $ $ $ $ $ $ $ . . $ $ $ $ @ $ $ o o . . o o . . . . . . . . .     X     . $ $ & $ . @ .   . X X X X X o e q ",
"=X*X@X@X@X#X#XoXoXoXoX X X X}. X}.}.O.O. .~ R q 5 5 7 q K R Q | | | O.O.O.O.O.O.O.O.O.O.o.o.o.o.o.o.o.o.o.o.o.o.v. X Xv.v. X X X X X X X XoXoXoX#X#X#X#X#X#X+X*X*X*X=X=X-X=X=X*X#Xv. .Q U R R R R R R R Q Q Q ! ! ! Q Q ~ ~ ~ ~ ~ ~ ~ ~ +.+.+.+.+.+.~ ~ ~ ~ ~ Q Q Q Q Q Q Q Q Q ! ! ! ! ! ! ! ! ! ! ! ! ! ! ! ! ! ! ! ! R ! ! ! ! ! R Q ! R R ! R R E R ! ! E U U L q 7 4 5 e % > ; % % 5 5 % % % & % & & & & & & $ $ $ $ $ @ $ $ $ $ $ $ $ $ $ $ $ $ . . . o o . . . . . . . .   X X X X . . X X X X X X X X X $ 5 0 k U E E Q ",
" . .O.o.o.oX#X#X#X#X#XoXoXoXoXoX X}.}.o.}.o.}.}.o.o.O. .+.~ U q 4 5 7 q L U Q ~ | | | | O.O.O.O.O.O.O.O.O.O.o.o.o.o.o.o.v.v. X X X X X X X X XoXoX#X#X#X#X#X+X+X@X*X*X=X=X-X-X9X9XjXjXjXjX9X-X*XOXo.~ U R R Q Q Q Q Q Q ~ ~ ~ ~ ~ +.+.+.| | | | | | | +.~ ~ ~ ~ Q Q Q Q Q Q Q Q ! ! ! ! ! ! ! ! ! ! ! R R R R R ! R R R R R R R R R R R R R ! Q Q Q Q Q Q Q Q Q Q ! Q E R R U L q 0 4 5 > 5 & & & & % & & & & & & $ $ $ $ $ $ $ $ @ $ $ $ $ $ $ $ $ o . . . . o o o o . . . . . . . . . X . X X X X X & 4 0 L U Q Q Q Q E E Q E ",
"} } } } Q ^ ^ ^ ~ ~ |  . .o.o. XoXoXoX X X X X}.o.o.o.o.o.o.o.o.o.o.O. .+.Q U q 5 e 4 0 L U R ~ | | | | O.O.O.O.O.O.O.O.o.o.o.o.v.v.v.v.v. X X X XoXoXoXoXoX#X+X#X+X*X*X=X=X-XsX9XdXjXlXlXlXlXlXzXzXZXzXlX9X=XOXX.~ Q Q ~ ~ ~ +.+.| |  . . . . . .| | | | +.+.~ Q Q Q Q Q Q Q ! ! ! ! ! ! ! ! ! R R R R R R R R R R R R R R R R R R R R R R R Q Q Q Q Q Q Q Q Q Q Q Q Q E E R R R E E E E U L q 7 5 & & & & & & & & $ $ $ $ & & & $ $ $ $ $ $ $ $ $ . . . . o . o o . . . . . . . . X X X . e 7 k L R ! ! R R E E E Q Q Q E Q Q ",
"} } } } } } } } } } ^ ^ ^ ^ ^ ^ ^ ^ ~ +.+. .O.O.o.o.o. X X X}.}.o.o.o.o.o.o.o.o.o.o.O. .~ Q Y q 5 e 5 7 L K ! ~ | | | O.O.O.O.O.O.O.o.o.o.v.v.v.v.oX XoXoXoXoXOX#X+X+X*X&X=X=XsX9X9X9XjXlXlXlXlXzXzXzXSXSXSXSXSXGXSXkXjX-X=X+Xv. . . . .O.O. . .O. . .| | | +.~ ~ ~ Q Q Q Q Q ! ! ! ! R R R ! R R R R R R R R R R R R R R R R R R R R R R R R Q Q Q R R R R R R R R R R R R R R R R R R E E E Q Q Q E U k q 0 5 % & $ $ $ & & & & $ $ $ $ $ $ $ $ @ . @ o o @ . . o . .   . . . . % 4 q L R E R Q Q R ! R E E E E E Q Q Q Q Q Q ",
"I.o.O. .+.~ ~ Q } } ^ ^ ^ ^ ^ ^ ^ ^ ^ ^ ^ ^ ^ P P ^ ^ Q ~ +.|  .O.o.o.o.o.o.o.o.o.o.o.o.o.o.o.o.o.o.O.~  . .~ ~ U L q 0 q L R ~ | | O.O.O.O.O.o.v.v.v.v. XoXoXoXOX+X+X*X*X=X=X=X-X9X9XjXlXlXlXlXzXzXzXzXSXSXGXGXGXGXSXSXSXSXGXHXKXLXAXCXjX8X+XU.X. . . . .| | +.~ ~ Q Q Q Q ! ! ! ! ! R R R R ! R R R R R R R R R R R R R R R R R R R R R R R R R R R R R R R R R R R R R R R R R R R R R R R R R E R E E E E E E U Y q 7 5 & & & & $ $ $ $ $ $ $ $ $ $ . . . . . . . o % 4 0 k U R R R R R R R R R R ! ! ! ! E E E Q Q Q Q E Q ",
"-X=X%X+XOXU.U.o.o. . .+.} ~ Q ^ ^ ^ ^ ^ ^ ^ ^ ^ ^ ^ P P P P P P P P P ^ ^ ~ ~ +. .O.O.o.o.o.o.o.j.j.j.O.O.o.o.o.o.o.o.O.O. .+.Q U L q q L U Q +. .O.o.v.v.v.v.oXoXoX+X+X+X*X=X=X-XsX9X9XjXlXlXlXzXzXzXzXSXSXSXGXGXGXGXSXSXGXFXHXJXJXJXJXJXKXFXDXGXzXjX-X+XU. .~ ~ ~ Q Q Q ! ! R ! R R R R R R R R R R R R R R R U R R R R R R R R R R R R R R R R U U R R R R R R R R R R R R R R R R R R R E E R R R R E E E E E E E E E E E U L q 7 5 % $ $ $ $ $ $ $ . @ @ % 5 0 q L K K K R R R R R R ! R R R R E ! E E E Q Q Q Q Q Q Q E E ",
"dX9X-X-X=X&X%X+X+XOXE.U.U.j.o.o. . .+.+.~ Q ^ ^ ^ ^ ^ ^ ^ ^ ^ ^ P P P P P P P P G G G U ^ Q ~ +. .X.o.o.O.O.o.o.o.o.o.o.o.o.o.o.o.o.o.O.O.| ~ Q U q q k U Q +. .O.v.v.oXoX#X+X*X=X=XsXsXIXjXlXlXlXlXzXzXSXSXSXGXGXGXGXGXGXFXHXKXJXJXJXJXJXJXKXHXFXDXGXZXzXkXjXIXsX*X#Xv.O.Q R R R R R R R R R R R R R R R R R R R R R R R R R R R R R R R U R R U U U R R R R R R R R U R R R R R R E E R R E E Q Q Q E E E E E E E E E E R R E R E R U U L L 0 5 % % 5 4 7 0 q k L L K K K R R R R R R R R R R ! ! ! R ! E Q Q Q E Q Q Q Q Q Q ",
"lXdXdXdX9X-X-X=X&X&X%X+X+XOXOXU.U.U.U.j.o.o.O. . . .~ ~ Q ^ ^ ^ ^ P P ^ ^ P ^ P P P G G P P P G G G P U ^ ^ Q +. . .O.O.O.o.o.o.o.o.o.o.o.o.o.o.o.o.o.O.O. .~ Q U k q L E +.O.v.oX#X*X*XsXsX9XjXlXlXkXzXZXSXSXGXGXGXDXDXFXHXKXJXJXJXJXJXJXJXJXKXHXFXDXSXSXzXkXjXIXIXIX9XsXsXsX*XoXO.| ~ R K K R R R R R R R K K R U U U R U R R R U U U U R U U R R R R R R R U R R R R R R R R R R R R R Q Q Q Q Q Q E E E E E E E E E Q ! E E E E R R U U U L L q 0 7 0 0 q k L L L K K K R R R R R R R R R R ! ! R R E E E ! ! Q Q Q Q Q Q Q ",
"lXlXdXdXdX9X9X-X-X=X&X&X&X+X+X+XOXOXOXoXU.U.U.j.j.o.o.o.X... . . . .+.~ Q ^ ^ ^ ^ U P P P P P P P P P P P P P P P P P U ^ ~ ~ +. .O.O.o.o.o.o.o.o.o.o.o.o.o.o.o.o.o.o.O. . .~ Q R U R ~  .O.v.OX*XsX9XIXlXzXPXSXGXDXFXHXHXKXJXKXKXJXJXJXJXJXJXJXJXKXKXHXDXVXlXlXjXIXIXIX9XsXsXsXsXsX*X*X*X*X#X Xv.O.| Q K K K R U U U U R R R R R R R R U R R U U R R R R R R R R R R R R R R R R R R R R R E E Q Q Q Q E E E E ! E ! E Q ! E Q E R R R R U K K L q 7 0 0 0 k k L L L K K K R R R R R R R R E R R E E ! E R R E Q Q Q Q Q Q Q Q ",
"lXlXlXlXdXdX9X9X-X-X-X=X=X&X&X&X+X+XOXOXOXOXoXU.oXU.U.U.j.j.o.o.o.o.X.X.O.O. . . .+.~ ~ Q ^ ^ ^ U U P P P P P P P P P P P ^ ^ ^ ^ ^ ^ ^ ! ~ +. .O.O.o.v.U.U.U.U.v.v.v.v.v.v.v.v.U.v.v.v.o.O. . .~ ~ ~  .v.oX*X9XjXSXDXHXKXKXLXLXJXJXJXJXJXJXJXJXJXJXJXJXJXKXGXkXIXIXIXIXIXIXsXsXsXsXsXsX*X*X*X*X*X*X*X*X*X#X Xo.O.| Q R U U U U U R R U R R R U U U U U R U U R U U U U R R R R R R R R R R R R E E E E E ! ! ! ! E E E E E E E ! E E R R R R K L q 7 0 0 q k k L L K K K R R R R R R R R E ! E R ! ! Q Q E E Q ! Q Q Q Q Q Q Q ",
"zXlXlXlXlXjXdXdX9X-X-X-X=X=X&X&X&X+X+X+X+X+XOXOXU.U.U.U.U.U.U.U.U.j.j.j.o.o.o.o.X.X.X.X.O... . . . .) ~ ~ Q ^ ^ ^ U P U P ^ ^ ^ ^ ^ ^ ^ ^ ^ Q ~ ~ } ~ ~ ~  . .O.o.U.oXOX+X+X+XOXOXOXOX+X+X+X@X*X*X*X=X*X=X8X8X7X@X@X*X8XNXLXJXJXJXJXJXJXJXJXJXJXJXJXJXJXJXJXFXSXBXjXIXIXIXIXsXsXsXsXsX*X*X*X*X*X*X*X*X*X*X*X#X#X#X#X#X#X#X Xo.O.| Q R U U U U U U U U U U U U U U U U U U U U U R R R R R R R R R R R E E E E E ! E E Q Q Q Q Q ! ! ! R R R R K L q 0 0 0 k k k L K K R R R R R R R R E R R R R R R ! Q Q Q Q Q ! ! Q Q Q Q Q Q ",
"zXxXlXlXlXlXdXdXdX9X-X-X-X=X=X=X&X&X%X+X+X+XOXOXOXOXoXoXU.U.U.U.U.U.U.U.j.j.j.j.j.j.o.o.o.o.o.o.X.X.X.X.X....... . . .) ~ ~ ~ ~ ^ ^ ^ ^ ^ ^ ! Q ~ } +.+. . .O.O.o.o.o.o.v.U.U.U.E.+X&X-X-X-X9X9X9XjXkXVXLXKXJXJXJXJXJXJXKXLXKXJXJXJXJXJXJXJXJXJXJXJXJXKXKXLXPXBXjXIXIXIXIXsXsXsXsX*X*X*X*X*X*X*X*X#X#X#X#X#X#X#X#X#X#X#X#X#X#X#X#X#X#X X Xo.O.| +.Q U U K L L L U U U U U U U U U U U U R R R R R R R E E E E Q Q Q Q Q Q ~ ~ Q Q Q ! ! Q R R K L q 0 0 q k k L L K R R R R R R R R E E R ! R R E ! R ! ! E E E E E Q ~ ~ ' ' ..",
"zXzXzXlXlXlXlXdXdX9X9X-X-X-X-X=X=X=X&X&X+X+X+X+XOXOXOXOXoXoXoXoXU.U.U.U.U.U.U.U.U.U.j.j.j.j.j.o.o.o.j.j.j.o.o.o.o.o.o.X.o.o.X.X.X..... . . .' ~ ~ ~ ~ ~ ~ ~ ~ +. . ...o.U.OX&X-X-X9X9X-X-X=X=X&X-X9XjXkXAXLXLXKXKXJXJXJXJXJXJXJXJXJXJXJXJXJXKXLXZXlXdX9X9X-X=X*X*X*X*X*X*X*X*X*X*X*X#X#X#X#X#X#X#X#X#X#X#X#X#X#X#X#X#X#X X X X X X X X X X XoXoXoXoXoX X Xv.O.O.| ~ R U K K U U U U U U R R R R R R E E ! Q Q Q Q Q Q ~ ~ ~ ~ ~ ~ Q Q Q ! ! R U L q 0 q k L L U U R R R R R R R R R ! ! ! ! E E ! Q ! ! E E ~ ' ' ..X.X.s.s.[ [ ",
"ZXzXzXxXlXlXlXlXdXdX9X-X-X-X-X-X=X=X=X&X&X+X+X+X+XOXOXOXOXOXoXoXU.U.U.U.U.U.U.U.U.U.U.U.j.j.j.U.j.j.U.U.U.U.j.U.U.U.U.U.U.U.U.U.U.U.U.U.U.U.U.U.U.U.j.j.o.o.X....... .........X.X.I.W.%X-X9XjXjXjXjX-X=X&X=X=X8XjXBXAXLXKXKXJXJXJXJXJXJXJXJXJXJXKXKXDXkXdX=XE.X.+.Q R E ~ | | O.O.o.v.v. X X X X X X X X X X X X X X X X X X X X X X X X X X X X X X X X XoX#X#X#X#X#X#XoXU.v.X. .~ Y Y U U U R U E E ! Q Q ~ Q ~ ~ ~ ~ ~ +.+.+.+.+.~ ~ ~ Q ! R K q 0 k k L R R R R R R R R E R R R ! E R E E E ~ ' ..X.g.f.s.d.s.u.s.s.s.s.[ [ ",
"SXzXzXzXxXlXlXlXdXdXdX9X9X-X-X-X-X=X=X=X&X&X+X+X+X+X+X+XOXOXoXoXoXoXoXoXU.U.U.U.U.U.U.U.U.U.U.U.U.U.U.U.U.U.U.U.U.U.U.U.U.U.U.U.U.U.oXOXOXE.E.OXOXOXOX+X+X+X+X+X+X+X+X+X$X+X+X!.E.Q.U.I.I.I.I.I.U.E.E.+X+X+X+XOXOXU.I.I.OX=XkXKXJXJXJXJXJXJXJXJXJXKXKXHXDXVXkX9X-X=X@XoXo.O. .~ U q q L U Q ~ +.|  .O.O.O.O.O.O.O.O.O.O.O.O.o.o.o.o.o.o.o.o.v.v.v.v.v. X XoXoXoXoXoXoXOX+X+X&X=X=X-X9X9X-X=X+XOXU.' W T Q Q ~ ~ ~ ~ +.+.+.| | | | | | +.~ ~ Q R K q q L U R E E R R E R R R E E E E ~ ' ] X.H.G.K.K.K.J.H.s.s.u.s.u.u.u.u.[ [ [ ",
"SXZXzXzXzXlXlXlXlXdXdX9X9X9X-X-X-X-X=X=X&X&X&X%X+X+X+X+XOXOXOXOXOXoXoXoXoXU.U.U.U.U.U.U.U.U.U.U.U.U.U.U.U.U.U.U.U.U.U.U.U.U.OXOXOXOXOXOX+XOX+X+X+X+X$X%X&X&X=X=X-X-X-X-XhXdXdXdXlXlXlXlXlXlXlXlXdX9X-X-X=X+XE.U.I.X.X.X.X.-XKXJXJXJXJXJXJXJXJXJXJXKXLXAXVXkXdX-X=X=X=X*X@X@X#X#XoX Xv.o.O. .~ Q U L 0 q L U Q Q ~ | | | | |  .O.O.O.O.O.O.o.o.o.o.o.o.v.v.v. XU.U.oXoXoXoX+X+X%X=X-X-X9XdXlXlXlXzXZXSXzXVXjXuX7XoXo.' ' '  . . . . .| ~ ~ ~ Q R U k k U R R E R R E R E ~ ' X.s.K.L.L.L.P.P.J.J.J.J.J.J.H.s.u.u.s.u.u.u.[ [ [ [ ",
"GXSXZXzXzXxXlXlXlXjXdXdXdX9X-X-X-X-X-X=X=X&X&X%X&X+X+X+X+XOXOXOXOXOXOXoXoXoXoXoXU.U.U.U.U.U.U.U.U.U.U.U.U.U.U.U.U.U.oXoXoXOXOXOXOXOXOXOX+X+X+X+X%X%X%X&X=X-X-X-X-X9XdXdXlXlXlXlXxXzXzXSXGXGXDXFXHXHXHXHXHXHXHXLXDXSXlX-X%XlXJXJXJXJXJXJXJXJXJXJXJXJXJXJXJXHXFXGXVXjX-X@XOXoXoXo.o.o.o.v. X Xo.o.o.o.o.O.O. .~ ~ U L q q G L ^ Q ~ +.| | |  . .O.O.O.O.o.o.o.o.v.v.v.U.U.U.OX+X+X%X=X-X-XdXlXlXlXxXzXGXFXHXKXJXJXJXJXKXDXzXdX-X!.I...' ' +.~ Q R U L R E E E ~ ' X.I.T.~.(.(.^.^.^.P.P.P.P.P.J.P.P.J.J.G.H.d.u.u.s.u.u.[ [ [ [ [ ",
"GXSXSXzXzXzXlXlXlXlXdXdXdXdX9X-X-X-X-X=X=X=X&X&X&X+X+X+X+XOXOXOXOXOXOXOXOXoXoXoXoXoXU.U.U.U.U.U.U.U.U.U.U.U.oXU.U.U.oXOXoXOXOXOXOXOX+X+X+X+X%X&X&X&X=X=X-X-X-X9XdXdXdXlXlXlXxXzXzXSXGXDXFXHXHXKXJXJXJXJXJXJXJXJXJXJXKXDXlXSXJXJXJXLXVXVXVXAXGXAXLXLXLXAXAXAXAXZXVXkXkXjX9XsX=X*X@X#XoXo.O. . . . . . .O.o.o.o.o.o.o.o.O.O. .+.~ Q U L L L U Q ~ +.+.|  . . .O.O.o.v.v.U.U.oXOX+X+X%X=X-X9XlXlXlXzXSXDXFXKXJXJXJXJXJXJXJXHXFXGXZXzXlXlX9X=XE.X.' ~  .X.I.E.W.!.).(.(.(.(.(.(.^.^.^.^.L.L.P.L.P.P.K.K.K.G.H.s.u.u.u.u.[ [ [ [ ] ] ",
"DXGXSXZXzXzXxXlXlXlXlXlXdXdX9X9X-X-X-X-X-X=X=X&X&X&X+X+X+X+X+X+XOXOXOXOXOXOXoXoXoXoXoXU.U.U.U.U.U.U.U.oXoXoXoXoXoXoXoXOXOXOXOX+X+X+X+X+X%X%X&X&X=X=X=X-X-X-X9XdXdXlXlXlXlXlXzXzXSXGXDXFXHXKXJXJXJXJXJXJXJXJXJXJXJXJXJXHXzXGXJXJXJXKXzXlXdX9X=X&XO. .O.}.oXoXoXoXoX#X@X@X@X@X+X+X+X@X#X#XoXoXoXoXoXoXo.O. . . . . . . . .O.O.o.o.o.O.o.o.O. . .~ Q R U Y Y U E ~ |  . .X.o.v.U.U.OX+X&X=X-X9XlXlXzXSXFXHXJXJXJXJXJXJXJXJXJXHXFXGXSXzXzXlXlXjXdXsX=X=X%X%X%X_._._._._._._.(.(.(.(.^.^.^.^.P.L.K.K.J.H.H.H.d.u.u.u.u.u.[ u.p.p.` p.",
"DXGXSXSXZXzXzXlXlXlXlXjXdXdXdX9X9X9X-X-X-X=X=X&X&X&X+X+X+X+X+X+XOXOXOXOXOXOXoXoXoXoXoXoXoXoXoXoXU.oXoXoXoXoXoXoXoXOXoXOXOXOXOX+X+X+X+X+X%X&X&X&X=X=X-X-X-XhXdXdXlXlXlXlXlXzXzXSXGXFXFXHXKXJXJXJXJXJXJXJXJXJXJXJXJXJXJXJXGXGXJXJXJXJXJXKXHXLXAXVX5X#X}.O.| | } } } } } } } | | O.O.O.O.}.}.o.o.o.o.o.o.o.o.o.o.o.o.o.o.o.O. . .+.) +. . . . .o.o.o.o.o.o.o.O. .' ~ ~ E W W ~ +. .X.v.oX+X*X=XdXlXzXSXFXKXJXJXJXJXJXJXJXJXJXKXHXHXHXHXDXSXlXlXlXIXsX-X=X=X-X%X%X%X_._._._._.(.(.~.^.^.L.L.P.K.J.H.H.H.d.u.u.] ` w.<.<.<.<.1.1.S 1.",
"DXDXGXSXZXZXzXzXlXlXlXlXjXdXdXdX9X9X9X-X-X-X=X=X=X&X+X%X+X+X+X+X+XOX+XOXOXOXoXoXoXoXoXoXoXoXU.U.oXoXoXoXoXoXoXoXoXOXOXOXOXOX+X+X+X+X+X%X&X&X&X&X=X-X-X-X-XhXhXdXlXlXlXlXzXzXSXGXDXFXHXKXJXJXJXJXJXJXJXJXJXJXJXJXJXJXJXJXHXHXJXJXJXJXJXJXJXJXJXJXJXJXKXLXCXNXuX:X.XO.} } } } } } I I I I I } } } } | | O.O.O.O.O.o.o.o.o.o.o.o.o.o.o.o.o.o. . . . . . . . ...o.o.o.o.o.o.o.o.X...' ' ' ' ' ..v.+X9XkXGXHXJXJXJXJXJXJXJXJXJXJXJXJXJXJXJXJXHXzXjXIXIXsX-X-X-X-X%X%X_._._._.(.~.~.^.L.P.P.'.'.H.u.p.u.` <.w.<.A C 2.2.2.1.1.2.3.<.F.",
"FXDXDXGXSXZXZXzXkXkXlXlXjXjXdXdX9X9X9X9X-X-X=X=X=X&X&X&X&X+X+X+X+X+X+X+XOXOXoXoXoXOXoXoXoXoXU.U.U.oXoXoXoXoXoXOXOXOXOXOXOXOX+X+X+X+X%X%X&X&X&X=X=X-X-X-X-XdXdXdXlXlXlXlXzXzXSXGXFXFXHXJXJXJXJXJXJXJXJXJXJXJXJXJXJXJXJXJXJXJXJXJXJXJXJXJXJXJXJXJXJXJXJXJXJXJXJXJXJXKXLXSXjX9X=X#X}.O.} } } I I I I I I I I I I } } } | O.O.O.O.O.O.O.o.o.o.o.o.o.o.o.o.o.o.o.............X.o.U.OX+X+X@X=X=XsXsXsX8XsX8XaXCXLXKXJXJXJXJXJXJXJXJXJXJXJXJXKXDXzXlXIXIXsX=X=X%X%X%X_._._.(.~.^.^.P.J.u.u.r.r.<.1.S 1.3.<.1.3.1.S ,.3.3.3.3.3.3.3.>.F.",
"FXDXDXGXSXZXZXZXkXkXkXkXlXjXjXdXdXdXdX9X9X8X-X=X=X=X&X&X&X+X+X+X+X+X+XOX+XOXOXoXOXOXOXOXoXoXoXoXOXoXoXoXoXoXOXOXOXOXOXOXOXOX+X+X+X+X%X&X&X&X=X=X-X-X-XhXhXdXdXlXlXlXlXxXzXSXGXDXFXHXKXJXJXJXJXJXJXJXJXJXJXJXJXJXJXJXJXJXJXJXJXJXJXJXKXJXJXJXJXJXJXJXJXJXJXJXJXJXKXKXFXDXGXSXzXzXkXkXjXiXsX@X#XoX}.O.} } } I I I I I I I I I } } } } } | O.O.O.O.o.o.o.o.o.o.j.U.oXoXOXOXOXOXOXOXE.OX+X&X-XjXCXLXKXJXJXJXJXJXJXJXJXJXJXJXJXKXHXHXLXLXGXZXlXIXIXsX*X*X+X+X!.~.~.^.L.'.'.p.p.<.1.1.C 2.3.V.3.3.<.3.3.1.3.V.V.<.2.3.3.3.3.3.3.3.>.F.",
"FXFXDXGXSXZXZXZXVXkXkXkXkXkXjXjXfXdXdX9X9X9X8X8X7X=X=X=X=X&X&X@X@X+X+X+X+X+XOXOXOXOXOXOXOXOXoXoXOXOXOXOXOXOXOXOXOXOXOX+X+XOX+X+X+X%X&X&X=X=X=X-X-X-X-XhXhXdXdXlXlXlXlXzXzXSXGXDXFXHXKXJXJXJXJXJXJXJXJXJXJXJXJXJXJXJXJXJXJXJXJXJXKXZXzXzXZXZXSXSXSXSXGXGXGXDXGXGXGXSXZXzXzXlXlXlXlXjXdXdX9X-X-X-X=X=X&X@X#X#XoX}.O.O.| } } } } } } } } } } } } } | O.O.O.o.}.}.o.o.o.o.U.U.+X+X=X-X9XjXkXVXGXLXLXJXJXJXJXJXJXJXJXJXJXJXJXJXKXDXzXlX-X).Y.H.X.v.G.v.G.v.[ [ ` w.<.<.2.2.2.3.2.3.V.,.V.3.:.V.3.2.V.3.a.F.V.F.3.1.3.3.3.3.V.3.3.2.F.",
"FXFXDXDXGXSXZXZXVXVXkXkXkXkXkXjXfXfXfXdX9X9X9X9X8X7X7X=X=X=X=X=X&X@X@X@X@X@X+X+X+X+XOXOXOXOXOXoXOXOXoXOXOXOXOXOXOXOX+X+X+X+X+X+X&X&X&X&X=X=X=X-X-X-X-XhXdXdXlXlXlXlXlXzXzXSXGXFXFXKXJXJXJXJXJXJXJXJXJXJXJXJXJXJXJXJXJXJXJXKXHXDXxXhXhXhXhX-X-X-X-X-X-X-X-X-X-X-X-X-X-X-X-X-X-X-X-X-X-X-X%X%X%X%X&X&X+X+X+XOXOXOXOXOXoXoXoXoX}.}.o.O.O.O.O.| | | | | | | O.O.O.o.o.o.}.oXoXoXOX+X+X@X-X9XkXSXHXJXJXJXJXJXJXJXJXJXJXJXJXJXJXKXLXGXzXlXdX-X%XR.s.[ { B < l D C 2.2.3.3.3.V.V.3.V.V.2.A.3.3.A.V.1.F.3.V.].].F.F.1.V.V.V.V.V.V.3.2.V.",
"FXFXDXDXDXSXZXZXVXVXVXkXkXkXjXjXjXjXfXdXiX9X9X9X8X7X7X7X7X7X7X7X=X@X@X@X@X@X@X@X@X@X@X@X@X@X@X@X+X+X+XOX+X+X+X+X+X+X+X+X+X+X+X+X&X&X&X=X=X=X-X-X-X-X-XdXdXdXlXlXlXlXlXzXZXSXGXFXFXKXJXJXJXJXJXJXJXJXJXJXJXJXJXJXJXJXJXJXKXDXSXSXcXhXhX-X-X%X%X_.).W.W.Q.Q.Y.Y.I.Y.Q.Q.E.Q.E.W.W.W.W.W.W.E.E.Q.Q.E.E.Q.Q.Q.Q.Q.Q.E.U.I.I.U.U.U.U.U.U.U.U.U.U.j.j.o.}.oXoXoXoXoXoXoXoXoXoXoXoXoXOX+X+X+X+X&X-X9XVXLXKXJXJXJXJXJXJXJXJXJXJXJXJXJXHXSXlXhX-X).~.f.G.f.X.V ,.1.,.3.3.V.V.A.A.A.A.A.A.2.A.3.3.A.A.2.].V.].].].A.F.3.V.V.V.V.V.V.V.2.V.",
"FXFXDXDXDXGXSXZXZXVXVXkXkXkXkXjXjXjXjXfXfXiX9X8X8X8X7X7X7X7X7X7X7X7X7X7X@X@X@X@X@X@X@X@X@X@X@X@X@X@X@X@X@X@X@X@X@X@X@X@X@X&X&X&X&X=X=X=X=X-X-X-X-X9XdXdXdXlXlXlXlXlXzXzXSXGXDXFXHXKXJXJXJXJXJXJXJXJXJXJXJXJXJXJXJXJXJXJXJXGXSXFXKXKXHXDXSXZXzXlX-X%X!.Q.Q.I.I.I.j.j.j.j.j.j.j.g.g.g.g.g.j.j.j.j.j.j.j.j.I.j.j.j.j.j.j.j.j.j.j.j.j.j.j.I.I.I.I.Q.U.Q.Q.E.E.W.!.+X$X%X&X=X-X-X-X-X-X=X%XOXE.U.U.U.U.U.+X7XaXNXCXAXLXKXJXJXKXKXLXLXDXGXZXlXdX-X%X{ M s ,.2.3.2.V.A.A.A.A.A.A.A.A.A.3.A.V.V.A.A.3.].V.].{.{.].F.V.A.A.V.V.V.V.V.1.V.",
"FXFXDXDXDXGXSXZXZXVXVXVXkXkXkXjXjXjXjXfXfXiX9X8X8X8X8X6X7X7X7X7X7X7X2X7X:X:X@X@X@X@X@X@X@X@X@X@X@X@X@X@X@X@X@X@X@X@X@X@X&X&X=X=X=X=X=X=X-X-X-X-X9XdXdXdXlXlXlXlXlXlXzXzXSXGXDXFXHXKXJXJXJXJXJXJXJXJXJXJXJXJXJXJXJXJXJXJXJXDXSXHXJXJXJXJXJXJXKXKXKXFXGXzXdX9X-X%X+XE.Q.I.j.j.j.j.j.g.g.g.X.X.g.g.g.X.X.X.X.X.X.g.g.g.j.g.g.j.j.j.j.j.j.j.j.j.j.j.j.I.Y.Q.Q.Q.W.!.$X%X%X-X-XdXlXlXlXxXSXDXFXLXLXAXCXCXNXjXfX9X8X=X+XU.U.E.+X+X%X+X$X%X%X%X%X%X-Xu.s s 2.3.V.3.A.A.A.A.D.D.A.A.D.D.3.A.A.A.A.A.3.A.].{.{.{.].F.V.A.A.A.A.].V.V.1.V.",
"HXFXDXDXDXGXSXZXZXVXVXVXBXkXkXjXjXjXjXfXfXfXiX9X8X8X8X6X6X6X7X7X7X7X7X2X:X:X@X@X@X@X@X@X@X@X@X@X@X@X@X@X@X@X@X@X@X@X@X=X=X=X=X=X=X=X=X8X8X8X9X9X9XdXdXdXjXlXlXkXxXzXzXZXSXDXFXFXHXKXJXJXJXJXJXJXJXJXJXJXJXJXJXJXJXJXJXJXJXFXSXHXJXJXJXJXJXJXJXJXJXJXKXHXFXDXSXZXkXlXdX9X-X&X+XOXE.U.U.j.j.j.X.X.X.X.X.X.X.X.X.X.X.X.X.X.X.X.X.X.X.X.X.g.g.g.g.f.f.f.j.f.j.f.f.Y.Y.R.W.).%X%X-XhXcXcXxXGXFXKXJXJXJXJXJXJXJXJXJXJXJXKXLXAXBX9X&Xj.) N M g.$XlXGXJ.s d 2.3.V.3.A.D.D.S.S.S.A.D.D.D.V.A.[.D.].A.1.{.{.[.[.[.].V.V.A.A.A.].].A.V.3.V.",
"HXFXDXDXDXGXSXZXZXZXVXVXBXkXkXjXjXjXjXfXfXfXiX9XiX8X8X8X6X6X6X7X7X7X7X7X7X2X:X:X@X@X@X@X@X@X@X@X@X@X@X@X@X@X@X@X@X@X@X=X=X7X7X7X7X7X7X8X8X8X9X9X9XdXdXdXjXlXlXkXzXzXzXSXGXDXFXHXHXJXJXJXJXJXJXJXJXJXJXJXJXJXJXJXJXJXJXJXJXKXGXHXJXJXJXJXJXJXJXJXJXJXJXJXKXKXHXFXDXSXzXxXlXlXdX9X-X-X&X$X+XOXOXOXOXOXU.U.j.j.j.j.j.j.g.g.X.X.X.X.X.X.X.X.X.X.g.g.g.g.g.g.g.f.f.f.f.Y.Y.T.R.W.(.(._.%XhXhXcXzXGXHXKXJXJXJXJXJXJXJXJXJXJXJXJXJXJXJXJXLXAXkXSXGXGXH.d D 3.V.A.3.D.D.S.S.[.S.D.D.S.S.3.D.A.Z.D.A.V.[.[.[.[.[.A.V.A.A.A.A.].].A.V.3.V.",
"HXFXDXDXDXGXSXZXZXZXVXVXBXBXkXkXjXjXjXfXfXfXiXiXiXuX8X8X6X6X6X6X7X7X7X7X7X4X:X:X7X:X@X@X@X@X@X@X@X@X:X:X@X@X@X@X:X:X7X7X7X7X7X7X7X7X8X8X8X9X9X9X9XdXfXfXjXkXkXkXzXZXZXSXGXDXFXHXHXKXJXJXJXJXJXJXJXJXJXJXJXJXJXJXJXJXJXJXJXKXDXHXJXJXJXJXJXJXJXJXJXJXJXJXJXJXKXHXFXDXGXZXzXlXlXlXlXdX9X-X=X=X&X&X&X&X+X+X+XOXOXOXOXoXU.U.j.j.j.j.j.j.j.j.g.g.g.g.g.g.g.g.g.g.g.g.g.g.g.f.f.f.Y.T./.(._.%X-XhXhXcXlXZXGXLXHXKXJXJXJXJXJXJXJXJXJXJXJXJXKXHXFXGXFXL.d ,.3.A.A.3.D.S.S.S.S.S.D.S.S.S.V.D.A.D.A.D.3.[.[.[.{.[.{.V.A.A.A.A.].].A.A.3.A.",
"HXFXDXDXDXGXSXSXZXZXVXVXVXBXBXkXjXjXjXjXfXfXaXiXiXiX8X8X6X6X6X6X7X7X7X7X7X7X4X:X7X=X@X@X@X@X:X:X@X@X:X:X7X:X:X:X:X7X7X7X7X7X7X7X7X8X8X9X9X9X9XdXdXdXfXfXjXkXkXkXzXZXZXSXGXDXFXFXHXKXJXJXJXJXJXJXJXJXJXJXJXJXJXJXJXJXJXJXJXJXHXHXJXJXJXJXJXJXJXJXJXJXJXJXJXJXJXHXHXFXDXGXZXzXzXlXlXlXdXdX9X-X-X-X-X=X=X&X&X+X+X+X+XOXOXOXOXOXOXOXU.U.U.U.U.Q.Q.Q.U.I.j.j.j.j.j.j.f.f.f.f.f.f.f.f.K.K.T.R./.(.(._.%X-XhXhXcXlXxXZXGXDXDXFXDXDXDXDXDXGXGXSXxXxXGXL.V ,.3.A.A.V.S.S.S.S.S.S.S.S.S.S.V.D.S.S.S.D.V.[.[.[.].[.{.V.A.A.A.A.].A.A.A.V.A.",
"HXFXDXDXDXGXSXSXZXZXVXVXVXBXBXBXjXjXjXjXjXfXaXaXiXiXuXuX8X6X6X6X7X7X7X7X5X5X7X7X7X7X@X@X@X@X:X:X=X:X:X:X@X:X:X@X:X7X7X7X7X7X7X7X7X8X8X9X9X9X9XiXdXfXfXfXjXkXkXkXzXZXZXSXDXDXFXFXHXKXJXJXJXJXJXJXJXJXJXJXJXJXJXJXJXJXJXJXJXJXHXKXJXJXJXJXJXJXJXJXJXJXJXJXJXJXJXKXHXFXFXDXSXZXzXxXkXkXjXdX9X9X9X9X8X-X-X=X&X&X&X&X+X+X+X+X+XOXOXOXOXOXOXOXOXOX+X+X+X+X+X+X+X$X$X%X%X%X%X).$X%X%X_._.%X%X%X%X_.(.(._._._._.%X%X-X%X_._._.%X-X-X-X-XhXhXhXhXhXhXFXu.V ,.A.A.A.A.S.S.S.S.S.S.S.S.S.S.3.S.S.S.S.D.V.[.[.[.[.[.[.V.A.A.A.A.A.A.A.A.3.A.",
"HXFXDXDXDXGXSXZXZXZXVXVXVXBXBXkXjXjXjXjXjXfXaXiXiXiXuX8X8X8X6X6X6X7X7X7X7X5X7X7X7X7X7X@X@X:X:X:X7X:X:X:X:X:X7X7X7X2X7X7X7X7X7X7X7X8X9X9X9X9XiXiXfXfXfXfXfXjXkXzXZXZXZXZXGXDXFXHXHXKXJXJXJXJXJXJXJXJXJXJXJXJXJXJXJXJXJXJXJXJXKXKXJXJXJXJXJXJXJXJXJXJXJXJXJXJXJXKXHXFXFXDXGXZXZXzXkXkXjXdXdXdXdXdX9X9X-X=X=X&X&X&X&X+X+X+X+X+X+X+X+X+X+X+X+X$X$X%X%X%X&X%X%X&X-X-XhXhXhXhXhXdXcXcXlXxXzXSXDXDXDXGXSXZXZXzXlXlXlXdXhX-X_._._.`.`.`.`.`.`.'.'.cXFXt.V ,.A.A.D.A.S.S.S.S.S.S.S.S.S.S.A.S.D.D.S.D.V.[.[.[.[.[.[.V.A.A.A.A.].].{.A.3.A.",
"FXDXDXDXGXGXSXSXZXZXVXVXVXBXBXkXjXjXjXjXjXjXfXaXaXiXuXuXuX8X6X6X6X7X7X7X7X7X7X7X7X2X7X:X@X7X:X:X:X7X7X2X:X2X:X7X7X7X7X7X7X7X7X7X6X8X9X9X9X9XiXiXfXfXfXfXfXfXlXkXZXZXZXZXDXDXFXHXHXKXJXJXJXJXJXJXJXJXJXJXJXJXJXJXJXJXJXJXJXJXKXKXJXJXJXJXJXJXJXJXJXJXJXJXJXJXJXKXHXHXFXDXGXSXZXZXzXkXlXjXdXdXdXdXdX9X8X-X=X=X=X=X&X&X@X@X+X+X+X+X+X+X+X+X+X&X&X&X&X&X=X=X-X-X-XhXhXdXlXlXlXlXxXxXzXGXFXHXHXKXJXJXJXJXJXKXKXKXKXKXKXHXHXGXZXxXcXhXhX_._.'.hXlXlXu V 2.A.D.D.A.S.S.S.S.S.S.S.S.S.S.A.S.A.Z.S.D.V.[.[.[.[.[.[.V.A.A.A.A.].].{.A.3.A.",
"FXDXDXDXGXGXSXSXZXZXVXVXVXBXBXBXkXjXjXjXjXjXfXaXiXiXuXuXuX8X8X6X6X7X7X7X7X5X5X5X7X2X:X:X@X:X7X7X7X7X7X7X2X2X2X7X7X7X7X7X7X7X6X6X8X8X8X9X9XiXiXiXfXfXfXfXfXdXfXkXVXZXSXGXDXDXFXHXHXKXJXJXJXJXJXJXJXJXJXJXJXJXJXJXJXJXJXJXJXJXKXKXJXJXJXJXJXJXJXJXJXJXJXJXJXJXJXKXHXHXFXDXGXSXZXZXzXkXkXjXdXdXfXdXdX9X9X8X7X=X=X=X&X&X@X@X@X@X@X@X@X@X@X&X&X&X&X&X=X=X=X-X-X-XhXhXdXlXlXlXxXxXzXSXGXDXFXKXJXJXJXJXJXJXJXJXJXJXJXJXJXJXJXJXKXHXHXFXGXxXxX%X-Xm hXd C 1.A.D.D.A.S.S.S.S.S.S.S.S.S.S.A.D.A.A.S.D.V.[.[.[.[.[.[.A.A.A.A.A.A.].].A.3.A.",
"FXDXDXDXGXGXSXZXZXZXVXVXVXVXBXBXBXjXjXjXjXjXjXfXiXaXiXiXuX8XuX6X6X6X6X6X7X7X7X7X7X2X7X=X@X:X:X:X7X7X:X7X7X7X2X7X7X7X7X7X7X6X6X6X8X8X8X9XiXiXfXfXfXfXfXfXdXdXdXjXkXZXZXDXDXFXFXHXHXHXJXJXJXJXJXJXJXJXJXJXJXJXJXJXJXJXJXJXJXJXKXHXJXJXJXJXJXJXJXJXJXJXJXJXJXJXJXKXHXHXFXDXDXSXZXZXzXkXkXjXjXjXfXfXdXdX9X8X8X7X=X=X=X&X&X&X@X@X@X@X@X&X&X&X&X&X&X=X=X-X-X-X-X9XdXdXlXlXlXxXxXxXzXGXDXFXHXJXJXJXJXJXJXJXJXJXJXJXJXJXJXJXJXJXJXJXJXKXFXDXSXhX-XZ hXd C 3.A.D.D.A.S.S.S.S.S.S.S.S.S.S.A.S.A.D.S.D.V.S.S.[.[.[.[.A.A.A.D.A.A.[.].A.3.A.",
"FXDXDXDXGXGXSXZXZXZXVXVXVXVXBXBXBXjXjXjXjXjXfXfXaXaXiXuXuXuX8X6X6X6X6X6X7X7X5X7X7X7X7X=X@X:X2X7X7X7X7X7X7X7X7X7X7X7X7X7X7X6X6X8X8X8X8X9XiXiXfXfXfXfXfXfXfXfXfXjXkXZXZXGXDXDXFXHXHXHXKXJXJXJXJXJXJXJXJXJXJXJXJXJXJXJXJXJXJXJXKXHXJXJXJXJXJXJXJXJXJXJXJXJXJXJXJXKXHXHXFXDXDXDXSXZXZXkXkXkXjXjXjXjXfXfXdX9X8X7X7X=X=X&X&X&X@X@X@X@X@X&X&X&X&X&X=X7X-X-X-X-X-X9XdXdXlXlXlXxXzXzXSXGXDXFXHXJXJXJXJXJXJXJXJXJXJXJXJXJXJXJXJXJXJXJXJXJXHXFXDXhX-XZ hXD 3.V.A.D.D.A.S.S.S.S.S.S.S.S.S.S.A.[.A.S.S.D.V.S.[.[.[.[.[.V.A.A.D.A.D.[.].A.3.A.",
"FXDXDXDXGXGXSXZXZXZXVXVXVXBXBXBXBXjXjXjXjXjXjXfXaXaXiXiXuXuX8X6X6X6X6X6X6X7X7X7X7X7X7X7X@X7X2X7X7X7X7X2X7X7X7X7X7X7X7X7X7X6X6X8X8X8X8X9XiXfXfXfXfXfXfXfXfXfXfXjXkXVXZXSXDXDXFXFXHXHXKXJXJXJXJXJXJXJXJXJXJXJXJXJXJXJXJXJXJXJXKXHXJXJXJXJXJXJXJXJXJXJXJXJXJXJXJXKXHXHXFXDXDXDXSXZXZXkXkXkXjXjXjXjXfXfXdX9X8X7X7X7X7X=X&X&X&X&X&X&X&X&X&X&X&X=X=X8X-X8X-X8X8XdXdXlXlXkXkXzXzXzXSXGXDXFXHXJXJXJXJXJXJXJXJXJXJXJXJXJXJXJXJXJXJXJXJXJXKXFXFXhXhX( hX3.V.V.A.D.D.A.S.S.S.S.S.S.S.S.S.S.A.[.[.[.S.D.V.S.S.D.A.[.[.V.A.A.D.D.D.[.A.A.3.A.",
"DXDXDXDXGXSXAXZXZXVXVXVXVXBXBXBXBXjXjXjXjXjXfXfXfXaXaXiXiXuXuXuXuX6X6X6X6X7X7X7X7X7X7X7X@X:X7X7X7X7X7X7X7X5X5X7X7X7X7X7X6X6X6X8X8X8X8X9XiXaXfXfXfXfXfXfXfXfXfXjXkXkXZXSXDXDXDXFXHXHXHXKXJXJXJXJXJXJXJXJXJXJXJXJXJXJXJXJXJXJXKXHXJXJXJXJXJXJXJXJXJXJXJXJXJXJXJXKXHXHXFXDXDXGXSXZXZXkXkXkXjXjXjXjXjXfXfX9X8X8X7X7X7X=X&X&X&X&X&X&X&X&X&X&X&X=X=X8X-X8X8X8X9XdXdXlXlXkXzXzXzXzXSXGXDXFXHXJXJXJXJXJXJXJXJXJXJXJXJXJXJXJXJXJXJXJXJXJXKXHXFXhXhXe.hX3.A.V.A.D.D.A.S.S.S.S.S.S.S.S.S.S.A.[.[.[.A.[.V.S.S.[.[.[.[.V.A.A.D.D.A.A.A.A.3.A.",
"DXDXDXDXGXSXZXZXZXZXVXVXBXBXBXBXBXjXjXjXjXjXfXfXfXaXiXiXiXuXuXuXuXqX6X6X6X6X5X7X7X7X7X7X:X7X7X7X5X5X5X5X7X5X5X7X7X7X7X7X6X6X8X8X8X8XiX9XiXiXfXiXfXfXfXfXjXjXjXkXkXkXZXZXDXDXDXFXHXHXHXKXJXJXJXJXJXJXJXJXJXJXJXJXJXJXJXJXJXJXKXLXJXJXJXJXJXJXJXJXJXJXJXJXJXJXJXHXHXHXFXDXDXSXZXZXZXkXkXkXjXjXjXjXjXfXfXiX9X8X7X7X7X=X=X=X=X=X&X&X=X&X&X=X=X=X7X8X8X8X8X9X9XdXdXlXkXkXxXzXxXzXSXGXDXFXHXKXJXJXJXJXJXJXJXJXJXJXJXJXJXJXJXJXJXJXJXJXJXHXFXhXhXr.cXV.A.V.A.D.D.A.S.S.S.S.S.S.S.S.S.S.V.S.[.S.A.[.F.[.[.[.[.[.[.V.A.A.A.A.A.A.A.A.3.].",
"DXDXGXGXGXSXAXZXZXZXVXVXVXBXBXBXBXBXjXjXjXjXjXfXaXaXaXiXiXuXuXuXqXqX6X6X6X6X6X7X7X7X7X7X7X7X5X5X7X5X7X7X5X5X5X7X7X7X6X6X6X6X8X8X8X8X9X9XiXfXfXfXfXfXfXfXjXjXjXjXkXkXVXZXSXDXDXFXFXHXHXKXJXJXJXJXJXJXJXJXJXJXJXJXJXJXJXJXJXJXKXDXJXJXJXJXJXJXJXJXJXJXJXJXJXJXKXHXHXHXFXDXDXGXZXZXZXkXkXkXjXjXjXjXjXfXfXiX9X8X7X7X7X7X=X=X=X7X=X=X=X=X=X=X=X=X7X8X8X9X9X9XdXdXdXlXkXkXzXxXzXzXSXGXDXFXFXKXJXJXJXJXJXJXJXJXJXJXJXJXJXJXJXJXJXJXJXJXKXHXFXdXhXi.cXa.A.F.D.D.{.A.S.S.S.S.S.S.S.S.S.S.A.D.[.S.[.[.F.[.[.[.D.[.[.V.A.A.D.A.A.A.A.A.3.].",
"DXDXGXGXGXSXZXZXZXZXVXVXVXBXBXBXBXBXBXjXjXjXjXfXaXaXaXiXiXiXuXuXqXqXqX6X6X6X6X5X7X7X7X7X7X7X7X7X7X7X7X7X7X7X7X7X7X6X6X6X6X6XuX8X8X8XiXiXfXfXfXfXfXfXfXjXjXjXjXjXkXkXVXZXZXDXDXDXFXFXHXHXKXJXJXJXJXJXJXJXJXJXJXJXJXJXJXJXJXJXKXLXJXJXJXJXJXJXJXJXJXJXJXJXJXJXKXHXHXFXFXDXDXSXZXZXZXVXkXkXjXjXjXjXjXjXfXdX9X8X6X7X7X=X7X=X7X7X7X7X=X=X=X=X=X=X7X-X8X9X9X9XdXdXdXlXlXlXzXzXzXzXZXSXGXDXFXKXJXJXJXJXJXJXJXJXJXJXJXJXJXJXJXJXJXJXJXJXKXHXFXhXhXa.cXF.].].{.D.D.A.S.S.S.S.S.S.S.S.S.S.].D.A.D.[.[.F.[.[.A.[.[.[.V.A.A.A.A.A.A.A.A.3.A.",
"DXDXGXGXSXAXZXZXZXZXVXVXVXVXBXBXBXBXjXjXjXjXjXfXfXfXaXiXiXiXiXuXuXqXuX6X6XqX6X6X6X7X7X7X7X7X7X7X7X7X7X7X7X7X7X7X7X6X6X6X6X6XuXuX8X8XiXiXfXfXfXfXfXfXjXjXjXjXjXjXjXkXkXZXZXSXDXDXFXFXHXHXKXKXJXJXJXJXJXJXJXJXJXJXJXJXJXJXJXJXKXLXJXJXJXJXJXJXJXJXJXJXJXJXJXKXHXHXHXFXDXDXDXSXZXZXZXVXkXkXjXjXjXjXjXjXfXfX9X9X6X7X=X=X7X7X7X7X7X7X7X=X=X=X=X=X-X8X9X9X9X9XdXdXdXlXlXkXzXzXzXzXzXSXGXDXFXHXJXJXJXJXJXJXJXJXJXJXJXJXJXJXJXJXJXJXJXJXKXFXFX-XhXa.cXF.].].{.D.D.A.S.S.S.S.S.S.S.S.S.S.V.[.A.[.D.[.V.D.A.{.[.[.S.V.A.A.A.A.A.A.A.A.3.A.",
"DXGXGXSXSXZXZXZXZXZXVXVXVXVXBXBXBXBXjXjXjXjXjXjXfXfXaXaXiXiXuXuXuXqXuXqXqX6X6X6X6X7X7X7X7X7X7X7X7X7X6X7X7X7X5X6X7X6X6X6X8X8X8XuXuXiXiXaXfXfXfXfXfXfXjXjXjXjXjXjXkXkXkXVXZXSXDXDXDXFXFXHXHXHXKXJXJXJXJXJXJXJXJXJXJXJXJXJXJXJXHXGXJXJXJXJXJXJXJXJXJXJXJXJXJXKXHXHXFXFXDXDXGXZXZXZXZXVXkXkXjXjXjXjXjXjXjXfX9X9X8X7X7X7X=X=X7X7X=X=X7X7X=X=X7X=X8X8X9X9X9X9X9XdXdXlXkXkXkXzXzXzXZXSXGXDXFXHXJXJXJXJXJXJXJXJXJXJXJXJXJXJXJXJXJXJXJXJXHXFXDX-XhXa.cXa.].].{.D.{.A.S.S.S.S.S.S.S.S.S.S.3.[.[.[.D.D.V.D.S.[.S.[.[.3.A.A.A.A.A.A.A.A.3.A.",
"GXGXGXSXSXZXZXAXZXVXVXVXVXBXBXBXjXjXjXjXjXjXjXjXfXaXaXaXiXiXiXuXuXqXuXqXqX6X6X6X6X6X7X7X7X7X7X7X7X7X6X5X7X7X7X6X6X6X6X6X8X6X8X8XuX9XiXaXaXiXfXfXfXfXfXjXjXjXkXkXkXkXkXVXZXSXSXDXDXDXFXHXHXHXKXKXJXJXJXJXJXJXJXJXJXJXJXJXJXJXHXAXJXJXJXJXJXJXJXJXJXJXJXJXKXHXHXHXFXDXDXDXGXZXZXZXVXVXkXkXjXjXjXjXjXjXfXfX9X8X8X7X7X7X7X7X7X7X7X7X7X=X=X=X7X7X8X8X9X9X9X9XdXdXdXlXlXkXkXzXzXzXZXZXGXDXFXFXKXJXJXJXJXJXJXJXJXJXJXJXJXJXJXJXJXJXJXJXHXFXFX-XhXa.cXF.].].].D.{.A.S.S.S.S.S.S.D.S.S.S.].D.[.[.[.D.F.[.S.[.[.[.[.3.A.A.A.D.A.A.A.A.3.A.",
"GXGXSXSXZXZXZXZXZXVXVXVXVXBXBXBXBXBXjXjXjXjXjXjXfXaXaXaXiXaXiXuXuXuXqXqXqXqX6X6X6X7X7X7X7X7X7X7X5X5X5X5X6X5X6X6X6X6X6X6X8XuX8X8XuXiXiXaXaXfXiXfXfXjXjXjXjXkXkXkXkXkXkXVXZXZXGXDXDXDXDXFXHXHXHXKXKXJXJXJXJXJXJXJXJXJXJXJXJXJXHXAXJXJXJXJXJXJXJXJXJXJXJXKXHXHXHXFXFXDXDXDXGXZXZXZXVXVXkXkXkXjXjXjXjXjXjXfX9X8X8X7X7X7X7X7X7X7X7X7X7X7X=X7X7X7X8X8X9X9X9X9XdXdXdXlXkXkXkXkXzXzXzXZXSXGXDXFXHXKXJXJXJXJXJXJXJXJXJXJXJXJXJXJXJXJXJXKXHXFXDX-XhXa.cXF.].].].D.{.A.S.S.S.S.S.S.D.S.S.S.].A.D.D.[.[.V.[.S.S.[.[.[.3.A.A.A.A.A.A.A.A.3.A.",
"GXGXSXAXZXAXAXZXZXVXVXVXVXBXBXBXBXBXjXjXjXjXjXfXfXaXaXiXaXiXuXuXuXuXuXuX6X6X6X6X6X6X7X7X7X7X7X7X5X7X5X5X6X6X6X6X6X6X6X6X6X8XuX8XiXiXiXaXiXfXfXfXfXfXfXjXjXBXkXkXkXBXBXVXZXZXSXGXDXDXDXFXHXHXHXHXKXKXJXJXJXJXJXJXJXJXJXJXJXJXHXVXJXJXJXJXJXJXJXJXJXJXKXHXHXHXHXFXFXDXDXDXGXZXZXZXVXVXkXjXjXjXjXjXjXjXjXfXiX9X8X7X7X7X7X7X7X7X7X7X7X=X=X=X7X7X8X8X8X9X9X9XdXdXdXlXlXkXkXkXkXzXzXzXSXGXDXFXHXKXJXJXJXJXJXJXJXJXJXJXJXJXJXJXJXJXKXHXFXFXDX-XhXa.cXF.].].].D.{.A.S.S.S.S.S.S.D.S.S.S.].[.A.{.[.[.3.[.S.S.[.[.[.3.A.A.A.A.A.A.A.A.3.A.",
"GXGXSXAXZXAXAXZXVXVXVXVXBXBXBXBXBXBXjXjXjXjXjXfXfXfXaXaXaXaXiXuXuXuXuXuX6X6X6X6X6X6X7X7X7X7X5X7X7X7X7X6X7X6X6X6X6X6X6X6X6X8XuXuXiXiXiXiXiXfXfXfXfXfXfXjXjXkXBXBXkXkXBXVXVXZXZXGXDXDXDXDXFXFXHXHXHXKXKXJXJXJXJXJXJXJXJXJXJXJXHXVXJXJXJXJXJXJXJXJXKXKXKXHXHXHXFXFXFXDXDXGXSXZXZXZXVXkXkXjXjXjXjXjXjXjXjXfXiX9X8X7X7X7X7X7X7X7X7X7X7X=X=X7X7X8X8X8X8X9X9X9XdXdXdXlXlXkXlXlXxXzXzXzXZXSXDXFXFXHXKXJXJXJXJXJXJXJXJXJXJXJXJXJXJXJXHXHXFXFXDX-XhXa.cXF.].].].D.{.A.[.S.S.S.S.S.D.S.S.S.3.[.A.[.[.[.3.[.D.S.[.[.[.3.A.A.A.A.A.A.A.A.V.].",
"GXSXAXAXAXAXZXVXVXVXVXVXBXBXBXBXBXNXjXjXjXjXjXfXfXfXaXaXaXiXiXiXuXuXuXqXqX6X6X6X6X6X6X6X7X7X7X7X7X7X7X7X7X6X6X6X6X6X6X6X8XuXuXuXiXiXiXiXaXfXiXfXfXfXfXjXjXjXkXBXBXBXVXVXVXZXZXSXGXDXDXDXDXFXHXHXHXHXKXKXJXJXJXJXJXJXJXJXJXJXLXBXJXJXJXJXJXKXKXKXHXHXHXHXHXHXFXDXDXDXGXSXZXZXZXVXVXkXkXjXjXjXjXjXjXjXjXfXfX9X8X8X7X7X7X7X7X7X7X7X7X=X7X7X7X7X8X8X8X9X9X9XdXdXdXlXlXkXkXlXkXzXzXzXzXZXGXDXFXFXHXKXJXJXJXJXJXJXJXJXJXJXJXJXJXKXHXFXFXDXGX=XhXF.cXF.F.F.].[.{.A.D.D.S.S.S.S.D.S.S.S.3.[.[.[.[.S.3.S.S.S.[.[.{.3.A.A.A.A.A.A.A.A.V.].",
"SXAXZXZXZXAXZXVXVXVXVXVXVXBXBXBXBXNXjXjXjXjXjXfXfXfXaXaXaXiXiXiXuXuXuXuXqX6X6X6X6X6X7X7X7X7X7X7X7X7X7X6X6X6X6X6X6X6X6X8XuXuXuXuXiXiXiXaXaXfXfXfXfXfXfXfXjXjXkXBXBXBXBXVXVXVXZXZXSXDXDXDXDXDXFXHXHXHXHXKXKXKXJXJXJXJXJXJXJXJXLXBXKXKXJXJXKXKXHXHXHXHXHXHXHXFXDXDXDXDXGXSXZXZXZXVXVXkXkXkXjXjXjXjXjXjXjXfXfX9X8X8X7X7X7X7X7X7X7X7X7X7X7X7X7X7X8X8X8X9X9X9XdXdXdXlXlXlXkXkXlXkXzXzXzXZXGXDXFXFXHXHXKXJXJXJXJXJXJXJXJXJXJXJXKXHXHXFXDXDXGX&XhX`.cXF.a.F.].{.{.A.S.D.D.S.S.S.D.S.S.S.].[.[.[.{.A.3.S.S.S.D.[.{.3.A.A.A.A.A.A.A.A.3.].",
"GXAXZXZXAXAXVXVXVXVXVXVXBXBXBXBXBXBXjXjXjXjXjXfXfXfXaXaXaXiXiXiXuXuXuXuXuXqX6X6X6X6X6X7X7X7X7X7X7X6X6X6X6X6X6X6X6X6XqX6XuXuXuXuXiXiXiXaXaXfXfXfXfXfXfXfXjXjXjXkXkXkXBXVXVXVXZXZXZXSXDXDXDXDXFXFXHXHXHXHXHXKXKXJXJXJXJXJXJXJXLXBXHXHXHXHXHXHXHXHXHXHXHXHXFXDXDXDXDXGXSXSXZXZXZXVXVXkXkXkXjXjXjXjXjXjXjXfXfX9X8X8X8X7X7X7X7X7X7X7X7X7X7X7X7X7X7X8X8X9X9X9XdXdXdXlXlXkXkXkXlXlXzXzXzXZXSXGXDXFXFXFXHXHXKXJXJXJXJXJXJXJXJXKXHXHXFXFXDXGXGX&X-X`.hXa.F.F.].{.{.A.[.[.D.[.S.S.D.D.S.[.].A.[.{.{.A.V.S.D.S.D.[.{.3.A.A.A.A.A.A.A.A.3.A.",
"SXAXZXZXZXZXVXVXVXVXVXVXBXBXBXBXBXNXjXjXjXjXjXfXfXfXaXiXaXiXiXuXuXuXuXuXuXqX6X6X6X6X6X7X7X7X7X7X5X5X6X6X6X6X6X6X6X6X6X6X8XuXuXuXiXiXiXiXaXaXfXfXfXfXfXfXjXjXjXkXkXkXkXBXVXVXZXZXZXZXGXDXDXDXDXFXFXFXHXHXHXKXKXKXKXJXJXJXJXJXLXNXHXHXHXHXHXHXHXHXHXHXHXFXFXDXDXDXGXSXSXZXZXZXVXVXBXBXkXjXjXjXjXjXjXjXjXfXiX9X8X8X7X7X7X7X8X7X7X7X7X7X7X7X7X8X8X8X9X9X9X9XdXdXdXdXjXkXkXkXkXkXkXzXzXZXZXGXDXDXFXFXFXHXHXHXKXKXKXKXKXKXHXHXHXFXFXFXDXGXSX%XhX`.hXa.a.F.].{.{.A.[.[.D.[.S.S.D.D.[.[.].A.D.A.{.].V.S.D.S.D.D.A.3.A.A.A.A.A.A.A.A.2.A.",
"AXAXAXAXZXZXVXVXVXVXVXVXBXBXBXBXBXjXjXjXjXjXjXfXfXfXaXaXiXiXiXiXiXuXuXuXuXqX6X6X6X6X7X6X7X7X7X7X7X5X6X6X6X6X6X6X6X6X6X6X8X8XuXuX8XiXiXiXaXfXfXfXfXfXfXfXfXjXjXjXkXBXkXVXVXVXVXZXZXZXSXGXDXDXDXDXDXFXFXHXHXHXHXHXHXKXKXJXJXJXDXNXFXFXFXFXFXFXFXFXHXFXFXDXDXDXDXDXGXSXZXZXZXZXVXVXBXBXjXjXjXjXjXjXjXjXjXfXfX9X8X8X7X7X7X7X7X7X7X7X7X7X7X7X7X8X8X8X8X9X9X9XdXdXdXfXjXlXkXkXkXkXlXzXzXzXZXSXGXDXFXFXFXFXFXHXHXHXHXHXHXHXHXFXFXFXFXDXGXGXSX$XhX'.hXa.a.F.].{.{.].[.[.D.[.[.S.D.D.A.[.F.].3.{.{.].V.[.[.D.D.{.{.3.A.A.A.A.A.A.A.A.3.A.",
"AXZXAXZXVXVXVXVXVXVXVXVXBXBXBXBXBXNXjXjXjXjXjXjXfXfXaXaXiXiXiXiXiXuXuXuXuXuXqXqX6X6X6X6X6X7X7X6X6X6X6X6X6X6X6X6X6X6X6X6X8XuXuX8XuXiXiXiXiXaXfXfXfXfXfXfXfXjXjXjXjXkXBXBXVXVXVXZXZXZXSXGXGXDXDXDXDXDXFXFXHXHXHXHXHXHXHXKXJXKXDXjXDXFXFXFXFXFXFXFXFXDXDXDXDXDXDXGXSXZXZXZXZXZXVXVXkXkXjXjXjXjXjXjXjXjXjXfXiX9X8X8X8X7X7X8X6X7X7X7X7X7X7X7X8X8X8X8X8X9X9X9X9XdXdXdXdXjXlXlXlXkXkXlXzXzXZXSXGXGXDXFXFXFXFXFXFXHXHXFXFXFXFXFXFXFXFXDXGXGXSX+XhX'.hXa.a.a.].{.{.].[.[.D.[.[.S.D.[.{.[.3.[.A.[.].].V.[.[.D.D.{.].3.A.A.A.A.A.A.A.A.3.A.",
"AXZXZXZXVXVXVXVXVXVXBXBXBXBXBXBXjXjXjXjXjXjXfXfXfXfXaXaXaXaXiXiXuXuXuXuXuXuX6X6X6X6X6X6X7X7X7X6X6X5X6X6X6X6X6X6X6X6X6X6X8XuXuXuXiXiXiXaXiXaXfXfXfXfXfXfXjXjXjXjXkXBXBXBXVXVXVXZXZXZXZXSXGXDXDXDXDXDXDXFXFXHXHXHXHXHXHXKXKXHXLXjXGXFXFXFXFXFXFXDXDXDXDXDXDXGXGXGXSXZXZXZXZXVXVXVXBXkXkXjXjXjXjXjXjXjXjXfXaXiX8X8X8X7X7X8X6X8X6X7X7X7X7X7X8X8X8X8X8X9X9X9X9XdXdXdXdXjXjXlXlXkXlXkXzXzXZXSXGXGXDXDXDXFXFXFXFXFXFXFXFXFXFXFXFXFXDXGXGXSXxX+X-X'.hXa.a.a.].].].].D.[.D.[.[.D.D.[.[.D.3.[.[.[.].].V.[.[.D.D.].].3.A.A.A.A.A.A.A.A.V.].",
"AXZXZXVXVXVXVXVXVXBXBXBXBXBXBXBXjXNXjXjXjXjXfXfXfXfXaXaXiXaXiXiXuXuXuXuXqXqX6X6X6X6X6X7X6X7X7X6X7X6X6X6X6X6X6X6X6X6X6X6X8XuXuXuXiXiXiXiXiXaXaXfXfXfXfXfXjXjXjXjXjXkXBXBXBXVXVXVXZXZXZXSXSXGXDXDXDXDXDXFXFXFXHXHXHXHXHXHXHXKXLXfXGXDXDXDXDXDXDXDXDXDXDXDXGXGXSXSXAXZXZXZXVXVXVXVXBXkXjXjXjXjXjXjXjXjXjXfXaX9X8X8X6X7X6X6X6X8X6X7X7X7X7X7X7X7X8X8X8X9X9X9X9XdXdXdXdXjXlXlXlXkXkXkXkXzXZXZXSXGXGXDXDXDXDXDXFXFXFXFXFXFXFXFXDXDXGXGXSXzXxXOX-X`.hXa.a.a.].].].V.{.D.D.[.[.D.D.[.[.[.V.{.[.{.{.].V.[.[.D.A.{.].3.A.A.A.A.A.A.A.V.3.].",
"ZXZXVXVXVXVXVXVXVXBXBXBXBXBXjXjXjXjXjXjXjXjXfXfXfXfXaXaXaXaXiXpXuXuXuXuXuXqX6X6X6X6X6X6X6X7X5X6X6X6X6X6X6X6X6X6X6X6X6X6XuXuXuXuXiXiXiXiXiXaXaXaXfXfXfXfXfXjXjXjXjXjXBXBXBXBXVXVXZXZXZXZXSXSXGXGXGXDXDXDXDXDXFXFXHXHXHXHXHXHXLXaXSXDXDXDXDXDXGXDXDXGXGXGXGXSXZXZXZXZXAXZXVXVXVXBXBXkXjXjXjXjXjXjXjXjXjXfXiX9X8X8X6X7X7X8X8X8X6X7X7X7X7X7X7X7X8X8X8X9X9X9X9X9XdXfXdXjXlXlXlXlXkXkXlXzXzXZXZXSXGXGXGXDXDXDXDXDXDXFXFXDXDXDXDXGXGXGXSXzXxXOX-X`.hXa.a.a.].].].V.{.D.D.[.[.D.D.[.[.[.].A.[.A.].{.3.[.D.A.A.A.A.3.A.A.A.A.A.A.A.V.V.A.",
"ZXZXVXVXVXVXVXBXBXBXBXBXBXBXBXNXjXjXjXjXjXjXfXfXfXfXaXaXaXaXiXiXuXuXuXuXuXqXqXqX6X6X6X6X6X7X7X6X6X6X6X6X6X6X6X6X6X6X6X6XuXuXuX8XuXiXiXiXaXiXaXfXfXfXfXfXfXjXjXjXjXjXkXkXBXBXVXVXVXZXZXZXZXSXSXGXGXGXDXDXDXDXDXFXFXFXHXHXHXHXAXaXZXDXGXDXDXGXGXDXGXGXGXSXSXAXZXZXZXAXZXVXVXBXBXBXBXkXjXjXjXjXjXjXjXjXjXfXiXiX8X8X6X8X7X7X7X8X8X6X7X7X7X7X8X7X8X8X8X8X8X9X9X9XdXfXdXfXdXjXjXjXlXkXlXkXzXzXZXSXSXGXGXGXDXDXDXDXDXDXDXDXDXGXGXGXGXSXZXzXzXOX-XL.hXa.a.r.].].].V.{.].].{.[.D.D.[.A.[.F.A.A.A.].[.3.D.D.A.A.].].3.A.A.A.].A.A.A.V.F.V.",
"VXVXVXVXVXVXVXBXBXBXBXBXBXBXjXNXNXjXjXNXjXjXfXfXfXaXaXaXaXaXiXiXiXuXuXuXuXuXqXuXuXqX6X6X6X7X7X6X6X6X6X6XqX6X6X6X6XqXqX6XuXuX8X8XuXiXiXiXaXiXaXfXfXfXfXfXfXfXjXjXjXjXkXkXBXBXVXVXVXVXZXZXZXZXSXSXGXGXGXGXDXDXDXDXDXDXFXFXHXHXAXaXZXGXGXGXGXGXSXSXSXSXSXZXZXZXZXAXAXZXZXVXVXBXBXBXBXkXjXjXjXjXjXjXjXjXjXfXiXiX8X8X8X8X7X6X8X8X8X7X7X7X7X7X7X7X8X8X8X8X8X9X9X9XdXdXdXfXjXjXjXjXlXlXkXlXzXzXZXZXSXSXSXSXGXGXGXGXDXDXGXGXGXGXGXGXSXSXzXzXxXj.-X`.hXa.a.r.F.].].V.{.{.].{.{.D.{.[.A.{.F.].3.].V.[.3.D.[.A.A.A.].3.A.A.A.].A.A.A.F.V.].",
"VXVXVXVXVXVXBXBXBXBXBXBXjXjXjXjXjXjXjXjXfXfXfXfXfXaXaXaXaXaXiXiXuXiXuXuXuXuXqX6XqX6X6X6X6X7X6X6X6X6X6X6X6X6X6X6X6X6X6X6XqXuX8XuXuXiXiXiXiXiXiXaXfXfXfXfXfXjXjXjXjXjXjXBXBXBXVXVXVXVXZXZXZXZXZXSXSXSXGXGXGXDXDXDXDXDXDXLXHXHXAXaXZXSXSXSXSXSXSXSXSXSXSXZXZXZXAXZXZXVXVXVXVXVXBXBXBXjXjXjXjXjXjXjXjXjXfXfXaXiX8X8X8X8X6X6X6X6X6X6X6X7X7X7X7X8X8X8X8X9X9X9X9X9X9XdXdXfXfXjXdXdXfXjXlXkXzXzXZXZXZXZXZXSXSXSXGXGXGXGXGXGXGXGXSXSXSXzXzXzXxXUX-XL.hXa.a.1.F.].].F.{.].{.{.{.{.].{.A.{.3.[.V.{.V.{.3.D.[.A.A.A.].3.A.A.A.].V.A.V.V.3.].",
"VXVXVXVXVXVXBXBXBXBXBXBXNXNXjXjXjXjXjXjXfXfXfXfXfXaXaXaXiXaXiXuXuXuXuXuXuXqXqXqX6X6X6X6X6X7X6X6X6X6X6X6X6X6X6X6X6X6X6XqXuXuX8XuXuXiXiXiXiXaXaXiXiXiXfXfXfXfXjXjXjXjXjXkXBXBXBXVXVXVXVXZXZXZXZXZXSXSXSXGXGXGXGXGXDXDXDXDXLXLXAXaXVXSXSXSXZXSXZXZXZXZXZXZXZXAXAXZXVXVXVXVXVXBXBXBXjXjXjXjXjXjXjXjXjXjXfXfXiXiX8X8X8X8X6X8X6X6X8X6X6X6X8X8X6X7X8X8X8X8X8X8X9X9X9XdXdXfXfXfXdXdXdXjXlXkXzXzXzXZXZXZXZXZXZXSXSXSXSXSXSXSXSXSXSXSXzXzXzXzXxXj.-X/.hXi.a.r.].].].F.].{.{.{.{.{.A.{.A.{.3.[.[.{.A.{.3.A.D.A.A.A.].3.A.V.A.].V.A.V.V.3.A.",
"VXVXVXVXBXBXBXBXBXBXBXBXNXNXNXjXjXNXjXjXfXfXfXaXaXaXaXaXaXaXiXuXuXuXuXuXuXuXqXqXqX6X6X7X6X7X6X6X6X6X6X6X6X6X6X6X6X6X6XuXuXuXuXuXuXuXiXiXiXiXiXaXaXaXfXfXfXfXjXjXjXjXjXjXBXBXBXBXBXVXZXZXZXZXZXZXZXZXSXSXSXGXGXGXDXDXDXDXLXLXAXnXkXZXZXZXZXZXZXZXZXZXZXZXAXAXZXVXVXVXVXBXBXBXBXBXNXjXjXfXjXjXjXjXjXjXfXaXiXiX8X8X8X8X8X8X8X8X8X8X6X6X6X6X6X8X8X8X8X8X8X9X9X9X9XdXdXdXdXdXfXfXdXfXlXkXkXzXzXzXZXZXZXZXZXZXZXZXZXZXSXSXSXSXzXZXzXzXzXxXxXj.=X/.hXa.a.e.F.].F.V.].].].{.{.A.A.{.].{.2.].[.].].A.3.A.A.A.A.A.].3.V.V.A.].V.].V.F.3.A.",
"VXVXVXVXBXBXBXBXBXBXBXNXNXNXjXjXjXjXjXjXfXfXfXfXaXaXaXaXiXiXiXuXuXuXuXuXuXuXuXuXuX6X6X6X6X7X6X6X6X6X6XqX6X6X6X6X6X6XqXuXuXuXuXuXuXuXuXiXiXiXaXaXaXaXfXfXfXfXjXjXjXjXjXjXBXBXBXBXBXVXVXVXVXZXZXZXZXZXZXAXSXSXGXGXGXGXDXDXDXLXAXnXkXZXZXZXZXZXZXZXZXZXZXZXZXAXZXVXVXVXVXBXBXBXBXBXjXjXjXjXjXjXjXjXjXjXfXfXiXiXuX8X8X8X8X8X8X8X8X8X8X8X6X8X8X8X8X8X8X8X8X9X9X9X9XdXdXdXdXdXdXdXdXdXjXlXkXkXzXzXzXZXzXZXZXZXZXZXZXZXZXZXZXzXzXzXzXzXxXzXxXj.=X/.hXi.a.e.F.].a.V.].].{.].{.A.A.{.].].2.A.{.V.].A.3.A.A.A.A.A.].3.V.3.A.].A.].V.F.3.A.",
"VXVXBXBXBXBXBXBXjXBXBXNXNXjXjXNXjXjXjXjXfXfXfXaXaXaXaXiXaXiXiXuXuXiXuXqXqXqXqX6X6X6X6X6X6X7X7X6X6X6X6X6XqX6X6X6X6X6XqXuXqXuXuXuXuXiXuXiXiXiXaXiXaXaXaXfXfXfXjXjXjXjXjXjXjXkXkXBXBXVXVXVXVXVXZXZXZXZXZXZXZXAXSXGXSXSXGXDXLXLXAXpXkXzXZXZXZXZXZXZXZXZXVXZXZXZXVXVXVXVXBXBXBXBXBXjXjXjXjXjXfXfXjXjXjXfXfXfXiXiX8X8X8X8X8X8X8X8X8X8X8X8X8X6X6X8X8X8X8X8X8X9X9X9X9X9XdXdXdXdXdXdXdXdXjXlXkXkXzXzXzXzXzXzXZXZXZXZXZXzXZXZXzXzXzXzXzXzXxXxXxXo.=X/.hXi.a.r.F.].F.a.].].{.].].A.A.].].{.,.3.A.3.].A.3.A.A.A.A.A.].1.V.3.V.].V.].V.F.3.V.",
"BXBXBXBXBXBXBXBXjXBXNXNXNXjXjXjXjXjXjXfXfXfXaXaXaXiXaXiXaXiXiXpXuXuXuXuXqXqX6X6X6X6X6X6X7X7X6X6X6X6X6X6X6X6X6X6X6X6X6X6X6XuXuXuXuXuXuXiXiXiXiXiXaXaXiXfXfXaXfXfXfXfXjXjXjXjXkXBXBXBXVXVXVXVXVXVXZXZXZXZXZXZXAXAXZXZXSXGXLXLXAXpXjXzXzXzXzXZXZXZXVXVXVXVXVXVXVXVXBXBXBXBXNXNXNXjXjXjXjXjXfXjXjXjXjXfXfXaXiXiX8X8X8X8X8X8X8X8XuX8X8X8X6X6X6X8X8X8X8X8X8X8X9X9X9X9XdXdXdXdXdXdXdXdXdXlXkXkXzXzXzXzXzXzXzXzXzXzXzXzXzXZXzXzXzXzXzXzXxXzXxXo.&X_.hXi.a.e.F.].a.a.].].{.A.].A.A.].].{.2.3.3.2.{.V.3.A.A.A.A.A.].1.V.3.V.].V.].V.a.3.V.",
"BXBXBXBXBXBXBXNXjXNXNXNXNXjXjXNXjXjXjXfXfXfXaXaXaXaXaXiXaXiXiXuXuXuXuXuXuXqXqX6XqX6X6X6X6X7X7X6X6X6X6X6X6X6X6X6X6X6X6X6XqXuXuXuXuXuXiXiXiXiXiXiXiXaXaXaXfXfXfXfXfXfXjXjXjXjXBXkXBXBXBXBXVXVXVXVXZXZXAXZXAXZXAXAXZXAXAXSXLXLXCXnXkXzXzXzXzXzXzXzXVXVXVXVXVXVXVXVXBXBXBXkXjXjXjXNXjXjXjXjXjXjXjXfXfXfXfXaXiXiXuX8X8X8X8X8XtXtXuXuX8X6X6X6X6X8X8X8X8X8X8X8X9X9X9X9X9X9XdXdXdXdXdXdXdXjXkXkXlXzXzXzXzXzXzXzXzXzXzXzXzXzXzXzXzXzXzXxXxXkXxXO.&X_.-Xi.a.e.a.F.a.a.].].{.A.].].A.].].].3.3.3.3.{.a.3.A.].A.A.A.A.1.3.3.V.].V.].V.3.3.V.",
"BXBXBXBXBXBXjXNXNXjXjXjXjXjXjXjXjXjXjXfXfXfXaXaXaXaXaXiXiXiXiXuXuXuXuXuXuX6X6X6XqX6X6X6X6X6X7X7X6X6X6X6X6X6X6XqX6X6X6X6X6XuXuXuXuXuXuXiXiXiXiXiXiXaXaXaXaXfXfXfXfXfXjXjXjXjXjXkXkXBXBXBXVXVXVXVXVXVXZXAXAXAXAXAXZXZXAXAXAXLXCXpXjXzXxXlXlXkXlXkXVXVXVXVXVXVXBXBXBXBXjXjXjXjXjXjXjXjXjXjXjXjXjXNXNXNXfXaXiXiXuX8X8X8XuXuXuXuXtXtX8X6X8X6X8X8X8X8X8X8X8X8X9X9X9X9X9X9X9XdXdXdX9XdXdXdXlXkXkXkXzXzXzXzXzXzXzXzXzXzXzXzXzXzXzXzXxXzXxXkXkXO.&X_.-Xi.a.e.a.a.a.a.].].{.A.].].A.].].].a.4.2.A.].].3.A.A.A.A.A.].1.3.3.V.].V.].V.3.3.V.",
"BXBXBXBXBXjXjXjXjXjXjXjXjXjXjXfXfXfXfXfXfXaXaXaXaXaXaXaXiXuXiXuXuXuXuXqXuXuXuX6X6X6X6X6X6X7X7X7X6X6X6X6X6X6X6XqX6X6X6X6X6XuXuXuXuXuXuXuXiXiXiXiXiXiXaXaXfXfXfXfXfXfXjXjXjXjXjXjXkXBXBXBXBXVXVXVXVXVXVXVXVXZXAXAXAXAXAXAXAXLXCXpXfXxXxXlXlXkXkXkXBXVXVXVXVXBXBXBXBXBXNXjXjXjXjXjXjXjXjXjXjXjXNXNXfXfXfXfXiXiXiXtX8XuXuXuXuXuX8X8X8X8X8X8X8X8X8X8X8X8X8X8X9X9X9X9X9X9X9XdXdX9X9XdXfXfXlXkXkXkXkXkXkXzXzXzXzXzXzXzXzXzXzXzXkXkXkXkXkXkXkXO.&X%X%Xi.a.e.F.a.a.a.].].{.A.].].V.].].].F.3.2.].A.].3.A.A.A.A.A.].1.3.3.V.].V.].V.3.2.V.",
"BXBXBXBXBXjXjXjXjXjXjXjXjXjXjXjXfXfXfXaXfXaXaXaXaXaXaXaXiXiXuXuXuXuXuXuXuXuXuX6X6X6X6X6X6X6X7X6X6X6X6X6X6X6X6XqXqX6X6X6X6X6XuXuXuXuXuXiXiXiXiXiXiXiXaXaXfXfXfXfXfXfXjXjXjXjXjXjXkXBXBXBXBXVXVXVXVXVXVXVXVXZXAXAXAXAXAXAXAXAXCXpXfXlXlXlXkXkXkXkXkXBXBXBXBXBXBXBXBXBXjXjXjXjXjXjXfXfXfXjXjXjXfXfXfXfXfXaXiXiXiXiXuXuXuXuXiXiXuX8X8X8X8X8X8X8X8X8X8X8X8X8X8X9X9X9X9X9X9XdX9X9X9X9XdXfXlXkXkXkXkXkXkXkXkXkXzXzXzXzXzXzXzXzXkXkXkXkXkXkXkX .&X%X%Xy.a.e.a.a.a.a.].].{.].].].V.].].].F.3.2.{.V.].3.A.A.A.A.A.].1.3.3.V.V.V.].V.1.2.V.",
"BXBXjXjXjXNXNXNXjXjXjXjXjXjXjXjXfXfXaXaXfXaXaXaXaXaXiXiXaXaXiXuXuXuXuXuXqXqXqXqXqX6X6X6X6X6X6X6X6X6X6X6X6X6X6X6X6X6XqX6X6XuXuXuXuXuXuXiXiXiXiXiXiXiXaXaXaXfXfXfXfXfXfXjXjXjXjXjXjXBXBXBXBXBXBXVXVXVXVXVXVXVXVXVXVXVXAXAXAXAXCXmXfXlXlXlXkXkXkXkXkXBXBXBXBXBXBXBXBXBXjXjXjXNXNXjXfXfX8XdXfXfXfXfXfXfXfXiX6X6X8X8XuXuXuXuXiXiXuXuX8X8X8X8X8X8X8X8X8X8X8X8X8X9X9X9X9X9X9X9X9X9X9X9XdXdXjXlXkXkXkXkXkXkXkXkXkXkXzXkXzXzXzXkXkXkXkXkXkXkXkX .&X%X%Xi.i.e.a.a.a.a.].].{.].].{.F.].].F.F.].2.{.3.].3.V.].A.A.V.].1.3.3.3.V.V.].V.1.2.V.",
"BXBXNXjXjXjXNXjXjXjXjXjXjXjXfXfXfXfXfXaXaXaXaXaXiXaXiXiXiXiXuXpXuXuXuXuXuXqXqXqX6X6X6X6X6X6X6X6X6X6X6X6X6X6X6X6X6X6X6X6X6X6XuXuXuXuXuXiXiXaXiXiXiXiXiXaXiXfXaXaXfXfXfXfXjXjXjXjXjXjXBXBXBXBXBXBXVXVXVXVXVXVXVXVXVXVXVXCXAXAXCXbXiXkXlXkXkXkXkXkXkXBXBXBXBXBXBXBXBXBXNXjXjXNXjXfX9X7X&X&X9XfXfXfXaXiX7X&X&X7X6XuX6X8XuXuXuXuXuXuXuXtXtXtXtX8X8X8X8X8X8X8X8X8X9X9X9X9X9X9X9X8X8X9X9XdXdXkXkXkXkXkXkXkXkXkXkXkXkXkXkXkXkXkXkXkXkXkXlXlXkX .&X%X%Xi.y.e.a.a.r.a.].].].].{.{.F.].].].F.{.].].3.].3.V.A.A.A.V.].1.3.3.3.3.V.V.3.1.1.F.",
"jXjXNXNXjXjXjXjXjXjXjXjXfXfXfXfXfXfXfXaXaXaXaXaXiXiXiXiXiXiXuXpXuXuXuXqXuXqXqXqXqX6X6X6X6X6X6X6X6X6X6X6X6X6X6X6X6X6X6XqXqXqX6XuXuXuXuXuXuXiXiXiXiXiXiXiXiXaXiXaXfXfXfXfXjXjXjXjXjXjXjXBXBXBXBXBXBXVXVXVXVXVXVXVXVXVXVXCXAXAXCXbXiXkXkXkXkXkXkXkXkXBXBXBXBXBXBXBXBXBXjXjXfXdX7X9X9X+Xj.j.OX7X8X8X8X7XOX@X@X@X@X@XoXj.@X7XuXuXuXuXuXuXuXtX8X8X8X8X8X8X8X8X8X8X9X9X9X9X9X9X9X8X7X8X9XdXdXlXlXkXlXlXkXkXkXkXkXkXkXkXkXkXkXkXkXkXkXkXlXlXlX| &X%X%Xy.y.e.a.a.r.a.F.].].].{.{.F.F.F.F.3.].{.].3.{.3.A.A.A.V.3.A.1.3.3.3.V.V.V.V.1.3.V.",
"jXNXjXjXjXjXjXjXjXjXfXfXfXfXfXfXfXaXaXaXaXaXaXaXaXaXaXaXiXiXpXuXuXqXuXuXqXqXqXqXqXqX6X6X6X6X6X7X6X6X6X6X6X6X6XqXqXqX6XuXuXuXuXuXuXuXuXuXuXiXiXiXiXiXiXaXiXiXaXaXaXfXfXfXfXjXjXjXjXjXBXBXBXBXBXBXBXBXBXBXVXVXVXVXVXVXVXVXAXAXCXbXiXkXkXkXkXkXkXkXBXBXBXBXBXBXBXBXjXjXNXjXfX7X7X&X&Xj. . .OX&XU.X.+X=XoXoX@X+X#Xj. .o.o.7X7X8X8XtXuXiXuXuXuX8X8X8XuX8X8X8X8X8X9X9X9X9X9X9X9X7X7X8X9XdXdXdXjXkXjXjXkXkXkXkXkXkXkXkXkXkXkXkXkXkXkXkXlXlXlX| &X%X$Xy.y.w.a.a.a.a.F.].].{.{.{.F.F.F.F.3.].{.].3.{.3.A.A.3.V.3.].1.3.3.3.3.V.V.V.1.3.V.",
"jXjXjXjXjXjXjXjXfXfXfXfXfXaXaXaXfXfXfXaXaXaXaXaXaXaXiXiXiXiXiXuXqXuXuXuXuXqXqXqXqXqX6X6X6X6X6X6X6X6X6X6X6X6X6XqX6X6XqXqXuXuXuXuXuXuXuXuXiXiXiXiXaXaXiXaXaXaXaXaXaXfXfXfXfXjXjXjXjXBXjXBXBXBXBXBXBXBXBXBXBXVXVXVXVXVXVXVXCXCXCXnXiXlXkXkXkXkXkXkXkXBXBXBXBXBXBXjXjXfXNXfX&X+XE.j.oXj.X.' X... .) ~ OXX.) oX+Xj...~ T ~ oX=X7X8XuXiXiXiXiX9X8XuX8XuXuXuX8X8X8X8X8X9X9X9X9XdXiX9X9X9XdXfXdXjXkXkXkXkXkXkXkXkXkXkXkXkXkXkXkXkXkXkXlXkXkXkX| &X&X).y.y.e.a.a.r.r.F.].].{.{.{.].F.F.F.3.].].].3.{.3.V.A.V.3.3.F.1.3.3.3.3.].3.V.1.3.V.",
"jXjXjXjXjXjXjXjXjXjXfXfXfXfXaXaXfXaXaXaXaXaXaXaXaXiXiXiXiXpXpXuXuXuXuXuXqXuXqXqXqXqXqX6X6X6X6X6X6X6X6X6XqX6XqX6X6X6XqXuXuXuXuXuXuXuXuXuXuXiXiXiXiXaXiXiXaXiXaXaXaXaXfXfXfXjXjXjXjXjXjXjXBXBXBXBXBXBXBXBXBXBXBXBXBXVXVXVXCXCXCXbXiXlXkXkXkXkXkXkXkXBXBXBXBXBXNXjXkXfXfX9X&XOXj... .' W W ) M T ) T W o.j.OXOXX.) H f f T j.&X6X8XiXiXiXuXiXuXiXiXiXuXuX8X8X8X8X8X8X8X9X9XdXfXfXiX9XfXfXfXjXkXjXjXjXkXkXkXkXkXkXkXkXkXkXlXlXkXkXlXkXkXkX| &X-X).y.y.w.a.a.r.r.F.].].{.].{.].F.F.F.3.].].V.3.].1.3.V.V.3.3.F.1.3.3.3.3.].3.V.<.3.3.",
"jXjXjXjXjXfXfXfXfXfXfXfXaXaXaXaXaXiXiXiXaXaXaXaXaXiXiXiXiXuXuXpXuXuXuXuXuXuXqXqXqXqXqX6X6X6X6X6X6X6X6X6X6X6XqXqX6X6XqXqXuXuXuXuXuXuXuXuXuXiXiXiXpXiXiXiXaXaXaXaXaXfXaXfXfXfXjXjXjXjXjXjXBXBXBXBXBXBXBXBXBXBXBXBXBXVXVXVXCXCXCXbXaXlXkXkXkXkXkXkXkXBXBXBXBXBXjX8X&X=X&XU.X...) W T ) W f H f 3 4 f 9 T T ....) W Y Y T ) ..OX@X7XtXiXuXiXuXiXiXuXiXuXuXuX8X8X8X9X8X9X9X9XfXfXfXiXdXfXfXfXjXkXkXjXjXjXkXkXlXlXlXkXkXkXkXkXkXlXkXkXkXlXfX| @X&X$Xy.y.0.a.a.r.e.F.].].{.].{.].F.F.F.3.].].3.3.].3.V.V.V.3.V.V.1.3.3.3.3.F.3.V.<.2.3.",
"jXjXjXjXjXfXfXfXfXfXfXfXaXaXaXaXiXiXiXiXaXaXiXpXiXiXiXiXuXiXiXpXiXuXuXuXqXqXqXqXqXqXqX6X6X6X6X6X6X6X6X6XqXqXqXqXqXqXqXqXuXuXuXuXuXuXuXuXpXpXpXiXiXiXaXaXaXaXaXaXaXaXfXaXfXfXjXjXjXjXNXNXBXBXBXBXBXBXBXBXBXBXBXBXBXVXVXVXVXCXCXbXpXlXlXkXlXkXkXkXjXNXBXBXNXfX+XX...' W ' ) f M ) ....) f 6 3 ; % - ; q f f T Y Y f ~ Y ) ..j.@X+X@X2X6XiXuXiXiXiXiXiXuXuXiX9X9X8X8X9X9X9XiXfXfXiXiXfXfXfXjXjXkXjXjXjXjXjXkXlXkXkXkXkXlXkXlXlXlXlXlXlXfXO.@X&X$Xt.y.0.a.a.r.e.F.F.F.F.a.,.F.F.F.F.1.].A.3.3.].3.V.V.3.3.V.F.2.1.3.3.3.F.3.V.<.1.3.",
"jXjXjXjXfXfXfXfXfXaXfXfXaXaXaXiXaXiXiXiXaXaXaXpXpXiXiXiXiXiXiXuXuXpXuXuXuXuXqXqXqXqXqX6X6X6X6X6X6X6X6X6X6XqXqXqXqXqXqXqXuXuXuXuXuXuXuXpXiXpXiXaXpXaXaXaXaXaXaXaXaXaXaXaXfXfXfXfXfXfXjXjXBXjXBXBXBXBXBXBXBXBXBXBXBXBXVXVXCXCXCXbXpXlXlXlXjXlXkXjXjXBXNXBXfXOXX.) / ) f T W 9 3 9 f T T f 5 1 ; & & & 1 3 q f 9 f f f Y 8 ~ ..o.oX@X7X7X6XtXiXiXiXiXiXiXuXiXiXiXuX8X8X9X9X9XiXfXiX9XiXdXfXjXjXjXjXfXjXjXjXlXlXlXlXkXkXkXkXlXlXlXlXlXlXfXO.@X&X$Xt.t.0.i.a.e.r.F.F.F.F.1.C 3.F.F.F.3.].F.3.V.F.1.V.F.3.3.3.F.1.1.3.3.3.V.3.V.<.1.3.",
"jXjXjXfXfXfXaXfXfXaXaXiXaXiXaXaXaXaXiXaXiXaXiXiXiXiXiXiXiXuXpXuXuXuXuXuXuXuXuXqXuXqXqXqX6X6X6X6X6X6X6X6X6X6XqXqXqXqXqXqXuXuXuXuXuXuXuXuXpXiXiXiXiXiXiXaXaXaXaXaXaXaXaXaXfXaXfXfXfXfXfXjXNXNXNXNXNXNXBXBXBXBXBXBXBXBXBXVXCXCXCXbXpXlXlXlXdXlXjXjXjXjXjXBXNX+XX.X.' T f f f 9 5 ; 3 6 4 3 ; ; % & # & % - 3 3 5 5 8 3 8 f ~  ...o.oX@X=X6XtXiXiXiXiXiXiXiXiXiXuXuXuXuXuXuX9XiXaXiXiX9XiXfXfXjXjXjXjXjXfXjXjXkXkXlXkXkXkXkXkXlXkXlXlXlXdXO.@X&X/.t.t.0.i.a.e.e.F.F.F.F.a.<.1.a.a.F.1.].F.3.V.F.1.3.F.3.3.3.F.2.1.3.3.3.F.3.V.C v 3.",
"fXfXfXfXfXfXfXfXfXaXaXaXiXaXaXiXiXaXiXiXiXiXiXiXpXaXiXiXiXpXiXuXuXuXuXuXuXuXuXqXqXqXqXqX6XqX6X6X6X6X6X6X6X6X6XqXuXqXuXqXqXuXuXuXuXuXuXuXpXiXiXiXiXiXiXiXaXaXaXaXaXaXaXaXfXaXfXfXfXfXjXNXNXNXNXNXNXBXBXBXBXBXBXBXBXBXBXBXCXCXCXbXpXlXjXdX9X-X-X&X9X8X8XfXfX7XOX@Xj.) Y ) f f 6 ; ; 1 ; % % % & & $ & & & ; 1 ; % 5 3 4 f T Y T ) ....OX@X@X7XiXiXiXiXiXtXiXiXiXuXuXuXuXuXiXiXiXiX9X9X9XdXfXjXjXjXfXfXjXjXjXjXjXjXlXlXlXlXkXkXjXkXlXlXdXO.@X&XOXt.t.0.i.a.e.e.F.F.F.a.F.a.r.F.F.F.1.V.V.1.].F.1.3.F.3.3.3.F.1.3.1.3.3.F.3.V.C h F.",
"jXfXaXfXfXfXfXaXaXaXaXaXiXiXiXiXiXaXiXiXiXiXiXiXpXiXiXiXiXiXuXuXiXiXuXuXuXuXuXuXqXqX6X6X6X6X6X6X6X6X6X6XqXqXqX6XqX6XqXqXuXuXuXuXuXuXuXuXpXiXiXiXiXiXaXiXaXaXaXaXaXaXaXaXaXaXaXfXfXfXjXNXNXNXNXNXNXNXNXBXBXBXBXBXBXBXBXBXCXCXCXnXqXlXdX-XW.%Xf.] g.U.OXoXOX+XoXj.o...W )  .T f ; # % % & & & & & & $ $ $ & & & & & ; ; 4 q q 3 5 q f f T  .j.&X7X=X7X6X8XuXuXuXiXiXiXiXiXiXiXiXiX9X9X9XfXfXfXfXfXfXfXfXfXjXjXjXjXjXlXjXlXjXjXjXjXjXjXfX| @X&XOXk.t.( i.a.e.e.F.F.F.F.F.F.a.a.F.F.1.3.3.2.].V.1.3.3.3.3.3.F.1.1.3.3.3.3.3.V.V ,.F.",
"fXfXaXfXfXfXfXaXaXaXaXiXiXiXiXiXiXiXiXiXiXiXiXiXiXiXiXiXuXuXuXuXuXuXuXuXuXuXuXuXqXqXuXqX6X6X6X6X6X6X6XqXqXqXqXqXqX6XqXqXqXuXuXuXuXuXuXuXpXiXiXiXiXiXiXiXpXiXaXaXaXaXaXaXaXaXaXaXaXfXjXNXNXNXNXNXNXNXNXNXBXBXBXBXBXBXBXBXCXCXCXnXuX9X%XOXf.g.g./ T T M 9 f q f 0 8 ; 1 3 4 0 1 % & % % # & $ & $ $ @ @ @ $ $ $ $ @ $ & & % % % & % ; 5 3 8 Y X.oXX.) oX6X6XuXuXuXiXiXiXiXuXuXiXiX9X9X9XfXfXfXfXfXfXfXfXfXjXjXjXjXjXjXlXlXjXjXjXjXjXdXdXO.@X=XOXt.t.( y.a.e.e.a.a.F.F.F.F.a.a.a.F.2.3.3.2.].V.1.3.3.3.3.3.F.,.1.2.3.3.3.3.3.d F.F.",
"aXaXaXaXaXaXaXaXiXaXiXiXiXiXiXiXiXiXiXiXiXiXiXiXpXuXiXuXuXuXuXqXuXuXqXuXuXuXuXuXqXuXqX6X6X6X6X6X6XqXqXqXqXqXuXqXqXqXqXqXuXuXuXuXuXuXuXuXpXiXiXiXpXaXpXaXaXaXaXaXaXaXaXaXaXaXaXaXaXaXfXjXNXNXNXNXNXNXNXNXNXBXBXBXBXBXBXBXBXCXCXnX7XE./ g./ s f f 9 6 3 ; ; ; ; 1 & $ @ @ $ & # $ & % & $ @ @ $ $ @ @ @ @ @ @ @ @ @ @ @ # # # $ & $ & & ; 1 6 8 f T M X.@X7X8XuXuXiXiXiXiXuX8XuXiXiXiXiXfXfXfXfXfXfXfXfXfXfXfXjXjXfXjXjXjXjXjXfXjXfXfXiXO.@X7XE.t.t.( y.a.e.e.a.a.F.F.F.F.a.a.F.F.,.3.3.1.].3.1.3.3.3.3.3.3.,.1.2.3.3.3.3.3.V F.V.",
"aXaXaXaXaXaXiXiXiXiXiXiXiXiXiXuXiXiXiXiXiXuXuXuXiXiXiXuXuXuXuXuXuXuXqXqXuXqXuXqXqXuX6XqX6XqX6X6X6XqXqXqXqXqXqXqXuXqXqXuXuXuXuXqXuXuXuXiXiXpXiXiXaXpXpXiXaXaXaXaXaXaXaXaXaXaXaXaXaXfXMXNXNXNXNXNXNXNXNXNXNXNXNXNXBXBXBXBXBXCXNX0XUX' s / M 6 9 6 6 9 > - - ; ; ; & # @ @ $ $ $ $ $ $ & $ $ @ @ @ @ @ @ @ $ @ @ o o o @ @ @ @ @ @ @ @ & & - ; ; 3 Y W j.@X7X6XiXiXiXiXiXiXuX8XuXuXiXiXiXiXfXfXfXfXfXfXfXfXfXjXfXjXfXfXjXjXjXjXjXjXfXfXiX|.@X7XE.t.t.( y.a.e.e.a.F.F.F.F.F.a.a.F.F.,.1.2.1.].3.1.3.3.3.3.3.a.,.1.2.3.3.3.3.1.V 3.V.",
"fXaXaXaXaXaXiXiXiXiXiXiXiXiXiXiXiXiXiXiXuXuXpXuXiXiXiXuXuXuXuXuXuXuXqXqXuXuXuXuXuXuXqX6XqXqX6X6X6XqXqXqXqXqXqXqXuXqXqXqXuXuXuXuXuXuXuXpXiXiXiXiXiXiXpXpXiXpXaXaXiXaXaXaXaXaXiXaXaXaXnXNXNXNXNXNXNXNXNXNXNXNXNXNXNXBXBXBXBXBXnX}. .) s s M T 9 M ) f 6 5 5 ; % % & $ @ @ @ @ @ @ @ @ @ $ $ . o o o o @ @ @ @ @ o . . . o . . @ o @ @ @ $ & % % > f ) o.oXoX7XuXiXaXaXiXiXuXuXuXuXiXiXiXiXfXfXfXfXfXfXfXfXfXfXfXfXfXfXjXjXjXjXfXfXfXfX9X|.#X-XQ.k.t.( y.i.y.e.a.F.a.F.F.F.r.a.F.F.,.1.1.3.].3.1.3.3.3.3.3.a.,.2.2.3.1.3.a.1.D 3.3.",
"aXaXaXaXaXaXaXiXiXiXaXaXaXiXiXiXiXiXiXiXpXiXiXiXiXpXpXiXuXuXuXuXqXqXqXuXqXuXuXuXuXuXuXuXqXqX6X6X6XqXqXqXqXqXqXuXuXqXqXqXqXuXuXuXuXuXuXuXuXuXiXiXiXuXiXiXiXiXiXiXaXaXaXaXaXaXiXaXaXaXMXNXNXNXNXNXNXNXNXNXNXNXNXNXBXBXBXBXNXNXaXoXUX .) ) ' j. .X.W f 3 1 5 ; % % # # $ @ @ o o @ @ o o o . . . . @ $ @ @ @ @ @ @ o . . . . o o . . o o @ $ & ; 5 H ) ~  .@X=XtXuXaXaXaXiXiXuXtXtXuXiXiXiXdXfXfXfXfXfXfXfXfXfXfXfXfXfXfXjXjXjXfXfXfXfX9X|.@X-XQ.k.t.( y.i.y.e.a.F.a.F.a.F.r.a.F.F.,.1.1.3.].3.1.3.3.3.3.3.3.,.1.2.1.1.1.3.3.V F.1.",
"aXaXaXaXiXaXaXiXaXiXiXiXiXiXiXiXiXiXuXuXuXuXiXpXuXuXuXuXuXuXqXqXuXuXuXuXqXuXuXuXuXqXqXqX6X6X6XqXqXqXqXqXqXqXqXqXqXuXuXqXqXuXuXuXuXuXuXuXpXpXiXiXiXuXiXiXpXiXiXiXpXaXaXaXaXaXaXaXaXaXaXNXNXNXNXNXNXNXNXNXNXNXNXNXNXNXBXBXBXMX6XUXo.' ....) W W ) T s 3 1 1 % & # $ $ $ $ @ @ @ o . . o . . . . . $ $ @ @ @ @ @ @ . . . . o . . . . o @ @ @ $ ; 3 f f ~  .UX7XuXiXiXaXaXaXiXuXtXtXuXiXiXiXdXdXiXfXfXfXfXfXfXfXfXfXfXfXfXfXfXfXfXfXfXfX8X|.@X-Xj.t.t.( y.i.y.w.a.F.a.F.a.F.r.a.F.F.,.2.3.3.F.3.1.a.3.3.3.3.3.,.2.2.1.1.a.1.3.V F.1.",
"aXiXaXiXiXiXiXiXaXiXiXiXiXiXuXuXuXuXiXuXuXiXiXuXuXuXuXuXuXqXuXuXuXuXuXuXqXuXuXqXqXqXqXqXqX6X6X6XqXqXqXqXqXqXqXqXqXuXqXqXqXuXuXuXuXuXpXpXpXpXiXpXiXpXiXiXiXiXiXaXpXpXaXaXaXaXaXnXaXaXMXNXMXNXNXNXNXNXNXNXNXNXNXNXNXNXNXNXNXMX6X@XX.) ) ) W M f 6 4 3 - % & & $ $ @ $ $ $ @ @ o o o . . . . . . @ $ $ @ @ @ @ @ @ o . . . . . . . . o @ @ @ $ & 1 Y ) o.o.oX7X8XiXiXaXaXaXiXuXtXtXuXiXiXiXiXiXiXfXiXiXiXfXfXfXfXfXfXfXfXfXdXfXfXfXfXfX8X|.#X8Xj.t.t.( y.h.y.w.a.F.a.a.F.a.r.r.F.F.,.2.3.3.V.1.1.a.3.3.3.3.3.,.2.2.1.1.a.1.a.m 3.3.",
"iXaXaXaXiXiXiXiXiXiXiXuXuXiXuXuXuXuXuXuXuXiXuXuXuXiXuXqXuXqXuXuXuXpXuXuXuXuXuXqXqXqXqXqXqX6X6X6XqXqXqXqXqXqXqXqXqXqXuXpXuXuXuXuXuXuXpXpXpXpXpXpXpXpXiXiXpXiXiXiXiXpXpXaXaXaXaXaXaXaXfXMXnXNXNXNXfXNXfXNXNXNXNXNXNXNXNXNXNXfXuX@Xo.) 9 3 6 3 ; ; ; ; & & $ $ $ @ @ @ @ @ @ @ @ o . . . . @ $ $ & $ $ $ @ @ @ o o o . . . . . . . . o o @ @ # & ; 1 Y o.oXj.oX@X@X7X7XaXaXuXuXuXuXuXiXiXiXiXiXiXiXiXiXaXiXfXfXfXfXfXfXfXfXfXfXfXfXfXfX6X|.@X8Xj.k.t.( y.h.i.w.a.F.a.a.a.a.e.r.F.a.1.,.3.3.3.2.1.a.3.3.3.3.3.,.2.1.3.3.1.a.<.t 3.3.",
"aXiXaXaXaXiXiXiXiXuXuXuXuXuXuXiXuXuXuXuXuXuXuXuXuXuXuXuXuXqXuXpXqXuXuXuXuXuXqXqXqXqXqXqXqXqXqXqXqXqXqXqXqXqXqXuXqXqXqXuXpXqXuXiXiXpXpXpXpXuXpXpXpXpXuXpXuXpXpXpXpXuXiXiXaXaXaXaXaXaXaXaXaXMXNXNXfXMXNXNXNXNXNXNXNXNXNXNXNXiX2XoX..T 4 & & % % & % & $ $ @ @ $ @ @ @ @ @ @ o @ . o o o o @ # $ # $ $ @ @ o @ . . . .     . . . o o o o @ @ @ @ - 6 Y .... . . .o.o.o.7XaXiXuXuXuXuXuXuXiXiXiXiXiXiXiXiXiXiXfXfXfXfXfXfXfXfXfXfXfXfXfX6X|.<X8Xj.k.t.( k.h.h.` i.F.a.a.a.a.e.r.F.a.1.,.1.3.3.2.1.3.3.3.3.3.3.,.2.1.3.1.1.a.D < 2.2.",
"aXaXaXaXaXiXiXiXuXuXiXuXiXiXuXuXuXuXuXuXuXuXuXuXuXuXuXuXuXuXuXpXuXuXpXuXuXuXqXqXqXqXqXqXqXqXqXqXqXqXqXqXqXqXuXuXqXqXqXuXpXuXpXpXpXpXpXpXuXuXuXpXpXpXuXuXuXpXpXpXpXiXiXiXiXaXaXaXaXaXaXaXaXnXNXNXMXfXfXfXNXNXNXNXNXNXNXjXaX+XY T 5 4 3 % & % % & % & $ & $ @ $ @ @ @ @ . . o o o . o o @ @ $ & & $ $ @ @ . . . . .       . . . . . o o @ @ @ @ & ; 8 Y Y W ) T ..o.o.@XuXaXiXiXuXuXuXiXiXiXiXiXiXiXiXaXaXiXfXfXfXfXfXfXfXfXfXfXfXfXfX6X|.<X8Xj...t.( h.`.h.( i.F.a.a.a.a.e.r.F.a.1.,.1.1.3.1.1.3.3.3.3.3.3.,.2.1.1.1.2.3.V t 2.3.",
"aXaXaXiXiXiXiXuXuXuXuXuXuXuXuXuXuXuXuXuXuXuXuXuXuXuXuXuXuXuXuXqXuXpXpXqXuXuXqXuXqXqXqXqXqXqXqXqXqXqXqXqXqXqXqXqXuXuXuXuXqXqXqXpXpXiXpXuXpXpXpXpXpXuXiXiXuXiXuXiXiXuXuXuXiXiXaXaXaXaXaXaXNXfXNXNXNXnXMXNXNXNXNXNXNXNXjXaX=X .q 1 5 5 ; % & & & & & % % & $ @ @ @ @ @ o o o o . . . . @ . @ @ $ $ @ @ @ @ @ .   .       . . o o @ o o . @ @ @ @ @ o & & 3 f ) Y )  .o.@X6XaXaXiXiXuXuXuXiXiXiXiXiXiXiXiXaXaXiXiXfXfXfXfXfXfXfXfXfXfXfX7X|.#X8Xj.k.t.( k.l.i.( r.F.a.a.a.a.e.r.F.a.1.1.1.1.3.1.2.3.3.3.3.3.1.,.2.1.1.1.2.3.A m 2.3.",
"aXiXaXiXiXiXuXuXuXuXuXuXuXuXuXuXuXuXuXpXuXuXuXuXuXuXuXuXuXuXuXuXqXqXuXqXqXqXuXuXqXqXqXqXqXqXqXqXqXqXqXqXqXqXqXqXqXqXuXuXqXuXuXuXiXpXpXpXuXuXpXpXuXuXuXuXuXuXuXiXuXuXuXuXiXuXaXaXaXaXaXaXMXfXfXfXnXaXMXMXNXNXNXNXNXfXiXaX7X) ; f q 5 % & & # @ $ @ & & & @ $ @ $ @ @ @ o o @ o . . . . . @ @ @ @ @ @ @ @ o .             . . o o o . o o o o @ @ o @ & - 3 ~ ) T X.UX7X6XaXaXiXiXuXiXuXiXiXiXiXiXiXiXiXaXaXiXfXfXfXfXfXfXfXfXfXfXfXfX7X|.#X9Xg.k.t.( t.h.t.S r.F.a.a.a.a.e.r.F.r.e.1.1.1.3.,.2.3.3.3.3.3.1.,.1.1.1.a.2.3.F y 2.3.",
"iXiXaXiXiXuXuXuXuXuXuXuXuXuXuXuXuXuXiXuXuXuXuXuXuXuXuXuXpXpXuXpXpXqXqXqXqXqXqXqXqXqXqXqXqXqXqXqXqXqXqXqXqXqXqXuXqXqXuXuXuXpXqXpXpXpXpXpXiXpXpXuXpXuXqXuXuXpXuXuXuXuXuXiXiXiXiXaXaXaXaXaXaXaXnXMXMXfXMXNXNXNXNXNXNXiX7X7X&X) 6 4 5 & $ @ @ @ @ @ @ @ $ $ @ @ @ @ @ o . . o . . . . . . . o o @ @ @ @ @ @ * . .           . . o @ . o . o . . . . o @ $ + & 8 T f ) X.#X7XuXuXuXuXuXuXuXiXiXuXiXiXiXiXiXiXiXaXaXiXfXfXfXfXfXfXfXfXdXdX7X|.#XiXX...t.( t.i.t.w.r.a.a.a.a.a.e.a.F.r.r.,.1.1.3.1.2.3.3.3.3.1.1.,.,.1.1.1.F b 2.m 2.2.",
"iXiXiXiXuXuXuXuXuXuXuXqXuXuXuXqXuXuXuXuXuXuXuXuXuXpXpXpXpXpXpXuXpXqXuXqXqXqXqXqXqXqXqXqXqXqXqXqXqXqXqXqXqXqXqXqXqXqXuXuXqXpXuXpXpXpXpXpXpXpXuXqXqXqXqXuXuXuXuXuXuXuXuXiXiXiXiXiXaXaXaXaXaXMXMXMXMXnXMXMXNXNXNXNXfX7XoXoX..Y 3 ; & $ @ o @ @ @ @ @ . o @ . @ @ @ @ @ . . . . . . . . . . . . . o @ @ @ @ . * . . .         . o @ . . o o . . . . @ @ @ @ & ; q q Y ' UX@X6XuXuXuXuXuXuXuXuXiXiXiXiXiXiXiXiXaXaXiXiXfXfXfXfXfXfXfXdX9X7X|..X9XX.k.t.( t.i.t.` i.a.i.a.a.F.e.a.F.r.<.,.1.1.a.1.1.3.3.1.,.,.C C ,.1.1.2.z z F.V 2.2.",
"iXiXuXuXuXuXuXuXuXuXuXqXqXuXuXuXqXuXuXuXpXuXuXuXqXqXpXpXpXuXuXuXuXqXuXqXuXuXqXqXqXqXqXqXqXqXqXqXqXqXqXqXqXqXqXqXqXuXqXqXuXuXpXpXpXuXpXuXuXpXuXqXqXuXuXuXpXuXuXpXpXuXpXpXiXiXiXpXaXaXaXaXnXnXMXMXMXMXNXNXNXNXnXMXaX8XoXj.T 3 ; % $ @ @ @ @ @ @ @ @ . . . . . o . . . . . . . . . . . .   . . . . @ @ @ @ * * * .           . . o @ . . . . . . . o @ @ @ @ ; 0 f f Y  .oX#X6X6XqXuXuXuXtXuXuXuXiXiXiXiXiXiXaXaXiXiXiXiXfXfXfXfXdXdXfX7X|.#X9XX...] ( t.h.y.w.i.a.a.a.a.a.e.a.F.>.<.,.1.1.3.,.<.a.1.1.C ,.u C ,.1.2.b z b F.V ,.<.",
"iXiXpXpXuXuXuXuXuXuXuXqXqXqXqXqXqXqXqXpXuXqXqXuXqXqXuXuXuXpXqXqXuXqXuXuXqXqXqXqXqXqXqXqXqXqXqXqXqXqXqXqXqXqXqXqXqXqXqXqXqXuXuXpXpXuXpXpXuXuXuXuXuXuXuXuXuXuXuXuXuXuXuXpXiXiXpXiXaXaXaXaXnXnXaXnXMXMXMXNXNXNXNXnXMXuX@Xj.T 5 % & $ @ @ @ @ @ @ @ @ . . . . . . . . . . o . o . . . . . . . . . . o @ @ o @ * . .           . . . @ o . . . . . . o @ o @ @ & f ) T T ) O.j.#X7X2X6XuXtXuXtXuXuXiXiXiXiXiXiXiXiXiXiXiXiXdXfXfXfXdXdXdX7X|.}.iXo...] _ t.h.t.w.i.a.a.i.a.a.e.a.r.C >.,.1.,.a.C 1.a.3.1.1.a.D C <.2.F C.F.C.F.u C >.",
"iXpXuXuXqXuXuXqXuXuXqXqXqXqXqXqXqXqXqXqXqXqXqXqXqXuXqXuXuXqXqXqXqXqXqXuXqXqXqXqXqXqXqXqXqXqXqXqXqXqXqXqXqXqXqXqXqXqXqXuXqXuXuXuXqXqXqXuXpXpXuXqXuXuXuXuXpXpXpXpXpXpXpXpXpXiXiXiXaXaXaXaXaXnXnXMXnXnXMXNXMXNXMXMXMXaX7XOXY ; & $ @ @ @ @ @ @ @ @ @ o . . . . . o . o o @ o . . . . . . . . . . . . . . . . . .             . . . o @ o . . . . . @ @ o . @ @ ; 1 q 0 ~  .j.oX@X7X7XqXuXuXuXuXuXuXiXiXiXiXiXiXaXiXiXiXiXiXaXiXdXdXdXdX:X|.}.iXo...t._ t.h.w.w.i.'.i.a.a.a.e.a.e.D >.,.1.,.a.b r.a.a.3.2.3.1.C 1.1.F.F.F.F.2.d C ,.",
"uXuXpXpXuXuXqXqXqXuXqXqXqXqXqXqXqXqXqXuXuXuXuXqXqXuXuXuXuXqXqXqXqXqXqXqXqXqXqXqXqXqXqXqXqXqXqXqXqXqXqXqXqXqXqXqXqXqXqXqXuXqXuXuXuXuXuXuXpXpXqXpXpXpXpXpXpXpXpXpXpXpXpXpXiXiXiXiXaXaXaXaXaXaXnXnXnXnXnXMXMXMXMXNXMXMXuX8Xj.3 % $ @ @ o o o o @ o @ . . .       . . . . @ * . . . .       .   . . . . . . . . . .             . . . o . . . .   . @ @ o . @ @ % % ; 5 Y +.j.oXoX@X7X6XuXtXuXuXuXuXuXiXiXiXaXiXiXiXiXiXiXiXiXdXiX9XiXiX@X|.}.iXo...] _ t.h.t.w.i.a.i.a.i.i.e.a.<.S <.,.1.,.3.b r.a.a.3.2.2.r.C 1.a.F.F.C.V.2.l <.,.",
"uXuXuXuXuXuXuXqXqXqXqXqXqXqXqXqXqXqXqXqXuXuXuXqXqXqXuXqXqXuXqXqXuXqXqXqXqXqXqXqXqXqXqXqXqXqX6XqXqXqXqXqXqXqXqXqXqXqXqXqXuXqXqXqXqXqXqXuXpXpXuXuXuXpXuXpXpXpXpXpXpXpXpXpXiXiXpXpXpXaXaXaXaXaXnXaXMXMXMXnXnXMXMXMXaXnXaX@X .5 ; $ @ @ o . . o o @ o . . .       . . * . . . . . * .         . . . . @ * * . . . . .           . . . o o . . . . . . . . . . @ & ; ; 5 f +.o.oX@X2X7X6XuXuXuXuXuXuXuXuXiXiXiXiXiXiXiXiXiXiXiXiXiXiXiX9X@X|.}.iXj.k.` _ t.h.t.w.i.i.i.a.i.a.e.F.>.w.<.,.1.,.3.C r.a.3.1.2.1.r.S 1.F.F.F.F F b.F F >.",
"uXuXuXuXuXqXqXqXqXqXqXqXqXqXqXqXqXqXqXqXqXqXuXqXqXqXqXqXuXqXuXqXuXqXqXqXqXqXqXqXqXqXqXqXqXqXqX6XqXqX6XqXqXqXqXqXqXqXqXqXqXqXqXqXqXyXyXpXuXpXuXuXuXqXuXuXuXpXuXpXpXpXpXpXiXpXpXpXpXaXnXaXaXaXaXnXfXaXaXaXnXMXMXMXMXaXiXoXY ; ; $ $ @ o . . o o o . . .       . . . . . .     . .               . . . * . . . . .   .           . . o @ . . . . . . . . . o @ ; 5 % 5 H Y ) j.oX:X6X6XuXuXuXuXuXuXuXuXiXiXiXiXiXiXiXiXiXiXiXiXiXiXiX9X@X|.}.iXo...` _ t.h.t.w.i.i.a.a.r.r.e.F.>.w.<.1.1.,.1.C e.F.1.1.2.1.e.>.C.V.C.C.c c b.v C 2.",
"uXqXqXqXuXqXqXqXqXqXqXqXqXuXqXqXqXqXqXuXqXuXuXqXqXuXuXqXqXqXeXeXqXqXqXqXqXqXqXqXqXqXqXqXqXqXqX6XqXqXqXqX6XqXqXqXqXqXqXqXqXqXeXeXqXyXeXyXpXuXuXuXuXqXuXqXuXpXuXuXpXpXpXiXpXpXiXiXpXpXaXaXaXaXaXaXnXMXnXnXnXnXMXMXMXiX=X) 5 % % $ @ @ . . . . . . . . .       . . . . . . .                     . . . * . . . . .                 . . . . . . . . . . @ . . @ & ; ; 4 f T )  .o.#X:XqXuXuXuXuXuXuXuXuXuXiXaXaXiXiXiXiXiXiXiXiXiXiX9X9X@X|.}.iXo...] _ t.h.t.w.i.i.i.i.r.r.w.r.<.>.C 1.r.1.F.p.'.F.F 2.2.1.e.2.C.b.b.n.b.c b l 2.2.",
"qXuXqXuXuXuXqXqXqXqXqXqXqXuXuXqXqXuXuXuXuXuXuXqXqXqXqXqXqXqXqXqXqXqXqXqXqXqXqXqXqXqXqXqXqXqX6X6X6XqXqXqX6XqXqXqXqXqXqXqXqXqXeXeXeXpXpXpXpXpXpXuXqXqXqXpXpXpXpXpXuXpXpXpXpXpXpXpXnXpXaXaXaXaXaXnXaXnXnXnXnXaXaXnXaX7X..q ; & @ $ @ . . .   . . .   . .         . . * . . . .         .           . . . . * * . . .                   . o . . . . . o @ . o @ # $ & 1 f Y Y ~ ) UX@X6XuXuXuXuXuXuXuXuXuXiXaXiXiXiXiXiXiXiXiXiXiXiXiX9X@X|.}.9Xo...] _ ] h.t.w.i.i.i.i.r.r.w.r.<.<.p.'.^.^.F p.'.1.1.2.2.1.<.2.*.=.C.F b.F b l 2.2.",
"qXqXuXuXqXuXqXqXqXqXqXqXqXqXqXqXqXqXqXqXqXqXeXqXqXeXqXqXqXqXqXqXqXqXqXqXrXrXqXqXqXqXqXqXqXqXqX6X6X6XqXqXqXqXqXqXqXqXqXqXqXqXqXeXqXeXpXpXyXyXpXqXqXqXyXeXeXeXuXpXpXpXpXpXpXpXpXpXpXpXpXpXaXnXnXnXnXnXnXaXnXaXaXpX@Xo.f > + @ @ @ @ . . . . . .     . .         . . . . . . . . .                 . . . * * * . .                       . . . . . . o @ o . @ @ @ & % 5 f T ) ) ..#X:XqXuXuXuXuXuXuXuXuXiXiXaXiXiXiXiXiXiXiXiXiXiXiX9X#X|.}.8Xo...] _ ] h.t.w.i.i.'.i.r.r.w.p.w.'.u.` '.<.<.C F a.1.1.1.1.<.2.3.a.F.1.C.2.C l 2.1.",
"qXqXqXqXqXqXqXqXqXqXqXqXqXqXqXqXqXqXqXqXqXqXeXeXqXqXqXqXqXqXqXrXqXqXqXqXrXqXqXqXqXqXqX6XqXqX6X6X6X6XqXqXqXqXqXqXqXqXqXqXqXqXeXeXeXeXeXqXyXyXyXqXqXqXqXyXeXeXyXpXpXpXpXpXpXpXpXpXpXnXpXaXaXnXnXnXnXnXnXaXaXaXaX6X7XOXY ; + @ @ @ . . . .   . .             . .   . . . . . .     . . .             . . . . . * . .                   . . . . .   . o @ o o @ @ @ & & ; 5 8 ~ ..j.#X2XqXuXuXuXuXuXuXuXuXiXuXaXaXiXiXiXiXiXiXiXiXiXiX8X#X|.}.8Xo...] _ ] h.t.w.i.i.'.i.p.r.w.p.p.` C '.F.r.<.C <.r.1.,.1.1.<.r.1.a.a.1.r.r.F l 2.1.",
"qXqXqXqXqXqXqXqXqXqXqXqXqXqXqXqXqXqXqXqXqXqXqXqXqXrXqXqXqXqXqXrXrXrXrXqXqXrXqXqXqXqXqXqX6X6X6X6X6XqX6XqXqXqXrXrXrXqXqXqXqXqXqXqXqXeXeXqXeXeXyXqXqXqXqXqXqXpXeXyXpXpXpXpXpXpXpXpXpXpXpXnXaXnXnXnXnXnXnXaXaXaXaXuX6X@X .3 $ @ o @ @ . . .   . .             . .   . . . . . .     . . .             . . . * . . . .                   . . . . .   . . @ . . o @ @ # & % 1 8 T ~ oX@XqXqXuXuXuXuXuXuXuXuXpXiXaXaXuXiXiXiXiXiXiXiXiX8X8X#X|.}.8XO..._ / ] k.t.w.i.i.i.i.e.r.w.e.w.<.<.F.F.a.<.<.e.1.1.,.1.1.<.1.r.1.r.1.r.r.<.l 2.1.",
"qXqXqXqXqXqXqXqXqXqXqXqXqXqXqXqXqXqXqXqXqXqXqXqXeXqXrXqXqXqXqXrXrXqXqXqXqXqXqXqXqXqXqX6X6X6X6X6X5X5XqX6X6XrXrXrXrXrXqXrXqXqXqXqXqXqXqXqXqXeXeXyXqXeXqXeXeXpXyXyXpXpXpXpXpXpXpXpXpXpXnXnXnXnXnXaXnXaXnXaXnXnXnXaXuX2X .; @ @ @ @ o . . .     .             . . . . . . . . .       . .       .       . * * .       .                   . . . . . . . o @ @ @ @ @ @ & % - 4 W O.#X@XqXuXuXuXuXuXuXuXuXuXuXuXaXpXuXiXiXiXuXiXiXiXiXuX8X#X|.}.8Xo..._ _ ] k.t.w.i.i.i.i.e.r.w.<.e.<.r.r.C a.,.w.1.r.1.1.1.1.<.r.1.1.r.r.1.1.<.l 2.1.",
"qXqXqXqXqXqXqXqXqXqXqXqXqXqXqXqXqXqXqXqXqXqXqXqXrXrXqXqXqXqXqXqXqXqXqXqXqXqXqXqX6X6X5X6X6X5X5X5X5X5X0X5X6XqXrXqXqXqXqXqXqXqXqXqXqXqXeXeXqXeXpXyXyXeXyXeXyXpXyXyXpXyXpXpXpXpXpXpXpXpXnXnXnXnXaXnXaXnXnXnXnXaXaXaXaX6Xo.; + $ $ @ o . . . . . . . .           . * . . .   . .     . . . .   . .       . . .         . .                   . o o . . o o @ @ @ o o @ $ + & 4  .UX2X7X0XyXuXuXuXuXuXuXuXuXuXpXuXuXuXiXiXiXuXuXuXuXiXuX8XoX|.}.8Xo..._ _ ] k.t.t.i.i.i.i.p.r.p.e.e.<.a.,.,.1.<.S e.r.1.1.1.1.S 1.1.1.1.r.1.1.1.V 2.1.",
"qXqXqXqXqXqXqXqXqXqXqXqXqXqXqXqXqXqXqXqXqXqXqXqXrXrXqXqXqXqXqXqXqXqXrXrXrXrXqXqX5X5X5X5X5X5X5X5X5X5X5X5X0X0XrXrXqXqXqXqXqXqXqXqXqXeXqXqXqXqXpXeXeXeXqXqXqXyXeXeXeXyXpXpXpXpXpXpXnXpXpXnXnXnXnXnXnXnXnXnXnXMXnXaXaXuXj.M & @ @ o o o . . .                 . . * . . . . .   . . . . . .     .                       .                   . @ @ o o @ @ o o o @ . o @ $ & ; Y oX7XqXqXuXyXuXuXuXuXuXuXuXpXpXpXpXuXuXuXuXuXuXiXuXiXuX8XoX|.}.8Xo...] _ ] k.` t.i.i.i.i.r.r.p.<.r.w.<.<.e.,.a.D e.r.2.1.1.1.S 1.1.1.1.e.1.1.<.S 2.<.",
"qXqXqXrXrXqXqXqXqXqXqXqX0X0XrXrXqXrXqXqXqXqXqXrXrXrXrXqXrXrXrXqXrXrXqXqXrXrXqXqX0X5X5X5X6X6X6X6X5X5X6X5X5X5X5XrXqXqXqXqXqXqXqXrXqXqXqXeXqXqXqXyXqXqXqXeXqXyXyXeXeXyXpXpXyXpXpXpXnXpXpXnXaXnXnXnXnXnXnXnXnXnXnXnXpXqXoXq + $ . . . . o o .                 . . . * . . . . . . . .   .       .           .                           .   . o o o o . o o o o o . o o @ $ & 5  .#XqXqXqXqXyXyXpXuXuXuXuXpXiXpXpXuXuXuXuXuXuXuXuXiXtX8XoX|.}.8Xo...] _ ] k.` t.y.i.i.i.r.i.p.>.r.<.>.F.F.1.r.D r.r.1.<.1.1.C 1.1.1.<.1.<.1.<.C 2.<.",
"rXrXqXqXqXqXqXqXqXqXqXqXrXrXrXrXrXrXrXqXqXqXqXrXrXrXqXrXqXqXrXrXrXrXqXqXqXrXqX0X0X5X5X5X6X6X6X6X5X5X6X5X5X5X0X0XrXrXrXrXrXrXrXrXqXqXeXeXeXyXyXyXeXeXeXyXeXyXeXeXeXyXpXpXpXpXpXpXpXpXpXnXaXnXnXnXnXnXnXnXnXnXnXnXuX .T T 3 @ o     . . .                   . . . * .   . . . . . .   .                 . .                           .     @ @ @ @ @ o @ o o o . o o o $ ; 5 ~ UXqXqXqXqXyXyXyXyXyXpXpXpXpXpXpXpXpXuXuXuXuXuXiXuXuX8XUX|.}.7XO..._ / ] k.` ` y.i.i.i.r.i.p.w.r.w.r.e.<.r.1.S r.r.<.,.<.1.C 1.<.<.<.e.<.1.<.C 2.1.",
"qXqXqXqXqX0X0X0XqX0X6XrXrXrXrXqXrXrXqXqXqXqXrXrXqXqXqXqXrXqXrXrXrXrXqXqXrXqXqX5X0X5X5X5X5X5X7X7X7X7X5X5X5X5X5X0XrXrXrXrXrXrXrXqXqXeXqXqXeXeXeXeXyXyXyXyXeXeXeXyXpXpXpXpXyXpXyXmXpXpXaXaXaXnXnXnXnXnXnXMXnXnXnXnX2Xq ; ; & o . .     . . .               . * * . . .   . . . .       . .                 . .                               . o @ @ @ o @ @ o . . o o @ @ $ ; f oX5XqX0XqXyXyXyXyXpXpXpXpXpXpXpXpXpXuXuXuXuXuXuXuXuXtXoX|.}.7Xo..._ _ ] t.` ( p.y.i.i.r.r.p.<.e.<.e.F.a.e.1.<.e.r.<.,.,.<.<.1.<.1.<.e.<.<.S u 2.2.",
"rXrXqXqXqXrX0X5X6XrXrX5X6X6XrXqX0XrXrXrXqXqXqXrXqXrXrXrXrXrXqXqXrXrXrX6XrX0X0XrX5X5X5X5X5X5X5X5X5X5X5X5X5X5X5X0X0X0X0X0XrXrXrXrXqXeXeXeXeXeXyXeXpXpXeXeXeXeXpXpXyXyXpXpXyXpXyXmXnXpXpXaXaXaXnXnXnXnXnXMXnXnXnXnX#X0 q ; $ @ .       . . . .           . @ @ @ .   .     .           . . . .             . .                               . . . o @ @ o . . . . . o o o @ ; 8 #X@X4X0XqXyXqXyXyXyXpXpXpXpXpXpXuXuXuXuXuXuXuXuXuXuXuX}.|.}.6Xo...] _ ] k.` ` p.p.i.p.r.r.p.>.e.w.e.1.<.r.e.D 1.e.<.,.1.2.C 1.2.1.1.e.>.<.C u <.2.",
"rXrXqXqXqXrX0X0XrXrX0X5XrXrXrXqXrX0XrXrXqXqXqXrXrXqXrXrXrXrXqXrXrXrXrX0XrXrX5X5X5X5X5X5X5X5X5X5X5X5X5X5X5X5X5X0X0X0X0X5XrXrXrXrXrXrXeXqXeXyXyXeXyXyXeXeXeXeXpXpXyXpXyXyXyXyXpXyXpXpXpXpXnXnXnXnXnXnXnXnXnXnXnXnXo.1 q 5 $ @ . . .   . * @ * .   . .   . @ $ @ .                 .   . . .               . .                               . . o . . . . . . o o o o o o @ 3 f  .#XUX5XrXqXqXqXyXyXyXpXpXpXpXpXpXuXqXqXuXuXuXuXuXuXuX}.|.}.7Xo...' _ ] k.` ( t.y.y.y.r.r.p.>.p.w.r.F.a.<.r.D 1.1.<.<.<.1.D 1.2.1.1.1.C <.S u F 2.",
"rXrXrXrXrXrXrX0X5X0X0X0XrXrXrXrX0XrX0XqXqXqXrXrXrXrX0XrXrXrXrXrXqXrX5X0X5X5X5X5X5X5X5X5X5X5X5X5X5X5X5X5X5X0X0X0X0X0X0X5X0XrXrXrXrXqXqXeXeXeXeXeXeXeXyXeXyXyXpXpXyXyXeXyXyXpXpXpXpXmXpXnXnXnXnXnXnXnXnXnXnXnXnXnXQ 5 8 $ $ o o @ o . . @ @ * .   .   . . . @ * .                       . . . .                     .                   . . . . . . . . . . . o o @ @ @ @ ; ~  .Y O.}.4XrXqXqXyXyXyXyXpXpXpXpXpXpXuXuXuXuXuXuXuXuXuXtX}.|.}.7XO...' _ ] k.( ( t.y.y.y.p.e.p.<.r.w.C >.e.a.e.S 1.e.<.,.,.1.D <.<.1.<.<.C <.S V C 2.",
"rXrXrX0XrXrXrXrX0XrXrXrXrXrXrXrXrXrXrXrXrXrXrXqXrXrXrX6XrXrXrXrX0X0X0X0X5X5X5X5X5X5X5X5X5X5X5X5X5X5X5X5X5X0X0X0X0X0X0X0X0XrXrXrXrXrXrXeXeXeXeXyXyXyXyXyXyXyXpXpXyXeXeXyXyXyXpXpXpXmXnXnXnXnXnXnXnXnXnXnXnXnXnXpX3 f f $ @ o o @ @ o $ $ @ .     X     . . * * .                       . . . * .                                       .   . . o . . .   . o @ o @ # $ & q }.oXo.UX<X0XqXqXeXeXyXyXyXpXpXpXpXpXuXpXpXpXuXuXuXuXuXuXtX}.|.|.7XO...' _ ] k.( ( y.y.y.y.r.p.p.<.r.w.e.e.>.<.e.D e.e.,.<.1.1.S <.<.<.C F <.<.S V C 2.",
"rX0X0X0XrXrXrXrXrXrXrXrX0X0XrXrXrX0XrXrXrXrXqXrXrXrXrXrXrXrXrXrX0XrX0X0X0X5X5X5X5X5X5X5X5X5X5X5X5X5X5X5X5X5X5X0X5X0X0X0XrX0X0X0X0XrXrXrXqXeXeXyXeXeXeXeXeXeXyXyXyXyXyXyXyXpXpXpXnXnXnXnXnXnXnXnXnXnXnXnXnXnXnX6X% Y 5 > % @ @ o @ o o @ .               . . .       X X X     X     . . .   .       . . .                     .           . o @ . . .   . @ @ @ @ # # & Q #X:X@X2X0XeXeXeXeXeXeXeXeXyXpXpXpXpXyXpXuXuXuXuXuXuXuXuXuX}.|.}.7Xo..._ _ ] t.( ( t.y.y.y.r.p.p.<.e.w.r.r.r.S e.D 1.e.>.1.1.1.S <.1.>.C <.S <.S V C 2.",
"rXrX0X0X0X0X0XrXrX0X0X0XrXrXrXrXrX0XrXrXrXrXrXrXrXrXrXrXrXrXrXrX0X0X0X0X0X5X5X5X5X5X5X5X5X5X5X5X5X5X5X0X5X5X0X0X5X0X0X0XrX0X0XrXrXrXrXqXrXeXeXeXeXyXyXeXyXeXeXeXyXpXyXyXyXpXnXnXnXnXnXnXnXnXnXnXnXnXnXnXnXnXNX#Xf f 5 4 3 & @ . o o o . .               . .     X X X X       X     . . .   .       . . .                     .           . @ . . . .   . @ @ @ & 1 & 1 H :XrXeXeXeXeXqXqXeXeXeXeXyXyXpXpXpXyXeXeXqXqXqXuXuXuXuXuXuX}.|.}.7XO...' _ ] k.( ( w.y.i.i.r.p.p.w.p.` r.a.r.D <.D <.1.,.1.1.<.S <.<.>.C <.C <.A V C C ",
"rX0XrXrX0X0X0XrXrXrXrXrXrXrXrX0XrXrXrXrXrXrXrXrXrX0X0XrXrXrX0XrX0X0X5X0X5X0X5X5X5X5X5X5X5X5X5X5X5X5X5X0X5X0X0X0X5X5X0XrX0X0XrXrXrXrXrXqXrXeXeXeXeXeXyXeXeXeXeXeXeXyXyXyXyXyXnXnXnXnXnXnXnXnXnXnXnXnXnXnXMXqXo.~ 0 ; % % 1 % o . o . . . .           X     .       X X X               . .         . . *               .             . .   . o o . . . . . @ @ @ 1 T q 4  .0XeXmXeXeXeXeXqXqXeXeXeXeXeXyXpXeXeXpXyXyXqXqXqXuXuXuXuXuX}.|.}.2Xo...' / ] k.( ( t.w.i.p.r.i.p.w.p.` i.a.r.S w.D <.<.,.1.<.1.S <.<.>.C <.C F D D C >.",
"rX0X0XrXrXrXrXrXrXrXrXrXrXrXrX0XrXrXrXrXrXrXrXrXrXrX0X0XrX0X0X5X0X5X5X5X5X5X0X5X5X5X5X5X5X5X5X5X5X5X5X5X5X0X0X0X5X0X0X0X0X0XrXrXrXrXrXqXqXeXeXeXeXeXpXyXyXeXeXyXyXyXpXyXpXpXpXnXnXnXnXnXnXnXnXnXnXnXnXMX2X^ Y 0 q 0 3 5 ; 1 $ . .   . . . . . .   X               X X                 .             . * .             . .       .   . * .   . . . . .   . @ @ @ 0 O.oXoX5XpXmXyXeXeXeXeXqXqXeXeXeXeXeXpXpXpXyXpXpXpXyXqXuXuXuXuXuXuX}.|.}.:XO. .' / ] t.( ( y.t.y.p.i.i.p.e.r.( i.a.r.S e.Z <.1.,.1.<.<.S <.<.>.C <.C <.F D C <.",
"0X0X0X0X0X0X0X0XrX0XrXrXrXrXrXrXrXrX0XrXrXrXrXrX0X0X0X0X5X5X0X5X5X5X5X5X5X5X5X5X5X5X0X0X5X5X5X5X5X5X5X0X5X0X0X0X5X5X0X0XrX0X0XrXrXqXrXrXeXeXeXeXeXeXyXyXeXeXeXpXyXyXpXyXpXpXnXnXnXnXnXnXnXnXnXnXnXnX7XO.T 7 . . @ 4 7 5 & % 1 .   . . . . * . .   X X X                         . .                 . * .             . .     . * . . . .         . . . . @ @ @ 4 o.@XrXpXpXeXyXeXeXeXeXqXqXeXeXeXeXeXpXpXpXyXpXpXyXyXuXuXuXuXuXuXuX}.|.|.;XO.' ) / ] k._ ( y.t.y.p.i.y.p.p.p.( S r.<.S w.V e.1.>.1.1.<.S <.<.>.C <.C <.F S C <.",
"0X0X0X5X5X5X5X5X5X0X0X0X0XrX0X0X0X0XrXrXrXrXrX0X0X5X0X0X5X0X0X5X5X5X5X5X5X5X0X0X0X5X0X5X5X5X5X5X5X5X0X5X5X0X0X0X5X0X0X0XrX0X0XrXrXrXrXrXrXeXeXeXeXeXeXyXpXyXyXyXyXpXpXpXpXpXnXnXnXnXnXnXnXnXnXnX6Xf 9 ` B > . . . . o @ $ $ $ @ . . . . . . . .   X X X X                       .                   . . . .   X               . @ . . . o   . .   . . . @ @ @ @ q o.:XpXmXmXmXyXeXeXeXeXqXqXqXeXeXeXeXyXyXeXyXpXpXyXyXqXuXuXuXuXuXqX}.|.}.:XO. .) / ' u._ ( y.y.i.y.i.i.w.p.p.( e.C V w.<.Z e.e.>.<.<.>.S <.<.<.<.<.C <.S S <.<.",
"0X0X5X5X5X5X0X5X5X0X0X5X5X0X0X0X5X0XrXrXrXrX0XrXrXrX0X5X0X0X0X0X5X5X5X5X0X0X0X5X0X5X5X0X5X5X5X5X5X5X5X5X5X0X5X0X5X5X0X0X0X0XrX0XrXrXrXeXeXeXeXeXeXeXeXyXpXyXyXyXyXpXmXmXmXnXnXnXnXnXnXnXnXnXnXnXE.6 / S m u t > @ .   . . @ * @ o . . .         X X X X X                 X                           . . .     X               @ . . o . . . .     . . o @ $ % 5 ^ oXpXnXnXmXpXeXeXeXeXqXqXqXqXeXeXeXeXeXeXyXpXpXyXyXyXqXqXuXuXuXqX}.|.}.:X}. .) / { k.] ( u.i.i.y.i.i.w.p.p.S p.w.w.p.<.Z <.<.<.,.<.<.D <.<.<.<.e.S <.S C 2.1.",
"0X0X5X5X5X5X5X0X5X5X0X0X0X0X0X0X5X0XrXrXrXrX0X0X0XrX0X5X0X5X5X0X0X5X0X0X5X0X5X0X0X5X5X5X5X5X5X5X5X5X5X5X5X5X5X0X0X0X0X0X0X0X0XrX0XrXrXeXeXeXeXeXeXeXeXyXyXyXyXyXpXbXbXbXmXnXmXnXnXnXnXnXnXnXnXnX..o + i y u l y 6 , > ; o . . . * * . .           X                     X X X X               .       . . .                   . * . . @ o . . .       . @ $ ; 1 0 7  .#X:XeXmXeXeXeXeXeXrXeXeXeXeXeXeXeXyXyXyXyXyXyXyXyXqXuXuXuXuXqX}.|.}.:XO. ._ _ _ k.] ( u.i.p.i.i.i.w.p.p.( >.i.r.<.<.V <.<.<.,.,.<.D <.>.<.>.e.C <.S C C 2.",
"5X0X5X5X0X5X0X5X5X5X0X5X0X0X0X0X5X0X0X0X0X0X0X0X0X0X0X0X0X0X0X0X0X5X5X5X5X0X5X0X5X5X0X0X5X5X5X5X5X0X5X5X5X5X0X0X0X0X0X0X0X0X0XrXrXrXrXeXrXeXeXeXeXeXeXbXyXyXeXeXmXyXbXbXyXnXnXnXnXnXnXnXnXnXyX .5 o + : y y r l y < < < , -           .       . .   X         X X X     X X X X X             .       . . .                     . . . @ o . .       . . @ $ 5 0 Y +.UX+.O.:XeXeXeXeXeXeXeXeXeXeXeXeXeXyXeXeXyXeXpXyXyXyXqXqXqXuXuXqX}.|.}.:XO.) ) / _ k.] ( y.i.y.i.i.i.` p.p.S p.S C <.C Z e.<.>.,.,.>.D <.<.>.C w.>.1.D C C <.",
"0X0X0X0X0X0X0X0X0X0X0X0X0X0X0X0X0X0X0X0X0X0X0X0X0X0X0X0X0X0X0X0X5X5X5X5X5X5X0X5X5X5X0X0X0X0X0X5X5X0X5X0X5X5X0X0X0X0XrXrXrX0XrXrXrX0XrXrXrXeXeXeXeXeXeXeXyXeXyXyXmXmXbXyXpXnXnXnXnXnXnXnXnXnXrX3 - S S S C S u u m y < < < , > +               @ @ @           X         X   X X                         .                       . . . . . . . . . . . @ $ - 1  .UX .oX~ }.0XeXeXeXeXeXrXeXeXeXeXeXeXeXyXeXeXpXyXpXyXyXyXyXqXqXuXuXqX}.|.}.:XO.' ) / _ k.{ ( y.i.p.i.i.i.` p.p.( w.<.>.w.S A e.<.>.,.,.>.D >.<.>.>.e.>.<.D C C S ",
"0X0X0X0X0X0X5X5X0X0X0X0X0X0X0X0X0X0X0X0X0X0X0X0X0X0X0X0X0X0X0X0X0X0X5X5X0X0X0X0X0X5X5X5X0X0X0X0X0X0X5X5X5X5X5X0X0X0X0X0X0X0X0XrXrXrXrXrXrXeXeXeXeXeXyXyXyXyXbXbXmXmXmXmXnXnXnXnXnXnXnXnXnXaX-XA ` <.C l v C C y < m ` Z < : < , ; .           @ @ . .             X     X X X X X         X     . . . . .       . . . o       .   . . o .     . . . . @ & 1 H @X5X:X@X:X;XeXbXeXeXeXeXeXeXeXeXeXeXeXeXyXeXeXyXpXpXpXyXyXyXqXqXqXqXuX|.|.}.;XO.' ) _ _ t.{ ` y.i.u.i.i.i.( p.p.( S i.r.>.<.V <.<.>.,.,.>.D >.<.>.>.<.>.1.D S C C ",
"0X0X0X4X0X0X0X0X0X0X0X0X0X0X0X0X0X0X0X0X0X0X0X0X0X0X0X0X0X0X0X0X5X5X5X5X0X5X0X0X0X0X5X5X5X5X0X5X5X5X5X0X5X0X0X0X0X0X0X0XrXrX0XrX0XrXrXrXeXeXeXeXeXeXpXyXyXyXnXmXmXnXnXnXnXnXnXnXnXnXnXnXaX(.F.C.2.n n v v C C v y t C l u < < y , - + o $ + . . $ . . .           X X   X X   X               . @ $ @ o . . . . . o & & o .       . o o .     o . @ @ # & 6 o.4XrXeXyXmXnXbXyXeXeXeXwXeXrXeXeXeXeXeXeXeXeXeXyXyXyXeXyXyXyXqXqXqXeXyX|.|.}.2XO.' ) / _ t._ ( t.u.u.i.S t.` p.r.( S e.e.S w.d e.<.>.,.C C D <.<.<.>.e.<.<.D C >.p.",
"0X0X5X0X0X0X0X0X0X0X0X0X0X0X0X0X0X0X0X0X0X0X0X0X0X0X0X0X0X0X0X0X0X5X5X5X0X0X0X0X0X0X5X5X5X5X5X5X5X5X5X5X5X0X5X0X0X0X0XrX0X0XrXrX0XrXrXrXeXwXeXeXeXeXpXpXyXmXnXmXpXnXnXnXnXnXnXnXnXnXnXnX%XF.F.3.b b F F <.F F F u < y l l l < = < : : ; - - #   $ @ @ @ . .               X X   .   o o . . o # - > ; o @ @ o o o ; , > & @ @ . . . @ @ . . . @ @ & $ @ & T @X0XeXmXnXnXnXmXyXeXeXeXwXeXeXeXeXeXeXeXeXeXeXeXyXyXeXyXyXeXeXqXqXqXeXeX|.|.}.2XO.' ) / _ ] _ ( t.y.y.i.A ` ` p.i.( S S S S <.d e.<.>.C C S D <.<.<.<.e.<.<.i.y.p.` ",
"5X5X5X5X5X5X0X0X0X0X0X0X0X0X0X0X0X0X0X0X0X0X0X0X0X0X0X0X0X0X0X0X0X5X0X0X0X0X0X0X0X0X0X0X0X0X5X5X5X5X5X5X5X0X0X0X0XrX0X0X0X0XrXrXrXeXrXeXeXeXeXeXeXeXeXpXmXnXpXpXmXnXnXnXmXnXnXnXnXnXnX-XF.F.F.2.F v v F v v b C V y : < l v u < = < < : , ; > & o & ; ; o @ o                 . + + @ @ o o # 1 a s 3 @ o & & - 6 g Z g , ; ; & o . o o @ o @ & - 6 6 + & Y 5XeXyXbXnXnXnXbXyXeXeXeXwXeXeXeXeXeXeXeXeXeXeXyXeXeXeXyXeXeXqXuXqXqXqXeXO.|.}.:X}.' ) / _ ] _ ( t.t.t.i.S S ` p.i.S S V V <.>.d e.>.C C C S Z >.S >.C >.C V i.i.h.h.",
"0X5X0X5X5X0X0X0X0X0X0X0X0X0X0X0X0X0X0X0X0X0X0X0X0X0X0X0X0X0X0X5X0X0X0X0X0X0X0X0X0X0X0X0X0X0X5X5X0X0X0X5X0X0X0X0X0X0XrXrXrXeXrXrXrXrXrXrXeXeXeXeXeXeXeXpXyXpXyXnXnXnXnXnXnXnXnXnXnXnX9XF.F.2.v r r r v z z r z z l r i = i l v u < < < , : < < ; + o & ; & & $ @ o o o & & ; ; ; , ; + + # & 5 f g g 6 # + ; 6 a _ ( ( ( g a a s ; & + + ; + # ; , g g + - f ;XnXnXnXnXnXnXbXyXeXeXeXwXeXeXeXeXeXeXeXeXeXeXeXeXeXeXeXeXeXqXyXqXqXqXeX} |.}.@XO. .) _ _ ] _ ( t.t.y.i.` ( w.p.i.S S u u w.<.d e.>.C C C S V C S S C C C m m A A ( ",
"0X0X4X4X4X3X4X0X0X0X0X0X0X0X0X0X0X0X0X0X0X0X0X0X0X0X0X0X0X0X0X0X0X5X0X0X0X0X0X0X0X0X0X0X0X0X5X5X0X0X0X0X0X0X0X0XrXrXrXrXrXrX0XrXrXrXrXrXeXrXeXeXeXeXyXpXmXmXyXmXnXnXnXnXnXnXnXnXnX9X`.F.2.2.<.C C v z x x x x z l l u y = u v v u < t i t < : > - O + ; - - ; o & ; 5 6 6 a a a a 6 ; o - ; g W W Z 6 - ; a g Z t.t.y.t.( Z ( ( Z s a 6 g 6 6 g / _ ( N 6 ~ :XnXnXbXbXnXbXbXyXeXeXeXeXeXeXeXrXeXeXeXeXeXyXeXeXeXeXeXeXeXqXqXqXqXqXeX} |.}.@X ...) _ _ ] / ` t.t.u.u.w.( ` p.u.A ( V S S >.V e.>.C >.C S V >.>.S >.D C D u u y i ",
"0X0X4X4X4X5X5X0X0X0X0X0X0X0X0X0X0X0X0X0X0X0X0X0X0X0X0X0X0X0X0X0X0X5X0X5X0X0X0X0X0X0X0X0X0X0X5X5X0X0X0X0X0X0X0X0X0X0X0XrX0X0X0XrXrXrXrXrXrXrXeXeXeXeXeXmXmXpXnXnXnXnXnXnXnXnXnXnXnX_.F.C.2.C b F F b b x x x b b v v v u y : v v v y < t i y : : : - o # ; # ; + ; > 6 6 6 a s s s s 6 ; - 6 _ _ W N 6 6 a s g A y.y.`.h.y.w.i.i.y.S ( Z _ t a ; g ( t.q.Z #XeXnXnXnXnXnXbXbXyXeXeXwXeXeXeXeXrXeXeXeXeXeXeXeXeXeXeXeXeXqXqXqXqXqXqXqX} |.}.@X| o.) _ _ ] _ ` t.t.i.t.p.` ` u.i.A ( V w.D >.m e.>.C >.C <.V >.>.S S C D D D D V V ",
"0X0X0X4X5X0X0X0X0X0X0X0X0X0X0X0X0X0X0X0X0X0X0X0X0X0X0X0X0X0X0X0X0X0X0X0X0X0X0X0X0X0X0X0X0X0X0X0X0X0X0X0X0X0X0X0X0X0X0X0XrXrXrX0XrXrXrXrXeXeXeXeXeXeXeXyXmXmXmXnXnXnXnXnXnXnXnXnX-XF.C.2.2.2.2.F b n n x n b b b b n v l r y < v v l u i < y y y y t > & & - + + - , ; , 6 a a s g g s 6 6 a _ _ / g s g g s Z A w.y.`.l.y.y.i.`.h.y.h.( ( d d d V ( y.t.w.7XnXnXnXnXnXnXbXyXyXeXeXwXeXeXwXrXeXeXeXeXeXeXeXeXeXeXeXeXeXqXqXqXuXqXrXqX} |.}.#X| ..W T _ ] _ ( t.u.y.w.t.w.w.i.i.A S S e.D S m e.>.C >.C >.Z >.>.S S S S D C C C C ",
"0X0X0X3X0X0X0X0X0X0X0X0X0X0X0X0X0X0X0X0X0X0XrX0X0X0X0X0X0X0X0X0X0X0X0X0X0X0X0X0X0X5X0X0X0X0X0X0X0X0X0X0X0X0X0X0X0X0X0X0X0XrXrXrXrXrXrXrXwXeXeXeXeXeXeXeXmXmXnXnXnXnXnXnXnXnXnX9XF.C.2.2.<.C v x x x n n n b b n n b v v v l u r l v v l y < l u u y , - o & + + + ; = , , , , 6 a a a 6 - 6 Z _ W g g g g g h S ( w.l.y.y.i.y.`.`.l.`.h.y.A t.( D S y.y.0.` yXnXnXnXnXnXbXyXyXeXeXwXeXwXwXwXeXeXeXeXeXeXeXeXeXeXeXeXeXqXqXuXqXqXrXrX} |..X#X+.../ N / ] _ ( t.t.y.w.t.w.w.y.i.A <.r.e.V S V w.>.C >.C S V >.>.S S <.<.>.C ,.C C ",
"0X0X0X0X;X4X3X;X0X3X0X0X0X0X0X0X0X0X0XrXrXrXrXeX0X0X0X0X0X0X0X5X;X;X0X0X0X4X0X4X0X0X0X0X0X0X0X0X5X0X0X0X0X0X0X0X0X0X0X0X0XrXrXrX0X0XwXrXrXwXeXeXeXeXeXeXbXmXmXmXnXnXnXnXnXnXaX^.2.2.2.F b v v x x x x c c c n n n n v z v v l l z v v v v u < y u y < + 3 + # + + - + ; , ; ; ; ; = ; ; = 2 g T N g g g g g Z A S w.y.e.w.y.y.i.l.l.`.`.`.0.w.y.w.w.y.y.Z u U.nXnXnXnXnXbXyXeXeXeXwXwXwXwXwXwXeXeXeXeXeXeXeXeXeXeXeXeXeXeXeXeXqX0X0X} |..X#X+.' _ T / ] _ ( t.t.y.` w.w.S A y.A w.r.e.D S V w.>.C C C S V >.>.S >.S >.>.,.,.,.,.",
"3X0X0X0X;X;X3X3X0X0X0X0X0X0X0X0X0X0X0X0XrXrX0X0X0X0X0X0X0X0X5X4X4X;X;X;X5X4X;X4X0X0X5X5X0X0X0X0X0X0X0X0X0X0X0X0X0X0X0XrXrXrX0XrX0X0XeXrXeXeXeXeXeXeXeXeXbXmXmXnXnXnXnXnXnXnX%X1.2.1.C v l v v n n x x n c n n n n n n x r v C v z z x x n v u < y u y , o + - + + - o - , , , ; ; ; t , 6 6 a g g g g g g g Z D S e.w.0.e.y.y.e.y.i.l.`.`.0.0.h.l.y.y.t.a O s qXnXnXnXbXbXyXeXwXwXwXwXwXwXwXwXeXeXeXeXeXeXeXeXeXeXeXqXeXeXeXeXqX0X0X} |.<X#X .) W T / ] _ ( t.t.u.` t.w.A A w.A y.w.p.D S m w.>.C C C S V S >.S S S C >.,.,.,.C ",
"0X0X0X0X0X0X0X0X0X0X0X0X0X0X0X0X0X0X0X0X0X0X0X0X0X0X0X0X0X5X5X4X5X4X4X5X5X0X0X5X0X0X0X0X0X0X0X0X0X0X0X0X0X0X0X0X0X0X0X0X0X0XwXrX0X0XeXeXwXwXeXeXeXeXeXyXbXmXmXnXnXnXnXnXnX9Xp.1.1.F b C C C v v n n n c c c b b b b b n v r r C v x x n n v v u < y u y > o - - , , a > , 6 6 , > a 1.m X o , s s g g g g Z Z A 0.y.w.w.y.y.y.y.y.i.i.i.l.S 0.i.l.y.t.w.; X : j.nXbXnXbXbXyXeXeXwXwXwXwXwXwXwXwXwXeXeXeXeXeXeXeXeXeXeXqXrXqXrXrX0X0X} |.<X#X .) T T _ ] _ ( w.t.y.` w.t.` t.` / t.d <.D D m w.S C C C S V S S S S S S >.C C v D ",
"0X0X0X0X0X0X0X4X0X0X0X0X0X0X0X0X0X0X0X0X0X0X0X0X0X0X0X0X0X0X0X5X5X0X5X5X0X0X0X5X0X0X0X5X0X0X0X0X0X5X0X0X0X0X0X0X0X0XrX0X0X0XrXwXrXrXwXeXeXeXeXeXeXeXeXyXyXmXmXnXnXnXnXnXnXR.2.1.C C C C C F v n n n n c c b b F F F F b b v r i b v x x n n v v l < l y t + = , a g Z Z , - ; - o = 1.V X   - a s s g d g g Z A 0.y.0.w.y.y.y.y.y.i.i.l.e.D 0.i.h.t.w.( - X O T nXbXbXbXbXyXeXeXeXwXwXwXwXwXwXwXwXeXeXeXeXeXeXeXeXeXeXqXqXqXrXrX0X0X} |.<X#X .) T N _ ] _ ( ` t.u.` w.t.` t.( A Z d S D S Z w.C D C D S V S S C S S C >.>.D D C ",
"0X0X0X0X0X3X>X>X4X4X5X0X0X0X0X0X0X0X0X0X0X0X0X0X0X0X0X0X0X0X0X0X5X0X4X4X0X0X5X0X0X0X0X0X3X0X0X0X0X5X5X5X0X5X0X0X0X0X0X0X0X0XrXeXeXeXeXeXeXeXeXeXeXeXeXvXbXmXmXnXnXnXnXnX7X<.1.C v b b C C n v n x n c c c c c b b b b *.*.b b v y C v x x n v v v u < u i : O , m Z Z Z - X   X X O ,.D X . # 6 s a s d d h Z Z >.e.0.e.y.y.i.i.i.i.i.y.h V ( y.y.w.0._ $   X W pXnXnXnXbXyXyXeXeXwXwXwXwXwXwXwXwXwXeXeXeXeXeXeXeXeXeXeXeXqXrXrX0X3X} |.XX#XO. .W T ) ] _ ( w.t.y.w.p.t.` t.` d d V S A S Z 0.C D C C D V S S D C C C C C V V p ",
"4X3X0X0X3X3X>X>X3X3X5X0X0X0X0X0X0X0X0X0X0X0X0X0X0X0X0X0X0X0X5X0X5X5X0X3X0X0X0X0X5X4X4X0X0X0X5X4X5X5X4X0X0X0X0X0X0X0X0X0XrXrXeXrXeXeXeXeXeXeXeXeXeXvXeXvXbXmXmXnXnXnXnXnX(.1.2.b v C C C n v x x n n b b c c c c c b c *.*.*.b b v y b n z r n n n n r y u i + ; A ( _ d o X X X X O @.h X . X > 6 s a d d h Z Z 0.w.0.y.w.i.i.i.i.i.h.S d V S ( w.( ( N X   o ` nXnXnXnXbXbXeXeXeXwXwXwXwXwXwXwXeXeXeXeXeXeXeXeXeXeXeXeXeXrXqX0X0X3X} |.<X#X}. .W T ) ' _ ( ` t.t.t.t.t.t.y.` d A A A D S m w.S D C D S m S S D S r.F.].>.u d u ",
"4X4X3X3X0X3X3X3X3X3X0X0X0X0X0X0X0X0X0X0X0X3X3X4X0X0X0X0X0X0X;X0X5X4X0X0X0X0X0X0X0X5X5X0X0X0X0X0X0X0X0X0X3X0X0X0X0X0X0X0XrXrXeXeXeXeXeXeXrXeXeXeXeXvXeXvXbXmXmXnXnXnXnXuXp.2.b C C C C v v v x n x n b b b b b c c c c %.*.*.*.b *.u l F v x x n b b b i l r : O ; ( _ 6 X X X X X   @.J X .   - , a s g g Z Z Z w.0.w.y.y.i.i.i.i.i.y.d t d d Z A A S y X X l r.pXnXnXbXbXbXvXeXeXwXwXwXwXwXwXwXeXeXeXeXwXeXeXeXeXeXeXeXeXrX0X5X5X4X} |.<X#X}. .W N ) ] ) _ ` t.t.t.u.t.` u.w.d w.w.Z D S Z w.S D C D C V e.a.].{.{.{.].r.V u t ",
"3X3X3X0X0X3X3X3X3X3X3X0X3X0X0X0X0X0X0X0X0X3X0X4X4X0X4X0X;X;X;X>X0X4X4X0X0X0X0X0X4X0X0X0X0X0X0X0X0X0X0X0X0X0X0X0X0X0X0X0XrXrXrXeXeXeXwX0XwXwXeXeXvXvXeXbXbXmXmXnXnXnXnXOXF F v C C C C v z v v n n n n F b F *.%.*.*.%.%.c %.*.*.%.*.y b *.b x x b b b v i l t + . 6 6 X X X X X X X J x.X     ; , 6 a d Z Z Z A w.0.e.e.y.i.i.i.i.i.S i m , , d d Z Z < X < 2.1.pXnXnXbXbXeXvXeXwXwXwXwXwXwXwXwXeXeXeXeXeXeXeXeXeXeXeXeXrXrX5X5X5X0X} |.XX#XO.) W N ) ] _ _ ` t.t.u.u.u.( t.w.m p.p.Z S S m 0.C >.r.a.F.F.].].].F.F.V.F.F.F.F.].",
"0X3X3X3X3X3X3X4X4X3X0X0X3X>X;X4X0X0X0X0X0X5X0X0X4X4X4X4X5X;X>X0X0X0X0X0X4X0X0X0X0X0X0X0X0X0X0X0X0X0X5X0X0X0X0X0X0X0X0X0X0X0X0XwX0X0X0X0XeXeXeXeXvXvXeXmXmXmXmXnXnXnXnXt.<.v b C C v v l l v x n n n n F F *.*.*.*.*.*.*.%.%.*.*.%.%.*.y *.*.b n n n b b v r l : o   X X X X X X X X J x.X     ; 6 , d h Z Z Z ( w.w.y.y.y.i.i.i.i.t.y i r V V u y u V i l *.m.1.pXnXbXbXbXyXeXwXwXwXwXwXwXwXwXwXwXwXeXeXeXeXwXeXeXeXeXeXrX0X5X5X4X;X} |.XX<XO.) W T ) ] _ ( t.t.w.y.u.t.A t.` A r.y.D S A Z `.{.{.{.{.{.{.{.{.{.{.{.{.].].].].].",
"3X3X3X3X3X3X3X;X3X3X>X0X>X3X4X4X4X0X5X5X0X0X5X4X4X0X4X;X5X5X>X4X4X4X0X5X0X0X0X0X0X0X0X0X0X0X0X0X0X0X5X0X0X0X0X0X0X0X0X0X0X0X0X0X0X0X0X0XwXeXeXeXeXvXmXmXnXnXnXnXnXnX@XC F v b C b v l l z v n x n n n *.F b *.*.*.*.*.*.*.*.%.%.%.%.%.v l *.*.b b v n b b C r u = o X X X X X X X X J x.X   . 3 s , g Z Z Z A 0.0.w.w.e.y.i.i.h.i.V < i r x x b n *.*.=.=.=.m.F.pXnXbXbXbXeXwXwX0XrXwXwXwXwXwXwXwXwXwXwXeXeXwXeXeXeXeXeXrX0X5X5X2X;X} |.XX#XO.) W T ) ] _ _ ` t.` u.t.t.S w.` Z V S S S A S ].].].].].].].].{.{.{.{.{.{.{.{.{.{.",
"3X3X3X3X3X3X3X;X;X;X>X0X3X3X;X;X3X0X3X;X0X4X4X4X;X;X;X;X5X4X0X0X0X4X4X4X0X0X0X0X0X0X3X3X3X0X0X0X0X0X5X0X0X0X0X0X0X0X0X0XrX0X0XrX0X0XwXeXeXeXeXeXvXvXmXmXnXnXnXnXnXnXU.F C C C b v v v l z v n v n n n F *.*.*.*.*.*.*.*.*.*.*.%.%.%.%.*.y b *.*.*.b x n b b n v t o     X X X X X X a x.    o - s 6 Z _ Z S ( 0.0.0.0.w.y.i.i.i.A : < i r r r b c %.#.-.&.;.m.F.nXnXbXbXbXeXwXwX0XwXwXwXwXwXwXwXwXwXwXwXwXeXeXeXeXeXeXeXrXrX5X5X4X;X} |.XX#X .) W N ) ] _ _ ` t.` t.t.t.( w.` m d V w.A A S ].].].].].].].].].].].].].].].].].].",
"3X3X3X3X3X3X3X3X;X4X>X3X>X3X0X3X3X;X0X;X;X>X3X4X;X;X;X;X4X4X5X5X5X4X;X;X;X;X3X3X0X0X0X0X0X0X0X0X0X5X0X0X0X0X0X0X0X0X0X0X0X0XrXrXwXeXeXeXeXeXeXeXeXvXvXmXnXnXnXnXnXnXY.F v v v v v v v v v v v n n n n c *.*.*.*.*.*.*.*.*.*.*.*.%.%.%.*.C i *.=.2.*.b n b b c b l + .   X X X   X X 2 x.&   .   + ; g _ ( w.0.0.0.0.w.w.y.i.i.` = < < r r r r c x %.#.&.-.&.:.V.-XnXbXbXvXeXwXwX0X0XwXwXwXwXwXwXwXwXwXwXwXeXeXeXwXeXeXeXeXrX5X2X;X:X} |.XX#X .) W g ) ' / _ ` t.` t.` t.( w.` N D d w.A A S ].].].].].].].].].].].a.].].].].].].",
";X3X3X3X3X3X3X3X;X4X3X3X>X3X3X;X;X4X4X5X5X4X>X4X;X4X4X4X4X;X;X;X4X;X;X3X4X4X0X0X0X0X0X0X0X0X0X0X0X0X0X0X0X0X0X0X0X0X0XrX0XrXwXwXrX0XrXeXeXeXeXeXeXvXbXbXmXmXnXnXnXnXR.C v V V l v l l l v v v n b b n n c *.*.*.*.*.*.*.*.-.*.*.%.%.%.%.*.u b *.2.2.*.c v b b b b < o X X X X X X X & a - X . .   @ 6 _ q.w.w.0.w.y.i.i.l.`.( < = i i i r r r c x %.#.-.-.-.-.m.2.(.bXbXbXeXeXwXwXwXwXwXwXwXwXwXwXwXwXeXeXeXeXwXeXeXeXeXwX0X5X;X:X<X} |.XX#X .) W M ) ' / _ ` t.` t.Z t.S w.` Z w.( ( A D S ].].].].].].].].].].].F.c.a.c.a.a.a.",
"3X3X3X3X3X3X3X3X3X;X3X;X>X3X3X>X3X>X3X3X;X;X;X;X4X;X4X;X;X;X;X;X4X;X0X0X4X;X0X0X0X0X0X0X0X0X0X0X0X0X0X0X0X0X0X0XrXrX0XrXrXrXwXwXwXwXwXeXeXeXeXeXeXvXvXbXmXnXnXnXnXnXK.C v V m l C l l l v x v v n b b b c b *.*.*.*.*.*.-.*.-.-.*.%.%.%.-.b r c *.=.*.*.b y C b b v -   X X X X X X # 2 ; X . . . . @ - g Z _ ( w.y.i.`.`.t.v i : i v x x r x c x c c %.%.%.:.%.&.=.7XbXvXvXeXwXwXwXwXwXwXwXwXwXwXwXwXeXeXeXwXwXeXeXeXeXrX0X4X:X:X:X} |.XX#X| ) W T ) ' / _ ` t.` ` A t.S ` ` / p.w.Z A Z >.].].].].].].].].].].].].c.c.c.a.].].",
";X3X3X3X3X3X3X3X3X3X;X4X;X;X;X>X>X>X3X>X;X;X;X;X;X;X;X;X;X4X;X;X4X4X0X0X;X>X;X3X0X0X0X0X0X0X0X0X0X0X0X0X0X0X0X0X0X0XrX0X0X0XrXwXrXrXwXwXeXeXeXeXeXvXvXbXmXnXnXnXnXnX` V v V l l C r l l v n v x x x c b *.*.c *.*.*.-.*.-.-.*.=.-.*.%.%.%.%.l n *.=.=.=.b V < b b n y o     X   X X . # - m s o o . o o o + # = , s Z ` y.t r v < i r x *.x *.%.c n c #.-.-.m.:.-.%.+XbXbXeXwXwXwXwXwXwXwXwXwXwXeXeXeXeXeXwXwXwXwXeXrX0X0X0X4X:X:X:X} |..X#X| ) W T ) ) / _ ( ` ` t.( t.A ` ( Z S w.A A Z >.].].].].].].].].].].].].F.].].].].].",
";X;X3X3X3X3X3X3X3X3X3X;X;X;X;X;X>X;X3X;X;X;X;X;X;X;X;X;X4X3X>X;X3X3X0X0X3X3X0X0X0X0X0X0X0X0X0X0X0X0X0X0X0X0X0X0X0X0XrX0XrXwXrXeXrXrXeXeXeXeXeXeXeXvXvXbXbXnXnXnXnXqXC v v V l l C r r l z v b F b x x x b *.*.*.*.*.*.-.*.*.-.-.-.*.%.%.%.-.b x *.*.=.=.=.F s > v n l o X X     X X . # t 2.2.S 6 6 6 > o o o @ $ & & + t d i v i i i r b r %.=.%.x c #.%.:.m.:.-.=.7XbXbXvXeXwXwXwXwXwXwXwXwXwXwXeXeXwXwXwXwXwXrXrXrX0X0X0X4X:X:X:X|.|..X#X .) W Y ) ' / _ ( t.` ` ( ` A ` ( m u Z ( A D 0.].].].].].].].].].].].].F.].].].F.F.",
";X;X;X4X3X3X3X3X3X3X4X;X;X;X;X;X;X3X4X;X;X;X;X;X;X;X;X;X;X3X3X>X3X0X0X>X0X0X0X0X0X0X0X0X0X0X0X0X0X0X0X0X0X0X0X0X0XrXrXrXwXrXwXwXwXeXeXeXeXeXeXeXeXeXbXmXmXnXnXnXnX7XD l v v v b C r l r r l b b n n n c x v *.*.*.*.*.*.*.-.-.-.-.=.*.%.%.%.*.r c *.=.=.3.*.F < O i v >   X       X * # b *.*.*.,.D Z Z g 6 + o o $ & - m i r r b v i j r r x c =.-.-.-.-.:.=.:.V.F.pXbXbXvXeXwXwXwXwXwXwXwXwXwXwXeXeXwXwXwXrXrXrXrXrX0X0X0X4X:X:X:X|.|..X#X .) W Y ) ) / _ ( ` ` ` ( ( A ( ` m d d ` D Z >.].].].].].].].].].].].].].].].c.c.c.",
";X;X;X4X3X3X;X3X3X4X3X;X;X;X;X;X4X4X4X;X;X;X;X>X>X3X3X3X3X0X3X0X0X0X0X0X0X0X3X0X0X0X0X0X0X0X0X0X0X0X0X0X0X0X0X0X0XrXrX0XrXrXrXrXwXeXeXeXeXeXeXeXeXvXmXmXmXnXnXnXnX6XV v v v b F C r l l z z z v n b *.*.*.b r b c *.=.=.*.*.-.-.*.*.-.%.%.%.%.v n %.-.=.:.=.*.v : O < 9 o $     . X @ , b *.*.*.*.2.1.S ( ( / s > + + & y z r r r x n n r r r r x -.-.&.%.%.%.%.:.%XnXbXbXvXeXwXwXwXwXwXwXwXwXwXwXwXeXwXrXwXwXrXrX0X0X0X0X0X5X:X:X<X} |.<X#X .) W Y ) ) ) _ ] ` ] ( ` ` Z ( ` Z ( d ( V Z S ].].].].].].].].].].].].].].].].a.a.",
";X;X;X>X3X3X;X3X3X3X3X;X;X;X;X4X4X3X3X3X>X;X>X>X>X;X>X3X3X0X0X0X0X3X0X0X0X0X0X3X0X0X0X0X0X0X0X0X0X0X0X0X0X0X0X0X0X0XrX0X0XrXwXrXwXeXeXeXeXeXeXeXvXvXmXmXnXnXnXnXnX&XS v v b F F V r u l l l l v x n F =.2.*.*.x b n b =.=.=.-.%.%.*.*.%.%.%.c v r #.-.=.=.:.*.b y + O + $ f o $   X # y *.*.*.*.*.2.2.1.>.S w.( ( ( / , < v x x r i i r r x n x c #.%.%.#.#.#.-.:.uXbXbXbXvXeXwXwXwXwXwXwXwXwXwXwXwXeXwXrXrXrX0X0X0X0X0X0X0X5X;X:X<X} |.<X<X .) W g ) ) ) _ ] ` ] ( t.( A ( ( Z w.A A Z Z d D V p V ,.<.1.1.a.a.a.a.].].].].].c.",
";X;X>X3X>X>X3X3X3X3X3X3X>X3X3X3X;X>X;X;X;X;X;X>X>X>X>X3X3X3X3X0X>X>X0X>X0X0X0X0X0X0X0X0X0X0X0X0X0X0X0X0X0X0X0X0X0X0X0X0XrXrXwXrXwXeXeXeXeXeXeXeXeXvXmXmXmXmXnXnXnXT.C v v F F C V r l l l l v v n n n b *.=.=.*.b n C C *.=.=.-.*.%.%.%.%.%.c v i b %.&.=.:.=.*.r : O o O o 3 ; X X - y v b b #.*.2.2.2.2.1.w.w.w.i.h.s j j r x x x x r r r r x c c c #.#.#.-.;.C.nXbXbXbXvXeXwXwXwXwXwXwXwXwXwXwXwXwXrXrX0X0X0X0X0X0X5X5X0X5X;X:X<X} |..X#X .) T f ) ) ) _ ] ( ] ( t.` A ( ( s A w.Z S Z m D D h h V A m S D D C D C v V ,.1.1.",
";X>X>X>X>X3X3X3X3X3X3X3X>X>X>X>X;X;X;X;X;X;X;X;X>X>X>X;X>X;X3X3X3X3X0X0X>X3X0X0X0X0X0X0X0X0X0X0X0X0X0X0X0X0X0X0X0X0X0XrXwXrXwXwXeXeXeXeXeXeXeXeXvXvXbXbXbXmXmXnXnXp.C v b 2.F b l l r l l v v n n n n c c *.*.=.*.*.b C b x *.*.n *.%.%.%.%.c l y v %.-.&.=.:.=.v < : + O . q $ X o = i r n x c *.*.2.3.3.2.1.e.e.i.A : i i i x x c x x x x c #.#.#.#.%.-.-.&.&.F.nXbXbXvXvXvXwXwXwXwXwXwXwXwXwXwXwXeXrX0X0X3X3X4X0X5X5X5X4X4X;X:X<X} |.<X#X| ~ T f ) ) ) _ ] ( ] ( t.` A ( ( s a ` Z S Z d Z V t d D S Z ( S S S S S d y V V , ",
">X>X3X3X3X3X3X3X3X3X3X3X3X>X;X>X;X;X;X;X;X;X;X;X;X;X;X;X;X;X;X3X3X>X0X3X>X>X0X0X0X0X0X0X0X0X0X0X0X0X0X0X0X0X0X0X0X0X0X0XrXwXeXwXeXeXeXeXeXeXeXeXvXvXvXbXbXmXmXnXuXS C l C 2.F v l l l l l v v v b b b c c c c *.*.=.=.*.*.*.v %.*.b x c %.%.c x y i c -.-.&.=.=.F i < : - O > 3 X < y v x b *.#.*.*.*.=.2.:.=.3.a.e.d : i i i r x c c c c %.%.-.&.%.-.-.-.-.&.;.F.nXbXbXvXvXeXeXwXwXwXwXwXwXwXwXwXwXwX3X3X3X4X4X4X4X;X;X;X;X4X;X:X<XI |.<X#X| ~ T f ' ) ) _ ] ( ` ] t.` A ( ( N A d A S Z d V V d d u ( Z ` ` A S S S d y V V , ",
"3X>X3X3X3X3X3X3X3X3X3X>X>X>X;X;X;X>X;X;X;X;X;X;X;X;X;X;X;X;X;X>X3X3X>X>X3X0X0X0X0X0X0X0X0X0X0X0X0X3X0X0X0X0X0X0X0X0X0X0XrXrXwXwXrXrXeXeXeXeXeXeXeXvXvXbXbXmXnXnX6XS D v C F b v r l l l v v v v n n c b b *.*.*.*.=.=.=.=.=.=.=.-.-.*.%.#.%.c x i : x %.-.-.=.=.2.v < < < + o . - y l n *.#.b *.=.=.*.*.*.=.:.:.:.V.*.u j i i x c x x c c =.*.x c %.#.c #.-.&.;.F.nXnXbXbXvXvXwXwXwXwXwXwXwXwXwXwXwXwX3X4X4X4X4X4X4X;X;X;X;X4X;X:X<X} |.<X#X| ~ W f ' ) ) _ ] ` ( t.t.` / ` ( N ` V A A A N S S V D u Z A ` ( S S S S m y V V , ",
">X3X>X>X3X3X3X3X3X3X3X>X>X>X>X>X;X>X:X;X;X;X;X;X;X;X;X;X;X;X;X;X3X3X3X>X>X0X3X0X3X0X0X0X0X0X0X0X0X0X0X0X0X0X0X3X0X0X0X0XrXrXrXrXrXrXeXeXeXeXeXeXeXvXbXbXbXnXnXnX&XD m V C C V l r l l l v v v n b b b c c c c c %.%.*.*.-.-.%.-.-.-.-.-.-.-.%.b b y i #.-.-.=.=.2.*.< < < : = : y r n n b *.*.%.-.:.=.*.*.*.=.:.m.:.m.2.v i i x c c c c c c m.:.&.&.-.&.&.;.n.m.`.nXnXbXbXvXvXvXwXwXwXwXwXwXwXwXwXwXwX3X4X4X4X4X4X4X4X;X;X;X;X:X:X<X} |.<X<X| ~ T f ) ) ) _ ` { ] u.u.t./ ( ` Z w.( A S A A w.S D D S S Z ` ( S S S A V d V V a ",
">X>X>X>X>X3X3X3X3X3X3X>X>X>X;X;X;X;X;X;X;X;X;X;X;X;X;X;X;X;X;X;X>X3X3X3X3X0X0X0X0X0X0X0X0X0X0X3X0X0X0X0X0X0X0X3X0X0X0X0X0X0XrXwXwXwXwXwXeXeXeXeXeXvXvXmXmXmXnXnX+XC t l m l V u r l l l v v x v b F *.*.*.*.*.*.*.-.=.=.=.=.&.&.=.-.-.-.-.%.%.c c *.u x %.*.*.*.*.2.u < < < : r v l n b #.*.=.=.&.&.:.:.=.*.:.M.V.-.m.:.V.V x c c c c c c c c -.m.M.M.M.n.m.m.m._.bXbXbXbXvXvXwXwXvXwXwXvXwXwXvXvXwXwX4X4X;X;X;X;X;X;X:X:X:X:X:X:X<XI |.<X<X| ~ T f ) ) / _ { { ] u.] k./ ` ( s d ( V S A A p.D D D S A A ` ( ( S S A V d V Z s ",
">X>X>X>X>X>X>X>X3X3X3X3X>X>X;X;X;X;X;X;X;X;X;X;X;X;X;X;X;X;X;X;X>X3X3X3X0X0X0X0X0X0X0X0X0X0X0X0X0X0X0X3X0X0X0X0X0X0X0X0X0X0XrXwXrXwXeXwXeXeXeXeXeXeXvXmXmXmXnXnX+XC t y d u V l u r l l v v n v n b b F b *.*.*.*.-.=.=.=.=.=.&.-.-.-.-.%.#.c c c %.*.v c *.*.b b b F i < : < l v v n *.#.*.-.&.;.:.:.&.=.=.m.:.-.:.&.m.C.i x %.%.#.c c c c c c #.%.%.%.-.-.&.m.8XbXbXbXbXvXvXwXwXvXwXwXvXvXvXvXvXwXwX3X;X;X;X:X:X:X:X:X:X:X:X:X:X<XI } <X<X| ~ T f ) ) / _ { { ] ` m k.( ` ` s d A Z A Z Z p.V D D D A A ` ( ` S S Z D d V A s ",
">X>X>X>X>X>X3X>X3X3X3X>X>X>X>X;X;X;X;X;X;X;X;X;X;X;X;X;X;X;X;X;X;X;X3X3X3X0X0X0X0X0X0X0X0X0X0X3X3X0X0X0X0X0X0X0X0X0XrX0XrXrXrXwXrXeXeXwXeXeXeXeXeXvXmXmXmXmXmXnX&XC y i y m u l l l l z z v x x n n n c c c c %.%.*.-.-.-.=.&.-.%.%.%.%.#.c c c c c c b x *.*.x *.c 2.r < : : V v x x b *.*.-.&.&.;.:.:.=.&.m.n.:.;.m.m.b i r c %.-.&.-.-.-.%.%.-.-.%.&.%.%.-.F.pXbXbXbXbXvXvXwXwXwXwXwXvXvXvXvXvXwXwX4X;X:X:X:X:X:X:X:X:X:X:X:X:XXX} } <X#X| ~ T f ) ) ) / _ { t.( ` ` ( ` ` g V Z A A Z m p.D D D D A A ` ( ` S ` D D m V A s ",
">X>X>X>X>X>X3X>X3X3X3X>X>X>X;X;X;X;X;X;X;X:X;X;X;X;X;X;X;X;X;X;X;X;X4X3X3X0X0X0X0X0X0X0X0X0X0X0X0X0X0X0X0X0X0X0X0X0X0XrXrXrXrXwXwXeXeXeXeXeXeXeXeXvXmXmXmXmXmXnX6XC l y < y u l l v v v l x x v n x x n b c c c c %.%.%.%.-.-.%.%.%.%.#.c c c #.c c c b r n b r b x *.n i < y i i r r b c n :.;.;.:.m.m.m.M.M.M.N.M.M.=.x r i r x c :.;.n.m.n.;.;.;.;.;.&.-.-.%XbXbXbXbXbXbXvXwXwXwXvXwXvXvXvXvXwXwXrX;X:X:X:X:X:X:X:X:X:X:X:X:X:XXXI } <X#X| ~ T Y +.) ) / ` ` t.{ t.( ( ` ` N S Z A A Z Z p.D V D D A A ` ( ` S S Z A m V A y ",
">X>X>X>X>X>X>X>X>X3X3X3X>X>X;X;X;X:X;X;X;X:X;X;X;X;X;X;X;X;X;X;X;X;X3X3X0X0X0X0X0X0X0X0X0X0X0X0X0X0X0X0X0X0X0X0X0X0X0XrXrXrXrXrXrXrXeXeXeXeXeXeXvXvXvXvXmXmXmXnXnX` V y < < d l l v v v v n v x *.b n x n c c b c c %.%.%.%.%.%.%.%.%.%.%.%.%.%.c c c c z r n z v r b *.i y v b v i i x x c :.m.m.n.m.m.B.B.B.B.M.M.M.:.:.n r i r c %.;.n.m.M.M.m.n.;.:.:.&.=.uXbXbXbXbXbXbXvXvXwXwXwXwXvXvXwXvXvXwX0X;X:X:X:X:X:X:X:X:X:X:X:X;X:XXXI } <X<X} ~ T f ) ) ) / { ` t.( ] / ` ` ` N S V A A Z A ` S D D Z A A ` ` ` S ` V A m V S s ",
",X>X>X>X>X>X>X>X3X3X3X3X>X>X>X;X;X;X;X;X;X;X:X;X;X;X;X:X;X;X;X;X;X;X3X3X0X0X0X0X0X0X0X0X0X0X0X0X0X0X0X0X0X0X0X0X0X0X0XrXrXrXrXrXwXwXrXeXeXeXeXeXvXvXvXvXbXmXnXnXnXI.V y y < t u u l v v v n b b *.*.F b n c b b c c c %.%.-.-.=.=.=.-.*.-.*.%.%.%.c c c r < r x r v i *.l i r n *.b b c #.*.-.:.m.m.m.m.B.B.B.B.N.N.B.N.Z.*.i x i x %.-.&.&.;.n.m.;.;.;.&.;.:.8XbXbXbXbXbXbXvXvXwXwXwXwXvXwXwXwXvXwX0X;X:X:X:X:X:X:X:X:X:X:X:X;X:XXXI } <X#X} ~ T f ) ) W / ( ` ] ( t./ ` ` { N S Z Z A Z Z ` A D V V A A w.` ` ` w.Z S m V S s ",
">X,X>X>X>X>X>X3X3X>X3X3X>X>X>X;X;X;X;X;X;X;X;X;X;X;X;X;X;X;X;X;X;X3X3X3X3X3X0X0X0X0X0X0X0X0X0X0X0X0X0X0X0X0X0X0X0X0X0XrXrXrXrXrXwXrXwXeXeXeXeXeXvXvXvXvXvXmXmXnXnX6Xm y y < < y l l l l v b *.*.b b b b b F *.*.*.*.-.-.-.&.=.=.=.=.%.%.-.%.%.#.c c c x : = i r i v : v C i i r 2.=.c c c c %.-.&.:.M.B.n.B.B.M.B.N.B.N.N.#.r r r c %.%.-.&.&.&.;.&.&.&.&.&.:.7XbXbXbXbXbXbXvXvXwXwXwXwXvXvXwXvXvXeX0X;X:X:X:X:X:X:X:X:X:X:X:X:X:XXXI } <X.X| ~ T f ) ) W _ ] _ ] ( ( _ / ` { m S Z A A N A ( A V V V A A w.w.` w.w.Z S m V S s ",
">X>X>X>X>X>X>X3X3X3X3X3X>X>X>X;X;X;X;X;X;X:X;X;X:X;X;X;X;X;X;X;X;X3X3X3X3X3X0X0X0X0X0X0X0X0X0X3X0X0X0X0X0X0X0X0X0X0X0X0XrXrXrXwXeXeXeXwXeXeXeXvXeXvXvXvXvXmXmXnXbXnXA y y t < < y l l l l x x n b b b n n c b c c %.*.*.%.&.m.=.-.-.%.-.*.-.*.%.c c c x = = : r r v i : v l v y u b *.=.*.#.c c c %.;.n.B.N.n.B.B.B.B.B.m.x n r r c c %.%.-.&.&.&.&.&.&.&.&.:.7XbXbXbXbXbXvXvXvXwXwXwXwXvXvXvXwXwXwX3X;X:X:X:X:X:X:X:X:X:X:X:X:X:XXXI } XX.X| ~ T f ) ) W _ ] { ] / Z ] s ] ` m S Z Z A Z A A A V V V A A ` w.` ` ` A S V V S s ",
">X>X>X>X>X>X>X3X>X>X>X3X>X>X>X;X;X;X;X;X;X:X;X;X:X;X;X;X;X;X;X;X;X>X>X>X>X>X0X0X0X0X0X3X0X0X0X0X0X0X0X0X0XrX0X0X3X0X0X0XrXrXrXrXrXrXeXwXeXeXvXvXeXeXvXmXvXmXmXmXnXnX[ y y y < : < l l z l v x n n n b b n b c c c c b b c =.m.=.-.=.=.=.*.*.=.*.*.%.c x y : = i r r i < r b b v r u r b =.=.-.#.c c -.;.B.N.B.;.n.B.n.B.=.x c n x r x #.%.%.&.;.&.-.&.;.;.;.m.8XbXbXbXbXvXvXvXvXvXvXvXvXvXvXvXwXwXwX3X;X:X:X:X:X:X:X:X:X:X:X:X:X:XXXI } XX.X| ~ T f ) ) W / { _ ] ( Z ] s ] ` g A A Z A A A A D V V V A A ` w.` ( S Z S m D A d ",
">X>X>X>X>X>X>X3X>X>X3X>X>X>X>X>X>X;X;X;X;X;X;X;X;X;X;X:X;X>X;X;X>X>X>X>X>X>X0X0X3X0X3X3X0X0X0X0X0X0X0XrXrXrX0X0X0X0X0XrXrXrXrXrXrXwXwXwXeXeXvXvXeXeXvXvXvXvXmXmXnXnXd.y y y < : < y l z l v n v n x v v x n b b b b c n c m.=.-.-.=.=.=.*.*.=.%.*.%.%.c v i < : r r i i r *.*.v r b v l r m.n.&.%.c c %.M.Z.N.n.n.B.B.M.b x c c c x p x %.;.&.;.;.-.&.;.;.m.V.pXbXbXbXbXvXvXvXvXvXvXvXvXvXvXwXwXvXwX3X;X:X:X:X:X:X:X:X:X:X:X:X:X:X}.I } .X.X| ~ T f ) ) W W { { ] _ / { s ( { g A Z Z A A A A Z V V V A A ` w.` ( ( A S Z S A d ",
">X>X>X>X>X>X>X>X>X>X3X>X3X>X>X>X;X;X:X;X:X:X;X;X;X;X;X:X;X;X>X>X;X;X>X>X>X;X>X0X3X0X0X0X0X0X0X0X0X0X0X0XrXrX0X0X0X0X0X0XrXrXrXwXrXeXeXrXeXeXeXeXvXvXvXvXvXvXmXmXnXnXQ.l y y y < < < l l l v n n v v l r v n b b c c c b -.m.=.=.=.=.=.=.*.=.*.%.%.%.%.#.c r < = i r r i i %.-.b r F b v y r :.m.:.-.#.c &.Z.Z.N.B.B.M.m.r x x c c c c c x &.;.n.;.&.&.n.n.m.F.bXbXbXvXvXvXvXvXvXvXwXvXvXvXwXvXvXwXwX3X;X:X:X:X:X:X:X:X:X:X:X:X:X:X}.I } .XXXO.+.Y f ) ~ T / { { _ _ / _ m _ ( g Z Z Z A Z A A A V h V Z A w.w.` ` S A S A S m d ",
">X>X>X>X>X>X>X>X>X>X3X>X3X3X>X>X>X;X;X;X:X;X:X:X;X;X;X:X:X;X;X;X;X;X>X>X>X;X3X0X3X0X0X0X0X0X0X0X0X0X0XrX0XrX0X0X0X0X0X0XrXrXrXwXrXeXeXeXeXeXvXvXvXvXvXvXvXvXbXmXbXnXOXu u y y t < < y l l v v b v v r l v v n n c b F *.=.=.:.=.=.=.=.=.*.*.c %.%.-.%.%.c r < = r z r u y z -.%.n x C V u r x m.N.m.;.%.#.&.Z.Z.N.n.B.=.i n c x x c c c #.%.&.&.&.;.;.n.n.m._.bXbXbXvXvXvXvXvXvXvXvXvXvXvXwXvXvXwXwX3X;X:X:X:X:X:X:X:X:X:X:X:X:X:XXX|.} XX.XO.~ Y f ~ ) T / _ _ / _ ( / A / / s m A Z Z Z A S A V h V Z A w.w.w.` S S A Z ( m m ",
",X>X>X>X>X>X>X>X>X>X>X>X>X>X>X>X>X;X;X;X;X;X:X;X;X;X;X:X;X;X;X;X;X;X>X>X>X>X3X3X3X0X0X0X0X0X0X0X0X0X0X0X0X0X0X3X0X0X0X0XrXrXrXrXwXwXeXvXvXeXeXvXvXvXvXvXvXvXvXmXnXnX+Xm u y u y < < < l l v v n v l l l l v x n n b F *.=.=.m.=.=.=.-.-.*.%.c %.-.-.%.%.c r : O n x l v v r %.-.b z u D b b x c M.N.M.;.-.#.:.Z.Z.Z.N.b r r c c x x c c -.-.&.&.;.n.m.m.m.m.7XbXbXbXbXbXvXvXvXvXwXwXvXvXwXwXvXvXwXwX3X:X:X:X:X:X:X:X:X:X:X:X:X:X:X}.|.} <X#X| ~ Y f ) ~ T / { _ _ { ` / / A / s m A Z Z Z A S Z h d V Z A ` ` ` ` ` S A m S d d ",
",X>X>X>X>X>X>X>X>X>X3X3X3X>X>X>X;X:X;X;X;X;X:X:X;X;X;X;X;X:X;X;X;X;X>X>X>X3X3X3X>X0X0X0X0X0X0X0X0X0X0X0X0X0X0X3X0XrX0X0XrXrXrXrXrXwXwXeXeXeXrXvXvXvXvXvXvXvXvXmXmXnX&Xm u u u u t < < y l v b v v l l l l l v v n F b b =.=.m.=.=.=.*.%.c c c -.&.-.%.%.z : : < c b v b b l x -.*.v i v *.*.b n &.M.N.M.M.&.-.B.Z.Z.m.x x r c #.c x x c -.&.;.n.B.m.M.m.m.C.nXbXbXbXbXvXvXvXvXvXvXvXvXvXwXwXvXvXvXwX3X;X:X:X:X:X:X:X:X:X:X:X:X:X:X}.|.} .X<XO.^ Y q ~ ~ T / _ _ _ { ` A / / / a d A A Z Z A A Z V h Z Z A S ` S S A S A m S s d ",
",X,X,X>X>X>X>X>X>X>X>X3X3X>X>X>X>X;X;X;X;X;X:X:X;X;X;X;X;X;X;X;X;X;X>X>X;X;X3X3X>X>X0X0X0X0X0X0X0X0X0X0X0X0X0X0X0X0X0XrXrXrXrXrXrXrXwXrXeXeXrXeXeXeXeXvXvXvXmXmXmXnX7XZ y y u u y , < < l v v l v l l l l l l v n b b c =.m.=.-.*.%.%.c c #.%.&.&.-.-.#.i : i i %.c b F F v r -.F v y v c %.%.c -.n.M.N.N.m.&.B.Z.Z.*.x x x r %.c c x x m.n.B.M.M.M.M.m.m.^.nXbXbXbXbXvXvXvXvXvXvXvXvXvXvXvXvXvXvXwX3X;X:X:X:X:X:X:X:X:X:X:X:X:X:X}.I G }.#XO.^ Y 9 W W T W _ _ / { ` A / / _ , s Z A Z N A A Z V d Z Z Z S S S ( Z S A m S y g ",
",X,X>X>X>X>X>X>X>X>X>X>X3X>X>X>X>X;X;X;X;X;X;X:X:X;X;X;X;X;X;X;X;X;X;X>X;X>X1X>X>X3X0X0X0X0X0X0X0X0X0X0X0X0X0X0X0X0X0X0XrXrXrXrXrXrXrXrXrXwXrXrXeXvXvXvXvXmXmXmXmXnX6XZ y y i u u y < < t l l l v v l l l r v v b b n *.=.=.=.c %.%.%.%.%.%.-.=.&.-.%.x v i i z -.%.c *.F b r %.b C v r c %.c %.-.&.;.B.N.Z.B.n.Z.V.x x x x x c %.c c x c n.B.B.M.m.n.n.m.=XbXbXbXbXbXbXvXvXvXvXvXwXwXvXwXwXvXvXvXwX;X:X:X:X:X:X:X:X:X:X:X:X:X:X:X}.I ^ }.}.O.~ Y f ) / T W / / / { { Z _ / / , g m A m m A A Z h d Z Z m V D S ` Z S Z m A s d ",
",X,X>X>X>X>X>X>X>X>X>X>X3X>X>X>X>X>X;X;X;X;X;X;X:X;X;X;X;X;X;X;X;X;X>X>X>X>X1X1X0X0X0X0X0X0X0X0X0X0XrX0X0X0X0X0X0X3X0X0XrXrXrXrXrXrXrXrXrXrXrXrXeXvXvXvXvXmXmXmXnXnXuXD u y i i y y t , < u l l l v l l l l l b b n n =.=.=.c c *.%.%.*.%.-.&.n.;.-.x x b i r n -.-.%.%.*.b v c =.=.b r n %.%.-.-.-.&.n.B.B.N.N.M.b x x x x x x %.#.c c x c -.&.;.;.;.:.C.pXbXvXvXbXvXvXvXvXvXvXvXvXvXvXvXvXvXvXvX0X;X:X:X:X:X:X:X:X:X:X:X:X:X:X:X|.I ^ }.o.}.~ Y f W / T W / / / { { / / / / , N m Z m m Z A Z u d Z Z V S S S S S S A m A d d ",
",X,X>X>X>X>X>X>X>X>X>X>X3X>X>X>X>X>X;X;X;X;X;X;X:X:X:X;X;X;X;X;X;X;X>X>X>X>X>X1X0X0X0X0X0X0X0X0X0X0X0X0X0X0X0X0X0X0X0X0X0X0XrXrXrXrXrXrXrXrXrXeXrXeXvXvXvXvXmXmXnXnXnXA l y y i i y y t < t l l l v l l l l l v v v b =.-.%.c *.=.b c #.*.&.n.;.-.n i n b v r b *.-.-.-.%.*.n x :.&.c x x *.*.-.&.&.:.n.n.B.N.Z.=.x c x c c x c %.%.#.#.c c c %.&.&.:.2.=XbXbXbXbXvXvXvXvXvXvXvXvXvXvXvXwXvXvXvXvX0X;X:X:X:X:X:X:X:X:X:X:X:X:X:X:X|.I ^ O.o.| +.T f T W T T / / / / N { _ / / , / N N d g N Z Z d d V m m A A ( S ` ` A m A d d ",
">X>X:X,X>X>X>X>X>X>X>X>X3X>X>X>X>X>X;X;X;X;X;X:X:X:X:X;X;X;X;X;X;X;X>X>X>X>X>X>X>X0X3X3X3X0X0X0X0X0X0X0X0X0X0X0X0X0X0X0X0XrX0XrXrXrXrXrXrXrXrXeXrXeXvXvXvXmXmXmXnXnXnX` l u y y y i i y y i y l l l l l l l l v v v *.=.c *.*.=.=.c b b %.m.m.%.c r l b z b l b -.c =.-.=.=.*.n ;.&.%.n x %.-.-.&.&.:.n.n.n.B.Z.n r c c c c c c %.-.-.=.%.#.c c %.-.2.=XbXbXbXbXbXbXvXvXvXvXvXvXvXvXwXwXwXwXvXvXwX3X;X:X:X:X:X:X:X:X:X:X:X:X:X:X:X|.I } }.o.| +.^ q W ) T T W _ / / N _ _ / / , ( N m d s Z Z Z d u m m Z Z t ( w.S ` A m Z d s ",
">X>X>X>X>X>X>X>X>X>X>X3X3X>X>X>X>X>X;X;X:X:X;X:X:X:X;X;X;X;X;X;X;X;X>X;X>X>X>X0X>X>X>X3X0X0X0X0X0X0X0X0X0X0X0X0X0X0X0X0XrXrXrX0XrXrXrXrXrXrXrXrXrXeXvXvXmXmXmXmXmXnXnXg.l u y y y y i i y y i u l l l l l l l l v v b *.c *.=.=.*.c c n -.m.-.x c v r b x v b *.=.c -.=.*.=.-.%.:.m.-.n x c -.-.-.-.&.;.n.;.n.M.r r %.c c c c c c %.-.=.=.&.-.%.#.*.=XbXbXbXbXbXbXbXvXvXvXvXvXvXvXvXwXwXwXwXwXwXwX3X;X:X:X:X:X:X:X:X:X:X:X:X:X<X:X|.} } O.}.O.~ Y q W ) T W W / _ / / / / / / s A N m d M A A Z d d m m Z V / w.w.A S Z m V d s ",
">X>X,X>X>X>X>X>X>X>X>X>X>X1X3X3X>X>X>X;X;X;X;X:X:X;X;X;X;X;X;X;X;X;X;X;X>X>X>X>X>X>X>X>X3X0X0X0X0X0X0X0X0X0X0X0X0X0X0X0XrX0XrXrXrXrXrXrXrXrXrXrXeXeXvXvXmXmXmXmXmXnXnXE.V u u y y y y i y y y y l l l l l v v l l v b b c *.=.*.*.b n b n.;.%.x *.n r %.c r v *.C.%.-.m.*.#.-.:.&.M.&.c x n &.;.-.&.&.n.B.M.B.*.r r c %.c c c c c c %.-.&.&.:.=.2.&XbXbXbXbXbXbXbXbXvXvXvXvXvXvXvXwXwXwXwXwXwXwXwX3X;X:X:X:X:X:X:X:X:X:X:X:X:X:X:X|.I |.}.| O.+.^ f T ) T T / W T N Z / / / / g Z m m m m A Z Z d u d m m Z u.` ` Z S Z V m m s ",
",X>X,X>X>X>X>X>X>X>X>X>X>X1X>X>X>X>X>X>X>X>X;X;X:X;X;X;X;X;X;X:X:X;X;X;X>X>X>X>X>X>X>X>X0X0X0X0X0X0X0XrXrXrX0X0X0X0X0X0XrXrXrXrXrXrXrXrXrXrXeXeXeXeXvXvXmXmXmXmXmXnXnX@Xm u u u u u u y y y i i u l l l v v v l z v n b c *.*.*.*.b x =.n.&.#.*.*.n v %.%.n r c m.=.=.m.=.%.%.m.%.=.m.%.n x -.m.m.n.;.n.n.B.M.r x r x -.%.c c c c c c #.-.&.=.1.6XbXbXbXbXbXbXbXbXvXvXvXvXvXvXvXvXwXwXwXwXwXwXwXwX3X;X:X:X:X:X:X:X:X:X:X:X:X:X:X:X|.I |..X}. .~ ~ f T W T T W / _ N N N B / / s m m m m m A V V d u m m ( t.w.` ( Z S m Z m m s ",
">X,X,X>X>X>X>X>X>X>X>X>X>X1X1X3X>X>X>X>X>X;X;X:X:X:X;X;X;X;X;X:X:X;X;X;X;X;X>X>X>X>X>X>X>X3X0X0X0X0X0X0X0XrX0X0X0X0X0X0XrXrXrXrXrXrXrXrXrXrXrXeXeXeXvXvXmXmXmXmXmXmXnX6Xl u u u u r u u y y < < < l l l v v l v l l v b b %.*.*.*.x x m.n.&.#.2.b b b c -.c v x =.C.=.m.m.=.%.:.-.c m.-.c x %.m.M.n.n.n.;.n.=.i r x r %.-.#.c #.#.#.#.#.#.-.i.uXbXbXbXbXbXbXbXbXvXbXvXvXvXvXvXvXvXwXwXwXwXwXwXwXwX3X;X;X:X:X:X:X:X:X:X:X:X:X:X:X:X|.I |..X}. .^ T 0 W W T T W / / N N N M / / s N N m m s A Z m d u m g ` ` ` S ( Z S m Z m m s ",
",X,X>X>X>X>X>X>X>X>X>X>X1X1X1X1X>X>X>X>X>X;X;X:X:X:X;X;X;X;X;X;X:X:X;X;X:X>X>X>X>X;X;X>X>X>X0X0X0X0X0X0X0XrX0XrX0X0X0XrXrXrXrX0XrXrXrXrXrXrXrXrXeXvXmXmXmXmXmXmXmXmXnXnX/ u u u u l l l y < < < < i l l l v l l l v v n b *.*.*.c z c N.B.&.*.b 2.F F b -.%.b x c m.&.m.m.m.m.m.&.c *.m.%.x c B.n.;.n.;.n.M.v i r x x n -.%.#.c #.#.#.%.%.i.pXbXbXbXbXbXbXbXbXbXvXvXvXvXvXvXvXvXvXwXwXwXwXwXvXwXwX3X4X;X:X:X:X:X:X:X:X:X:X:X:X:X:X|.I |..X}. .^ Y 8 T W T N N / / N N Z s / / M N N m s s / m m d u d d A ` ( S A A S m Z V m s ",
">X>X>X>X>X>X>X>X>X>X>X>X3X0X1X1X>X>X>X>X>X>X>X;X:X:X;X;X;X;X;X;X:X:X:X:X:X>X>X>X>X>X>X>X>X>X>X>X0X0X0X0X0X0X0X0X3X0X0XrXrXrXrX0XrXrXrXrXrXrXrXeXeXvXmXmXmXmXmXmXmXnXnXnXf.l u u l l l l y t t y y i i l l v l l l v v v n b *.*.x x b N.m.-.2.c *.F b n ;.c *.n x =.m.M.&.:.M.N.&.%.c n.-.x c M.n.;.M.;.n.m.j v r r x x %.%.%.c c c #.%.i.nXbXbXbXbXbXbXbXvXbXbXbXvXvXvXvXvXvXvXvXvXvXvXvXvXvXwXwX3X;X;X:X:X:X:X:X:X:X:X:X:X:X:X:X|.I |..X}.O.^ Y 8 Y T N N N W W N N N s _ / N f m m d s A m m u y d m A ` ( A A A S m Z Z m y ",
">X>X>X>X>X>X>X>X>X>X>X>X>X>X>X1X>X>X>X>X>X>X>X;X:X:X;X;X;X:X;X;X;X:X,X,X:X:X>X;X;X;X;X>X>X>X>X>X>X0X0X0X0X0X0X0X0X0X0X0XrXrXrXrXrXrXrXrXrXrXrXrXeXvXmXmXmXmXmXmXnXnXnXnX+Xl l u l l l r u u y y i i i y l v l l l v v l v b *.b z b b N.m.-.b -.c *.%.x B.#.*.*.x -.m.N.n.-.m.N.m.%.x -.&.c c M.N.M.N.M.M.=.$Xu x r x x c %.%.%.c c b J.nXbXbXbXbXbXbXbXvXvXvXvXvXvXvXvXvXvXvXvXvXvXvXvXvXvXvXvXwX3X;X:X:X:X:X:X:X:X:X:X:X:X:X:X:X|.I |.XX}.O.^ Y 0 M T M N N W / N N / s ) _ B s m m d s A m d u u y m A ( S A Z A A m Z V m d ",
">X>X>X>X>X>X>X>X>X>X>X>X>X>X>X1X>X>X>X>X>X>X>X>X;X:X:X:X:X:X;X>X>X,X,X,X:X:X;X;X:X;X;X;X>X>X>X>X1X0X0X0X0X0X0X0X0X0X0X0X0XrXrXrXrXrXrXrXrXrXeXrXeXvXmXmXmXmXmXmXnXnXnXMX7XV V l l l l r r r y i < i i : y l v l l v v l v b *.v n b x N.m.=.c =.x =.:.c B.-.x *.b #.B.N.M.-.n.M.m.-.n c n.#.c n.B.B.M.M.=.=.iX6X] v r x c #.%.%.#.n Q.nXbXbXbXbXbXbXbXbXvXvXvXvXvXvXvXvXvXvXvXvXvXvXvXvXvXvXvXvXwX3X4X;X:X:X:X:X:X:X:X:X:X:X:X:X:X|.I |.}.}.O.^ H 8 Y T T N N W N M B / f ' / s a m m s a / m d u y y m A ( A A Z A A N Z m m d ",
">X>X>X>X>X>X>X>X>X>X>X>X>X>XrX1X1X>X>X>X>X>X>X>X>X;X;X>X:X:X;X>X;X>X;X>X;X;X;X;X:X;X;X;X>X>X>X>X0X0X0X0X0X0X0XrX0XrXrX0X0XrXrXrXrXrXrXrXrXrXeXeXeXmXmXmXmXmXmXnXnXnXnXnX%XF <.l l u u u u r y i i t : O : u l l l v v v v v b n b b x m.m.=.n =.x -.V.#.n.;.b n 2.c M.N.M.&.;.M.m.&.c x =.*.#.B.B.n.n.m.x :.tXnXnX6Xj.V x c c b w.&XnXbXbXbXbXbXbXbXbXbXbXvXvXvXvXvXvXvXvXvXvXvXvXvXvXvXvXvXvXvXwX3X4X:X:X:X<X<X#X#XoX#X#X@X:X:X:X|.I O.}.}.}.^ H 8 Y T Y N N N N M M / f ' / s , N m d s / m d u y y g A / / A V Z A N Z m m d ",
">X>X>X>X>X>X>X>X>X>X>X>X>X>XrX1X0X1X>X1X>X>X>X>X>X>X;X;X:X,X,X;X;X;X;X:X;X;X;X;X;X:X:X;X>X>X>X1X0X0X0X0X0X0X0X0X0X0XrXrXrXrXrXrXrXrXrXrXrXrXeXeXvXmXmXmXmXmXmXnXnXnXnXnX'.1.v l l u r u r r y y y < + = - < l l l l v v v v n b b n l *.m.c b b b *.N.=.&.;.-.x *.b M.N.M.:.;.M.m.&.#.x c -.&.M.M.n.=.c x :.=XnXbXnXnXnX&XOX+X7XnXbXbXbXbXbXbXbXbXbXbXbXbXvXvXvXvXvXvXvXvXvXvXvXvXvXvXvXvXvXvXvXwX4X;X:X#XoXo.O... ..... . .O.o.oX|.} | }.}.O.^ H 0 Y T M M M N M f s / M { / s a N m s s A d d y t s s A / A Z Z Z Z d m Z m y ",
">X>X>X>X>X>X>X>X>X>X>X>X>X>XrX1X0X3X>X>X>X>X>X>X>X>X:X:X:X:X>X;X;X;X;X;X:X;X;X;X;X:X;X>X>X>X>X3X0X3X0X0X0X0X0XrX0X0XrXrX0XrXrX0X0X0XrXrXrXrXeXeXvXmXmXmXmXmXmXnXnXnXnXaXF.C r l r r u r r u r l y = - , < < y l l l v v v v n n n v r *.:.r 2.i =.n :.V.%.n.&.b x b m.N.N.n.;.m.m.;.%.n x #.&.n.n.:.r c x &.F.nXnXbXbXbXbXnXbXbXbXbXbXbXbXbXbXbXbXbXbXbXbXvXvXvXvXvXvXvXvXvXvXvXvXvXvXwXwXvXeXeX0X:X#XoXo.O.............' ' ] ..X.X.X.X.O.O.O.~ W f M Y f f M N M f s W M ' / 6 s N N s s A m d y t s s / A A A Z Z t : m Z g s ",
">X>X>X>X>X>X>X>X>X>X>X>X>X>X1X>X3X3X0X>X>X>X>X>X>X;X:X:X:X:X>X;X;X;X;X;X;X;X;X;X;X;X;X>X>X>X3X3X>X>X0X0X0X0X0X0X0X0X0XrX0XrXrXrX0X0X0XrXrXrXeXeXvXvXmXmXmXmXmXnXnXnXnX=X1.r r u l l u u r r l l < : t < < < i y l v v v v v n v v l u *.b i 2.i =.c %.:.*.;.;.*.n n &.M.Z.m.;.m.m.;.%.c x c &.-.;.x i c x &.V.6XbXbXbXbXbXbXbXbXbXbXbXbXbXbXbXbXbXbXbXbXbXbXvXvXvXvXvXvXvXvXvXvXvXeXwXrX4X:X#Xo.o.o.X.X.X...................X.X.............X.X.X.X.X.X.' ) T N N M 9 N M ' / ; N m N s s Z m d t t s s A A / A Z ( g > m A m d ",
">X>X>X>X>X>X>X>X>X>X>X>X>X>X>X>X>X>X>X>X>X>X>X>X>X>X;X:X,X:X;X>X>X;X:X>X;X;X;X;X;X;X;X>X>X>X>X>X>X3X0X0X0X0X0X0X0X1X0XrX0XrXrXrXrXrXrXrXrXrXeXeXyXyXmXmXmXmXmXmXnXnXnXOXV r u r r r r r l l l i < u y < t t i i y l v v v v v v v u r *.v r 2.r =.c x 3.2.&.m.-.*.x %.B.Z.m.n.n.m.n.-.c c c &.B.n.r i c x -.M._.nXbXbXbXbXbXbXbXbXbXbXbXbXbXbXbXbXbXbXbXbXbXvXbXvXvXvXvXvXvXeXwX0X;X#Xo.X.X.X.X.X.X...............X.X.X.X.........X.X.X.X.X...X.X.X.g.g.j.j.j.g.X.../ N N ) ) 6 / d N s s Z d d t t s s A A A Z Z ( ( f m A s s ",
">X>X>X>X>X>X>X>X>X>X>X>X>X>X>X>X>X>X>X>X>X>X>X>X>X>X:X:X:X:X;X;X>X,X,X>X;X;X>X;X;X:X>X>X>X>X>X3X1X0X0X0X0X0X0X0X0X0X0X0X0XrXrXrXrXrXrXrXrXrXeXyXyXyXmXmXmXmXmXmXnXnXMXOXu r r r r r r l l v i < l r y i t i i i < i l v v l v v v r r &.n n *.x =.c x 3.2.#.m.-.-.n c n.N.n.;.m.m.m.&.%.c =.;.N.M.r r c x -.N.V.pXbXbXbXbXbXbXbXbXbXbXbXbXbXbXbXbXbXbXbXbXvXvXvXvXvXvXvXwX0X:X#XoXo.X.X.............X.........X.X.X.X.X.X.X.X.X.X.X.X.X.X.X.X.X.X.X.j.g.g.g.g.g.g.X.) f 8 0 q 9 M s N m s Z d u t t s s Z A Z Z V A A N m Z s a ",
">X>X>X>X>X>X>X>X>X>X>X>X>X>X>X>X>X1X1X>X>X>X>X>X>X>X:X:X:X;X;X>X>X>X:X:X;X;X;X;X>X>X>X>X>X>X>X3X>X>X0XrX0X0X0X0XrX0X0X0X0X0XrXrXrXrXrXrXrXrXrXeXeXyXmXmXmXmXmXmXnXnXMXOXC l r r r r l l l i i u u y y y y i i i < : < l l v v v v r v &.b b =.x &.#.x 2.=.c m.=.-.b n :.N.n.&.&.m.M.m.%.c :.;.Z.N.i r #.v %.N.M.-XbXbXbXbXbXbXbXbXbXbXbXbXbXbXbXbXbXbXbXbXbXvXvXvXvXwXwX:XoXj.j.g.X.X...............X.X.X.X.X.X.X.......X.X.X.X.X.X.X.X.X.X.g.j.j.j.j.j.g.X.X.X.' 0 w w w 5 5 5 5 1 > 6 6 f s a t t s s m m Z Z m A A N m A s y ",
">X>X>X>X>X>X>X>X>X>X>X>X>X>X>X>X1X1X>X>X>X>X>X>X>X:X;X:X:X>X;X>X>X>X>X>X;X;X;X;X>X;X>X>X>X>X>X>X>X>X0X0X0X0X0X0XrX0X0X0X0X0XrXrXrXrXrXrXrXrXrXtXeXyXmXmXmXmXnXnXnXnXMX$X2.<.l l l v l l r i u v i y y u u i i < : : : i r l v v v r v -.n n m.c -.%.n *.:.*.=.m.%.%.x -.N.M.;.-.-.:.N.&.#.M.n.N.N.i r #.v #.N.B.F.nXbXbXbXbXbXbXbXbXbXbXbXbXbXbXbXbXbXbXvXvXvXwX0X:X@X+XOXE.E.E.E.E.E.I.j.X...] ......X.X.X...X.X.X.X.X.X.X.........X.j.)  .) j.j.j.j.j.g...) M w w w w 4 1 e % & e 5 4 5 4 3 6 6 > 6 6 g m Z Z m A A B m Z s d ",
">X>X>X>X>X>X>X>X>X>X>X>X>X>X>X0X>X>X>X>X>X>X>X>X>X:X:X:X;X;X>X;X:X:X>X>X>X>X;X:X;X:X>X>X>X>X>X>X0X>X>X0X0X0X0X0XrX0X0X0XrXrXrXrXrXrXrXrXrXrXrXtXrXyXtXmXmXmXnXnXMXMXMX&X2.1.<.S V l l r r i v r i y u l l i t < : : < < i r l v l v v *.r x M.=.-.%.c x M.:.b V.-.%.x -.M.N.n.&.#.%.M.;.B.N.B.N.V.j r #.v #.N.B.N.8XbXbXbXbXbXbXbXbXbXbXbXbXbXbXbXbXvXwX0X:X@X#XoXoXE.U.j.g.g.g.U.Q.U.U.U.E.Q.U.j.X.X.X...X.X.X.X.X.X.X.X.X.X.] ] X.X.' Y ' ) f ) X.' W Y w w w w w 4 1 1 & e 1 1 4 w 4 4 4 1 5 1 5 4 4 3 6 6 s s A A M m Z s d ",
">X>X>X>X>X>X>X>X>X>X>X>X>X>X>X>XrX>X0X>X>X>X>X>X>X:X:X;X:X:X>X>X>X>X>X>X>X>X:X:X>X>X>X>X>X>X>X>X>X>X3X0X0X0XrX0XrX0X0X0XrXrXrXrXrXrXrXrXrXrXrXrXyXyXtXmXmXnXnXMXMXMXMX2X*.2.r.<.l l l r i l r i i l l v v r i < : < < < i i r l v v r *.r x *.V.=.&.c x *.N.c V.m.%.c %.M.N.B.m.#.#.&.B.Z.Z.B.B.m.< r #.v #.M.B.M._.bXbXbXbXbXbXbXbXbXvXvXvXvXvXwX4X@XoXoXU.U.I.U.U.j.I.I.j.g.j.I.j.j.I.j.j.j.U.Q.E.OXU.U.I.I.g.X.X.X.X.X.X.X.X.X.....4 7 4 ' ~ w w w w w w w w w 5 1 e 1 1 w w w w w w 4 5 5 1 1 4 w w 4 4 5 3 5 > > 6 6 s , s ",
">X>X>X>X>X>X>X>X>X>X>X>X>X>X>X>X>XrX0X0X>X>X>X>X>X,X,X;X:X;X>X>X>X>X;X>X:X,X:X:X:X;X>X>X>X>X>X>X>X>X0X0X0X0XrXrXrX0X0X0XrX0XrXrXrXrXrXrXrXrXrXrXeXtXtXmXmXnXnXMXnXMXMX8Xb 2.F z z l l r r l i i u v v v l u y < : < t t i < < r v v r b r v n *.m.n.c n c Z.&.*.M.-.c c B.N.B.m.%.%.m.Z.Z.Z.Z.B.=.< r #.x #.B.N.B.F.yXbXbXbXbXbXbXbXbXvXvXwX3X@XoXj.U.U.U.U.U.j.X.X.j.Q.Q.Q.I.U.U.U.j.X.g.j.Q.E.E.Q.Q.I.I.E.OXE.E.Q.I.j.I.f.g.g.Y.E.j.f 0 w w w w w w w w 5 5 4 1 1 5 w w w w w w w 5 1 5 w w w w w w w 4 5 1 1 1 1 ; % % & & - ",
">X>X>X>X>X>X>X>X>X>X>X>X>X>X>X>X>X>X>X>X>X>X>X>X>X>X:X:X:X:X;X>X>X>X>X>X>X>X,X:X;X;X>X>X>X>X>X>X>X0XrX0X0X0X0X0XrX0X0X0X0XrXrXrXrXrXrXrXrXrXrXrXeXyXtXtXmXmXMXMXnXMXMXtXF 2.l z v l r r v i < y v v v v l u y < < t i t < < : < r l r v n x #.x -.M.%.c x n.M.b m.;.#.c &.N.B.n.-.&.B.Z.Z.Z.Z.B.-.j p #.x #.B.N.M.N.%XbXbXbXbXvXvXvXrX5X2X@XOXoXE.U.I.j.j.g.X.j.I.U.Q.Q.j.g.g.g.g.j.Q.E.OXE.Q.I.g.g.g.I.OXOXOXE.I.j.j.j.g.X.f.W.W.E.E.E. .0 w w w w w w w 5 1 1 w w w w w w w w 4 5 w w w w w w w w 1 1 5 5 4 4 4 4 3 3 5 % # & ",
":X>X>X>X>X>X>X>X>X>X>X>X>X>X>X>X>X>X>X>X>X>X>X>X>X>X:X:X:X:X;X>X>X;X>X>X>X,X,X,X;X>X>X>X>X;X>X3X>X0X0X0X0X0X0XrXrX0X0X0X0XrXrXrXrXrXrXrXrXrXrXrXtXtXtXtXtXmXMXMXMXMXMXgX<.v r r v l r l y : y l v v n v l u y y u u y i < < < < i r r z b x *.b c :.=.c x #.N.:.n V.%.c -.N.N.m.%.;.n.Z.Z.Z.Z.B.%.i x %.x #.m.N.B.N.F.eXbXvXwX;X@XOXOXOXE.E.E.E.E.U.j.g.X.X.U.U.I.I.I.I.j.g.j.j.I.E.Q.U.I.j.j.j.Q.OXOXOXOXE.Q.I.I.j.X.] ] G.W.Q.Q.Q.Q.R.Q.E...T w 4 4 w w w w w w w w w w w w 1 5 w w w w w w w w 4 5 w w w 4 w w w w 5 5 1 & # ",
">X>X>X>X>X>X>X>X>X>X>X>X>X>X>X>X>X>X>X3X>X>X>X>X>X>X;X;X:X>X>X>X>X>X>X>X>X>X,X>X>X>X>X>X>X>X>X>X>X0X0X0X0X0X0XrXrXrX0X0X0X0X0XrXrXrXrXrXrXrXtXtXtXtXtXtXtXmXmXMXMXMXMXMXp.l r z v l l u : i l l v n v v v l y u l l u i < < , < i z v r C v *.*.x #.m.*.b x &.N.x m.:.#.-.N.M.%.#.;.n.Z.Z.Z.Z.B.*.i x %.x c n.N.B.M.V.&X3X}.} H ) X.X.j.j.U.E.E.Q.E.OXOXOXOXE.Q.I.j.g.g.I.Q.E.U.U.I.I.j.I.I.U.E.E.E.Q.I.I.I.j.g.g...] ] Q.W.Q.Q.Q.Q.Y.Y.f.f.Q.Q.E.E.j. .Y w w w w w w w w 4 5 w w w w w w w w 4 5 w w w w w w w w 4 5 1 1 % & $ ",
",X>X>X>X>X>X>X>X>X>X>X>X1X>X>X>X>X>X>X>X>X>X>X>X>X>X;X;X:X:X>X>X>X>X>X>X>X>X>X>X,X>X>X>X>X>X>X>X>X>X0X0X0X0X0XrX0X0X0X0X0X0XrXrXrXrXrXrXrXrXtXtXtXtXtXtXtXtXMXMXMXMXMXMXp.r r r l l l : < u l v n n n v l r r v v v v y < < < < i n n z l n *.2.b x =.:.*.x c m.*.#.M.%.-.N.=.c -.&.n.Z.Z.Z.Z.B.-.i x %.x c ;.N.N.M.N.F. .^ G H Y T W ) ) ' ' ) j.U.U.E.E.E.OXOXE.E.E.OXE.E.Q.j.g.j.Q.E.OXOXE.E.E.Q.U.j.g...X...' ) Q.$XW.W.W.W.E.T.I.g.g.Q.W.W.E.E.OXE.OXU.g.X.o. .T w 1 w w w w w w w w w w w w w w w w w w w w 5 1 e & # @ . ",
";X>X>X>X>X>X>X>X>X>X>X>X>X>X>X>XrXrX>X1X1X1X>X>X>X>X;X:X:X:X:X>X>X>X>X,X>X,X>X>X,X,X>X>X>X>X>X>X3X3X0XrX0X0X0X0X0X0X1X0XrX1X1XrXrXrXrXrXrXrXtXtXtXtXtXtXtXtXpXMXMXMXMXfX( r r l l l i < u l v v n n v z l r l v v v v l t < < i v b n r i z c *.*.b n =.=.c x %.:.c m.=.=.V.r c %.-.n.Z.Z.Z.Z.Z.c i x %.x c ;.N.N.M.M.N.` G G G G H H Y ^ ) T T W ..X.g.j.Q.Q.E.E.E.E.OXOXOXOXOXOX+X+XOXOXOXE.Q.j.g.g.X...' / W X.+XE.W.W.W.Q.Q.Y.I.Q.Q.W.W.E.E.E.E.Q.Q.I.Q.W.W.E.OXW.OXj...) H 1 4 w w w w w w w w w w w w w 4 1 e & & # @ o - ",
">X>X>X>X>X>X>X1X1X>X>X>X>X>X>X0X>X1X1X1X1X1X>X>X>X>X>X>X>X>X>X;X>X>X,X,X,X,X,X>X>X>X>X>X>X>X3X3X3X0XrXrXrX0X0X0X0X1X0X0XrX1X1XrXrXrXrXrXrXrXtXtXtXtXtXtXtXtXpXgXMXMXMXMX( u u l l y : y l l v v n v v r l l v v n C C V l y y u b b x i y z r b *.*.n b m.b c c :.%.-.;.M.b x c #.-.;.Z.Z.Z.Z.B.x i c %.x c &.M.N.M.M.N.V.G G G H H ^ ~ ~ ~ ~ ~ ~ ~ ~ ) ' ..g.g.g.j.I.U.Q.Q.Q.Q.E.Q.Q.Q.Q.Y.j.g.g...] ) ) X.E.$X+XW.Q.I.f.g.f.f.Q.W.W.E.Q.T.Q.Q.Y.Y.Q.Q.E.W.E.E.E.E.Q.Q.E.E.E.OXOXj. .f 1 4 w w w w 5 5 5 1 1 1 e # # @ & a s t ",
";X>X>X>X>X;X>X>X>X>X>X1X1X1X1X1X1X1XrXrXrX1X>X>X>X>X>X;X>X>X>X;X>X>X>X,X,X,X>X>X>X>X>X>X3X3X3X3X3X3XrXrXrX0X0XrX0X0X0X0XrXrXrXrXrXrXrXrXtXtXtXtXtXtXtXtXtXtXgXgXMXMXMXgXw.D l u y : y u l l v v v v z l v l v v b b b v l r l b *.b z r u v r z v b F v *.3.b b b V.-.:.:.r p c #.-.;.Z.Z.Z.N.B.i i c %.x c ;.N.N.N.M.M.V.( W t.h.h.t.W H ^ ^ ~ +.+.+.~ ) ) ) ) ) ....X.g.g.f.j.I.Q.Q.j.g.g.....g.g.g.g.+X+XW.Q.E.Q.Y.Q.Q.E.Q.W.W.W.W.T.Q.Q.Y.Q.Q.W.W.W.E.E.Q.Q.Q.Q.Q.Q.Q.W.W.E.E.E.E.OXj.) 4 1 w w w 1 1 1 1 & # @ ; s d h t < ",
">X;X>X>X>X>X>X>X>X>X>X1X1X1X1X1X1X1XrXrXrX1X1X>X>X>X>X;X>X>X>X>X>X>X>X,X,X,X>X>X>X>X>X>X3X3X3X3X3X3X0XrX0X0X0X0XrXrXrX0XrXrXrXrXrXrXrXrXtXtXtXtXtXtXtXtXtXgXgXgXgXMXMXMXh.D l u : < u l l v v v v z r v v l v n b b b v r r v =.-.b r l v v v z r r z b x 2.2.*.*.=.:.m.x r r c #.-.;.Z.Z.Z.Z.M.i r c %.x c &.N.N.N.M.M.N.F.{.{.{.{.{.{.{.`.i._ ^ ~ ~ ~ ~ ~ ^ ^ ^ Y W W / ) ) ) / ) j.g.I.%X-X=X%X$X+XW.!.W.Q.I.Y.f.Q.$X+X+XW.W.E.E.Q.I.I.Q.Q.W.W.W.W.W.Q.Q.Q.I.Y.Q.Q.Q.E.Q.E.Q.Q.E.Q.I.I.I.U.) e 1 e e & # # - s A S D d t y m ",
";X>X;X>X>X>X>X1X>X>X1X>X1X1X1XrXrXrXrX1XrXrX0X>X>X>X;X>X:X:X:X;X>X>X>X>X,X,X,X>X>X>X>X>X3X3X3X3X3X3X0X0XrX0X0XrX0X0XrXrX0XrX0XrXrXrXrXrXtXtXtXtXtXtXtXtXgXgXgXgXfXMXMXMXY.V u < : y l l l v v v l r l v v v v x b b b v r l b =.-.n v l C b n v z v r v z x n c c #.-.M.x r r c #.-.;.N.Z.Z.Z.M.r r c -.x c &.N.N.N.M.M.M.Z.D.D.8.D.D.D.D.D.{.{.`.y.H H H H ^ H H H H H f f w 1 f ) ] / / ] f.Y.Q.E.W.W.E.W.W.Q.W.Q.W.W.W.W.Q.Q.Q.I.Y.E.W.W.W.W.E.Q.T.Q.Q.I.f.Q.W.W.E.E.Q.T.Q.I.I.I.j.g.g.X... .q @ # # # 6 Z S >.w.V < : : u u ",
";X;X;X>X1X1X>X1X>X>X1X>X1X1XrXrX>X1X1X1XrXrXrX>X>X>X>X>X:X:X:X>X>X>X>X>X,X,X,X>X>X>X>X>X3X3X3X3X3X3X0XrXrXrXrXrX0X0X0X0X0X0X0XrXrXrXrXrXtXtXtXtXtXtXtXtXgXgXgXgXgXgXMXMXf.u y : t u l l v v v l r l v v v l l n b b b l r v *.&.-.x n l F F b v v v v n x v v r r x -.M.x r r c c %.&.N.Z.Z.Z.m.i r c %.x c -.N.N.N.M.M.M.M.A.D.8.8.D.D.D.D.D.D.D.{.{.].t.H q G G G w w q q w 8 W X.j.j.j.f.[ / ] f.E.Q.f.Q.j.f.Q.Q.E.Q.Q.Q.Q.Q.f.Q.W.W.E.E.Q.Q.Q.Q.Q.Q.Q.Q.Q.W.W.E.E.E.Q.Y.I.j.j.g.X...' ) / T 5 o - s A w.w.S Z < : < u d d u ",
";X;X;X;X>X>X1X1X1X1X1X1X1X1X1X1X>X>X1XrXrX1X1X>X>X>X;X;X>X>X>X>X>X>X>X>X>X>X,X>X>X>X>X>X>X3X3X3X3X3X3XrXrXrXrXrXrX0X0X0X0XrXrXrXrXrXtXrXtXtXtXtXtXtXtXgXgXgXgXgXgXfXfXMXk.u : < u l l v l l l r l v v v l l v n n n v l r v =.=.%.n b v *.*.*.n v n b b v v v r x x -.M.c r r c #.%.:.N.Z.Z.Z.:.i r #.%.c c %.B.N.N.M.M.M.N.A.D.D.D.D.8.8.8.D.D.D.D.D.D.{.{.].F.y.g w 1 w W ..j.I.j.g.j.I.Y.Q.Q.g.] ] ] f.g.f.f.Y.Q.Q.E.E.Q.W.W.E.W.!.W.W.E.Q.T.Y.I.Q.W.!.W.W.W.E.E.Q.Y.I.f.g.X...' ' ) W N f f A A ( <.<.<.m = : : : j v V V i ",
";X;X;X;X1X1X1X1X1X1X1X1X1X1X1X1X>X>X1X1X1X1X>X>X>X>X>X>X>X>X>X>X>X>X>X>X>X>X>X>X>X>X>X>X3X3X3X3X3X3X3XrX0XrXrXwXrX0X0X0X0XrXrXrXrXrXtXrXtXtXtXtXtXtXgXgXgXgXgXgXgXfXgXgXf.y : y u V l l v l r l v v v l v l v n n b v r l b =.=.c n b b =.=.*.n b c b b b v v z x c -.M.c r x c #.%.:.N.Z.Z.Z.&.r r #.%.c x %.B.N.N.M.M.M.M.Z.D.D.D.D.D.D.D.D.8.8.D.D.D.D.D.D.{.{.{.`.l.h.g.f.f.f.g.g.X.g.g.g.I.Q.I.j.j...g.[ Y.W.).W.E.E.W.+XW.+X+XW.!.W.W.E.Q.Q.Q.!.+X+X!.W.W.E.Q.j.j.g.X...) ) ~ T f s m ( w.<.<.e.S Z m , : : < < < u v u u ",
";X>X;X;X1X1X1X1X1X1X1X1X1X1X1X1X1X1X1X1X1X1X1X>X>X>X>X;X>X>X>X>X>X>X>X>X>X>X>X>X>X>X>X>X>X>X3X3X3X3X3X0X0XrXrXrXwXrX0X0X0X0XrXrXrXrXrXrXtXtXtXtXtXgXgXgXgXgXgXgXgXgXgXgXh.< < u m C l l l r l v v v l l v l v x n n l r v *.:.-.c n b b :.=.*.*.*.c *.*.b n x n c c -.B.c r x x #.%.&.M.Z.Z.Z.:.r x #.%.c c %.B.N.N.M.M.N.M.N.A.D.D.D.D.D.D.D.D.8.8.8.8.D.8.8.A.D.].D.{.{.{.{.`.`.`.`.h.u.g.j.I.I.U.I.j.j.Q.I.f.f.Q.W.+X$X$X).$X+XW.$X+X+XW.+X+X$X+X+XW.E.E.Q.Q.Y.j.g.X...' ~ W T M M m S S >.w.w.S a : d m , : : : < j p p 1.].",
";X;X;X;X;X1X1X1X1X1X1X1X1X1X1X1X1X1X1X1X1X1X>X>X>X>X>X;X:X>X>X>X>X>X>X>X>X>X>X>X>X>X>X>X>X>X3X3X3X3X3X0X0X0XrXrXwXeXrXrXrX0XrXrXrXrXrXtXtXtXtXtXtXgXgXgXgXgXgXgXhXhX{.{.a.j y l C S l l l l l l v v l l v v v x n v r l v -.=.*.n n b %.:.=.*.*.=.%.=.*.*.b n n c c -.B.c r r x #.%.&.N.Z.Z.Z.=.r x #.%.c c %.n.N.M.M.M.B.M.N.Z.D.D.D.D.D.D.D.].].].{.].].].].8.8.8.A.A.].].].].{.{.{.{.{.`.`.Q.j.g.g.j.j.g.f.Q.Q.Q.E.E.T.W.W.$XW.).).+X+X$X$X+X+X+X!.W.E.E.Q.I.j.X.' ) ~ T f 9 s m D <.>.>.C Z - O O = B m , : : : : t 1.{.{.D.",
";X1X1X1X;X;X1X1X1X1X1X1X1X1X1X1X1X1X1X1X1X1X>X>X>X>X>X>X;X;X>X>X>X>X>X>X>X>X>X>X>X>X>X>X>X>X3X3X3X3X3X0X0XrXwXwXwXeXrXrXrXrXrXrXrXrXrXtXtXtXgXgXgXgXgXgXgXhXhX{.c.8.8.8.8.i u C <.v l l l l l l l l z l v v v n n v r v b :.-.c x n b *.:.:.=.=.*.*.-.*.*.n b c c c &.B.c r r x c %.&.N.Z.Z.Z.:.r x #.-.x #.%.n.N.N.M.M.M.M.M.N.A.8.8.8.].D.D.].].].].].c.a.a.c.A.A.A.].].].D.D.].D.].].].{.].].`.Y.g.X.X.f.I.Q.Q.Q.Q.Q.Q.Q.E.W.W.!.!.+X$X+XW.E.W.+X+X+X+XE.Q.j.X.) W T M s s d A e.<.>.S s O O O O O O = , = = : < r.{.D.D.{.{.",
";X1X1X1X;X1X1X1X1X1X1X1X1X1X1X1X1X1X1X1X1X1X1X1X>X>X>X>X>X>X>X>X>X>X>X>X>X>X>X>X>X3X3X>X>X>X3X3X3X3X0XwXwXwXwXeXeXeXrXrXrXrXrXrXrXrXrXtXtXgXgXgXgXgXhXhX{.c.8.8.9.9.9.9.8.p C 2.<.v l l l l l l l l l l v z v n v r r v *.:.%.n x *.n =.m.m.:.:.*.=.=.-.%.b b c c #.&.m.c r r x c %.&.M.Z.Z.Z.=.r c #.-.x #.%.;.N.N.M.M.M.M.N.M.A.D.D.].].].].c.8.].A.8.8.a.].].].].].].].D.D.D.D.D.8.8.8.8.8.8.3.i.Q.j.I.I.I.Q.Q.j.j.j.j.Q.Q.Q.W.OX+XW.W.W.E.E.W.!.+XW.E.Q.g...) W f s d V S S <.>.D , O O O + O O + - ; < < : : ,.D.D.D.D.{.{.",
";X;X1X1X;X1X1X1X1X1X1X1X1X1X1X1X1X1X1X1X1X1X1X1X>X>X>X>X;X>X>X;X>X>X>X>X>X>X>X>X>X>X>X>X>X>X3X3X3X3X0XwXwXwXwXeXeXeXwXrXrXrXrXrXrXrX1X2Xk.y.%XhX`.c.8.8.8.9.8.8.8.8.9.9.9.#.*.2.C l l l l l l l l l r l v v v n v r l n =.-.b x b 2.z m.n.B.:.:.=.=.&.&.*.b c c c %.&.m.c r r x c #.&.B.Z.Z.Z.:.r c #.-.x #.%.;.N.N.M.M.M.M.M.N.A.A.].].].].].{.{.].8.A.8.].].].].].].{.].].].D.D.A.8.8.7.6.4.,.>.h.Q.Q.Q.Q.Q.Q.E.Q.j.g.I.E.OXE.E.E.Q.Q.Q.Y.j.j.j.j.f.Q.j.X.' W N s g V S w.>.C V S ( , - - + + - , , , , < < , t ,.6.D.D.D.D.{.",
";X;X1X1X1X1X;X1X1X1X1X1X1X1X1X1X1X1X1XrX1X1X1X1X>X>X>X>X;X>X>X>X>X>X>X>X>X>X>X>X>X3X>X>X>X3X3X3X3X3XwXwX0XwX0XwXwXwXwXrX0XrXrX3X>X:XUXj.j.y.4.4.8.9.9.9.9.9.9.9.8.8.8.9.8.6.2.2.l l l l l l l l l l r v v v v n v r v b :.#.n x c *.r m.M.M.n.:.-.%.m.;.-.*.b c c %.&.m.c r r x c #.&.B.Z.Z.Z.;.r x #.-.p #.%.;.N.N.M.M.M.M.M.N.Z.A.].].].].].].].c.8.].].].].].].].].].].D.D.8.8.8.6.4.4.4.y.h.Q.Q.I.j.j.I.Q.Q.E.E.OXOXOXOXE.E.Q.Q.I.j.j.j.g.....' ) T ) ) W g d Z ( w.e.<.>.w.e.p.A , - + - , 6 6 a t , , t t y ,.$.6.D.D.D.{.",
";X;X1X;X2X1X1X1X1X1X1X1X1X1X1X1XrXrXrXrX1X1X1X1X>X>X>X>X>X:X>X>X>X>X>X>X>X>X>X>X3X>X>X>X3X3X3X3X3X3X3XwXwXwXwX0XrX0X0X3X3X:X<XoXj.j.j.j.j.j.h.a.5.5.9.9.9.9.9.8.8.8.8.8.8.8.2.F l r l l l l l l l l z v v x v v l u v *.=.b n x =.%.r M.N.N.m.m.-.%.n.m.=.*.b c c %.&.m.%.x r r n #.-.B.N.Z.Z.n.p x #.-.p #.%.;.N.N.N.N.N.M.M.N.Z.A.].A.8.8.8.c.].A.A.A.D.D.D.D.].].D.A.8.8.8.7.6.6.4.h p p y.U.Q.U.Q.E.I.X.j.Q.Q.E.OXE.E.E.E.E.Y.j.g.g.X...' ) W ~ T f T N m D S <.r.>.>.<.e.i.r.w./ 3 - > , , , , a t t y s d V 1.$.$.6.D.D.D.",
";X;X1X1X2X2X1X1X1X1X1X1X0XrX1XrXrXrXrXrX1X1X1X1X1X>X>X>X;X;X>X>X>X>X>X>X>X>X>X3X3X3X>X>X>X>X3X>X>X3X3XwXwXwX3XwX0X3X:X#XoXj.j.j.j.g.g.j.j.j.j.h.a.6.5.9.9.9.9.8.8.8.8.8.8.8.2.v z l l l r l l l l l l v v v v v r l b =.c n x b m.%.r B.N.M.M.m.-.%.m.m.=.=.#.#.c #.&.m.#.x r r x #.-.B.N.Z.Z.n.x x #.-.r #.%.;.B.N.N.N.M.M.N.N.N.A.8.8.8.8.8.A.].D.D.D.D.D.D.A.D.D.8.8.6.4.4.4.4.,.u u d h 1.j.j.j.Q.U.U.Q.E.E.E.E.E.Q.U.Q.Q.U.j.g.X.' W ~ ~ T T f 6 6 m S i.1.r.S y D e.e.w.<.C w.N 6 6 6 6 , , , < t d m V D S C 4.$.$.8.D.D.",
";X;X1X1X2X1X2X2X2X1X1X1X0X0X0XrX1XrXrXrX1X1X1X1X1X>X>X>X>X>X>X>X>X>X,X>X>X>X3X3X>X>X>X>X>X>X>X>X>X3X3X3X3X3X;X:X#Xj.j.o.X.X.j.j.j.g.X.X.g.j.j.j.h.l.z.a.8.7.9.9.9.7.8.8.8.6.2.l z z l l l l l l l l v v x v v l r v *.=.b n x =.C.%.r n.N.N.M.M.-.%.m.m.m.:.=.*.%.#.-.m.#.x z r x c -.n.B.Z.Z.B.x r #.-.r #.%.;.B.N.N.N.M.N.N.N.N.A.].c.c.].].].D.D.D.A.A.A.D.8.8.7.6.4.4.4.4.p u u A 0.S D ,.s.X.j.U.I.I.j.j.I.I.I.I.U.j.g.X.X...' ) ) W M 9 > f f m S <.w.r.S y = : D S S S D 1.V t t a a a s a s s d V S C D S S i 4.$.$.A.D.",
";X;X2X2X2X2X2X2X2X1X1X1X0X0X0XrXrXrXrXrX1X1X1X1X1X>X;X;X;X>X:X>X>X>X>X>X>X>X>X>X>X>X,X,X,X>X>X>X,X3X,X:X<XoXj.o.X.X.j.j.j.j.g.j.j.j.X...g.g.j.j.I.j.Y.h.l.l.a.6.5.9.9.8.8.3.*.l l l l l l l l l l v v v v v v r r n =.-.*.v x :.:.c x ;.M.M.M.M.-.#.m.m.m.:.=.=.=.-.-.;.c x z r x c -.n.B.Z.Z.B.c r #.%.r #.%.&.B.N.N.N.N.N.N.N.N.V.V.3.8.8.8.A.D.D.8.8.8.8.8.7.$.$.4.4.,.h t d S w.e.>.<.D ,.] X.g.j.I.I.I.I.I.I.j.j.j.X. .) ) ~ W Y f 9 6 6 6 9 ( p.r.e.Z : : d V D D <.>.<.<.<.m , , a a t a d d Z S S D >.S w.A = u $.$.$.A.",
"2X2X2X2X2X1X1X1X2X1X1X1X1X1X1X1X1X1XrXrXrX1X1X1X1X1X;X;X;X;X>X>X>X;X>X>X>X>X>X>X,X,X,X,X,X,X,X:X<X#X}.o.o.g.j.g.X.X.X.X.g.j.j.U.U.U.U.U.I.j.X.X.j.j.j.g.f.Y.Y.`.z.c.8.5.9.3.C l l l l l l l l l v v v b v v v r l b &.%.*.x v =.=.b x ;.M.N.N.M.%.c m.m.m.=.=.m.m.-.;.-.c x x r x c %.n.Z.Z.Z.Z.%.r #.%.r #.-.&.B.N.N.N.N.N.N.N.N.M.A.].].].].A.D.8.8.8.7.6.$.4.4.4.D u u Z ( e.e.e.C <.>.D >.0.U.I.I.I.I.I.j.I.j.g.X...' ~ Y Y M 9 s f N Z S S 6 S S d = : : : V >.<.<.<.C r.<.S m , t t d d d Z S S C w.w.<.A t : = = p $.$.$.",
";X2X2X1X2X1X1X1X2X1X2X1X1XrX1X1X1XrXrX1X1X1X1X1X1X1X;X;X;X;X:X:X:X:X,X,X,X,X,X,X,X,X,X:X<X#X}.o.o.X.X.X.g.g.j.j.j.....X.g.j.j.j.j.j.j.j.I.U.U.j...g.j.U.Q.E.Q.Q.Q.W.`.l.a.1.C l l l l l l l l v l l v b v v l r v -.-.%.c z n :.=.b n :.M.N.N.M.%.c m.m.m.:.=.-.&.&.n.%.#.x x x x c %.n.Z.Z.Z.Z.&.r #.%.r %.-.&.n.N.N.N.M.M.M.N.N.M.A.A.].].D.8.8.7.6.6.4.4.4.,.p i d V S w.e.i.e.>.D w.D V >.>.g.g.g.j.j.j.g.X.X.X.' ) W Y q s f N Z A 0.w.<.S N > = = : : : : V ,.<.<.<.<.>.S e.m t d m V D S S C <.e.e.S t : : : = = O n $.$.",
"2X2X2X1X2X1X1X1X2X2X2X1X1X1XrXrXrXrXrXrX1X1X1X1X1X1X;X;X;X:X:X:X:X:X:X,X,X,X,X,X<X<XoX}.o.X.X.X.X.X.X.X.X.g.j.j.j.j.X.X.......X.X.g.g.g.j.I.U.U.U.E.OXE.j.j.I.Q.Q.Q.E.+XW.p.v r l l l l l l l l l v b b v l r u b -.%.%.n r b m.%.n b :.B.N.N.m.%.b :.m.M.m.m.&.&.m.&.%.%.n v x x c #.m.N.Z.Z.Z.;.r #.#.r %.-.&.n.N.N.M.N.N.N.N.N.N.N.A.A.A.8.8.6.4.4.4.4.D h u Z w.w.0.w.y.w.>.C S D S C V S S ) ] X.g.g.X.X...) ~ ~ T M f N Z S w.r.i.e.y.A > q 3 > = = : : : V ,.<.>.D <.<.>.1.V Z Z S S S >.e.p.r.S s = = : : : = + + = ,.$.",
"2X2X2X2X2X2XrXrX2X2X2X2XrXrXrXrXrXtXtXrXrX1X1X1X1X;X;X;X:X:X:X:X:X:X:X,X,X<X#X}.o.X.X.X.X.X.X.X.......X.g.g.j.j.j.j.j.j.j.j.X.......X.j.U.U.U.U.U.U.E.E.OXE.g.g.Q.E.OXOXW.w.l l r r r l l l l v v n b b l l r v *.%.%.c v r *.m.%.v b m.M.N.N.m.*.b :.m.m.M.m.&.n.m.-.%.%.c n x x n #.;.Z.Z.Z.Z.B.p #.#.p %.-.&.n.N.N.N.M.M.N.N.N.N.N.3.4.4.4.4.4.p ,.@.u V S y.r.r.y.i.S t D D C >.S S S V V Z / ) ' ' .... .) ~ Y M M N Z ` y.i.e.i.t.Z + X X % q ; = = : : < D ,.1.>.S D <.e.r.e.e.w.S >.e.r.r.S s + = O : : : : + + = = + #.",
"2X2X2X2X2X2X2X2X1XrXrXrXrXrXrXrXrXtXtXtX1X1X1X1X1X;X;X:X:X:X:X:X:X:X<X#X}.o.....X.X.X.X.X.g.j.j.X.] X.X.X.X.X.g.j.j.j.j.j.j.j.j...X.g.X.j.I.I.j.j.j.I.Q.E.OXOXQ.OXOXOXE.Y.<.l l r r l l l l v b 2.b b v l r r n *.%.%.b r x =.m.*.p *.m.M.N.M.:.%.n =.m.m.m.m.n.m.&.-.-.%.c n x x n #.&.N.Z.Z.Z.M.x #.#.x %.&.&.;.B.N.N.N.N.N.N.N.N.N.3.,.,.,.,.p i h ,.<.r.r.e.i.t.m : = = D C <.<.w.r.r.S h d W W ' ' ' ~  .~ f f N Z ( i.r.e.i.e.g X X X X X X 9 O = = : : : C >.1.r.r.e.e.e.e.w.S S p.r.r.` a O O + o O = = = - + + + = O O ",
"2X2X2X2X2X2XrXrXrXtXtXrXrXrXtXtXtXtXtXtX2X2X2X2X1X;X;X:X:X:X:X<X<X}.}.o.........X.X.X.X.g.j.j.j.j.I.j.j.g.X.X.X.X.X.X.j.j.U.U.U.I.U.U.U.g.X.g.g.j.j.U.E.OXOXOXE.I.I.Q.j.d.` l l l r l l z b 2.2.b n n v r r v b *.%.%.x r b m.=.*.r *.n.N.N.N.:.*.c -.n.n.m.n.n.&.&.-.-.%.b n x x n b &.N.Z.N.B.B.x #.c x %.&.&.;.B.N.N.N.N.N.N.N.N.N.V.y t t t d h ,.,.r.i.y.A a : : < d h >.a.e.e.<.e.w.>.D t m M ) ) ~ ) T s g Z y.`.i.r.i.( s O O O O X X & , s , , < = = : V >.<.e.e.e.p.w.S <.e.r.r.` 9 O & & + O + + = = = = + + + - + O ",
"2X2X2X2X2X2X2XrXtXrXtXtXtXrXtXtX8X8X2X&X`.`.`.`.%X&X&X:X:X<X<X}.}. . .' ' ] ....X.X.X.X.X.X.g.j.j.j.j.j.j.j...] ..X.j.j.j.j.j.U.U.j.U.U.E.I...X.g.I.I.U.E.Q.I.I.U.I.g.j.d.S l l l l v v *.C.2.n b n z r r r n %.%.%.b z l -.M.%.n r :.m.M.N.N.=.*.n -.;.m.M.M.n.&.&.-.-.%.b n x x n c -.N.Z.M.B.B.c c c c %.&.&.&.n.M.N.N.N.N.N.N.N.N.V.D h A S <.D ,.S 0.N : : : : < < D C <.e.>.w.w.>.e.S h < d 3 M T W T s s A i.i.i.p.A , ; 6 + = + o ; 6 a s s y s s d a d V C e.r.e.<.>.<.e.p.i.` 6 & > , > ; - - - : : : : = + + + - + O ",
"2X2XrX2X2X2X2XtXtXtXtXtXrXtX2X&X%Xz.c.c.6.8.8.8.c.c.c.z.$XUX}.O.) ) ) ) ) ' ' ..............X.g.g.j.j.I.I.U.g.' X.X.X.X.g.j.j.j.j.I.U.U.E.E.j.g.I.I.U.E.E.Q.Q.Q.Q.j.Q.g.t.C z z v F *.3.3.2.n c c x z r r n b *.%.%.x r v =.m.#.x i m.M.M.M.B.-.*.c -.&.M.N.N.M.m.;.-.-.%.b b x x x c :.N.Z.N.;.B.c c c c %.&.&.&.n.B.N.N.M.N.N.N.N.N.N.3.w.w.<.<.D ,.6 d f , : : < < j v C <.e.>.w.w.>.S S D t u ; 9 M N ` h./.t.w.w.A , 9 6 a s + O - 6 a s s s s a s a d Z A <.r.r.<.>.<.e.e.w.S 6 > 9 s 9 6 , , , , , < , , < , = + + - = O ",
"2X2X2XtXtX2XtXtXtXtXtX2X&X%Xz.c.8.8.6.6.6.6.6.6.8.8.8.c.c.z.h.) N N T T W _ ) ) ' ) ' ' ' ....X.g.j.j.I.j.U.U.U.U.U.X.X.X.X.X.g.I.U.U.I.U.OXOXOXE.OXOXE.Q.E.f.Q.I.g.X.' / C l v *.*.C.2.*.n n b n z z C *.b c %.#.c r l b m.:.#.x r -.n.M.M.B.=.*.c -.n.M.N.N.N.m.&.-.-.%.*.b n n x c -.N.Z.M.&.B.#.x c c %.&.;.&.;.B.N.N.M.N.N.N.N.N.N.C.e.w.D V , ,., h ( s : : < < < D C 1.e.e.r.p.r.<.D D d u , m A i.e.`.t.S S w.t.A m s , = > , 9 a a a t , s s d Z S S w.e.>.>.r.i.e.e.<.<.Z f M f s , , , , 6 a a s s s s , + + + - = = ",
"2X2X2XtXtXtX8X8X8X2X%Xz.a.6.8.8.8.6.6.6.6.6.6.6.6.6.6.6.6.8.8.c.a.g s s g M T / / / / ' ' ' ' ] ..X.g.j.j.U.U.U.U.E.U.j.....g.j.U.E.E.U.U.U.Q.E.E.E.Q.E.Q.Q.I...' T ^ ^ / C n 2.*.2.*.*.b x b b x r z n n n *.*.c v r v *.M.;.c r c ;.;.B.M.;.=.b c &.n.m.N.M.M.n.&.-.-.%.*.b b n c c #.n.Z.M.-.Z.%.c c c %.;.;.&.;.n.B.N.M.N.N.N.N.N.N.m.S : : a , h : h d : : : < < j D >.<.e.w.e.r.w.e.>.V V u : u V '.w.w.S w.w.r.w.Z s - > 6 a a , , , , a 9 s m D S <.e.<.>.e.'.'.e.>.e.a.D m 9 9 9 , , 6 a a a s s t s m Z m + + + - + = ",
"2X2X2X2X2X2X&X%Xz.c.8.6.6.7.7.7.8.8.7.6.$.4.6.6.6.6.6.8.8.8.8.8.8.c.>.: , 6 s s N N / ) ) ) ) ] ..X.g.g.j.j.U.U.E.E.E.E.U.U.E.E.E.E.E.OXj.g.j.U.Q.Q.Q.I.X.' ) H ^ H H H W F *.2.2.b n b x n n n r z b 2.b n *.c n r r b m.M.&.x i -.;.;.n.B.:.*.c c &.m.m.M.m.n.&.&.-.%.%.*.n c c c c c &.N.N.-.Z.-.x x x %.&.;.;.;.n.B.B.N.M.N.N.N.N.N.m.l = = : : y : h a : : : < < < D >.1.r.e.<.w.e.e.D V D h = u u V D w.w.w.S S , ; , , , , a t , , , , s g s S w.e.<.<.e.i.'.'.e.S <.e.D <.B 9 , a s s a s s s s t m A S A m + = + - O = ",
"2X2X2X&X%Xz.a.4.6.6.6.6.7.7.7.7.7.8.8.6.6.4.$.$.6.6.7.7.7.7.8.8.8.8.8.a.t = - , s f N T / ) ' ] ] ] X.g.g.j.I.I.I.U.Q.E.E.E.E.E.E.E.Q.U.U.Q.j.g. .~ Y Y ^ ^ ^ ^ ^ H H H N C b b v r 2.v x n n z z z F 2.*.b *.b v r x *.M.n.%.x r ;.;.n.n.:.=.%.c c n.n.m.m.m.n.&.&.-.-.*.*.c c c c c c &.N.N.%.Z.-.x x c %.;.;.;.;.n.B.B.M.M.M.N.N.N.N.N.C - - : : u : u a : : : : < i D >.e.a.r.<.e.e.e.D V p i = t t V y.y.w.D e.w.s d s t a a a , , t m d y Z M e.>.<.e.r.i.i.A A p.S >.<.<.e.m a a t s s s s a t s Z ( A A / T + = + - + = ",
"`.z.c.c.8.6.8.6.6.6.6.6.6.6.6.8.7.6.6.6.6.7.7.6.6.6.6.7.7.7.8.8.8.8.8.8.].a.d O , 6 s N / ) ' ) / ] ..g.g.g.f.j.j.I.I.I.j.j.U.I.I.U.I.U.I...~ H H H H ^ H ^ ^ ^ ^ ^ ^ H Z C r r r C C x n v v z F n *.x x b b n r n b m.M.n.#.r n ;.n.;.m.m.*.#.c -.n.B.M.M.m.m.n.=.=.-.-.*.c c c c c c -.N.M.#.Z.m.x x c -.;.;.&.;.;.n.B.M.M.M.N.N.N.N.N.F : - : : h t y t : : : : : < D >.e.r.e.e.r.e.e.S Z p t = t t u w.S D >.e.( s s s s s s s d m m V ( t.N 9 S r.a.a.p.Z : = A <.S <.<.C 1.m s a a s s a t t Z ( ( / / / / W = = + - + - ",
"c.8.8.8.8.8.6.6.6.6.6.6.6.6.7.8.6.6.6.6.6.6.7.8.7.5.5.6.7.7.7.7.8.8.8.8.8.8.c.a.>.< : 6 M / / T ) ' ] ..g.g.g.g.g.g.g.g.g.g.g.g.g.j.X.) ^ H H H H H H H ^ ^ ^ ^ ^ ^ ^ Y A C u r v <.v n v v r F b b *.b x b b r b *.*.M.M.;.%.i -.;.m.:.:.=.%.%.#.-.n.B.B.m.m.m.m.:.=.=.-.*.*.b c c c #.;.N.M.%.Z.B.c p c &.;.;.&.n.n.;.n.B.B.M.N.N.N.N.N.2., , , t D d d d , < t a s s V V <.e.r.i.r.r.r.D m p t , t V w.w.D V <.'.Z s s s s d m Z A A w.t.p.( A ] m '.i.A : : < m D <.<.e.<.1.<.m a a s s t t m A ( / / W / / W T + = = - + ; ",
"6.6.7.8.8.8.8.6.$.$.6.6.6.7.8.8.6.7.6.7.7.6.7.8.8.7.5.6.6.6.5.6.7.7.7.8.8.8.8.8.8.c.a.>.a s f T / / ) ] ....X.X.g.g.g.X.g.g.g.X.' Y G H H H H H H ^ H H H H ^ H ^ ^ ^ ^ A C r v 2.C v v v r b 2.F *.n *.b n x C 2.*.;.B.M.n.%.r n.m.m.:.m.-.%.%.%.-.B.B.M.M.m.m.m.:.:.=.-.*.*.b c c c %.m.N.M.%.Z.B.c r c &.;.&.&.;.n.n.;.n.B.M.N.N.N.N.N.V.A , , t h d h d t s d d h V S r.e.r.i.a.a.a.w.h m i D d d S >.S e.D w.1.S s s s V A A A t.y.w.A S i.t.J.] N = : : : < C C <.<.<.<.<.<.m a a a s g Z / / / W W W W W W T + + = = + 6 ",
"4.4.6.6.6.8.8.8.6.6.$.$.$.6.8.8.8.8.7.8.8.8.8.8.8.8.8.8.8.8.7.5.7.7.7.8.8.8.8.8.8.8.8.8.].e.d , g N T / ) ' ] ..X.X.X.X.X.X.) H G G G G G G G H H H H H G G G G H ^ ^ Y S *.b 2.2.v v v r z 2.*.b F b *.F n n 2.*.*.m.M.M.M.*.x &.;.m.:.:.%.%.%.%.=.M.M.M.m.M.m.m.m.m.:.-.*.*.b c c %.-.M.N.M.-.Z.B.c r #.&.&.&.&.&.n.m.;.n.n.N.N.N.N.N.N.V.<.6 s t d d D d d d V V V >.e.r.a.a.`.a.r.e.>.u u j C d S V w.w.e.w.V <.w.s m Z D S w.t.w.w.w.i.e.i./ N o = : : : : : D C <.>.<.<.>.<.d s a s Z / / / W W T W W W W W T + + + - - s ",
"6.4.4.6.6.6.7.7.8.8.8.8.6.$.$.6.7.8.8.8.8.8.8.8.8.8.8.8.8.8.8.7.5.7.7.8.8.8.8.8.8.8.8.8.8.8.].a.h s s g N / ) ' X.g.g.g.) H G G G G G G G G G G G G G H G G G G ^ ^ ^ Y ` 3.3.3.b v v x z 2.*.n n b b b b n =.*.%.=.M.M.M.N.F =.&.&.&.m.=.%.%.-.%.=.M.N.m.&.M.M.M.m.m.:.=.*.*.c c c %.=.N.N.M.;.Z.B.c p #.&.&.;.&.&.n.m.&.;.n.B.M.N.N.N.N.N.2.6 6 a t d V V d V D D D <.a.`.`.i.S e.1.<.C = : j h D D S e.r.r.i.w.r.w.Z S ( y.y.w.S p.i.i.'.t.M ; X X = : : : : < V C <.<.C w.w.w.d s N Z / / W W W T T W W W W W T = + = ; > M ",
"6.6.4.4.4.4.6.6.6.6.7.8.8.8.$.$.5.6.7.8.8.8.8.8.8.8.8.8.8.8.8.8.5.7.8.8.8.8.8.8.8.8.8.8.8.8.8.8.c.a.a 6 s N ] g.g...T f w w w w w w w G G G G G G G G H ^ ^ ^ ^ ^ ^ ^ ^ S 2.2.*.v v v x v F n z n b b b v 2.*.#.-.:.M.M.M.m.c M.M.m.;.&.-.%.#.-.-.-.m.N.n.-.m.M.M.m.m.m.=.-.%.b c c *.m.N.N.M.n.Z.M.c p #.&.&.&.&.&.n.;.;.&.n.B.B.N.N.N.N.N.C.g 5 6 a d h D D w.>.e.a.`.`.h.S j < D >.<.V = = i h ,.S w.D w.w.w.r.r.i.p.i.i.y.y.i.i.a.i.w.M X o 3 X X = : : : : < V V <.<.<.w.S Z Z W W W W W T W W W W W W W / / ) = = + ; 9 N ",
"6.6.6.6.4.4.$.4.6.6.7.8.8.8.8.8.8.7.7.5.6.7.7.7.7.7.7.8.8.8.8.8.8.8.8.8.8.8.8.8.8.8.8.7.9.7.5.7.$.4.Z ' U.+X$X$X$X&X&XU.T 1 1 w w w w w G G G G G G G G G G G H ^ ^ H G B 2.2.n v v v x b x n b *.b b x 2.=.%.%.-.:.M.M.B.&.x M.M.N.M.:.=.-.%.=.-.%.&.M.;.-.&.N.N.M.m.:.=.=.*.c c c =.N.N.N.M.B.Z.B.n x %.&.&.&.&.&.n.;.&.&.n.n.B.N.N.N.N.N.V.Z 6 6 d h V w.e.e.i.`.`.y.Z j t t t j S <.V = : t h ,.S i.w.w.r.a.a.a.i.e.w.p.l.`.`.i.w.s O & & $ ; + - + = = = = : Z C w.S S V Z / / / / / W W / W W W W W W { [ f.g.= = = > s W ",
"8.8.6.6.6.6.4.4.4.4.6.6.8.8.8.8.8.8.8.8.8.5.5.6.6.7.7.8.8.7.7.8.8.8.8.8.9.8.7.7.9.7.9.5.5.$.$.,.e.h.OXOXOXOX+XOX+X+X$X%X&XOXT 1 w w w w w w w G w G G G G G G G G H H G A 2.n v z r z F b b 2.*.*.n x *.2.%.#.-.;.m.m.m.;.#.x N.B.N.m.m.n.n.&.=.&.n.;.n.&.&.&.N.N.N.m.:.=.*.*.b c %.;.N.B.B.B.B.N.n.x x %.&.&.-.-.&.:.;.&.;.;.;.n.B.B.M.N.N.V.m 1 6 d D S e.a.a.i.w.d j j j i t t t D >.Z O = < u D S i.e.r.a.a.r.w.w.w.i.`.`.`.` f 4 6 6 > ; - , s s s 6 , : = = V D S A Z / A / / / / / / W / W T W W ' d.T.W.R.f.= = = > f W ",
"6.7.8.8.8.6.4.4.4.,.4.8.7.6.7.7.7.8.8.8.8.7.5.5.5.6.7.7.7.7.7.7.7.7.7.7.7.7.7.5.5.5.5.$.@.,.y.R.Q.E.E.OXE.OXE.E.E.E.W.W.OX+X&Xj.q 1 w w w w G w G H H G G G G G G G H H / C x x x v *.2.=.C.C.2.2.b *.2.#.#.%.=.n.m.m.m.%.#.x N.N.Z.N.B.n.m.m.n.m.m.m.&.&.&.m.V.N.M.m.m.=.*.*.%.*.-.B.N.B.B.n.M.N.;.p c -.&.&.&.-.&.;.&.;.;.;.;.;.n.n.B.N.N.2., 1 ; a S 0.y.h._ , : i t i i t t y t S <.Z O O = , u S i.a.i.e.>.<.p.p.'.`.`.] s q Y T T M 9 6 g s s s s s s a a a Z S ( ( / / W W / / / ) / / / W W / s.P.R.R.R.~.f.= = = > f / ",
"6.6.7.8.8.8.4.4.4.,.,.6.6.6.6.7.7.7.8.8.7.7.7.8.8.6.7.8.7.7.7.7.7.7.7.7.6.6.5.$.$.@.,.0.h.Y.Y.Y.Y.Y.Y.Q.Q.j.j.j.j.j.f.g.f.Q.W.$X&X..q G H H G H H H G G G G H ^ ^ ^ ^ ^ W 2.2.2.2.C.2.*.C.:.m.=.=.=.=.%.#.%.-.&.m.m.:.&.%.c x N.N.N.N.N.M.n.n.m.m.m.&.;.;.=.N.V.N.m.m.m.:.*.c %.%.&.B.N.B.B.n.M.N.-.p c &.&.&.&.-.&.&.&.&.;.;.;.;.B.B.B.N.M.m % ; ; 5 Z ( Z s T ; < t i i i t t t t D <.A O O + = V w.S D ( S <.r.'.a.J.` 9 q Y W N M f s s s a a s s s s a d m A S A / / ) / ) ) / ) / / / W / { u.P.R.^.^.R.W.R.s.= = + > f / ",
"6.6.6.6.6.6.6.6.6.4.,.@.$.6.5.5.7.8.8.7.8.8.8.7.7.8.6.7.8.7.7.7.7.7.5.5.$.$.$.4.4.a.l.j.j.j.f.f.f.j.j.I.Q.j.X.] ] ' g.Q.E.W.+X+X+X$X&Xj.T 0 G H H G G H ^ H H H H H H H Y C.V.V.V.m.=.C.:.:.&.&.=.=.*.*.c %.&.n.n.;.&.-.%.c c N.N.N.N.N.B.&.m.m.m.n.n.m.m.m.V.N.M.m.m.m.m.=.c c -.n.M.N.B.N.n.B.B.%.x #.&.;.;.&.-.&.&.&.&.&.&.n.B.B.N.N.N.2.; % % % ; 6 < Z T q o < t t t t t t t t D S S s 6 , , Z A _ ( w.y.`.`.'.r.s 9 M T T T f s s s s s m g s d d d Z ( S A / / / / / ) ) ) / ) / / / / [ K.).(.(.(.(.(.(.).g.= = + > f / ",
"4.6.6.6.6.6.7.7.7.7.6.$.$.6.5.6.7.7.7.8.8.8.8.8.7.7.8.5.7.7.6.5.5.5.$.$.4.4.4.e.h.f.j.j.g.g.g.g.X.g.g.g.g.g.] W ] f.j.I.Y.Q.Q.E.E.W.+X$X&Xo.H G G G G H H G G G G G G G H S m.V.V.V.V.m.m.:.;.:.:.=.=.=.*.&.n.n.;.&.-.*.c b -.N.N.N.N.B.&.n.m.m.n.n.m.m.M.N.V.M.m.m.m.m.m.=.*.c &.B.N.N.B.N.n.B.n.#.c %.&.&.&.;.&.-.&.&.;.m.m.n.B.N.N.N.M.m % % % % % 1 6 s & > , t i j t j j t t i Z S >.w.s 6 N ( ` w.y.i.`.h.p.p.i.W M N M f s s s s s s s s s s m Z ` w.( A / ) / / / / ) ) / / / / / ] K.R.(.(.(.(.(.(.(.(.(.s.= = - > f { ",
"4.4.6.6.6.7.6.7.7.8.8.6.@.@.@.$.6.6.6.7.8.8.8.8.7.8.7.$.5.5.6.$.$.4.4.4.>.t.j.j.j.g.g.g.g.X.X.X...g.j.Y.E.OXE.Q.Q.j.g.f.f.I.Y.Q.E.OX+X+X%X&X&X..w w w G G G G G G G G G H Y 2.:.V.V.C.:.=.:.m.m.:.=.=.=.&.n.n.n.=.=.-.*.c c m.N.N.N.N.M.n.m.n.n.m.m.m.m.M.N.N.M.M.m.m.M.M.=.%.c n.M.N.N.N.N.B.B.n.#.c &.&.&.&.&.-.&.;.M.m.m.m.B.B.N.N.C.l & % & & & % ; ; 5 g m m V d d d u t t i j D w.w.V a , , t d i.h.i.e.p.i.i.t.B N s 6 s s s s s s s s a d Z S w.t.] { ) ) / / ) / W / / / W / ] H.R.(.(.(.(.(.).(.).(.(.).s.= - - , f { ",
"4.4.6.6.7.7.6.7.8.8.8.7.6.4.4.@.@.$.6.6.7.9.7.7.6.6.6.$.$.$.4.@.e.t.k.f.g.g.g.X.g.g.] ......] ] g.f.f.j.j.Q.Q.Q.E.W.E.g.g.j.I.Q.Q.E.E.W.W.+X$X&XOX~ 1 w w w G G G G G G G G S =.*.*.*.b =.:.m.m.m.=.&.&.&.n.n.:.=.-.*.*.n C.M.B.N.N.N.M.n.n.n.m.M.M.M.M.M.M.M.M.M.M.M.M.M.m.=.%.m.M.M.N.N.M.B.Z.B.%.%.;.;.;.&.:.m.&.;.m.m.M.M.m.M.N.*.> & & & & & & & ; ; 1 g Z V Z V Z V Z V D 0.w.w.( d a s m Z t d y.i.( w.w.i.i.( s s a s s s s s s s s d Z ( ` ` ] ] ) ' ' ) ) / ) W W W / / ' f.K.L.(.(.(.R.(.(.(.).).).(.).s.- - - , f ' ",
"4.4.4.6.7.8.7.8.8.8.7.8.8.8.8.8.4.6.6.6.$.6.6.6.6.$.@.4.,.a.y.k.f.g.g.X.] X.g.g.g.g.g.] ] ] X.g.g.g.f.j.j.j.j.Y.Q.Q.E.W.g.X.f.Y.Y.Y.E.E.W.W.$X%X%X&X+X) 1 5 w w G G G G G G M b b n v n n *.-.=.=.m.m.n.n.;.&.&.=.-.*.c =.V.m.;.B.N.V.m.m.n.;.m.m.M.M.M.M.m.M.M.M.M.M.M.N.V.m.=.n.B.M.M.M.B.B.Z.B.;.-.;.n.m.m.;.m.:.&.:.:.m.M.M.M.2., & & & & & & & % ; ; ; 6 m Z Z A Z Z A >.w.w.S V d d Z ( ` Z , d w.w.S i.w.w.w.S s s s s s s s s s m Z Z ( ( ( ) ) ) ' ' ' ) / / / / W W { X.T.W.W.(.(.(.(.(.(.).).(.(.).).).s.= - - 3 f ' ",
"4.$.4.6.8.8.8.8.8.8.7.7.8.8.8.6.6.6.6.$.$.@.4.,.>.0.t.y.k.f.g.g.g.j.g.g.g.g.g.g.g.X.X.] ) X.g.g.g.g.g.g.g.j.f.j.j.Y.Q.Q.+Xg.I.I.j.I.Q.Q.Q.E.W.!.$X$X&X&X&Xo.Y 4 w w w w w w w m l l v x x n b *.=.m.m.n.;.&.&.=.=.-.%.c Z.;.m.m.M.N.M.M.V.M.m.m.m.m.m.m.m.m.M.M.M.M.m.m.m.m.m.n.n.B.M.M.N.;.B.Z.Z.B.%.&.m.m.m.&.:.:.:.m.=.:.V.C.C > & & % & & & & & % ; ; - g N Z A S ( t.w.<.D d u d Z w.r.e.e.Z t d w.w.w.w.i.i.r.m s s s s s a a g Z Z A A ( / / ) ) ) ' ) ' ) ) ' ) / ) [ K.W.W.(.).(.(.(.R.(.(.(.R.R.)._._.).[ - - - 3 9 ] ",
"$.4.4.4.6.8.8.8.8.8.7.7.6.6.6.$.@.@.,.4.e.e.y.t.k.g.g.g.g.g.g.g.g.g.g.g.g.g.g.g.g.f.j.I.j.f.X.X.X.g.g.g.g.g.g.g.g.I.Q.E.E.E.Q.Q.Q.f.g.f.j.j.I.Q.E.!.$X%X$X&X&X&XOXoXo.o.+.q w 9 v v l u < i i i v *.=.=.=.=.=.-.-.*.=.=.M.;.;.m.m.M.M.m.M.M.V.m.m.m.n.n.m.m.m.m.m.m.m.m.;.;.;.n.n.B.M.M.M.&.Z.Z.Z.B.&.&.n.n.n.m.&.=.C.V.2.V y & & & % & & & & & & % ; ; ; 9 t.k.Z ( y.i.w.Z d d d D 0.w.<.<.D V d g A w.i.` y.S S r.m s s s s s s m Z / ( / _ ' ' ) ) / / ) ) / ) ) ) ' ..G.~.).).).).).(.(.(.(.(.(.P._.(.(.).).).[ - - - 3 f [ ",
",.,.,.$.4.6.8.7.6.6.7.6.$.$.@.p h 0.t.t.X.g.g.g.g.g.g.g.g.g.g.X.X.X.X.X.X.g.g.g.g.f.f.f.j.f.j.j.X.X.X.X.g.g.g.g.j.I.I.Y.Q.Q.Q.Q.Q.Q.I.X.X.X.g.Y.W.+X$X+X+X+X+X$X$X$X$X+XOXOXo.w m V V : < y u v v z r x n n n b *.2.V.m.n.-.&.m.n.m.n.m.n.m.m.m.m.n.n.n.;.;.;.;.;.;.;.;.;.n.n.n.n.n.B.N.m.;.Z.Z.Z.Z.&.&.n.;.;.:.=.2.F y & & & & & & & & & & & & & & % ; 1 ( `.`.t.y.y.( d a t i S e.>.D V u h V d / w.w.w.S ( V V <.Z s 9 s s m A / ` ` { / W / ) ) ) ) ) / / ) / ) ] f.R.).)._.)._._.).)._.)._._.).(.)._._.).(.(.X.= = = 3 s [ ",
"a d h ,.4.6.5.6.6.$.$.$.$.@.0.] k.g.g.g.g.g.g.g.g.g.g.g.g.g.g.] ] ' ] g.g.X.g.g.g.f.g.g.g.g.g.f.j.g.] X.g.g.g.f.g.j.I.I.I.Q.E.E.E.E.W.Q.' X.Q.E.W.W.E.Q.Q.I.Q.Q.Q.I.Q.E.j.g.j. .s m < t u u l v b C F >.C > X X + y v *.%.%.%.-.-.&.&.&.&.;.;.n.n.n.n.n.n.;.;.;.;.;.;.;.n.n.n.n.n.n.n.M.n.N.Z.Z.Z.Z.m.&.n.=.*.v < @ @ $ & & & & & & & & & & & & & & & 3 ] /._.`.h.A d d t t u d u u y u u u h D V A ( S S A A S Z V A s s N Z / ` { { / ) ) ) ) / W T W / ) / { [ G.!.)._._._.(.)._._.)._._._.)._._.)._._.).).(.W.] - = = , 9 [ ",
"w w a a p 4.6.6.6.$.4.@.S t.[ ......X.X.X.g.g.g.g.g.g.g.g.g.g.] ) ] X.g.g.g.X.X.g.g.g.g.f.j.j.g.g.f.g.X.g.g.g.g.g.g.f.f.I.Q.Q.Q.E.E.W.W.W.+X$X$X+XQ.Q.Q.Q.I.f.f.j.j.g.X.' ~ T w 3 6 s u u l l v S S D s O       X X O < v n x x c c #.%.%.-.&.&.&.;.;.n.n.n.n.n.n.n.n.n.n.n.n.n.n.;.n.M.;.Z.Z.Z.Z.Z.M.:.=.y + @ @ @ $ & & & & & & & & & & & & & % & 3 ] `._._._.l.t.Z ( d t d y t d d h h D <.<.A d ( Z A ( S t.w.S Z Z ] ] ( A / / W W W W ) / / / W / W / { f.(._._._._._._.).(.)._._._._._._._._.).).)._.).).(.] = - - 6 s [ ",
"5 5 4 1 1 j j @.@.@.S ` ] ] ] ] ] [ ..X.X.g.g.g.g.g.g.g.j.j.j.j.j.j.g.X.X.X...X.g.g.g.g.g.f.j.j.j.I.Y.Q.f.X.X.g.g.j.j.f.G.Y.Q.E.W.E.Q.E.Q.Q.W.!.+X$X+XQ.f.f.G.G.j.X...) T T 3 e & ; m m m m m y , o             . .     - V b b b b n n c c %.%.%.-.-.&.&.;.n.n.n.n.n.n.n.m.n.m.n.&.n.M.n.Z.Z.Z.Z.N.C.l + o @ @ @ @ $ $ $ $ $ # & & & & # # & & % s ] `.`.`.`._.`.l.t.t.A , : = t V d D >.>.>.<.Z d A A Z ( w.A ( S ` t.k._ / W W W W W W W W W W / W ) ] G.(.R.P.L.L._.%X_.%X_._._.).).)._._._._._._.)._._._.).(.[ - - - 6 9 ] ",
"1 1 2 Z >.1.4.4.,.d _ / _ _ ) ' ' ] ] X.X.g.g.g.g.g.g.g.j.g.g.g.g.g.f.j.g.] [ ..X.g.g.j.j.I.I.Q.Q.Q.Y.Q.Y.Y.j.g.g.g.g.f.f.f.Q.Q.E.+X+X+XW.Q.Q.W.Q.Q.Q.W.Q.Q.I.g.g.' ~ T Y %   # # ; m m m m ,           .   . . . . * o . . > l F *.*.*.F *.c c n x c c %.-.&.&.&.n.n.n.;.n.n.m.;.-.&.m.n.N.Z.Z.N.2.6 o @ $ $ @ @ @ $ $ $ # $ # $ # # & # & & ; T k.`.`.`.`.`.`.`.l.h.( a = = = t S w.e.1.>.>.<.V d Z A S A A ( S t.] ] ) / W W W W W W W W W W W W { s.P.W.(.).)._._.(.R.R.(._._._._._._._._._.%X_._._._._._.).).[ - - - 6 9 [ ",
">.3.c.8.8.7.8.8.8.c.S Z / / / ) ' ' ] ..X.g.g.g.g.g.g.g.g.g.g.g.g.g.g.f.j.g.' ] X.g.g.j.f.j.I.Q.Q.Q.E.E.E.E.E.Q.I.g.X.X.X.f.I.Q.Q.Y.Y.Q.W.W.Q.T.E.I.j.j.j.j.j...) W T T g s & . # % s y -               . . . . * * * * * * * @ O y v F 2.2.C.=.=.-.%.c c c c c c -.&.&.&.=.:.m.m.M.m.N.m.B.Z.V.*.> @ @ @ $ $ $ $ $ $ $ $ & & & @ # @ # # # 6 ] `.`.`.`.`.`.`.`.`.`.h./ = = O a e.<.w.>.C S >.S m m Z A ( ( ( ` t.] / ) / W W ~ ~ W W W W T W W ) ..f.T.W.(.).).).)._._._._.(.L.P.R._.%X_._._.).)._._.%X_._._._.).[ - - ; 6 9 [ ",
"8.7.7.7.7.7.7.8.8.8.c.a.Z Z / / / _ ) ] ] X.g.g.g.g.g.g.g.g.g.g.g.g.f.j.j.I.X.] X.g.g.j.j.I.Y.Q.Q.Y.Q.Q.Q.Q.E.OX+XE.f.g.g.g.j.Q.W.W.E.Q.Y.Q.I.f.I.f.j.g.g.X.) W T T / p.t.N 9 3 8 6 d 3                     . . * * * @ @ @ $ $ @ o o = y n *.3.m.:.=.=.=.=.=.=.=.-.&.N.N.M.N.M.M.M.B.N.n.m.C.l o o @ @ @ $ $ & & & & $ @ $ & & @ @ @ @ & g t.l.`.`.`.`.`.`.`.`.`.`.l.t.6 + + t >.S <.D S V D S s g Z A ( ( ` { / ~ W W W W W ~ W W W W W W ) X.Y.R.T.W.P.(.(.(.).).)._._.)._.%X_.).R.P.P.).%X%X_._._._._.).).).).] - - ; 6 9 [ ",
"7.6.7.7.7.7.7.7.7.7.8.8.c.D m Z / / / ) ] ] X.X.g.g.g.g.g.g.g.f.f.j.j.f.j.I.Y.Q.Q.f.g.X.g.g.g.g.g.[ ] ..g.j.g.] / ] f.E.W.Q.Q.Q.Q.Q.Q.Q.I.Y.G.X.X.j.X.X.) T T T N N ( w.p.w./ / / h.i.M .               . . . . . . * @ @ $ # # & $ @ o o o + l *.=.3.=.=.=.V.V.V.V.m.V.M.m.C.3.2.C.C.C.F b y o @ @ @ @ @ $ $ & & & & # # # % & $ * & s ] k.h.l.`.l.`.`.`.`.`.`.`.`.l.h.Z = = a S D S S S D Z A s , N ( t.] ) ) ) ) ) ) ~ ~ W W W W W ~ ) s.Y.R.(.W.W.W.W.W.(.).).(.).)._._.)._._._.%X%X).P.H.P.^._.%X%X%X_.).)._.] = - ; 6 6 s.",
"6.6.5.5.7.7.7.7.7.7.9.7.8.8.a.Z N Z / / _ ' ] [ X.X.X.g.g.g.j.j.f.j.f.j.j.j.j.j.I.Q.Q.g.....] ..] g.Y.Q.Q.Q.Q.Q.g.' ] s.K.X.g.Q.Q.I.s.g.f.g.g.g.....) W T N M g N N A y.h.` , s A i.i.g . .                   . . . * @ $ $ & & & & # $ $ $ $ $ @ : s l v b 2.F C v v b <.F v = + = O   .   . o @ @ $ @ @ @ $ $ $ $ $ $ # & % & 1 N ] k.h.h.h.l.`.`.l.`.`.`.`.`.`.`.`.l.t., = < D D V S D V D A 6 6 _ ' / ~ ) ) ) ) ) ) ) ) W W W W ) ..Q.R.W.(.(.(.W.W.).(.(.(.W.W.(.).).)._.W.).).).).(.).%X_.~.J.P.R.%X%X%X%X%X[ - - ; 6 6 s.",
"5.5.5.5.5.5.5.7.7.7.7.9.7.8.8.c.1.V Z W / / ) { { ] [ X.g.g.g.f.g.g.g.g.f.j.j.j.j.I.Y.Y.g.] ] [ j.Q.E.E.W.+XOXW.W.g./ ] G.Q.X._ g.Q.Q.X.g.....' ) ~ T Y M g M N ( u.`.`.`.p.: g / P.i.g @ .                   . . * * @ $ $ # & & & & & & & & # # $ @ o o @ @ . . . .           X   . . . . . o @ o @ @ @ @ @ $ $ @ @ $ $ & ; M t.k.h.y.y.h.h.h.l.l.l.l.l.`.`.`.`.`.`.l.h.T = < D V V V D Z Z Z s f T W ~ ) ) ) ) ) ) ) ~ ) W W ) ] f.W.W.(.).).).).(.(.).).).%X).).).)._.).(.(.(.W.(.(.)._.%X_.).)._.).R.K.T.).%X..; ; ; 6 6 s.",
"$.$.5.5.5.5.5.5.5.5.7.5.9.7.7.8.8.c.<.N W / / / _ ' ] ..X.X.X.X.X.g.g.g.f.f.f.f.g.I.Y.Q.Q.I.I.Q.E.E.Q.Q.E.E.OXW.W.+XI.' [ Q.W.f.s.s.f.j...' ) T Y Y M N N m ` h.`.`.`.`.`.t.= s y A A A % .                   . . . * @ $ # # & & % & & % % & & & & & $ & & & $ $ @ @ @ @         . . . . . . . . . @ @ @ @ @ @ $ $ @ $ & 5 W k.h.h.h.h.y.y.y.i.h.l.l.l.l.`.`.`.`.`.`.`.l.t.6 < V D S C A ( A A W W W ~ ~ W ~ W W ) ) ) ) / ) ' ..g.Y.!.).).).%X).$X).)._._.).%X%X(.).).(.(.(.T.(.W.W.W.(.(.(.(.(.)._._.%X_._.W.P./ - - ; 3 6 s.",
"$.$.5.5.5.5.5.5.5.5.5.5.5.5.9.7.8.8.8.a.Z Z / / _ { ' ] ] ] ] ..X.X.X.g.g.j.I.I.Q.Q.Y.Q.Q.Q.E.E.E.E.E.Q.Q.Q.Q.Q.W.W.E.+Xf.g.Q.W.I.g.] ' ) ~ T Y M M m A t.`.`.`.`.`.i.w.S w.- , s A S ( ; .                     . * @ @ $ # & & & & & % % % & & & % & & & % & & $ $ $ $ @             .     . . . * @ o @ @ @ @ & & @ @ s ` i.i.h.h.h.h.y.y.y.y.h.l.h.l.l.`.`.`.`.`.`.`.l.h._ t V D D A S / / T W W W ~ W W ~ ) ) ) ) / / ) ] X.g.G.T.(._.).(.).$X).).)._.%X%X).(.(.(.(.).W.).W.(.(.).(.(.W.W.W.W.(.(.).).).).%X%X' ; - ; , 6 d.",
"$.$.$.5.5.7.7.5.7.5.5.5.5.5.7.7.7.7.8.8.c.>.m W / / / ) ' ] ] ] ..X.X.X.g.j.j.j.j.j.j.I.Q.Q.E.E.Q.Q.Q.Q.I.I.j.f.Y.Q.Q.Y.Q.[ X.X.' ) W T M M f g N ( i.`.`.`.`.`.y.A V D D S , , d A S A &                   .   . * @ @ $ # # & % % % % % % % & % & % % % % & & # & & @ . .                 . . . . o . . . * $ % - a _ t.h.i.y.y.y.y.h.y.y.y.y.h.l.l.l.l.`.`.`.`.`.`.`.`.l.t.d D D Z A A / W W W W W W ~ ~ ~ ) ) ) ) ) ] ..g.K.T.(._.).).).(.(.%X_.%X).%X).%X).(.(.(.W.).).W.W.(.(.(.).).(.(.(.).).).).(.(.(.).%X{ ; - ; , 6 ] ",
"7.7.6.$.$.5.7.5.5.7.7.5.5.7.7.7.7.7.7.8.8.D.a.Z m Z / / / _ ' ] X.X.X.g.f.j.f.f.j.j.I.Y.Q.Q.Q.Q.Q.Q.Q.Q.f.j.j.g.g.g.g.X...../ T Y M M f f g _ t.h.`.`.`.`.`.w.V u u u V V D s a d D >./ $ . .               . . . * * @ $ $ # & % % % % % % % % % % % % % % % & & & & . X + + .               .   . . . . . . o - s ( y.y.y.y.y.t.t.y.y.y.y.y.t.y.y.i.h.l.l.`.`.`.`.`.`.`.`.h.( Z m Z / ) ) W W W W W W W ~ ~ ) ~ ) ' X.s.f.R.(.).).).).).).).).).).%X).(.(.).).).(.(.).(.(.W.W.W.W.W.W.).W.(.).).(.).(.(.(.(.(.(./ ; - - , 6 G.",
"5.5.5.7.6.$.5.5.5.5.5.5.7.7.5.5.5.7.7.7.7.8.8.c.D d N W / _ ' ] ] g.g.f.g.g.g.f.j.I.I.Y.I.I.I.I.Y.Y.I.Y.I.g.g.] ' ) / W W T Y f f f f m ( u.P.`.`.`.`.l.( d u u d u u ( i.i.m d A >.<.( & @ .       . .       . . * * @ @ $ # & % % % % e e % % % % e e e e % & & & & - , , , +                       .   . o ; g ( t.t.t.y.t.t.t.t.t.y.y.t.t.w.y.y.h.h.l.l.l.`.`.`.`.`.`.`.l.t./ W ) ) ) ) ~ ~ W W W W W W ~ / ' ..g.g.Y.R.)._.).).).).).).)._.).%X(.(.).).(.(.).(.(.(.(.(.).(.W.W.T.(.W.(.(.W.W.W.(.(.(.W.(.(.!.) - - - , 6 K.",
"7.7.5.5.7.5.$.$.5.5.5.5.5.5.5.7.7.7.7.7.7.8.8.8.c.1.d N _ { ) ] ] X.X.g.g.g.g.f.j.I.I.I.j.j.f.f.f.j.g.g.g.g.X.' ) W M M f f f s M N ( i.`.`.`.`.`.i.0.u u u u u d A y.i.h.i.V g Z S <.A 6 @ .               . . . * * @ @ @ # & & % % e % % % % e e e e e % & & & & ; a a a a , +                       . o ; g ( 0.t.t.t.t.t.t.t.t.q.( q.t.t.q.y.y.y.i.i.i.l.l.`.`.`.`.`.`.l.y.] T ) ) ) ) ) W W W W W W ~ ) ] ..f.Y.R.).$X)._.).).).).).).).).).).(.).(.(.).(.).).).W.(.W.(.).(.).R.).(.(.).).(.W.W.W.(.(.).W.).) - - - , 6 Y.",
"5.6.5.7.5.7.$.$.$.5.5.5.5.5.7.7.7.7.7.7.7.7.8.8.8.].a.D Z Z W ) ) ' ] X.g.g.g.f.I.I.I.j.j.g.g.X.....X...) ] / W M M f 9 s f N Z t.h.`.`.`.`.`.y.w.D u u u i h S ` t.t.p.y.i.Z d A S 0.( s @ * .   . . . . . . . . . * * $ $ # & & e e e % 1 % 1 1 1 1 1 e % & & % % ; a d d d d 6 +                     - s N Z Z ( 0.t.t.t.0.q.t.q.q.( q.( q.0.q.q.y.y.y.i.l.l.l.`.`.`.`.`.`.h.` / W W W W W / W W W W W ) ] g.f.R.(.).).).).).(.).)._.W.(.W.).).(.).).(.).).$X).).).).W.).).(.).).(.).).).).).(.W.W.W.W.(.(.(.W./ = - - , , [ ",
"5.6.6.7.7.7.7.$.5.5.5.5.5.5.7.7.7.7.7.7.7.7.8.8.8.8.8.].e.d g Z W _ ' ] X.g.g.g.g.g.g.g.X.X.] ' ) W W / W Y M f f s f N N _ t.h.'.l.`.`.h._ : u <.u u u D w.t.A Z Z A Z ( y.S d D D D ` B $ * . . . . . . . .   . . * * * $ # # & e e e 1 e 1 1 1 1 1 1 e & & % % % , s d d m m m s +               X = a d g Z Z Z ( 0.0.q.q.0.q.q.q.q.q.q.t.q.q.q.t.y.y.i.l.l.l.l.`.`.`.`.`.l.t._ W W W W W W W W W ) ' s.d.K.(.).).(.).).).).).).).).(.).).).).(.).(.).(.).).).).(.).(.(.).(.).).).).%X$X(.).).).).).).).(.(.).W = - - , 6 Y.",
"7.7.7.7.6.6.6.6.6.7.7.5.5.5.7.5.5.7.7.7.7.7.8.8.8.8.8.8.8.].a.S d N / ) ] ] [ g.g.X...] ' ) T Y Y Y f f f f 9 s f M A t.h.`.`.'.`.`.t.s = = : t C v D w.p.S Z w.w.( w.w.( t.S d V S S Z A @ * . . .   . . . . . . . * * @ @ # & & e e e 1 1 1 1 1 1 1 1 % & % % % % , d d d V V D ( ` 6           - t a a d d m d d d A ( 0.q.( q.q.( 0.q.t.q.q.q.q.q.y.y.y.i.h.l.l.`.`.`.`.`.l.h.q.T T / T T T W ) ' [ f.T.R.(._.(._.).(.(._._.).).)._._.).).(.(.).).).).).(.).).(.).(.W.).).(.(.).).).).).).(.(.(.(.).(.(.(.).)./ = - - , 6 T.",
"6.6.6.6.6.6.6.6.6.5.7.7.5.5.5.5.5.9.7.7.7.7.7.7.8.8.8.8.8.8.8.].a.Z g T / ' X.X...' ) W T M f f f q 6 6 9 s m Z ` y.h.`.`.h.`.i./ > = = = : , y h <.1.e.S w.p.w.S S w.p.w.w.S d Z S p.` m $ * * .   . . . . . . . . . * @ $ $ & & & % e 1 1 1 1 1 1 1 % % % 1 % % - a d h V D w.e.y.( g o     o : h S _ t t d d d d d d Z ( 0.0.0.( ( ( ( q.q.0.0.0.0.t.t.y.y.h.h.l.l.l.`.`.`.`.l.t./ T ) / / ) ' [ s.K.P.(.(.(.(.(.(.(.(.(.(.(.(.(.W.(.(.(.).).).).T.)._.).(.%X).$X$X(.(.(.W.W.(.).).).(.(.W.(.W.).).).%X$X).).%X/ - - - , , Q.",
"6.6.6.6.6.6.6.6.5.5.7.7.7.5.$.5.5.9.7.7.5.5.5.7.7.7.8.8.8.8.8.8.8.].a.d N W s 3 f Y H f f f 9 4 4 q f M m / u.`.`.l.i.`.`.t.f X X = = = = : t u u C e.A w.S Z Z d S w.<.S w.w.y Z S y.i.t.& * * .   .   . . . . . . . * @ $ $ & & % e e 1 1 1 1 1 1 1 % % 1 1 % % - , d D w.e.e.>.V d m g > + : d Z u i t t t d d d d d V ( ( ( ( ( ( ( ( ( ( ( ( q.0.q.q.y.y.y.h.l.l.l.l.`.`.`.l.h.q.N / / ] [ u.J.P.R.(.(.(.(.(.R.R.P.R.(.(.(.(.(.).(.(.).(.).%X%X%X%X)._.(.W.(.(.).).).).(.).(.(.).).(.$X(.).).).).).).$X$X).!.N - - ; , , Y.",
"6.6.$.6.$.6.5.5.5.5.5.5.7.5.$.5.5.9.7.7.5.5.5.5.9.7.7.7.7.7.8.8.8.8.8.c.Z , ; 3 9 f q 9 3 6 q f M N N ` i.`.'.`.`.'.J.{ 3 X X X X = = = = : t u u C S ( V w.Z Z A S <.w.w.i.t.t Z ( p.e.( & * . . . . . . . . . . . . * * $ $ & & % % e % 1 1 1 1 1 % % 1 1 1 % % % s w.e.e.S h u u S w.w.w.A a i j j < i a A Z u t d d d V Z A _ ( ( ( ( ( ( ( ( 0.0.0.q.t.y.y.h.h.h.l.l.l.`.`.`.l.y._ N { [ J.P.(.(.(.(.(.(.R.(.(.(./.(.(.(.(.(.(.).W.W.).(.).).(.).).(.%X_._.$X).(.).(.(.(.(.).W.).).).).).).).$X).).).%X).Y.R.N - - ; > , W.",
"$.$.$.$.$.$.5.5.5.7.7.7.7.7.7.7.7.7.9.5.5.5.5.9.5.9.7.7.7.7.5.9.6.6.6.6.a.m & ; 4 3 6 6 s f M N Z u.h.h.h.l.'.`.u.N + X X X X X X O = = : : t u u C D w.V <.A ( Z A S S p.i.p.t V D w.w.t.3 * * . . . . . . . . . . . * @ $ # & & & & % % 1 1 1 1 % % % 1 1 % % & % m w.C h u V S e.w.e.y.( a t t j j u D S S D A g t u d d d Z Z Z Z Z _ ( ( ( ( ( ( 0.0.q.y.y.i.h.h.h.l.l.l.`.`.l.h.t.Z u.L.R.(.).(.).(.(.(.).(.).(.(.^.L.L.P.R.(.(.(.W.(.T.P.).R.(.(.W.W.%X_.$X$X(.(._.).).).).(.).).(.$X(.).(.$X%X%X%XR.f.).).N - ; ; > , W.",
"$.$.$.$.$.$.5.5.7.5.6.5.5.6.5.5.5.5.5.5.5.5.5.5.5.5.5.5.5.5.5.5.$.$.$.$.4.d - > 6 9 s s s g / t.h.i.i.h.l.`.t.M X X X X X X X X X O = = = : < u u C >.e.S e.S ( t.w.( w.y.i.y.s m ( i.i.i.s * . . . . . . . . . . * * * * @ # & & & & % e e 1 1 1 % % 1 1 1 % % % % s h u D <.e.e.e.w.A , = t t t d D C C >.S ( S Z t , t a a d Z Z Z Z Z Z Z ( ( ( 0.0.q.q.q.y.y.i.y.y.y.i.l.l.l.`.l.y.( ` (._.).).(._.(.(._._.(.(.(.(.(.L.P./.L.R.R.R.(.R.R.P.R.(.(.(.T.W.(.).W.).(.W.).).).W.(.W.).%X).%X).).%X%X%X).Y.T.$X%X%XN ; ; ; > > T.",
"$.$.$.$.$.$.5.5.5.5.5.5.5.5.5.5.5.5.5.5.5.5.5.5.5.5.$.$.6.$.$.$.$.$.$.4.D g s s s s s m ( u.i.i.i.h.h.h._ > X X X X X O O . X X X O = = = : < u u D >.e.V S w.y.w.S t.p.i.i.( m m ( i.i.i.s @ * * . . . . . . . * * * * @ @ $ & & & & % 1 1 1 e % % % 1 1 1 % % % % , V w.r.e.e.w.A , O O = t V S S S C <.S V V m d t - ; , t a d g h Z Z Z h _ ( ( ( ( 0.q.0.q.y.y.y.y.y.y.l.l.l.l.l.i.t.( d.)._.)._._._._._._.(.(.(.(.(.(.(.L.L.P.P.T.P.R.R.P.W.W.R.L.K.R.W.T.R.).W.W.R.R.).).).(.$X).).).(.).%X%XR.K.%X%X%X$X%XN ; - ; > > W.",
"$.$.$.$.$.5.$.$.$.$.$.$.$.5.5.5.5.5.5.5.5.5.5.5.$.$.$.$.$.@.@.@.4.4.,.p d A ( A Z ` y.i.t.i.i.i.h.t.N O X X X X X O O O X X X X X O = = = : < u d V >.C 0.w.w.S S y.y.i.i.p.t.A d Z ( w.y./ * * . . . . . . . . . . * * * @ $ # & & & & e e e % % % 1 1 1 1 1 % % % m e.r.r.w.g O + + = = = d <.>.C C S S d V d d d a ; - : , t a d d d h Z Z Z A A ( ( 0.0.0.0.q.w.y.y.y.y.i.l.l.l.l.h.y.0.( (._._._._._._._.(.(.(.(.(.(.(.(.(.P.P.K.K.T.W.T.P.R.T.P.P.K.(.R.T.T.W.W.W.W.(.).(.).(.).%X).$X$X).W.f.R.$X).%X%X$X%XM ; - - > > W.",
"$.$.$.$.$.$.$.$.$.$.$.$.$.$.5.5.5.$.5.5.5.5.$.$.$.$.@.@.@.@.4.,.h t t d u Z y.i.i.i.i.i.i.i.h._ 6 O O X X X X O O O O O X X X . O O O = = = : y u h >.>.S S w.e.r.i.i.y.t.w.S A Z 0.e.`.`._ * * . . . . . . . . * * . * * @ $ & # & & & % e e % % % % 1 1 1 % % % % , w.w.N O + + + O + = = d <.C h V V V V d y d d t - > , , a a a a d d h Z Z Z Z A ( 0.0.0.0.0.q.q.y.y.y.y.l.l.l.l.l.i.t.w.t._._._.(._.(._._.(.(.(.(.(./.(.(.L.P.K.L.K.P.P.P.(.W.(.R.T.K.P.L.P.K.P.R.T.W.(.(.W.(.).).).$X).K.f.).$X).%X).).).%XM - = - > > ).",
"$.$.$.$.$.$.$.$.$.$.$.$.$.$.$.$.$.$.$.$.$.$.$.@.@.@.@.4.4.h h t t t Z p.`.`.i.w.y.i.i.h.t.N + O O X X X O O O O O . O O O O o O o + O O O = : t u h >.<.<.e.i.i.i.y.y.( S Z Z 0.i.e.,.i.i.N @ . . . . . . . . . . . * * * @ $ # & % & & % % & % % 1 1 1 1 1 1 ; % ; ; , X X o + O O O O O - t >.D u u d V d t d d d t 6 6 6 9 f g a a d d h Z Z Z Z Z _ ( ( 0.0.0.0.0.q.q.y.y.y.i.l.l.l.h.t.w.w.u.L._._._._._._._._.(.(.(.(.(.L.P.P.P.K.P.K.T.T.W.R.L.P.P.P.K.K.L.P.P.K.L.K.R.R.R.R.(.).(.).d.Y.).).).%X%X).$X!.%XM - - - > ; W.",
"6.6.4.$.$.$.$.$.$.$.$.$.$.$.$.$.$.$.$.$.$.@.@.@.@.,.h p 4.d t d ( i.`.a.p.w.t.y.i.i.( s = + O X X + + o O O O O O O X + ; ; - - - - = = O = = t u d S <.r.i.i.y.p.w.Z Z D 0.r.r.i.>.>.w.e._ @ . . . . . . . . . . . . . * @ $ & & % & & % & & e % 1 1 1 1 1 1 1 % ; % # X X o + + + O O O = : D D d u d d t u d m d a a 6 6 f f f f a t s d d h h Z A _ A ( ( 0.0.0.0.0.0.0.q.y.y.y.l.l.i.y.t.t.u._.P.J.L._._._.)._.(.(.).).(.(.(.(.R.T.P.L.T.K.R.R.T.R.P.K.P.K.K.K.P.P.P.K.P.P.P.R.R.P.d.u.Y.W.).).!.).%X%X$X$X%Xs - - ; > > ).",
"5.$.$.$.6.6.$.$.$.$.$.$.$.$.$.$.@.@.@.@.@.@.,.@.p j j j @.,.y.`.'.i.>.0.y.y.y.w.A , = + o . $ - ; - & + + + + o O - > 6 6 6 6 6 9 9 6 6 6 6 a a d A e.i.i.y.y.( D V S e.i.i.r.<.D C w.y.y./ @ . * * . . . . . . . . . . * $ @ & & & % & & & % 1 % e 1 1 1 1 e e ; ; ; &   X X + + + O O O = , D V u d y t a d d d a a s f M M M f f f s a a d h h Z Z A ( ( ( 0.0.0.0.0.0.0.0.0.t.y.i.i.i.y.t.t.w._.%X_.(.P.J.(._._._.).(._.).(.(.(.(.W.T.R.R.P.R.R.(.R.R.R.R.R.R.L.P.K.P.P.P.P.R.R.K.] K.L.P.Y.Y.W.W.W.$X%X).%X%Xs - - ; > > ).",
"5.$.$.$.$.5.6.$.$.$.$.$.$.$.#.@.@.@.@.,.,.p j t i : t h 4.@.a.w.S w.t.y.t.w.Z t 6 ; O $ 3 s s 6 , ; ; - - + + ; 6 6 6 6 9 6 s s s s s s d g d A t.y.y.e.w.S A A S e.i.a.i.w.S ,.S V S 0.S A @ . . . . . . . . . . . . . * @ $ # & & & & & % e 1 e e 1 1 1 % 1 % % % % % @ o + + + + O + + - , D Z m d d d d d s s s g M M M M M M M M M s , a d g h h h Z S ( ( ( 0.0.0.0.0.0.0.q.t.y.y.y.t.q.t.w._._.%X%X%X_.L.J.J._.%X%X_._.(.).(.(.(.R.R.P.R.W.(.W.(.(.(.).(.L.P.K.T.K.K.P.K.K.u.u.P.P.K.K.J.K.K.K.W.(.).%X$X%X9 - - ; - - %X",
"6.5.5.$.$.$.$.$.$.$.$.$.$.@.@.@.,.,.h i i i y i D e.l.i.4.@.,.w.w.t.t.` m s s > o > f T M M f 9 6 6 6 > - > 6 6 6 s s s s f f f m d Z A Z d Z w.y.y.0.S S w.w.e.h.a.r.S V D S C V h D S S A & * . . . . . . . . . . . . * @ # # # & & & & % e % ; ; 1 1 e % % ; & + + + # ; ; - - + + O + - : V m d d d d d s s g N N M M M M M f M M M M s t a d h Z h Z A ( ( S ( ( ( 0.0.0.0.0.q.t.t.t.t.0.q.` _._.).)._._._._.(.P.d.L._._._._._.).(.).(.R.(.R.W.(.(.(.W.).(.(.R.R.L.P.P.P.d.` d.K.J.K.K.K.K.J.K.K.T.K.(.W.).%X6 - - ; + + %X",
"5.6.$.6.$.$.$.$.$.#.@.@.@.@.4.,.p j t t i u >.a.F.r.>.p @.,.,.t.` A d m s > - 9 T T N f s s s s 9 , , , , 6 6 s s s s g s f N N Z ` t.` A ( t.p.>.D S w.y.h.a.a.w.D V h h V h h V V S D D V ; * * * . . . . . . . * . . * @ # # # # & % & e 1 ; ; ; 1 1 1 5 5 > > ; - - ; - - ; - ; ; ; - = : u d d d d s s M T T M N M M M M f M M M M M g a a a g h h Z A S ( S ( ( ( 0.0.0.0.0.0.0.0.0.( 0.0.` (.(.(.(.(._._.).).).).R.J.d.R.(.(._.)._.(.R.P.R.T.(.).(.(.(.(.R.L.).W.P.P.] [ P.P.K.J.K.J.K.K.d.d.d.K.K.P.P.K.R.6 - - ; + - $X",
"$.5.$.$.$.$.$.$.@.@.@.@.,.@.p j i t t d w.F.F.r.>.S S h h ,.4.Z s g s ; > M T T N f s s s s 6 , , 6 6 6 6 s s s s s g g s N / ` ` t.t.( ( t.S A S <.y.i.i.i.A , : h h u u D S D V V S D V Z ; * * . . . . . . . . * . . * @ @ # # & & & & e 1 ; ; ; 3 5 > > > > > ; ; > > > > > > > > , > - , d d d s s g M N N N T T M M M M M M M M M g M N a a g d h Z Z A S S ( ( 0.0.0.0.0.0.0.0.0.( ( ( ( t.(.(.).(.(.(.(.(.(.(.(._._._.P.u.H.R.(.).).(.R.K.P.T.W.T.L.P.(.(.(.(.R.K.] P.R.L.K.K.K.P.K.K.d.d.d.f.d.K.d.K.H.K., - - ; + - ).",
"$.$.$.$.$.$.#.$.@.@.p j j j t t i D r.F.a.<.C D S >.S h p h ,.a ; + 9 M N N M M s 6 s s 6 , , 6 6 6 6 9 s s s s s s s N / { ` ` ( ` t.w.( A A p.i.a.i.p.A : = = = u d D D S D D Z Z D D V V & * .   .       . . . . . . . @ # & & & & % % e 1 ; f ] ] 3 3 > > ; ; ; ; ; > > > , ; ; , 6 , s d d s g M N N N M T N M M M M M M M M M M M N / ) ] g a d d h Z Z A S ( ( 0.0.0.0.0.0.0.0.0.( S ( ( d._._.(.(.(.(._.).L.^.^.(.(.(.).).(.J.u.u.(.(.(.P.K.K.K.K.P.T.T.L.R.P.] u.R.R.P.L.K.R.T.L.K.d.K.d.d.f.K.d.K.d.d.d.> - - ; + - R.",
"$.$.$.$.@.@.@.4.,.p < t t i u w.a.F.r.<.C S S >.>.S Z a p u p - q N M f s s s s , a , , , 6 6 6 6 s s s s s s s s N / ` ` ` ( ` t.t.A A A w.i.i.i.w.g O = = : : : d S S D D D D A V V V V V - * . . . . .       . . . . * * @ # & & % e 1 ; 6 t.`.l.t.6 , ; > ; ; ; ; > > > , ; ; ; 6 6 s d s g M T M T N T M N M N M M M M M M M M N T { [ G.Q.[ a a s g h Z Z S ( ( ( 0.q.0.q.w.y.t.q.( ( A ( R.(.(.(.(.)._.).).(.R.R.P.P.^.^.(.).).).(.u.u.P.(.W.K.K.P.K.K.T.(.J.] R.(.(.(.R.R.(.R.T.P.P.J.K.d.K.d.d.K.d.d.K.K.> - - ; + > K.",
"$.$.@.@.@.@.,.j j t t i V e.F.r.1.>.>.>.<.w.w.S m s s ; j p h f s s 6 , , 6 6 : - : , , 6 6 6 s s s s s s s f N _ ( ( ` ( ( t.w.( A ( e.a.a.r.( , X + = = : : : = d D D V V V D Z V V V V V , @ * .   . .       . . . . * @ @ # % % % ; f t.`.`.`.l.t.> ; ; - ; > > > ; , > , 6 6 9 s s s s g N T N M T N M M M M M M f M M M M T W ' s.f.P.R.W.d.s , t d g Z Z A A S S 0.0.0.0.q.t.t.0.S A Z t.)._.(._.(.R.(.(.(.).(.^.P.R.J.L.L.L.(.)._._.R.P.u.u.K.T.R.K.L.K.] u.W.).(.R.(.(.(.P.R.R.P.J.J.K.d.d.d.K.s.d.d.K.K.; - - > ; > T.",
"@.$.$.,.@.i = < t u >.a.F.a.<.C >.<.<.<.>.D d s , ; o ; t @.h , ; ; - > , > - > , , , , 6 6 6 s s s s s s N _ ( ( ( ( ` w.w.( S t.i.h.a.r.A - X X X O = = = : = = a Z V V h V V Z Z d V V V , @ . . .           . . . * * @ $ $ & 9 ) h.%X%X_.`.l.h.t.> ; ; ; ; ; > , , , , s s s g s f N T T T T T N M T M M M M M M M M M T ) [ f.T.R.W.(.).(.( g < t s d d Z Z A A S S 0.0.0.0.0.( S Z Z Z P._.(._._.).(.(.(.).(.(.R.P.H.J.J.P.P.R.(._._.(.~.(.(.u.] u.K.u.` P.R.(.(.(.(.(._.(.R.W.T.W.(.P.L.d.d.d.u.d.K.d.d.K.- ; ; > ; , Y.",
"$.@.p j : i t V e.F.F.1.>.>.>.>.w.w.S V l V > + & ; - > : p @.= = = = + - > , 6 , , , , 6 6 6 s s 6 f W _ _ / ( ( ` w.( S S w.i.a.i.y.N O X X X X X O = = = : : : t V V V V h V V Z u h u V N o . . .         . . . . . @ 9 / ..h.$X%X%X%X`.`.`.l.l.k.> ; > ; > > > > , 6 a d m N N T T M M M M Y T T N f f M M M M M M N W ] d.T.(.).(.(.(.R.t.m g a < a d d h Z Z A A S ( 0.S S S A A Z Z t.)._.)._.(.(.(.(.).(.(.R.P.L.J.P.J.J.H.P.^.(.(.(.).(.W.R.R.P.A / K.(.L.P.(.).(.(.(.(.(.W.(.R.R.R.P.K.f.d.K.d.K.d.K.K.- ; ; > - , K.",
": : : < j D r.F.r.<.V C >.<.<.<.D V V V V Z ; - ; - = + = j @.; + + ; , , , , 6 6 , , 6 6 6 6 6 s N _ ( / / ( ` w.( Z ` y.i.i.a.w.s X X X o o . X X O = = = = = = < V S V V V V d u u V S w.A & @ *         . 1 f T / ] t.y.`.`.`.`.`.`.`.`.`.`.l.l.k., > , , , > , 6 s s m Z Z / / T T N M T M M M M M M M M M f M T W ] f.K.P.R./.(.(.).).h.A Z g a < < a d g Z Z Z S S S S S S A Z Z V A R._._._.).(.(.).W.).W.R.R.P.P.R.K.K.J.d.P.P.(.(.).(.).(.R.K.{ K.W.d.[ u.P.P.(.(.).(.(.(.R.W.P.K.J.P.K.K.K.f.d.K.K.K.K.- ; - ; - , Y.",
"< < u w.F.F.1.C C C C >.w.S V u V V V V V m ; + + + + O + : ,.t > , , , , , , , , , 6 6 6 s M / / / _ _ ( ` ` S Z S r.i.a.i.` 6 X X X O o o . X X X O = = = = = = : V S V V d d t t d w.S Z d % ; 5 w f T ) ..k.k.k.k.t.y.h.l.l.`.`.`.`.`.`.`.`.`.l.k.6 , , , , 6 a s m Z Z _ / / T W T T T M M M M M M M M M M M T ) s.K.W.R.(.^.(.R.(.(.(.` A m d d t t t d d h Z Z A S S S S A Z Z Z Z u.(._._.).)._.).).).(.(.(.).W.(.P.T.P.J.K.J.L.P.(.(.(.).(.s.f.).(.(.R.P.P.] u.d.(.).(.(.P.P.T.P.P.K.P.K.K.d.f.d.d.K.K.K.- > ; ; - 9 T.",
"V e.F.r.>.V D C C S C V u u V C V V h v V t + + + + + + + : ,.t , , , , , , 6 , 6 6 , s N / / / / / ` t.` A Z S e.i.i.y./ > X X X O O O O X X X . X o + + O = : : : D 0.V V u t t y Z d t u m g f f H _ ) ..t.t.t.t.t.q.t.y.y.l.`.`.`.`.`.`.`.`.`.l.h.6 , , a s s s N W / / ) / / / W / T T T Y M M M f M M M T { u.K.T.(.(.(.W.(.R.T.(.(.u.A Z d d a t t a d d d h Z Z D S S A Z V Z m ` (.).)._._._.).(.(.(.).).).(.W.R.(.P.K.K.P.P.P.J.K.P.L.H.u.).).(.).(.R.P.P.L.P.d.[ u.P.(.P.P.K.K.K.K.K.K.K.d.d.K.K.K.K.Y.- > ; ; - f R.",
"F.1.C v C C C C D u i i u V V v v v C C C y + + + + = - ; ; @.u , , , 6 6 6 6 6 6 s N W Z / A ( ( t.( Z m t ( i.i.e.m O X X O O O O O X X O X X o + & + + = = = = = Z w.V u i t Z ( ( a Z V Z g H H H T ) ] q.` t.t.t.q.t.y.h.l.l.l.`.`.`.`.`.`.`.l.h.s , , t s s N T / / W / / / / W W W T T T M M M M M T ) s.K.T./.(.(.).^.(.W.R.(.(.K.A V Z d a a a a d d d d h Z Z D D Z V V V m Z K.).(._.).).).(.).(.(.(.).(.).(.W.L.P.R.L.P.K.K.K.K.K.u.d.(.W.W.R.(.(.).R.P.T.P.P.P.P.u.u.d.K.K.P.K.J.K.K.K.K.K.K.K.K.K.K.= > ; - ; M T.",
"v V D D C C h u r v V v p u p v C C C >.C u + + = ; - ; - - p @.6 6 6 6 6 , 6 s N / Z _ / ( ] t.( Z A ( Z , , A 6 X X O O O O O O X X O O o - ; ; - + + O + + O = = m Z u d A w.` ( d a V Z A g g g g T _ _ _ ` q.t.q.( q.y.l.l.l.`.`.`.`.`.`.`.`.`.h.g a s s g W / T W W W W / W W W / W W T T T T M T ) s.P.L.R.^.(.(.).(.^.(.(.(.(.R.( Z V d g d a d a d d d d h Z Z D Z Z V V V m u.).).).)._.).).).(.(.W.(.(.(.W.R.R.R.R.P.P.P.P.P.K.u.u.K.P.R.R.(.T.T.W.).(.R.R.T.P.J.P.J.K.P.[ [ u.J.J.K.T.K.K.d.d.K.K.K.K.= - ; ; - f u.",
"D C C D h u u r u p p r p v C C >.>.C C C m = - > > ; ; - - p ,.6 6 6 6 , 9 N / Z A _ ( ` ( A Z S t.w.p.m O X X X O + + O O O O O O O + 3 9 6 6 3 > > ; - = = - = = d A ( y.t.` Z d Z A m d , , g g g T _ ) _ ` q.t.( ( t.y.h.l.l.l.l.l.`.`.`.`.`.l.l.g s g N N N N T T T T T / W / / / / W T T T W ' X.K.R.^.(.(.(.R.R.R.R.^.R.(.(.(.u.Z V d d d d d d d d d h Z h Z A Z Z V Z V m ( (._._.).)._.).).(.).).W.R.R.R.T.T.T.R./.R.R.R.W.K.] d.T.K.P.L.R.R.T.L.W.R.W.R.P.K.J.J.d.d.d.K.K.K.u.] ] d.K.T.T.K.d.K.d.K.G.- - - - ; , m ",
"C V u r p p p r r r p D C V C C >.C C >.C V ; - - ; , , , ; u 4.d 6 , 6 s M _ / / ( t.` A Z ( t.i.y.w.m O + + + O + = + O O O + + 3 9 f f 9 s 9 6 6 6 6 ; 6 s s g / w.y.i.p.S d Z S w.` = = ; - f g g T _ ' ] t.t.t.q.q.q.y.h.l.l.l.l.l.`.`.`.`.`.`.l.N s N N N T N N T T T W / W W W W W / T / ) X.K.W.R.R.R.R.R.P.L.L.L.^.R.(.(.(.(.( V V h d d d d d d d d Z Z Z Z Z Z Z Z Z V V d.)._.).).)._._.).).).R.R.R.(.R.P.T.K.R.(.R.T.P.d.u.R.R.W.K.P.P.P.K.K.K.R.T.P.T.P.K.K.J.d.K.K.K.d.P.K.K.K.u.] s.K.K.K.d.K.Y.s.= - - - - > B ",
": u r r p p p p v C C D D D C C C C >.>.>.D ; ; ; ; , , , ; j 4.D s g s s m A ( t.( A ( ( t.i.y.S m = - ; > - + O = + X o - ; 3 f f s 9 6 , 6 , 6 6 6 > 6 M m ( u.i.i.y.w.S S S S w.w.( O + ; = a g g J _ _ _ ] ` q.( ( q.t.y.h.l.l.l.`.`.`.`.`.`.l.l./ s 9 s N N T T T T T T T T W W W W / / [ f.T.(.(.(.(.R.L.R.^.(.(.(.^.R.(.).(.J.d V V V d d d d d d h Z Z Z Z Z Z Z Z Z Z m ` )._._.)._._.).).).).(.R.W.(.(.(.R.R.(.).(.R.J.u.J.P.W.(.T.R.K.P.P.J.P.K.P.T.d.J.K.T.K.d.d.J.K.d.J.K.d.K.K.K.T.d./ / u.K.T.K.f.= - - - + , N ",
"= u p u p r v D V V C V v C C ,.>.>.>.>.,.D ; > ; , , , ; , , ,.D m N s N ( ` ( ( A ( y.i.y.( 6 + ; s g s , - + O X $ ; ; 6 , g 9 6 , , 6 6 6 s s , ; s s / u.i.i.h.w.S ` p.w.w.>.S V s = + , t a f f H T _ ] ] ` q.q.q.q.t.y.l.l.l.l.l.`.`.`.l.`.l.l._ M N f 9 g T T T T T T T W W W W ) ' s.K.(.(._.(.(.(.R.(.(.(.(.(.(.(.).).).(.( V d h h d d d d h h Z Z Z A Z Z Z Z V Z Z m K.).%X_.).(.).(.).(.(.).).(.).(.(.(.W.).(.R.u.u.W.(.R.(.R.R.T.R.K.K.P.P.P.K.K.K.K.d.d.d.d.K.K.K.K.J.K.d.K.K.K.K.Y.K.K.d.[ u.d.f.= - - & O - s ",
"= t u u p v v V C C C C C C ,.C ,.,.>.>.C D , ; > , ; ; 6 a a h @.S A _ ( Z Z A w.p.p.p.A , + ; s N / A d ; O X ; > > 6 s s f 6 , , , 6 s 6 > - ; , g ( i.i.h.h.w.( w.i.i.<.S V V d V m , s m g a a f g T _ ] _ q.q.t.t.t.t.y.h.l.l.l.`.l.l.l.`.l.l.l.( f M N N M s N T W W T T T W ) ' u.d.K./.(._._.(.).(.(._.(.(.(.(.(.(.)._.).L.m d d d h d d d d h h Z A S ( A A Z Z V V V ( (.(.).).).(.(.).(.).)._._._.).R.(./.R.(.K.u.L.W.).(.R.(.T.R.R.R.K.K.P.P.K.K.K.K.W.K.d.d.d.P.d.d.J.J.d.J.K.K.K.K.K.K.K.K.K.T.s._ = - + & . o 6 ",
": j i u v v p V C C C C v D v C ,.C C C C D t ; > ; - , s s d d @.,.S V Z w.t.y.p.p.Z - = , s Z _ A Z , = o ; > , s s s s 6 , , 6 6 s s > - , a s ( y.i.i.i.w.( y.p.y.w.D D y t d Z m s a V D t a a g g T _ _ q.q.t.t.t.t.t.t.y.l.l.l.`.`.`.l.`.`.l.l.` M N M M N N M f M W / W / ' X.K.R.R.(._._.).(._._._.(._._.(.).(.(.(.).).(.t.d d d d d d d d d h Z Z A ( A A Z Z Z V d d d.(.(.(.W.(.(.R.(.(.)._._.).(._.(.(.).T.u.d.(.W.(.(.(.R.T.P.P.T.P.K.P.K.K.K.K.K.K.K.K.K.K.P.K.P.K.K.d.d.K.d.d.K.d.d.T.K.K.K.K.K.f.+ + + & . ; , ",
": i u u D V v V D D C v D C C ,.,.C C C S D s , , , s s s g m Z @.@.>.w.i.i.y.w.Z , - 6 g / ( ( Z s = + > , , 9 s s 6 , > , , s s 9 , ; 6 s m ` y.y.i.y.w.( t.i.y.( S V d d Z Z Z A Z Z m S Z y , a f g H _ _ ( ` t.t.t.q.y.y.y.h.l.l.l.`.`.l.`.l.l.l.` N M N N M N T N N f N ' s.K.W.(._.)._._._.(._._.(.(._._._.(.(.).(.)._.).W.A d d d d d d d d h V V Z A A A A Z Z V V d / (.(.).).).W.(.(.(.(.).)._.(.(.).(.L.J.u.R.W.R.T.R.W.R.R.R.L.P.P.L.P.T.T.T.T.T.T.d.K.K.K.K.K.K.K.d.d.K.d.K.K.d.d.K.K.K.d.K.K.K.K.s.= - + & O > 6 ",
": i i u D C D C V C C C C C ,.C C C C >.>.C d s m A A / ( Z Z u @.@.e.y.p.S s - - 6 f _ _ / A s + - , , 6 s 9 s , ; = ; , s s 9 , ; 6 s A w.t.y.r.p.w.w.e.r.i.i.y.S y s s V Z ( A Z A ( d Z V m ; a a g g _ _ _ ( q.q.q.t.t.y.y.y.l.l.l.`.l.l.l.l.l.l.t.N M N N N N N N W / ] ] s.(._.%X_._._.)._.)._._._._._._._._._._._._._._.d.d d d d d d d d h h V Z Z A A A Z Z Z V V d d.).W.).).).(.(.).(.(.R.(.).(.(.R.L.u.d.R.(.R.(.(.P.P.P.K.R.P.W.L.T.P.L.P.P.P.(.R.K.d.K.K.K.T.K.d.K.K.L.K.K.K.K.T.K.K.d.K.K.d.d.K.s.; - & & X 6 W ",
"= i i i D D v V V V C u V C C D C C >.>.>.C S ( ( ` ( ( m y y V ,.@.1.Z , = ; 6 f N / _ N 6 O - , 6 ; , s 6 6 , - : , 9 6 6 , ; , s A w.t.w.y.p.<.S e.e.e.r.e.0.Z V A ( s m Z Z V S ` A d d V V , a a f g _ _ _ ( q.t.t.t.t.y.y.y.l.l.l.l.`.`.`.l.l.l.` g g M N N M N { u.d.R.(.).d.J._._._._._._._._._._.(._._._._._._._._._._.t.d d d d d d d d h Z V Z A A A Z Z Z Z m g / W.(.(.(.(./.(.(.(.).).(.(.W.(.(.u.u.R.(.L.W.).R.P.R.P.P.R.P.R.(.P.T.K.d.P.P.P.W.R.K.d.d.K.T.K.L.K.L.K.K.K.K.K.T.T.T.K.K.K.K.f.d.d.f.6 - - & ; 6 ..",
"= i i i V C V V V V C p V D C v V C C S <.<.S ( w.S V d A ` A D ,.@.,.= ; 6 g N m m s > X & > , , , , , , ; - - , , 6 6 ; ; 6 s Z ` w.p.i.e.>.>.e.r.r.r.r.S h V A S ` S d V D V D S S A d u u d a 6 a a g T _ _ ( q.q.t.t.t.t.y.y.h.l.l.l.`.l.`.l.l.l.` f M M N N / [ f.T.(.(.(.(._.(.d.J.(._._._._._._._._._._._._._._.%X_._._._ d d d d d d d d V Z D Z A A A A Z Z V d d [ ).W./.).(.(.R.(.(.R.(.(.).(.R.] d.T.R.R.R.T.L.W.R.K.K.R.R.R.L.P.P.T.R.T.T.R.L.(.R.W.T.T.K.W.T.K.L.K.T.K.K.K.f.f.K.K.K.K.d.K.f.d.f.Y.T.g.W ; 0 , U.",
"= j i i v C D C C V V V C D C D >.C >.>.>.C S S V u D t.t.` m , : @.h s s Z N g 6 - o & - , 6 6 > ; ; = = - > , , , > - , a m ( w.w.y.w.S S e.e.r.r.e.w.d d S A ( S S S S D S D D w.S Z d t u d d 6 a a a g J _ ( q.q.q.t.t.t.t.y.h.l.l.l.l.l.l.l.l.l.( f M M T { u.P.^.(.(.(.(.(._._._.).J.d._._.%X_._._._._._._._._.%X_._._.(.m d d d u d d d d V Z D Z A A A A Z Z m d m W._.).(.).(.(.W.R.W.(.(.(.R.u.u.P.(.(.K.R.T.(.R.W.K.P.L.K.R.(.P.R.P.W.K.K.P.R.T.T.T.(.W.R.K.W.T.T.T.K.Y.T.K.f.f.K.K.Y.K.K.K.K.f.d.K.R.K.G.Y.Q.T M U.",
"= i i u p C D D D D V V V D C S >.>.S >.>.C V V S w.w.w._ 6 # ; 6 h p D m g 6 + O & - > 6 6 6 ; ; - - ; > , , , > = - s Z S ( w.w.S D S e.r.e.e.e.S s = = y S 0.A S D A D S D D D D ` V d t d u d 6 6 a a g T _ _ q.q.q.y.t.q.q.y.y.l.l.`.l.l.`.l.l.h._ s N / ] d.R.).(.(.(.L.(.(.(._._._._.(.d.d.(._._._.%X%X%X%X_._._._._.%XJ.u u u u u u d d V Z Z Z Z D A A A Z d d d t.).).).(.(.).).)._._.).W.T.u.P.(.(.W.(.(.R.W.R.R.R.(.(.T.L.T.R.(.(.R.R.(.R.T.T.T.K.W.W.).W.K.T.K.T.K.K.T.K.K.K.d.K.K.K.K.T.d.d.s.d.d.d.d.G.K.K.M ' o.",
"= < i u v C D C C h u V D C S >.>.>.>.V V D S w.w.w.Z , = ; 6 s s p p h , o o # + > 6 6 , ; ; > ; > , , , , , : : s A ( S 0.w.S D C <.e.r.r.e.S t = : : , s w.S w.w.A D D d h d m D D d d t d t , , 6 6 a s g T _ ( 0.q.t.q.q.q.t.y.i.l.z.z.z.z.l.l.h.( N { s.J.L.(.L.(.^.(.(.(.).(.(.)._._._.%X(.P.J.)._._._._._._._._.%X%X%X[ t u u u u u d d V Z Z A D D A A Z d d d m W.).)._._.).(.(.).W.).(.d.d.(.T.(.(.(.(.(.T.T.J.P.P.T.R.P.T.K.T.R.P.R.(.R.P.L.T.K.K.(.(.W.(.W.K.K.K.K.Y.K.Y.Y.K.f.G.K.K.K.K.K.f.d.d.d.d.d.d.s.f.> X.' ",
"= < i i v D D V D D D D D C C C S V V S w.w.<.w.d + & > 6 f f s s u i @.; & - > 6 6 , , , , , , , 6 6 6 > - : s A S ( S S D D C <.e.e.e.e.A , = = : : , d m V <.>.D V V m A d Z d V m m s < t , s 6 6 6 6 a g T _ _ ( t.t.0.0.0.t.y.y.h.l.l.z.z.l.l.h.( ] d.P.P.P.L.L.(.(.(.(.(.(.).).(._._._._._._._.J.d.(.%X%X_._.%X_.%X%X_.A y y u u u d d d h Z Z A S A A Z h d d d t.(.W.).(.(.).).(.(.(.R.d.K.).).(.R.P.P.W.W.R.(.R.(.R.T.(.R.W.R.R.R.W.L.P.R.T.K.T.T.W.K.R.W.R.(.(.T.K.T.K.K.Y.T.K.G.K.K.f.K.Y.K.K.K.d.d.d.G.K.G.[ 9 U.' ",
"O : i i u v V v C D D V V V V V u C <.<.<.S s + - 3 9 g N N s , + i t @.a > 6 6 , , , 6 6 6 6 6 6 6 , > - g ( ( S ( S Z v D >.<.e.w.w.A ; X O = = : : , u V D >.<.C Z Z m m d A m s m Z a , s a a 2 6 6 6 a g g _ ( ( t.q.( 0.0.q.t.y.l.l.l.l.l.l.l.h.` P.R.P.P.P.L.L.P.P.L.P.(.(.)._.(.(.(.(._._._._.%X_.P.d.(._._.%X%X%X_.(.N y y y u y d d d d Z Z D S A Z V d d d Z R.).).).(.(.(.(.(.(.d.u.).).).).).R.(.W.W.W.R.(.(.(.R.R.R.W.K.T.T.T.W.W.R.R.T.T.K.T.K.P.T.T.W.(.W.W.(.K.K.Y.Y.K.Y.K.K.Y.Y.K.Y.K.d.K.K.f.G.K.K.Y./ W j.] ",
"= = i i u V V V V V V V h u V >.<.<.<.S u = - 3 s g m M s , O X o u u p D 6 6 6 s s s 9 6 6 6 6 6 , ; g ( ` w.( A V u V S >.<.<.<.Z - X X X X = = - , : u D D >.<.C S V Z S m Z m a Z Z s , s a 9 a 6 6 6 6 a g _ _ ( ( 0.0.0.0.0.0.y.y.l.l.l.l.l.l.i.t.P.R.P.P.P.(.P.L.L.L.(.(.P./.(.).(.(.(._.(._._.)._._.(.P.d.(._.%X%X%XR.m t t y u u d d d V Z Z Z A Z Z h d d d u.).).).).(.R.(.(.L.u.T.(.(.(.).R.).R.W.P.(.R.(.R.(.K.P.T.(.R.L.T.T.W.T.R.R.(.W.W.R.W.T.L.T.T.T.R.W.R.R.K.K.K.Y.T.G.K.K.f.K.K.K.d.d.G.K.G.K.f.d.f.f ..X.j.",
": : : i u V V D D D h u D >.>.>.>.D u u u 6 s M N N s ; X o - - + p h p ,.s s s s s 9 6 9 6 6 6 , m ( w.` ( Z V h D S S S >.w.Z -   . . o . X = = - : : d V C S A D S V m V S Z d Z m m s > 6 f f s 6 6 6 6 a g Z _ ( ( ( ( 0.0.0.0.t.i.i.l.l.l.l.h.y.t.P.P.P.P.P.(.L.L.L.(.R.(.(.(.(.(.(.(.(.)._.(.).(.(.)._._._.K.d.(._._.K.s t t y y u d d d Z Z Z Z Z Z V h d d Z (.(.).).(.(.(.W.u.u.R.%X).%X(.).).R.W.R.R.P.R.(.R.W.(.R.T.T.(.W.T.W.W.(.%XT.(.W.T.T.T.T.T.W.R.L.T.(.T.R.T.K.T.T.K.T.T.f.G.K.G.G.G.K.G.d.d.H.G.d.s.6 j...G.",
"< < t h h V C D h V D >.<.<.,.V r i r u t g N N 6 - X o - - > > , t h d V s s s 6 6 6 , , > , N ( ( ( S A V V D C C C S S m + X . o o o o . X = = - : = u V V S S D D A A Z m Z Z d Z m g 9 f f f f 6 6 6 6 a g h Z _ q.( ( 0.0.0.0.w.y.i.l.l.l.l.h.y.u.L.R.P.L.(.R.P.L.P.P.(./.(.(.(.(.(.(.(.(.(.(._._.).(.).).)._._.R.d.K.K.t a t y y u d d h V Z Z Z Z V d d d y K.%X).(.).).).P.u.J.P.).W.(.(.R.(.W.W.P.T.R.R.W.P.T.T.R.W.K.K.T.T.(.T.K.T.T.T.T.T.K.K.W.T.P.R.T.T.Y.T.R.R.W.K.Y.T.R.W.R.K.Y.G.f.G.d.G.G.f.f.Y.K.K.] T j...f.",
"y y h V V V V V >.<.<.<.C p r u u u i t y N 9 + X $ - - > 6 6 6 a a s 6 s s s 6 6 , , , 6 M ( w.w.w.A V D D >.S C C C d - X . & - & O O O o O + = = = : y V D C S D V d s A A m d / Z N s f f f f f 6 6 6 6 a a d h Z ( S D S ( 0.0.0.w.i.l.l.l.l.h.y.u.L.R.R.L.L.J.L.P.P.P.L.P.L./.(.).(.).).(.(.(.(._._.(.).(.(.(.)._._.R._ t t t t y d d d h Z Z Z Z V d d d d ( _.%X(.).(.R.d.J.(.R.(.W.(.(.R.(.T.(.R.R.R.(.R.R.P.K.R.P.R.W.W.T.W.K.K.K.L.K.T.T.W.W.L.W.T.K.T.W.T.K.W.W.R.R.K.K.f.T.W.!.T.R.T.K.K.K.G.G.f.d.f.f.Y.W ' X.g.f.",
"u V D V h S <.<.<.<.C u r u u u u u u V u + X + - ; , 6 6 6 6 9 s s 6 , 6 a 6 6 6 , a Z ( t.t.w.S V D S w.>.C C D d = X O + - - - - - + + - = + = = = = t V V C S w.( S V d m m A Z T M f f M f M f 6 6 6 6 a a a g Z Z Z S S ( 0.0.0.0.y.i.l.l.l.i.y.u.(.(.L.(.R.P.L.L.L.P.P.R.L.R.(.(.R.R.R.(./.(.R.(.(.).(.).(.(.).).(.~.] t t t t y d d d V Z Z Z V V d d d m P.)._._.(.J.] T.W.(.(.(.(.(.(.W.(.R.L.(.(.W.T.R.P.R.K.L.T.T.W.R.W.W.T.T.T.T.K.T.T.K.W.L.R.R.W.W.(.T.K.(.T.R.).W.G.K.Y.T.W.!.R.K.T.G.K.G.G.f.f.G.G.f.M X...Y.Y.",
"A V V S <.<.1.<.V u i u u u u u u V u V d , - - ; 6 6 , 6 9 9 6 9 9 6 6 6 6 6 6 s Z ( w.t.t.( D D 0.w.S S C C d = X o + - - - - - - + + + = = = = = = = < V u C >.w.A d m A / A Z N T Y M M M M M f 9 6 6 6 a a a d d g Z _ ( 0.0.0.0.0.t.i.h.l.l.y.t.u././.L.R.(.P.L.L.L.P.R.R.P.P.P.P.P.P.R.(.(.(.L.(.(.(._._.).)._.~.).).` a t t y y y d h V V V V V d d V m ` _._.(.R.[ d.W.(.(.(.R.(.(.(.(.).R.T.P.(.(.L.P.P.K.T.K.P.K.T.(.R.T.T.T.W.R.(.R.K.T.K.R.(.(.R.K.T.W.W.W.(.R.W.T.W.T.G.f.Y.T.R.R.R.R.R.T.Y.f.f.s.f.Y.s.T X.] K.G.",
"V D <.<.e.<.m = : u u u u u h h u u u u V a , > 6 6 6 6 6 6 9 6 s a 6 6 6 a g / ( w.t.w.S A S w.w.w.S S S d = o o - ; ; - - - - = - = + - - = = = = - = < u u C S D a A ` / T B N N N T N N N M T T 9 6 6 a a a a a d h Z _ ( 0.0.0.0.0.y.y.i.i.y.y.t.J./.(.(././.L.P.J./.P.L.R.P.P.P.J.P.P.L.(.(.R.(.(.R.(._.).).).(.).).)./ t t t t y u d d h d d V V h d m A (.)._.d.u.(.(.).W.(._.(.R.W.(.R.R.R.T.R.T.P.P.T.K.K.(.T.K.K.R.K.T.W.T.L.T.(.W.W.K.K.K.W.T.(.W.W.T.W.R.(.Y.Y.W.R.T.T.R.K.!.R.W.R.R.R.!.!.T.G.G.G.f.f.' ) X.[ K.G.",
"<.e.e.S y O O O = u u u h h h h u u u u h d , , , 6 6 6 6 6 6 6 6 6 6 a g ( w.t.t.w.S D S w.w.w.S S S d = O o ; 3 , > , > ; - + + = = - ; > ; - ; = = = : u u V m S ` ( N M N M M N M T T M T T T T 9 6 6 a a a a a d h Z _ ( 0.0.0.0.t.y.i.l.i.y.y.t.J.L.(.(.(.L.L.P.L.(.L.P.P.J.P.P.P.P.P.P.P.L.L.(.(.(.(.(.).(.(.W.).(.).d t t t y y d d d d d d h h d h m d.%X(.u.W.).).).).(.W.(.R.R.W.(.T.R.P.T.K.R.R.L.W.L.P.K.P.T.R.R.K.T.W.T.W.K.K.K.T.W.W.R.).).R.R.Y.Y.K.).).W.R.R.W.!.!.W.R.T.R.!.W.R.R.R.!.T.T.G.f.G.K./ ....g.f.G.",
"e.S , O O O O O : u h h V h u u i D D u u m , , , , 6 6 6 6 6 6 6 6 s Z w.w.t.w.S D S p.y.>.w.<.D a + o + ; > > , , , > > > - - ; , > > , , , ; ; , 6 s g d ( w.t.` / N B T N N M T T T T T T T N T s 6 6 a a a a a d g h Z ( 0.0.0.w.w.w.y.y.y.y.y.t.P.(.(.(.(.(.(.P.L.L.P.J.J.P.J.P.R.P.L.R.L.P.(.R.R.(.R.(.(.R.T.W.(.).K.d t a t y d u d d d h d d d d m ` ).d.K.%X).).(.(.(.(.W.P.P.P.R.T.L.R.R.L.R.P.R.(.W.T.K.P.P.P.P.T.W.R.(.W.(.W.T.K.T.K.R.W.R.).W.R.W.R.R.).W.R.R.T.T.W.W.T.R.R.W.!.W.!.!.!.R.!.R.Y.Y.W.Y.T X.] G.G.G.",
"t X O O O O O O : h h h u u u u V D h j u d , , , , , , 6 , , a m A ( ( S ( S D S w.w.w.w.w.Z t - % ; 3 6 3 > , , , > , , ; ; , , , , : ; ; : : < a s m A t.y.t.( W W T N N N N M T T T T W T T T T 9 6 6 a a a a a g g h Z Z 0.0.y.y.w.w.t.y.y.y.y.t./.R.(._.L.(.R.L.J.P.P.P.P.J.P.R.P.P.P.P.L.P.P.P./.(.(.(.(.(.W.W.(._.u.d t a a d d d d d u h h d d d Z d.[ ).%X_.)._.).(.(.(.T.K.P.W.L.P.R.W.R.R.R.R.T.T.T.P.P.P.P.P.P.T.T.L.P.(.W.).T.(.(.T.W.W.R.W.(.R.).(.(.).R.R.K.K.K.T.T.!.R.T.K.T.!.W.!.!.W.).R.T.Y.T.s./ X.X.T.Y.G.",
"h O O O O O O O = p V h u i d u u y u i u d , , , , , , , , g A ( w.( ( A D S w.w.w.w.w.S t + & 5 7 8 6 3 , , > > ; - ; > > , , > > , , , ; : , , d Z S t.w.( / W W W N N N M N M T T T T W T T W T f 6 6 6 a a a a d g h Z h 0.q.y.y.t.q.q.t.t.t.t.t./.(._.(.L.(.L.L.P.J.P.J.L.P.P.J.P.P.L.R.P.L.R.(.(./.(.L.).(.W.W.(.)./ t t y y d d d d d u d h d d d s d.%X%X%X%X_._.).(.(.(.W.(.(.P.P.P.R.P.R.R.R.T.P.T.R.K.R.P.d.L.K.K.K.L.R.T.R.T.W.W.(.R.(.R.(.W.).R.W.W.R.T.W.R.Y.K.K.Y.T.!.!.R.K.R.!.W.R.!.).).T.K.Y.W.] ) ..f.T.Y.f.",
"4.: = O O O O O O p h h d t u u i i d u d t , , , , , , m A S 0.w.( A V S w.w.w.S S d : - ; 3 9 3 8 9 6 3 , > - = = = - ; ; - ; ; , , , , , , , = m ( w.` ( / / W N T T N M T N N T T M T T T T W T f 6 6 6 6 a a a g h h h Z 0.t.y.i.y.0.q.w.w.q.t.i./.(.(./.(.(.L.(.P.P.P.J.J.P.P.P.J.P.P.L.R.P.R.(.(.(.).(.).W.(.(.(.R.d t t y y d d d d d d h h d d m d.d.K.).%X%X%X_.(.(.).).(.(.T.W.P.P.T.T.R.(.R.R.R.(.R.(.W.T.P.P.P.L.T.T.K.T.W.T.R.T.(.(.W.(.).R.R.W.W.W.T.R.T.W.R.R.Y.T.K.R.).W.K.T.T.!.).!.!.).R.W.Y.Q./ ] ] T.Y.G.f.",
"@.h + O O O O O O h V u u t t u u h p v h m , , , 6 m A A ( t.S D V S ( w.w.S D s - - - > 9 f 9 6 ; > 3 > ; - - - - = = - ; ; , , , , : , s s , a ` ` / / / W W T T T T T M N N M M N T T T M T / ' N 6 6 6 6 6 a a d h h h A 0.y.h.i.y.q.w.t.w.w.y.h.).(.(.(.R.P.P.L.L.L.J.P.P.P.J.P.P.L.P.R.(.(.(.(.R.(.(.(._.).).W.(.u.t t y y y d d d d u d d h d d t._.).).d.d._.%X_.%X_.).(.R.W.(.R.P.R.T.(.W.R.R.R.P.R.P.T.L.K.T.R.R.T.T.K.K.Y.W.R.W.T.(.R.R.T.R.W.).R.(.R.W.T.Y.W.).W.!.W.T.K.R.!.T.G.Y.!.W.T.T.W.R.T.T.G.T ..] Y.f.G.f.",
": D O X O O O O O h h u u i u u h h u V D Z a s Z ( ( w.w.` Z V A w.w.w.<.S s = & & > 9 9 9 6 3 6 , - = = = - - = = - - - - , , , , , s d s , N ( A W / / W T T T T T N T N M M M T T T T T W ' g.f.T 6 6 6 6 6 6 a d g h Z ( y.y.l.l.i.y.y.w.q.w.t./.R./.(.(.(.(.P.L.L.P.P.P.P.L.P.L.P.P.P.P.L.(.(.(.(.).)._.).).).(.R.( t y y d d d h d d d h d d d Z )._._._.).).u.u.(._.%X%X).).W.R.R.W.).(.W.(.(.P.R.P.P.(.T.R.W.P.R.L.P.R.K.T.T.T.K.K.T.T.(.(.W.W.W.R.Y.W.W.R.R.Y.Y.R.R.T.R.R.K.T.T.R.G.K.R.T.R.T.W.T.Y.T.X.W ..g.Y.G.G.f.",
"O t d X O O O O O u u u d u V V V h u V D Z ( ` ( ( t.A u d S w.w.w.w.S s + $ & ; 4 6 6 6 3 6 3 > + + = - = = - - - - - - - > , , , a s a N _ / N W W W / T T T T T T T M T T T N T T T W ' X.f.Y.f.s 6 6 6 6 6 6 6 g g h A q.y.y.l.l.l.i.y.w.q.t.t._._._./.(.(.R.J.J.L.(.P.L./.(.P.P.P.P.L.R.(./.P.(.R.(.).(.).(.).(.R.d y a d d d d d d d d h h V V t._.).).).)._.%X).u.u.R.(.).).).(.(.R.T.R.(.W.(.R.W.R.T.R.P.P.(.P.R.P.(.(.L.L.R.T.W.(.L.W.W.(.W.W.W.R.W.W.W.T.(.W.W.T.K.T.W.R.Y.Y.K.G.K.G.T.T.R.T.Y.Y.Q.Y./ ' ' Y.T.G.Y.G.",
"X : h : O O O O O < u u d d h u u V h V S S w.w.( A d u D w.<.w.S S d = o & ; > , > > > > > ; + + = = - - - - - - - - - - ; > 6 , a t m ( / B W B T B T T W W W T T T N M M M N N M T W ] f.Y.W.W.X.6 6 6 6 6 6 6 6 g g h ( q.q.y.l.l.l.h.y.q.q.t.h._._.(.(.R.L.(.R.L.L.R.L.P.P.L.P.L.P.J.P.P.(./.P.(.(.R.R.L.T.T.W.W.d.d y d d d d d d u d h V V Z Z )._.).(.(.).).(.).(.R.u.u.R.W.(.).).(.(.(.K.(.(.R.).R.(.R.(.(.W.W.R.(.W.K.T.T.T.L.R.K.K.L.T.R.W.R.T.Y.W.W.T.W.W.).R.R.T.R.W.W.T.T.T.Y.G.G.f.K.T.T.T.E.Y.G.W ..] R.W.G.Y.K.",
"O : p h O O O O O : u h V V V u h A w.w.w.w.w.A d V S S w.S D ( m + o $ - > > ; > > > ; - + + + = = = - - - = = = = = = - > , > : s / / / / W N N N T T T T W T T T T N M M M M T W ] g.K.T.W.(.(._ 6 , 6 6 6 6 6 a g g Z ( 0.0.y.i.h.h.i.y.w.w.w.L.%X).).(.(.L.L.P.(.P.L./.P.J.P.L.P.P.P.J.P.J.R.R.L.R.(.(.(.R.W.W.(.( u y d a d d d d h h h V Z V ] _._._.).).).(.(.).W.W.).T.u.u.P.(.P.W.W.R.W.(.(.).(.W.(.R.T.P.R.(.(.R.T.T.P.L.T.T.T.W.T.T.T.W.W.W.K.R.R.W.W.).).R.W.T.K.T.T.W.R.T.K.T.T.Y.Y.G.K.Y.T.Y.I.s.W ..[ T.T.Y.Y.Y.",
"= = p ,.a = O O O < u u u u u D 0.w.w.e.w.S V V S w.w.w.C D t + O O & ; ; ; ; - - - - = + + + + + = - - = - = = = - - - ; ; - - N / B N N N B N N N T T M N T T T T T T N N M W ] g.K.T.R.(.R.R.K.g 6 , , 6 6 6 6 a d g Z ( ( 0.t.y.y.y.y.t.0.w.` _._._._.(._.(.(.R.R.L.(.R.P.P.J.P.L.P.P.P.P.P.P.P.P.L.W.R.(.(.(.).R.m t t t d d d d h V h V Z V V L.)._.)._._._._.(.(.T.W.(.).).R.u.u.J.R.K.R.).W.(.(.).W.R.W.R.R.P.R.T.R.W.R.L.T.R.P.T.T.R.(.W.W.T.T.Y.T.T.T.T.T.R.W.(.R.R.W.R.W.!.R.W.Y.T.Y.G.G.Y.W.T.Y.G.' ) ' s.T.W.W.Y.G.",
"; - : i : = - O O , V d u D >.w.w.w.w.D V C >.w.w.w.>.D y = O o & ; ; - - - - - + O O + + - - = - - - - = = = - - - = = = , s N N N N f N N N N N N N T W T W W T T T T N W ' [ s.K.R.^.L.(.(.R.] a 6 , , 6 a a 6 a g h Z _ ( ( 0.t.t.t.w.w.( ( h.(.)._._.(.(.).(.R.R.(.(./.P.L.P.J.P.P.R.P.J.P.P.P.R.P.(.(./.).(.).T.d t t y d d d h V V h V V V ( )._._._.(._.).).).).(.R.R.).).).).P.d.u.P.R.(.(.(.).).(.R.P.T.R.P.R.L.W.T.K.L.W.W.T.T.W.K.T.R.K.T.K.T.T.T.T.T.Y.T.R.R.W.W.!.$X!.!.).!.T.K.Y.G.f.G.T.T.G.f./ ' ' T.T.W.T.G.G.",
", , : , , , ; - = : u D 0.w.w.w.w.D V D >.e.r.S >.D d u s o & - ; - - - - - + + + + = = - - - - - - - - - - ; ; > - > 6 s M s f M M M M f N g M T T T W W T N W W T T W / ] f.K.P.R.R.(./.P.(.T.T 6 6 , > 6 a 6 6 a d g Z _ Z ( 0.y.y.w.( ( ( ( /._.(.(.(.(./.(.R.R.R./.(.R.L.P.(./.).L.P.R.P.P.R.L.P.P./.R.(.).).(.] y y y y u h h h V V V V V V d.(.).).)._._.)._.).(.).(.(.(.T.R.(.(.R.W.d.u.K.R.(.).(.T.R.W.(.(.W.W.R.R.T.W.W.W.R.T.T.L.K.T.T.K.K.R.Y.R.K.R.W.T.Y.Y.T.T.T.R.!.!.).!.).!.T.T.Y.Y.K.T.W.T.f.T ' ' W.K.T.T.G.f.",
", , , , , , , , s / w.w.w.w.p.<.C >.w.w.e.<.C D d j u d m - - - - + = - + + + + + - - - - - - - - - - - - - > , , - s s s , f M s M N f M M f N N T N B T T T W T / { [ f.K.K.R.(.R.R.P.L.L.L.f.6 6 6 6 , 6 s a 6 , a g Z A A S 0.t.t.0.( ( ( t.(.).(./././.R.(.(.(.R.^.R.(.(.L.(.R.(.R.(.(.(.P.L.P.L./.(.R.(.(.(.(.N u t t t u d h h V D Z Z Z A _.)._.).(.(.).).(.).(.(.(.(.R.K.P.R.T.R.W.R.P.u.] d.T.R.R.T.P.P.P.T.R.R.W.W.T.L.T.W.R.W.W.W.T.K.Y.f.K.R.T.W.Y.R.T.R.R.T.W.W.T.K.T.R.!.).E.W.T.R.G.G.Q.E.Q.X.W ] g.T.T.T.T.Y.f.",
", , , , , t s / ` w.w.t.w.S C <.e.e.e.<.>.v i t t t u m m - = - + + = + + + + = = - - - - - - - = - ; - = , s 6 , s s M f N 6 s M M f M f M f g M B M B B / / / [ s.f.K.K.T.K.P.R.R.R.L.(./.T._ 6 6 6 6 6 6 a 6 a , 6 g h Z Z S ( 0.0.( S ( A P.).).(._.(.(.(.(.(.(.R.(.(.(.(.L.L.P.P.P.P.R.L.P.L.P.R.L.R.W.P.W.(.T.d t t t u u d h V V V V Z A u.(.)._.).(.(.(.).W.).R.P.R.R.R.W.R.(.(.(.R.K.P.K.K.u.u.J.P.T.K.P.P.P.K.W.T.L.T.T.T.W.L.T.T.T.T.Y.W.R.K.R.K.T.R.(.W.T.T.T.T.Y.Y.Y.T.T.R.K.W.!.W.W.Y.G.Y.Q.Y.' ' ' Q.Y.R.Y.W.T.I.",
", , a a d S w.t.w.p.w.S C <.p.e.e.e.<.D u u t j t d u V s = + + = - - + + + + = - - - - - - - = - - - = ; , s s N B M M f B B f 9 f M f M f s s f M B B W { [ d.d.P.R.L.P.P.L.P.L.L.(.L.^.(.d.N 6 6 6 6 6 6 6 6 a 6 2 a d h Z Z A ( ( S S A ( (._._._._._._.(.R.(./.(.R.L./.(.P.J.P.P.P.P.J.P.(.(./.R.L.P.(.R.T.(.h.u t t u u d V V V V D A A Z J.).).).(.(.).(.).).).R.(.(.R.R.R.R.W.(.).R.L.P.R.R.R.W.u.] d.P.(.R.R.R.R.R.(.T.W.R.K.K.T.K.R.!.R.R.Y.Y.T.R.R.T.Y.K.T.R.Y.T.R.T.T.W.R.T.T.Y.W.R.T.Y.s.f.Q.I.' ..' W.T.W.W.W.!.T.",
"6 , d / w.p.p.w.w.D V C e.p.<.w.<.S h h u u u i j d D D m = = = - + + + = = + + - - - - - - ; - - - - - , g N N N M N g g M M N M 6 f f M M s f M M M W { u.u.P.P.P.L.L.(.W.P.P.P.L./.P.L.L.u.6 6 6 6 6 6 6 6 a a 6 , a d d Z Z Z ( ( A Z Z u.(.).)._._._._._._.(.(.R.L.(.(.(.L.P.J.P.L.P.P.(.(.(.(.L.(.P.T.T.W.(.( u t t u u h V V V V D D D w.).(.(.R.R.(.(.R.W.(.).).(.(.(.R.R.(.W.R.R.R.W.R.R.R.T.K.K.R.u.] d.R.(.(.(.(.T.W.R.R.T.K.T.R.Y.T.T.R.T.T.K.W.R.R.Y.R.!.!.!.T.T.T.R.T.T.R.W.W.W.R.W.T.f.f.G.s.' ] [ W.W.T.E.T.W.Q.",
"N ( w.w.p.w.D V D >.w.p.e.w.<.D u u V i j u D d D S D D Z - + + + + + - - - + = = - - - ; ; ; > ; ; , s g N N N N M M N M M f M M M s s M M M M f B B / s.d.L.^.L.P./.L.L.R.R.P.P.P.L.L.R.L./ , 6 6 6 6 6 6 6 a a a 6 a d d Z Z Z ( A A Z / (._.)._.).(.(.(._._._.(.(.(.L.L./.L.P.P.P.J.P.P.(.R.(.(.P.(.L.P.L.d.` d u u t u u d V V D D D D Z P._._.(.).(.R.R.R.R./.R.(./.(.(.R.P.P.P.W.P.P.(.(.(.K.P.K.R.K.K.T.d.] d.T.T.T.T.W.R.T.W.W.T.!.R.R.R.W.R.T.R.T.W.W.W.R.R.T.R.Y.W.T.W.T.T.R.T.T.W.W.T.G.Y.f.f.] ' ] G.W.W.R.W.W.T.W.",
"w.w.e.w.S D S D S w.w.w.w.D u t t u i u i V S D V S V V Z = + O + - - - = = = - - = - ; ; ; , , , f f N N N N N N N M N M M M g M f M f 6 f M M N / ] d.d.P.L.P.L.P.P.P.L.P.P.P.P.L.P.L.R.L./ , 6 6 , 6 6 6 a a a a a a d d d V Z A Z Z Z t.%X%X_.%X_._.).).(.(._._._._.(.(.(.L.R.(.P.P.P.L.R.R.P.L.(.L.(.R.` ] t.d d u u u u d V D D D D A A L._.).).).(.R.(.).(.W.R.R.P.R.R.(.P.W.W.R.P.R.R.R.R.K.P.J.K.T.T.W.R.T.d.] d.R.W.R.(.W.(.W.T.K.Y.W.R.!.W.R.R.R.W.W.f.R.T.R.R.R.R.R.!.).R.R.K.W.Q.T.T.W.T.s.' W ..' T.E.W.W.$X+XW.!.",
"w.w.S D D >.S w.w.S S Z u y y t j t u D >.S C D V D V S D = = = - - - = + = - - - - ; - = , s a M M M M M M N T T N N T N N f g M M B M M s s / [ u.P.P.L.L.L.P.L.L.R.L.(.(.L.L.^.L.L.R.T.L.A 6 6 6 , 6 6 6 a a a a a a a d d V Z A A Z m h.%X_.(._.(._.)._.(._._.%X(.(.%X_.(.).(././.P.P.R.R.L.P.P.(.R.J.` d.L.( d u u d u u h D D D D S A A /.(.(._.R.(.(.).(.(.W.P.R.P.R.P.(.W.T.R.T.R.R.R.P.W.P.P.R.P.T.K.T.R.W.K.T.d.] d.T.(.).).R.T.T.T.W.R.R.W.W.Y.R.K.T.R.R.W.W.T.T.Y.R.R.R.R.R.G.W.T.W.W.T.f.[ f ; 3 9 j.W.W.W.W.+X$XW.",
"S D C S >.S <.<.>.Z V y i u u d i V <.S S S C D C C V S D : = = - - = = = = - = - - - > > s f g g M f M M M N N N N T N N N M M B M M N N _ ] / u.J.P.L.P.L./.L.L.L.P./.L.R.L.R.L.L.L.R.R.d.s 6 , , , , 6 a a s a a a a t y g Z A A Z Z m R.(._.%X).)._.).(._._.R.).(._.(.).(.(.(.R.L.R.P.R.(./.L.P.R.u.u.L./.K.Z d t t d d h V D D D D D A A ).(.(.(.(.(.(.R.R.(./.R.R.R.P.R./.R.W.P.W.R.(.P.P.P.K.K.P.P.P.P.T.W.W.T.W.K.T.s.] d.T.(.(.(.W.R.W.T.Y.R.T.W.R.W.K.R.R.R.R.R.T.T.R.T.R.T.T.Y.T.T.T.T.R.T.g.f 3 & & M j.Q.Y.I.G.Q.Q.",
">.w.w.w.<.<.S V , t d u u u u D <.<.S S <.V C S C >.V V D , - - = = = = - - - + + , s s f g M g M f f f g M B N N N T N N N N B B B B / ] u.d.L.] u.L.L.P./.L.P.L.L.L.L.(.R.P.R./.L.P.R.R.d.s , , 6 6 6 6 6 s g s a a a a d h Z A Z Z Z m R._./.).(._.(.(._.)._.(.)._.)._.).(._.(.R.P.P.P.P.L.P.R.J.u././.R./.( Z d t u u h V D S S S D D S A L._.).(.(.T.(.R.(.(._.R.R.(.R.P.R.P.R.R.R.d.T.W.P.R.P.d.P.L.T.W.T.R.(.W.(.R.W.R.R.s.{ u.W.T.!.W.!.W.R.T.K.T.R.W.R.T.R.R.T.R.R.R.T.!.W.!.W.Y.Y.T.R.Y.W.R.W.I.W q f ) X.f.Q.Q.I.I.G.",
"t.w.w.w.S m : O O d V u u V S >.>.>.S V S >.<.<.D C V C D < - = = = - = = = > 6 f M M M M f M f M f f g g M N T N T T T N N N B N A ` [ J.L.L.P.P.u.` P.P.L.L.L.L.L.(.(.(.R.L.R.R./.(.(.W.d.a , 6 6 , 6 6 a g g d d a a a d Z Z Z Z Z Z Z (.(.(.).(._.(.).)._.)._.).(._._._.).).(.(.).R.R.P.J.P.u.u.(.(.L././.Z V d u u d V D S 0.0.S D S S S t.(._.).(.(.(.(.(.(./.P.R.R.R./.(.R.R.(./.R.R.W.R.R.R.T.K.K.T.T.R.W.W.W.~.R.R.T.R.Y.T.s.] d.T.R.R.W.R.R.R.R.W.W.W.T.T.R.K.T.T.T.W.!.!.!.T.R.Y.T.!.W.W.W.!.!.E.j.g.g.f.f.f.Q.Q.+X!.",
"w.w.w.m = O = = O y u D S >.S V <.<.<.<.V <.>.>.S V D S D t - = - - - + ; s f f f M M M f M f f f f M M M M B N M N N T T M N / ` p.u.d.L.L.^.P.L.^.L.` p.P.L.L.L.L.^.(./.(.L.L./.R.(.R.R.s.a 6 , , , 6 a a d d d d d s d d Z Z Z Z Z Z / L.(.)._.L.(.(._.)._.(.(.(.).(.(.(.(.).)._.R.P.P.L.` ` J.P.^.(./.L.i.Z Z d d d h D D S 0.0.S S S >.>.>.w.u.R.W.(.).(.).(.(.(.(.L.(.L.).(.W././.(.L.R.T.P.R.(.W.R.T.T.T.L.R.(.T.T.R.T.R.T.R.W.T.f.[ s.G.T.T.W.T.R.T.W.R.T.R.R.T.Y.T.T.R.R.R.R.W.T.T.Y.Y.W.W.Y.W.W.!.I.j.I.f.Q.g.I.f.I.Q.",
"( s + O O = = = s u V C <.S e.D w.<.<.C C <.C D S S D S A s ; - = - 6 M N s 9 f M f f f s f g f f f s g M B N T N N N N W / { u.u.'.L.L.L.L.^.^.^.L.P.P.u./ L.^.L.^.(.(.L.(.L.R.(.(././.R.s.6 6 , , , 6 a a a d N N d d d d Z A A A Z Z ] /.R._._.)./.(.R.(.(.(.(.(.).(.(.P.(.(.).).(.T.(.u.u.P.L.P.L.L.L.L.( D V V h V V S S 0.w.w.0.S >.>.0.<.w.w.w.Z ; T K._.R.(._.(.(.).R.(.(.(.L.R.R.W.W.W.(.P.P.R.L.R.(.T.R.T.L.(.W.T.T.W.!.!.R.T.K.T.d.{ { G.T.T.R.W.T.W.R.W.R.W.T.Y.T.T.T.K.T.R.!.W.W.T.T.T.T.Q.T.T.I.Y.I.I.W.+XI.f.Q.f.",
"O X X O O = = = y u V C >.C <.C <.<.>.<.<.C C D D V Z S A , - = , W / N s f f f f f f f f f f f f g f M f M M N B B N / _ ] u.J.P.P.J.L.L.P.L.^.L.L.^.^.P.u.{ u.^.(./.(.(.(.L.P.L.R.(.R./.K.6 6 , , , 6 a a a d h g d d g d Z ( Z Z Z Z _ %X(.)._.(.L.L.L.(.(.).(.(.(././.)._.(._._._.K.] P.P.L./.L.L.^.L.u.A A V V d h h D D S 0.0.0.0.0.w.>.>.<.e.<.w.Z = = N d._._.(.(.R._.(.R.).R.(.W.(.W.W.P.L.W.L.R.W.T.W.W.W.W.).(.W.W.W.W.T.Y.R.R.R.T.K.s./ / I.R.R.W.R.!.!.!.T.W.!.R.R.T.T.T.R.T.W.W.Y.Y.T.T.!.Y.T.W.T.I.I.Q.Q.+XW.W.Q.",
"X . . O O = = = t u u D e.S <.<.<.w.C >.A w.D A V V Z A Z a s T { W M g f s f f f f f g f f M M M f f g f g M M N N / [ d.d.P.P.P.P.P.J.L.L.^.L.L.P.^.^.L.L.P.u.` ^./.(.(.(.R.R.P.L.R.(.(.d.a 6 6 , , 6 a a a d d d d h h V Z Z Z Z Z N ] ).(.(.).R.(.R.(.(.R.(._.).).(.(._.(.(._.).s.K.W.W./.(./.(.(.L.L.u.D A Z V h V V D D ( 0.0.0.>.>.w.w.<.>.e.e.e.w.( u.K.) / d._.(._.).(.(._.).).).(.(.).R.T.(.(.(.).W.(.).T.(.W.(.(.W.(.W.W.W.T.T.T.W.R.W.R.f./ [ T.R.R.$X!.).$X!.W.W.T.W.T.T.T.R.Y.Y.T.Y.T.T.W.!.E.Q.Q.E.Q.I.I.Q.+XW.!.",
"o o O O O O = = s h u S >.>.<.<.C <.V A V D D A d Z Z m m / ] ) N N N M f f f M f g g g f f M M f f f g f M N N / { u.J.J.P.J.P.P.P.P.P.L.^.^.^.^.J.^.^.^.L././.P.` h.L.(.L.(.L.R.(.L./.(.K.a 6 6 6 6 6 a a a d d g d V Z Z A Z Z Z Z m ] (.).).(._.(.(.(.(.(.)._.).(.).).(.(.L.K.] R.(.)._.(./.L.L././.P.S D A D Z V V D D D S 0.0.0.>.>.w.w.<.<.>.e.e.e.>.>.` [ g , / (._._._.).)._.).)._.(.(.R.(.).(.(.(.W.$X).W.(.W.W.).W.W.W.W.T.K.R.!.!.R.T.R.W.T.G.] [ K.Y.R.R.T.W.!.$X$X!.T.W.T.R.T.T.T.E.R.T.T.W.!.Q.W.+XQ.I.Q.Q.Q.Q.+X",
"o O O X O O = = t u u V <.e.D >.C C S p.D V A ( Z Z N _ ] { N N N N M g M g f M M M M f M M M M M M M M M f N { [ d.P.P.P.P.P.J.P.L.L.L.L.^.^.L.^.^.^.`.^.L./.^.(./.] [ (.(.L.(.P.L.(.R.(.K.s 6 6 6 6 , a t a a d Z Z V Z Z Z Z Z Z Z Z t.(.).(.).(.(.(.(.).R.(.(.(.(.(.(.R.L.[ d.(.(.(./.(.(.(.R././.P.( D A S D Z Z Z D S S A S 0.0.0.0.w.w.w.w.<.e.e.e.e.>.S w.m , > s u.(.(._._.(.(.(.).(.(.).).%X_.).).).(.(.(.(.).(.).).W.(.R.W.R.R.).W.W.R.R.R.W.W.R.s.{ { f.Q.T.).$X$X!.$X!.T.T.W.W.W.!.W.W.!.W.!.W.!.!.!.W.W.Q.Q.W.Q.+X",
"O O o O O O + = < u u D <.<.>.D C <.w.w.S A Z A / ( g.] N M / T N T T N M M M M M N M f M M N N N M M N T / ] d.J.P.L.P.P.J.P.P.L.P.L.L.^.L.^.L.L.`.(.`.^.P.^.L.^.^.^.P.{ K.(.P./.L.^.(.(.L.M 6 6 6 6 , a a a a a d h d d Z Z Z Z Z Z / (.).(.(.(.(.(.).(.(.(.(.).(.).(.P.d.] T.W.(.W.(./.(.(.^.L.L.L.d.6 Z D S A S A Z Z S S S A S 0.0.0.w.w.w.w.0.0.0.e.e.<.<.>.w.s ; 5 6 i.'./._._.(.(._.).(.).%X%X(.).(.$XT.(.(.W.%X%X$X(.W.).W.W.!.R.!.!.).!.R.W.R.W.!.R.W.Y.[ ] Y.W.!.$X$X!.$X).T.W.W.W.W.Y.T.W.Q.!.W.W.!.!.W.Q.W.W.Q.W.+X",
"O + O + O O O O : u u D <.<.w.<.<.S D S A ( ` ` k.u./ N / B T N T N N M N M N T N T T T N N M T M T W / ] u.d.J.P.P.L.J.P.L.L.P.P.P.^.^.^.L.^.L.L.^.^.^.^./././.(.^.(.(./.u.] P.L.R.P.R.(./.N , , 6 6 6 t a t t a d d d Z Z Z Z Z m m ] ).).).)._._.(._.).).).W.).(.(.R.] u.R.(.R.(.).).P.P.(.(.P.P.J.d.; m D S S S S S S A A S S A S >.0.y.e.w.w.0.0.w.0.w.>.w.w.>.` 6 > 5 6 w.i.R.).(.(.(.(.(.)._._.).(.(.$XR.W.(.(.).).).).%X).%X).W.!.!.~.).).).!.R.W.!.$X!.W.W.T.s.s.T.W.W.!.R.!.W.!.$X!.W.W.W.W.E.T.W.+X$X$XQ.W.!.OXQ.Q.W.",
"- = - + O O O O : u u u C >.w.D V D S ( t.t.u.s./ M N N B N N N N T T T N M M N N N T T T N N N W / [ u.d.P.P.P.P.P.L.P.L.(.L.P.J.L.L.^.L.L.L.^.^.^.L.^././.^./.^./.(.(.(.(.P.{ P.R.(.(.(.).{ , , , 6 , , , t a a d d d h Z Z m d d m u.%X).(.(./.(.(.).(.).).(.(.).d.] T.P.R.R.W.R.(.L.P.^.(.R.(.P.d.[ > s S ( ( ( S ( S A S D S S S S 0.w.w.w.e.w.0.0.S A m d s t a s & > 5 s e.w.u.J.)._._.).(.).(.(.W.R.W.(.).T.).$XR.T.).(.(.%X$X$X).(.!.!.!.!.$XT.!.!.).).!.!.W.W.T.] s.T.!.!.$XW.W.$X!.W.$XE.W.+XQ.W.W.W.E.W.$X$X+XW.Q.Q.",
"- - - = = + O O = u u u S D <.l S w.w.t.d.u.{ B N N B B B B N N T T N N N T T M N T T T T T W / ] u.H.P.L.P.P.P.P.P.R.L.R.R.L.(.P.L././.P./././.(././.(.(.^.L.^.(.(.R./.(.(.R.W.[ u.(.(.).(.u.6 , , , , , , t t a d d d h Z Z Z d m Z R.).).).(.)./._.(.(.(.T.(.T.] u.W.(.(.R.W.R.R.).T.P.P.R.L.K.K.d./ 3 , S 0.w.0.( ( S A S S S ( w.( ( 0.w.w.w.0.A m t ; ; - - ; ; > > 5 5 ; V <.e.w.{ K.).(.(.).R.(.(.).).).(.(.).).).).).%X).).(.).W.!.!.W.!.!.).W.!.!.W.W.W.!.).$X$XW.T.[ [ W.!.W.$X$X!.W.W.!.!.!.!.!.!.W.$XW.W.$XW.+XW.E.",
", - = + = = + O = t u u D V S w.u.t.s.s.{ / / B B N N B N T W T T T W T T W W T T T T N T / ] u.K.P.H.P.P.J.P.P.P.P.R.R.R.(.(.R.P.R.R./.(./.(.(.(.(.(.L.(.(.(.L.R.(.).(.(.R.R.R.W.Y.] T.(.).T.6 , , 6 , , a t t a a d h V V Z m g g { _.%X).).(.(._.(.(.R.(.(.d.] R._.(.(.(.).(.K.R.P.P.P.P.P.L.T.R.L.[ > & s ( w.y.t.( ( ( ( ( ( ` ( ( ( ( ( A Z s ; & & & & ; ; > , 6 6 > ; 5 > D e.e.y.A [ ).W.(._._.(.(._.%X).(.W.(.(.).W.(.).W.!.$X$X!.!.!.).%X%X!.).$X!.!.$X$X!.).).W.).$X!.] [ !.%X$X$X%XW.).$X$X$X%X$X$X+X!.$X$X!.W.$X+X",
"> , > > , : - ; = < t u D ( p.t.u.d.] _ / _ / B B N B B N T T T T T / / W W T T T T T ) ' [ d.P.K.P.P.P.P.T.P.P.P.J.P.K.(.R.L.R.L./.(.R.(.(.(.(.R.(.(.(.P.(.(.(.(.(.).(.(.).(.W.R.W.!.X.s.).%XM , , , , a a a a d d d d h d Z Z g m d._.%X_.%X%X_.(.%X(._.(.u.d.).(./.(.R.R.R.P.L.d.P.(.R.P.R.P.P.R.(.f.9 - # a ( t.y.t.t.t.` ( ( _ W N s 6 , - # & & & $ + & ; s Z ( ( ( A s & % a C <.r.i.] { (.~.)._.).).(.).$X(.W.W.(.(.(.).).(.W.(.).).).!.).%X).).).!.!.%X).%X).).$X!.W.$X$X!.W.[ X.W.$X$X%X%X%X%X%X%X%X%X%X%X$X+X%X$X%X$X",
"6 , , , , 6 s s , , u ( t.u.t.u.` / / / / A / N W N N B W W W T T T W W W T W T T ) ) ] s.d.P.P.P.P.P.K.K.R.T.P.P.P.P.L.R.P./.R./.R.(.(.L.L.(.(./.(.(.(.(.R.(.(.)._.).).).).W.(.W.).G.!.Q.' Y./ a , , a t t t t t t d d d Z Z Z d / W.%X_.%X%X_._.).%X(.P.d._.R.).).(.R.P.T.L.K.(.R.P.P.(.(./.L.(.(.(.K.[ 9 & + ; s Z Z W W M s ; + o . . . . o o @ $ $ # 9 Z ( t.w.w.w.w.0.S m # a >.<.e.r.`.T ] _.R.).(.(.(.(.).(.W.).).(.(.).%XW.).$X).%X).).~.).!.!.$X$X%X%X$X).!.!.!.$X!.R.!.).%X$X!.[ ] Y.).%X%X%X%X%X%X%X%X%X%X%X%X%X%X%X",
", , , 6 6 a , : ; s ` i.t.] { { ] ` / / / / / / N W N B T T W T T W T T T T / / ' ] [ f.G.K.P.P.L.L.L.T.P.K.K.P.P.P.K.P.P.R.K.P.R.(.(.(.(.(.R.(.(.(.(.)._.(.(./._.(._.).(.(.(.).).%XT.).!.W.' N a , , t t t t t a y d V V Z Z Z N ] %X%X%X%X%X_.).).(.u.d._.(.W.W.R.(.L.R.(.).(.(.).(.).).(.).(.L.(.R.R.P.g.W 6 & + o o o o o o o o o o o . . . o . o 9 W ` t.t.w.0.w.w.y.w.w.w./ , 0.e.e.e.y./ N K.(.).).W.(.).).(.(.(.W.).$X(.).).$X).).!.!.R.!.!.!.%X!.).).$X$X$X$X).!.$X!.!.%X$X$X!.!.!.W.s.] s.$X%X%X%X%X%X%X%X$X%X%X%X%X$X",
", , 6 , > - , s N t.u.t.` / _ _ { { / / / / / / N B N W N T N N T T T T / / ] u.s.K.K.P.K.R.P.P.P.d.P.K.P.P.P.K.P.J.P.K.P.R.R.J.R.(.(./.(.(.).).(._._.).(.).R.(.(._.(.).R.(.(.(.).!.).$X$X$X+X' a 6 6 a a t t t t y d Z Z Z Z Z m Y.%X_.(.).R.(.(.d.u.R.)._._.).(.R.W.R.).L.W.).P._.(._._.R._._.(._.(.R.R.T.s.X.' T 9 6 5 5 & & + $ o o o o o . . o . o 6 Z ( t.t.( ( w.y.y.w.S S S >.>.>.y.l.u.N W ).).).).).(.%X).).).).W.W.).(.).$X$X%X!.!.!.!.$X$X%X%X$X).).%X$X).%X%X%X%X$XW.!.).W.!.).).%X!.[ { W.$X%X%X%X%X%X%X%X%X%X%X$X",
", , , - = , M ] u.t.] / { _ { / { { / _ / / / / / / W / N N M W / T / { ) s.d.K.P.L.K.P.K.T.R.P.P.d.K.P.P.P.K.K.J.P.P.R.L.R.(.R.R.T.P._.).(.(.).).).).).).W.).).(.(.(.(.(.).W.).).R.!.).%X).Q.g.a 6 6 a t t t t t a d Z Z Z Z m Z ).(._._.).).L.] K.T.).(.W.).).(.).).(.).R.(.R.(._.(.(.).(./.(.(._._.(.P.R.d.d.H.s.[ ] ) / T T T M f f q 4 ; $ o . o o o # g ( t.y.( ( w.y.y.>.D S >.0.e.l.`.t.N M d.(.).(.(.).).$X).).).W.W.W.).$X%X$X%X%X!.!.).).!.%X).).!.$X).W.T.).).).%XW.).!.!.!.W.!.$X!.%X%XW.[ { G.!.$X%X%X%X%X$X+XW.f.",
"- - = = 6 { s.s.[ { { ] { { { / { / { / / ) / / ) / / / B N N W / / { ] s.K.P.P.R.R.R.P.P.P.P.P.T.P.J.K.u.K.P.K.K.T.T.P.K.P.R.W.T.).(.).(.(.(.).(.(.(._._.).(.).(.R.).(.).).R.(.R.K.!.%X%X$X$XE.f 6 a a t a t t a d d Z Z Z Z m [ ).).).).(.d.s.W.T.W._.).(.).).).)._.).(.R.(.R.(.(.(.(.(.).(._._.)._.P.P.R.T.d.K.d.d.s.d.s.s.] ) W W T T T T T M 8 % o . o O , W t.t.( 0.t.t.t.w.0.w.w.y.l.l.`.M M { K.W.W.(.(.).).(.).).W.W.%X%X).$X).).W.).T.!.R.!.!.T.).).%X$X!.W.$X!.$X).).%X).$X$X$X!.R.!.%X).$X!.$Xj.] Y.$X%X%X$X$XW.g./ ",
"- - , N t.u.s.{ { { { _ / { { { { { / / / / / / W / / / W / W / { ] u.u.P.P.R.P.L.(.P.P.P.T.P.K.K.R.(.P.P.P.K.d.P.T.T.T.T.W.R.K.R.R.W.(.R.R.(.(.).).(.(.).).(.).).(.).(.)._.%X(.R.!.%X%X%X$X%X!.g a a a t a t a a d Z Z Z Z Z m W.).$X(.d.` W.R.R.(.(.).(.)._._.).).)._.).)._.).(.R.(.(.L.(.(._.(._.(.R.P.R.R.d.d.d.d.G.u.d.d.d.d.[ ' ) / W / W W T T q 5 $ o o + s / ( _ Z Z ( q.w.w.y.i.l.l.l.B M { d.K.R.(.W.(.).).).).W.(.(.R.!.%X!.).).!.R.!.W.!.W.!.$XW.W.R.).!.).!.!.).%X$X).).%X%X%X%X).$X%X%X!.$X$X!.g.' f.!.!.T.g.] $X",
"6 N ] ] { [ { { { { { { / / { / { { { { / / / / / / W / / ) / ' ] [ H.K.K.R.P.R.P.P.P.P.P.P.K.K.P.T.R.K.K.T.J.d.P.P.L.T.T.L.T.W.W.T.T.R.R.(.R.(.W.(.).).(.)._.).).(.W.(.).).(.).).$X).).$X$X%X$X) a , t t t t t t d d V Z Z Z ] %XW.W.g.d.).(.W.T.W.(.).(.(.).P.R.).(.(.).).(.(.)./.)._._.(.(.(.).(.).L.(.P.P.R.d.d.d.d.d.d.d.G.s.s.f.[ ' / { { { { ) / W M 0 % $ + + - - + o O s ( t.y.h.y.y._ f f ] d.K.d.K.Y.Y.Y.Y.R.R.T.T.R.W.R.W.R.W.).W.W.W.R.!.!.!.!.W.!.R.!.!.!.).).!.%X$X$X).%X%X%X).%X$XW.).).!.R.!.!.$Xs./ [ B ] -X%X",
"_ ] ] / { / { { { { { ' / / / / { { / / / / / / / / / / / ] ] d.K.T.K.W.T.P.P.P.L.J.J.J.L.P.K.K.P.K.J.K.K.L.K.d.P.K.K.T.T.K.T.T.W.K.K.W.T.(.(._.(.(.(.).).)._._.(.).).K.).(.(.!.f.Y.!.$X%X!.%X$X] a t t a a t a t d d h Z Z Z s.%XT.[ (.(.W.T.T.K.W.(.T.W.R.W.R.(.).(.(.(.(.).).(.).(._.(.(.(._.).).).R.L./.P.(.R.J.d.d.d.d.d.d.d.d.f.d.s.u.] { ' { ] ] ] ' ) ) M 4 ; & & & & $ @ , m _ _ N a - 6 M { d.K.Y.K.f.T.f.K.K.T.Y.T.R.W.T.!.R.R.R.$X!.).W.!.T.!.!.!.!.).+X%XR.).!.!.R.$X).).%X$X$X%X).%X).W.W.!.T.W.T.!.!.Y.f s f.!.%X",
"] { ' / / / { / / / / { { { { / / / / W / / ) / / { ] ' s.G.T.R.W.R.P.K.P.P.J.P.P.d.J.P.P.K.K.T.d.d.T.K.P.P.P.K.P.K.K.T.K.K.L.(.W.T.K.W.(.).W.(.W.(.T.R.).%X(.%X%X%X%X(.).).W.R.Y.R.).$X$X).$X%Xg.s a a a a t t a d V Z Z Z A ).] g.%X$X).%X$XW.R.).W.T.W.(.(.).).(.R.P.R.(.(.(./.(.R.(.P.(.R.L.).).R.R.P.(.P.L.K.K.K.d.d.d.d.d.d.d.G.d.d.s.s.s.[ [ ] ..] ] ] X...' ~ Y f 0 3 ; & & & & # & - 3 T ) s.s.G.Y.f.K.T.T.G.K.K.Y.Y.K.T.G.K.K.K.T.Y.W.W.R.R.).R.!.W.).!.W.R.W.).R.R.!.).).).W.).!.).).%XR.R.!.!.!.$XW.!.R./ g.W.g.{ s.",
"{ { _ / / { / / / / / / / { { { { / / / / { / / / ] ] ] d.P.L.L.L.L.K.K.K.K.P.P.P.P.J.P.d.d.d.J.d.J.K.d.J.P.K.K.L.K.K.T.R.R.T.W.W.T.R.(.).W.R.R.W.W.T.(.(.)._.(.).(.(.).W.(.).).(.(.W.).).$X$X%XQ.s a a a a a a d d Z A S A / g.$X$XW.%X%X$X$X).).W.R.T.T.K.R.R.P.(.W.P.(.(.P.(.P.(.P./.P.R.P.L.(.(.(.(.R.L.R.(.R.T.K.d.d.f.s.f.s.d.d.G.G.d.s.f.s.f.f.g.X...] [ ) ) ' ' ' ' ' ) W T N M M M T ) ' X.Y.Y.f.G.Y.T.Q.Y.G.f.I.G.G.Y.Y.Y.f.f.Y.K.G.G.T.K.T.R.W.).).W.W.W.).W.!.!.!.!.!.).W.$X).).W.!.).!.W.W.$X!.).!.R./ s.!.$X$X!.g.",
"/ / / / / / / / / / / / / / / / / / / / / { / / X.[ { [ J.P.P.P.P.L.K.K.P.T.P.P.d.P.J.K.K.J.d.K.P.T.K.d.J.P.W.W.W.W.K.T.L.K.K.(.(.W.T.W.T.W.W.(.R.R.W.W.(.)._.(.).W.R.W.(.).).$X$XW.W.W.W.!.$X$XW.g a a a a a d d d V S S A Z K.$X).).T.).$X).W.R.(.W.K.K.L.P.K.K.P.L.R.P.P.R.L.P.(.L.R.L.(.(.(.(.).R.P.R.R./.(.T.T.K.d.d.d.d.d.s.s.s.d.f.f.s.s.s.f.f.f.s.g.s.s.g.] ] ] ' ' ] ] ] { ] ] { { ' ] g.K.Y.f.f.Y.f.G.Y.Y.G.G.s.Y.K.K.f.G.K.G.G.f.f.f.f.s.f.G.T.Y.W.!.!.!.!.R.W.).!.).R.W.W.%X$X!.W.!.W.!.!.!.!.).).R./ g.!.$X%X%X$X%X",
"/ / W W / / / / / / / { / / / / { / / / / { [ s.s.[ G.s.] u.P.P.P.P.P.T.K.P.P.P.d.K.J.P.K.K.K.P.P.K.K.K.K.L.T.K.T.K.K.T.K.T.W.(.(.K.T.(.K.(.T.(.(.(.W.R.T.(.W.W.W.(.).).(.).%XW.%X(.R.G.T.!.W.$X%XW a a a a d a d d V S S A m Y.%X).$X).K.R.W.).W.R.W.W.P.P.R.P.P.P.R.P.R.P.L.P.L.L.P.R.R.P.L.(.(.(./.P.P.W.R.R.(.(.W.T.d.K.s.d.G.G.G.d.s.g.[ g.s.f.g.G.T.Y.Y.T.Q.g...[ ] [ g.s.s.g.f.s.g.g.f.I.Y.K.Y.T.Y.Y.G.G.Y.G.G.K.G.G.G.f.f.G.G.G.f.f.f.f.G.G.Y.G.Y.K.G.Y.T.T.R.R.s.W.R.T.W.).).%X!.W.R.R.W.!.!.!.).%XW.{ Q.!.!.%X%X%X$X$X",
"/ B / W / / / / / { _ / / / { / / / / { ] u.d.K.R.R.P.d.K.J.P.P.T.L.K.P.K.K.T.K.P.T.K.J.K.J.P.P.d.d.K.d.P.R.T.T.W.K.K.T.R.R.T.K.R.W.W.(.T.(.W.T.W.W.W.W.Y.Y.T.W.$X).).).).$X$X).).W.W.W.W.$X$X%X!.] s a a a a a d h Z A ( ` k.g.-X%X%X%X).).$X).R.W.T.T.W.R.P.P.P.P./.(.(.P.(.(.P.R.L.R.L.P.L.(.L.L.R.R.R.R.P.R.R.W.T.T.L.d.f.K.G.G.Y.f.d.d.G.d.s.f.f.s.f.T.W.W.R.W.W.Y.G.g.f.d.s.f.G.f.G.E.Y.Y.K.f.Y.K.G.Y.Y.Y.G.K.K.Y.T.Y.Y.T.Y.f.f.G.G.f.G.Y.Y.T.Y.Y.K.Y.Y.G.Y.G.R.R.!.T.T.R.(.$X).$X).).!.!.!.!.).).!.W.{ W.%X%X%X%X%X%X%X!.",
"B W / W / / / / / / / / / / / / / / ] u.u.P.K.T.R.~.T.T.K.L.(.P.(.).T.P.K.P.K.T.P.R.K.T.K.T.L.L.d.).%XR.L.T.R.(.R.T.Y.R.R.(.W.W.(.T.T.K.W.(.W.T.W.R.R.R.T.W.W.R.R.W.).%X$X$X$X%XW.(.(.W.).!.!.!.W.f.g a s a t y d Z A S ( k.$XQ.X.!.%X%X%X%X%X).).).W.W.(.R.d.d.W.P.J.R.P.P.L.L.L.P.P.L.(.(.L.(.(.P.P.L.W.(.T.J.R.W.R.).T.K.f.K.d.f.G.G.G.f.d.g.s.[ s.[ s.f.Y.R.T.T.W.).W.T.T.R.T.T.T.Y.Q.Y.Y.Y.T.Y.T.Y.Y.G.G.Y.G.Y.Y.Y.T.T.Y.f.Y.G.f.Y.Y.G.G.I.f.Q.Q.Y.G.Y.s.Y.Y.G.K.T.Y.G.Y.T.R.).$X$X%X%X%X$X$X).!.R.Y./ Y.%X%X$X%X$X$X!.$X$X",
"N W W W / / W / / / / / / / / { { ] H.J.J.P.L.R.P.P.P.R.R.P.L.(.L.P.P.T.R.R.K.P.K.K.P.J.P.P.P.T.P.(.W.K.W.R.T.d.W.R.W.(.L.W.W.(.W.W.Y.W.).R.R.W.W.R.R.W.R.W.(.).).R.$X$X$X$X(.$X).$X).(.W.$X$X+X$XW.g s a a d d d D D S ( ] !.%X$X' g.W.$X%X%X$X$X).).W.T.K.K.K.K.J.P.R.(.(.(.R.(./.(.(.R.(.(.(.K.(.T.R.R.R.R.R.W.(.(.).(.R.K.f.f.f.G.s.s.s.s.s.s.s.f.s.f.f.f.Y.R.(.).).W.).).!.$XW.E.T.T.T.Y.Y.Y.Y.Y.G.Y.f.G.Q.Y.G.f.G.Y.Y.f.f.f.f.G.Y.G.G.Y.f.f.f.Y.G.Y.T.G.G.T.Y.Y.Y.R.T.Y.R.W.).$XR.R.!.$X$X$X$X!.G./ Y.$X%X$X$X$X!.%X!.+X!.",
"/ / / / W N W N B B B N / / { ] ] K.P.J.^.L./.R.(.P.R.R.L.L.(.(.P.P.P.W.P.P.K.P.J.J.d.K.d.K.P.K.K.K.K.R.T.Y.K.R.T.T.R.).W.(.T.(.(.(.R.T.W.Y.W.T.W.W.W.W.R.Y.).).(.W.).$X).%X$XW.(.%X(.(.%X$X%X%XW.).g d s a d d h D ( ( ( t.$X%X%XW.X.' $X).).).W.R.R.W.T.T.T.T.R.P.(.).(.(.(.L./.L.R.(.(.P.).).R.R.(.(.K.T.W.T.(.T.(.(.(.W.T.d.f.G.G.G.f.f.K.Y.f.f.s.s.f.f.f.Y.Y.R.W.R.).).%X).).).$X!.E.T.Y.Q.G.Y.Y.G.G.Y.Y.Y.G.f.G.Y.G.Q.f.G.f.f.f.f.G.Y.Y.I.Y.I.Y.Q.Y.Y.T.T.T.I.Y.Q.T.R.T.!.T.R.W.Y.Y.Q.T.W.+XK.G./ s.!.$X%X$X$X$X!.$XW.!.$X",
"N B W W B W W W / B / / { ] ] u.J.P.J.L.d.L.J././.P.L.R.R.P.R.L.J.P.T.P.J.K.R.K.P.L.K.K.K.R.T.d.J.T.R.T.T.W.R.T.T.T.T.(.(.W.(.(.).W.(.(.W.R.W.(.W.(.(.).W.W.).(.W.).(.).).).$X(.).$X).(.).$X!.$X$Xg.d a a a d d Z S ( ( ( ` -X%X%X$X$X$X] f.$X$X).).).)._._.(.).(._.).(.(.L.(.L.R.K.L.(./.(.L.(.(.T.L.P.d.d.K.W.R.(.W.W.K.T.K.f.s.s.f.f.f.Y.Y.G.s.s.f.f.f.K.f.R.K.G.K.).(.$X%X%X).).%X).).W.T.Y.T.T.Y.Y.Y.G.Y.G.G.G.K.Y.G.I.G.G.G.T.Y.f.f.Y.Y.G.G.Y.Q.I.T.Y.Q.f.Q.W.W.W.T.Q.Y.W.T.W.Y.Q.Y.Q.I.Q.I.] / W.%X$X%X%X%X$X$X!.!.W.!.!.",
"/ / W / / / / / B / / { [ d.J.H.P.P.L.L.P.P.J.J.P.P.L.L.P.P.P.(.R.R.K.J.K.K.P.T.P.J.T.K.T.K.L.K.P.W.L.).T.R.K.K.T.(.(.(.T.W.R.W.).(.(.(.W.(.T.W.W.W.W.(.(.(.W.W.).).W.).).W.).).).%X$XR.W.$X!.$X).{ g a a a d d h S ( ( ( ( %X%X$X$X).$XR.] ] ).W.).).).).%X_.).).(.R.).).(._.(.).).(.R.P.^./.R.L.T.).(.W.T.R.W.(.).(.W.W.Y.K.Y.f.s.f.G.Y.G.Y.G.G.f.f.Y.Y.Y.G.Y.T.Y.T.W.$X$X$X!.!.).%X$X$X%X!.T.).T.Y.Y.G.Y.Y.G.G.Y.Y.Y.G.I.f.G.Y.T.Q.G.G.f.f.T.G.G.T.I.Y.I.G.Q.E.W.W.W.W.G.T.E.W.Y.E.Q.T.Q.Y.f.{ B s.!.!.!.%X$X!.$XW.$X%X$X!.!.",
"B B B B B B B B / { [ u.K.P.P.P.P.P.J.P.L.(.P.J.L.P.P.H.P.P.(.R.P.P.P.K.K.T.R.K.J.P.P.K.K.J.L.P.d.d.R.R.K.R.K.W.T.T.T.W.W.R.R.W.(.(.).).).W.T.(.T.T.R.R.W.).$XW.R.).).W.R.R.).W.).).%X$X%X%XW.W.Y.N g a a a a d h D S ( 0.S L.%X%X%X%XW.(.).K.{ [ T.).).)._.(.).%X%X)._._.(.(.(.).).(.R.).(.P.R.L.T.T.T.Y.T.(.R.(.R.W.W.R.W.G.G.Y.Y.f.G.T.Y.G.G.Y.Y.G.f.f.Y.T.Y.G.G.K.K.W.).!.$X%X$X$X%X$X%XW.).).$X$XW.K.G.Y.T.T.f.G.f.f.f.Y.Y.Y.Y.f.G.E.Y.Y.I.I.f.G.T.I.f.G.f.Y.T.W.Q.Q.I.Q.T.Y.Q.I.G.Q.Y.I.s./ g.I.Q.!.+XW.!.!.$X!.$X$X$X$X!.",
"W W W B s N / / [ u.u.d.P.P.P.J.J.J.P.J.J.L.P.J.P.P.J.P.P.P.L.J.L.P.P.R.(.K.L.K.P.R.R.L.R.T.J.J.P.W.T.K.K.K.T.T.W.(.R.W.R.K.T.W.T.K.(.(.T.W.R.W.R.W.W.W.(.Y.W.W.R.).W.W.W.).R.W.W.!.).$X$X$XW.f.s.g g a t t a d h D S ( S ( h.%X%X).%X%X%X_.).%Xs.] ).%X%X$X).%X%X%X%X)._.).).(.).).(.R.R.(.(.R.R.T.T.T.W.R.R.T.R.T.W.W.W.$XW.R.W.Y.G.T.R.Y.Y.G.G.Y.T.Y.f.Y.Y.K.G.G.Y.Y.Q.Y.T.!.%X$X$X%X$X%X%X%X$X%X%X).W.W.Y.Y.G.f.G.f.I.G.G.G.f.I.G.G.Y.I.I.G.Y.G.Q.Y.G.f.g.g.f.Q.Q.Q.I.I.I.Y.G.f.I.f.f.j.[ / g.I.I.Q.E.W.W.W.W.W.Q.!.T.!.W.!.",
"W T B B B / ] u.d.J.P.J.P.R.P.J.J.J.P.J.P.P.J.J.P.P.J.P.P.P.L.R.L.P.P.P.d.] u.P.R.R.(.L.P.P.K.d.K.R.R.T.T.T.K.K.K.W.T.T.W.(.W.(.(.R.(.W.(.W.W.T.R.R.Y.(.(.W.R.(.W.(.(.W.W.W.R.W.W.%X).W.!.G.f.$XY.g d a a a a d d Z ( ( ( 0.i.%X%X%X%X%XW.%X%X).$Xf.{ R.).).%X%X%X%X%X%X%X)._.).).).).(.).R.).).).W.T.R.R.R.W.).).).R.(.W.T.Y.W.E.R.T.Y.Y.Y.G.G.Y.G.Y.Y.Y.G.Y.G.K.G.Y.R.T.Y.W.T.!.%X$X%X$X$X%X%X).%X%X%X%X!.!.T.Y.T.Q.I.Y.G.G.Y.f.Y.G.Y.G.G.f.f.G.f.G.f.I.f.I.I.I.I.f.Q.Q.Q.I.j.I.I.I.G.f.g.) f.j.j.Q.I.Q.Q.Q.Q.I.I.Q.W.W.W.Q.T.",
"W N N W { [ u.J.P.L.L.L.L.P.J.J.J.'.J.J.L.P.P.P.P.P.P.L.P.L.R.P.d.d.d.J.[ / u.P.J.P.L.L.P.P.R.K.K.K.P.R.P.K.L.P.K.K.K.K.W.R.K.T.T.K.T.T.W.T.R.W.W.W.T.W.W.W.(.W.).(.W.).).).R.W.W.W.W.K.d.E.$X$X$Xg g g a a a d h S 0.0.0.0.i.%X%X_._.).%X).).).%X%XW.{ [ R.R.W.%X%X_.%X_._.%X(.(.(.(._.).(.).(.).(.(.W.R.f.R.$XW.Y.W.W.R.!.!.W.!.T.T.Y.Y.R.G.Y.Y.Y.Y.f.G.f.Y.T.G.Y.T.Y.Y.W.W.W.!.$X%X$X%X$X$X$X$X%X$X%X%X$X!.W.T.T.Q.Y.T.Y.G.Y.Y.Y.Y.Y.I.G.f.G.I.f.f.K.f.f.I.I.j.I.j.g.f.I.j.j.g.X.g.g.X./ g.f.j.j.I.I.j.f.j.I.I.Y.I.T.Q.I.j.Y.",
"W N B { u.H.J.J.L.J.P.P.J.P.d.P.J.J.L.P.P.d.J.P.P.P.P.J.P.P.R.u.u.J.u.u.] [ P.L.P.P.R.T.L.(.P.P.K.K.K.L.R.K.T.P.K.R.K.R.K.K.K.f.f.K.K.T.T.T.T.T.R.R.Y.R.W.W.(.W.(.R.R.Y.W.W.R.W.W.R.d.K.!.$X$X!.$XW g d d s a d Z A 0.0.S ( L.%X%X%X_._._.).(.%X%X%X_.(.s./ ).(._.%X_._.).%X).(.).(.(.(.(.(.(.R.R.(.).).R.Y.Q.E.W.E.R.W.(.R.R.W.W.!.!.T.Q.T.Y.Y.G.G.Q.f.G.s.f.K.f.Y.Y.Y.T.Q.Y.G.G.W.$X$X%X$X$X%X$X$X!.$X%X).W.!.W.!.W.W.W.Q.Y.G.Y.f.G.f.G.Y.I.G.I.G.f.G.G.G.I.f.I.j.f.f.f.g.g.g.g.j.j.X./ f.g.g.I.j.Q.f.j.j.j.I.j.f.f.f.I.j.j.I.",
"/ { ] u.d.P.L.L.L.(.L.J.J.P.J.J.J.J.u.J.J.P.P.J.J.L.P.P.L.J.u.d.J.d.d.K.K.d.L.P.P.J.J.P.P.P.P.T.T.R.K.T.P.L.P.K.K.L.P.d.d.s.] d.K.T.K.T.(.R.P.T.W.W.R.Y.R.R.R.Y.Y.(.R.T.R.T.R.W.T.] W.).W.g.] / N g d a d s d d Z 0.w.w.0.0.(.%X).)._.).)._.%X).%X%X).W.W.T._ d.%X).)._.(.).(.)._.).)._.%X).(.(.(.(.).W.Y.W.).).).$XW.R.).W.!.W.W.!.Y.T.W.Y.G.Y.G.Y.T.f.Y.G.s.f.G.T.W.T.Y.Y.).R.Y.Y.W.!.).$X$X$X$X!.$XW.!.!.).T.T.!.!.W.T.T.T.Y.Q.f.Y.I.Y.Q.Q.Y.I.Y.G.f.I.I.I.I.j.j.g.g.g.g.g.g.g.g.] / X.j.j.j.I.I.j.g.j.I.Q.I.I.Q.j.f.g.I.j.g.",
"{ ] s.P.P.L.P.L.L.P.J.J.P.J.J.J.P.J.J.J.J.J.P.J.P.P.L.H.J.u.J.J.J.P.T.T.P.R.R.L.J.P.R.T.K.K.P.K.W.W.W.P.R.(.P.P.P.J.P.K.K.K.d.T.T.T.K.K.L.T.K.T.R.R.).W.R.R.T.T.W.W.W.Y.Y.T.K.t.d.W.).Q.f & - & 6 Z d a a s d d A 0.y.y.w.w._._._._._._.(.%X%X_.%X%X_.(.).$X).d.] (._.).(.(._._.).(._.%X%X%X(.(.(.).R.R.R.W.).$X).).(.W.).).$XW.!.W.!.W.!.W.Q.Q.f.Y.T.Y.G.G.f.Q.Y.Y.T.Y.T.Y.T.R.T.Q.Y.Q.W.!.$X$X$XY.!.$X).%X!.!.W.W.$X!.W.W.W.Q.Y.G.Q.W.Y.T.Y.Y.G.G.f.G.Q.Q.I.I.j.I.g.g.g.X.X.X.X.) ) j.g.j.j.I.I.I.j.I.I.j.U.U.I.I.j.I.j.I.j.g.",
"u.J.P.P.J.P.P.J.P.L.J.J.L./.d.J.J.J.J.P.P.J.L.P.P.P.P.H.d.P.P.P.P.P.R.R.P.L.L.L.R.W.P.T.R.K.P.R.T.T.K.P.P.(.(.T.P.P.K.T.T.K.K.K.K.T.K.T.K.K.T.R.T.W.W.(.R.W.R.R.).W.W.T.Y.d.] T.W.W.W.6 ; ; - ; / Z Z V d d d d D 0.w.y.w.w.%X%X%X(._.%X)._._.).%X%X%X).).).).).W._ d.(.).%X).%X).%X).%X(.).$X$X).(.R.T.Y.T.R.W.W.).W.).W.W.).$XW.$XT.W.!.!.E.Y.Y.Y.Y.Y.G.T.I.Y.G.T.T.f.Q.G.T.Y.Q.Q.T.Y.T.W.W.!.$X$X$X).).!.!.%X!.!.$XW.!.$X!.W.T.!.W.!.T.W.Q.I.Q.Q.f.f.g.f.I.f.I.Q.g.g.g...X...{ / g.j.g.I.j.j.I.I.I.j.j.j.I.I.I.I.Q.I.Q.j.j.g.",
"d.J.P.P.P.J.P.u.P.J.J.J.J.P.J.J.P.P.P.J.J.J.(.P.J.P.L.d.P.P.P.J.H.T.R.K.P.R.R.P.R.W.R.(.P.P.P.T.L.R.(.K.W.(.).T.R.(.W.T.T.T.L.K.K.K.L.R.R.T.T.K.T.(.Y.R.W.W.R.W.W.Y.R.K.u.u.R.K.K.K.] ; > > > , w.S ( A Z h h h D >.w.e.w.y.%X%X_._._.)._.%X_.%X).%X-X%X%X(.%X).%X).u.] ).%X%X%X%X%X%X%X_.(.W.(.$X).T.R.T.Y.W.W.W.W.(.W.!.W.W.W.!.$X$XW.$X$XG.G.Y.Y.I.G.G.Y.f.G.Y.Y.G.Y.f.Y.G.f.T.W.T.Y.W.W.W.W.W.%X$X).!.!.$X$X!.W.).W.W.T.W.W.W.$X$X$XW.W.Q.T.W.W.Q.Q.Q.Q.T.$XQ.g.I.j.g.g.' / ) g.g.j.j.U.j.j.g.g.I.I.j.I.j.g.j.I.I.j.I.I.U.I.",
"J.J.'.J.J.J.J.P.P.J.J.J.P.J.J.'.J.J.u.J.J.L.J.d.J.P.P.P.P.P.P.J.P.J.K.T.K.T.P.L.(.(.R.R.(.(.R.R.R.R.R.d.(.T.(.W.(.P.T.T.W.W.T.T.K.W.W.R.(.T.W.T.(.W.T.T.Y.K.K.T.f.f.] ] K.K.d.d.d.K./ 3 3 3 6 m 0.S ( A Z D D D D >.0.w.w.i.%X%X%X_.(.)._.%X%X(.).%X%X%X%X).%X%X%X%X%XE._ Y.%X$X%X%X%X%X%X(.W.W.R.W.R.(.R.T.W.W.W.).).R.W.$XR.W.W.W.!.$X!.$X$XY.Y.Y.Y.G.s.G.Y.Q.G.I.Y.f.Y.Y.G.Q.Y.Q.Q.Y.Y.Q.Y.T.Y.$X$XW.!.R.!.W.!.).$X!.W.W.W.W.$X$XW.W.!.!.$X!.Q.$X+XW.T.I.W.Y.j.I.I.g.g.g./ ) g.g.j.j.j.j.j.I.j.I.U.Q.I.I.I.I.I.U.I.Q.I.I.Q.Q.",
"P.'.'.'.J.J.J.J.P.'.J.L.J.J.J.J.J.'.J.L.J.L.J.J.J.J.P.J.d.(.P.P.P.K.P.R.(.K./.P.L.L.L.L.R.W.R.T.P.P.d.K.K.P.R.R.R.R.R.W.(.T.T.d.P.R.T.T.W.T.T.W.T.K.d.K.d.K.K.d.d.{ u.L.K.K.K.f.f.G.T ; > > > Z ( S A D D D S S >.0.w.w.w.h._._._._.(.).%X%X_.%X_.%X%X%X%X).%X%X%X).%X$X$X[ X.W.$X).%X%X$X$X%X$X$XW.R.R.R.R.R.E.Y.W.R.W.E.W.!.Y.$X!.T.!.$X%X%XT.W.Q.E.Y.G.G.f.Y.Y.Y.Y.Y.I.Y.T.T.G.Y.Y.Q.Y.G.Y.Y.K.T.W.R.R.Y.W.W.$X%X%X%XW.R.W.%XW.$X$X+X$XW.+X+X%X$X$X!.W.T.Q.Q.E.Q.I.j.X.) ' g.j.j.j.I.U.j.g.I.U.U.I.I.I.j.I.E.U.U.j.I.I.I.U.U.",
"u.u.u.u.'.J.L.(.P.P.J.J.J.J.J.J.J.J.J.P.J.J.J.J.J.P.P.P.P.L.P.L.P.d.d.u.J.J.J.K.K.K.P.L.T.R.R.K.d.K.T.K.K.P.P.R.R.K.P.P.R.K.T.T.K.K.K.T.R.K.Y.T.T.R.T.W.R.K.f.u.] K.P.K.K.K.K.d.d.K.M 6 6 9 s ( S S D S S D >.0.0.w.e.w.w.h.%X_.%X_._._.)._.%X%X%X).%X%X).).(.%X_._.%X%X$X$Xf./ Q.$X$X%X%X$X$X).%X).).(.W.T.T.W.T.T.W.T.T.W.R.W.!.!.$X$X$X!.%X+XW.E.Q.W.Y.Y.G.f.Y.Y.G.Q.Q.Q.G.Y.Y.Y.G.Y.Y.Y.Q.f.G.G.Y.T.T.!.W.W.).$X$X!.!.W.%X%X$X%X$X$X%X%X$X$X%X%X%X%X!.W.W.+X+XQ.I.g./ ..j.j.j.I.I.I.I.U.U.U.I.I.I.j.I.j.j.U.j.I.j.I.I.Q.j.j.",
"J.J.J.L.J.J.'.J.P.J.J.J.d.P.J.P.J.J.J.J.'.J.u.J.J.u.J.P.u.J.P.L.K.J.K.P.J.P.P.T.K.K.P.R.L.K.R.T.K.T.K.T.T.L.T.R.R.T.P.K.K.T.K.K.T.T.T.R.T.K.K.T.T.T.T.T.R.d.] d.K.K.P.K.P.K.K.d.d.K.M > > > , ( D S Z >.S D >.0.0.w.e.w.w.i._._._._._._._._.%X%X_.W.(.).(.%X%X).%X-X).%X%X$X$XR.] [ W.).%X%X%X%X$X%X).(.W.W.E.).W.E.W.T.W.W.W.W.W.T.$X$X$X!.W.!.!.T.T.W.Q.W.Q.f.f.Y.Q.Q.Y.f.f.Q.T.Y.I.G.Q.Y.T.f.f.Y.G.Y.W.).W.!.$X).$X$X$X$X$X%X!.%X%X$X%X$X%X%X%X%X%X$X$X!.$X+XE.Q.g./ X.Q.I.I.I.I.U.j.I.U.U.I.U.j.I.I.j.U.I.I.I.U.I.I.I.j.j.j.",
"J.'.'.P.'.'.J.J.J.J.J.J.J.u.J.P.P.P.J.J.J.u.J.J.J.J.J.P.d.P.d.J.K.P.J.P.P.P.P.K.T.T.R.W.P.K.T.K.K.K.P.L.K.d.W.T.R.K.J.d.J.f.K.K.T.K.T.T.K.W.R.L.K.K.K.K.t.u.T.R.W.R.R.K.L.P.R.T.K.d.M 6 9 f s S D D D >.S D >.w.e.e.e.w.w.h.(._._.%X_._._._._.%X_.).(.).%X%X%X%X%X%X%X%X(.W.).).R.f./ Y.).).%X%X$X$X%XW.W.).W.).).E.T.R.T.W.W.$X!.!.$XE.W.).%X$X$XE.W.T.G.G.Y.T.Q.G.Y.E.T.T.T.Y.G.T.W.Q.Y.G.G.Y.f.s.f.K.Q.T.!.!.$X!.$X$X%X$XW.!.$X$X%X%X%X%X%X%X$X$X!.!.+X$X!.+XQ.f.) X.G.I.Q.U.Q.I.I.j.I.j.j.j.I.I.U.g.g.g.U.I.U.I.U.g.g.I.I.j.",
"P.J.J.'.J.u.J.J.P.J.P.J.J.J.u.u.P.u.u.u.J.J.u.u.J.J.d.u.u.d.H.P.P.L.P.P.L.P.P.P.K.R.R.P.K.K.K.K.J.P.K.T.K.L.R.P.L.L.P.L.T.W.Y.K.K.K.T.K.T.K.T.K.T.K.d.` u.K.K.R.R.R.R.R.R.P.P.K.d.u.M > 3 8 N S S S S S 0.S >.e.e.e.e.w.0.i.(._.).).%X_._._.(.%X%X%X(.%XW.%X$X%X).).).).%X).$XW.).$XW.' g.(.$X%X).).$XE.W.W.W.R.W.W.W.W.!.E.$X!.!.!.!.W.).).$X%X$X!.!.T.Y.Y.G.T.!.T.T.Y.T.W.T.Q.Q.T.!.E.Q.T.Y.G.G.s.f.T.G.G.T.W.W.$X!.$XW.$X$X!.%X%X%X%X%X$X$X+X$X+X$X$X+XQ.E.E.I.) f.E.I.I.E.Q.I.Q.E.g.I.I.j.j.I.I.j.g.g.j.U.I.U.U.I.I.I.j.I.I.",
"J.'.'.J.P.P.P.u.u.J.J.J.J.J.J.u.u.u.u.u.J.u.d.J.J.J.u.J.d.H.J.J.J.P.P.J.R.P.d.P.K.L.P.K.P.T.d.K.K.K.R.Y.K.K.d.K.K.K.L.T.Y.W.T.P.K.K.K.K.R.K.W.K.K.[ ] K.K.K.P.K.L.P.L.R.R.P.P.d.u.] f 6 f 6 Z S S D S S 0.>.0.w.e.y.e.0.0.i.P._._.(._.)._.%X_.).).%X).).%X%X%X$X%X$X).$X$XW.).W.W.).).W.s./ Y.(.).W.W.W.W.W.).).T.W.$XT.W.!.W.Y.W.T.T.$X+XW.!.$X$XW.!.Q.W.Q.s.G.G.T.Q.W.T.Q.Q.Y.E.W.W.W.T.G.K.f.f.s.G.Y.G.G.E.W.!.T.T.!.W.$X$X%X%X%X%X$X!.$X%X+X!.+XW.$X+X+X!.j./ g.Q.W.W.E.E.U.Q.E.E.I.E.U.U.I.j.I.I.j.g.g.U.I.U.j.j.I.I.I.I.U.",
"J.'.'.P.u.'.u.J.P.J.H.J.u.J.J.u.u.u.u.'.J.J.J.J.J.u.J.u.J.d.u.H.P.J.J.P.P.P.P.P.K.K.L.P.P.P.P.K.K.T.T.K.K.K.P.R.L.T.R.R.(.(.W.K.K.K.T.Y.d.K.K.d.] d.K.T.K.T.P.K.T.L.R.(.L.J.J.K.u.[ M 6 6 > A A D D S S 0.0.0.w.e.e.w.w.0.u.P.P.(._._._._.%X)._.(.).).W.$X%X%X%X%XR.).(.).(.(.R.W.W.T.).$XW._ d.(.).).).W.W.W.W.T.Y.!.W.W.!.W.T.T.T.!.W.!.W.W.$XW.W.W.Q.T.Y.Y.G.Y.Y.T.T.T.Y.Y.W.W.T.Y.W.G.T.f.s.Y.G.G.G.G.Y.Y.Y.T.Q.!.R.W.W.$X%X%X&X%X$X$X).+XW.W.T.Q.Q.E.OXY.) f.Q.Q.OXW.E.Q.I.U.I.U.I.U.j.I.j.I.I.j.j.j.j.g.I.I.j.g.j.I.I.U.U.",
"J.u.'.'.J.J.J.J.J.J.J.P.u.J.J.u.u.u.u.'.J.u.u.u.u.d.P.u.J.u.J.J.H.J.P.H.u.P.P.K.L.L.L.K.d.J.P.K.K.K.T.K.K.P.P.K.R.(.(.W.(.K.W.K.K.K.T.d.K.T.] ] L.P.K.K.K.K.(.P.K.R.R.R.P.J.d.J.d.[ f & $ 6 S D D D S 0.0.0.0.e.e.e.e.w.w.y.L.J.J.R.(._._.).).(.(.).%X).).$X%X$X%X(.).(.W.$XT.W.).W.R.W.).).W.[ { R.$X$X$XW.R.R.W.Y.R.W.T.T.W.W.T.T.).T.W.W.!.W.W.W.W.Q.T.W.T.G.Y.W.G.Y.T.T.G.Y.W.Q.G.T.Q.T.G.G.Y.Y.I.Y.f.Y.Y.I.T.W.W.!.$X$X).%X$X%X!.Q.W.!.!.W.Q.Q.Q.Q.OXQ.{ G.!.Q.Q.E.+XE.Q.U.Q.Q.Q.U.I.U.U.I.j.j.U.I.I.E.I.I.I.I.j.j.j.I.I.U.",
"'.'.'.u.u.J.J.J.u.u.u.J.J.u.J.'.u.u.u.J.] ` u.u.u.u.u.u.d.u.J.P.J.H.J.P.P.d.d.J.L.d.J.K.K.K.K.K.d.d.K.P.K.T.P.T.(.T.W.W.K.K.K.T.K.K.K.d.d.] d.P.J.K.K.d.K.W.R.P.R.R.P.P.L.P.d.J.d.] f o & s Z Z S S S 0.>.0.0.0.e.e.e.w.w.( { d.J.P.R.(._._.%X(.).).).).T.(.$X$X%X).W.$X(.%XK.R.$XR.R.).W.R.W.R.K./ f.W.W.E.R.E.Y.W.G.G.W.T.T.T.W.!.!.W.!.Y.$X$X$X!.$XW.Y.G.Q.Q.G.T.Y.I.G.G.T.I.T.E.Y.G.Q.W.W.Q.T.G.Y.T.Y.f.Q.Y.E.!.$X$X$XW.W.!.$X+XW.E.T.T.Q.Q.Q.Q.Q.W.I.{ Q.W.Q.W.W.!.OXQ.Q.I.U.Q.E.OXE.U.I.U.U.g.j.U.Q.Q.I.Q.I.g.j.I.j.I.U.U.",
"'.J.'.'.u.J.u.'.J.J.u.u.u.t.t.` ` ` ] ` t.J.u.J.J.u.u.d.J.J.L.J.d.J.P.J.d.J.d.d.P.K.P.K.K.J.K.K.d.K.T.T.L.P.K.L.R.L.W.W.R.T.K.T.K.K.K.] ` K.K.P.K.K.P.K.L.L.P.R.R.P./.R.L.L.d.d.] [ q $ ; + ; a S A 0.0.>.0.0.0.0.e.y.w.>.g { d.K.P.d.R.).(.).).(.(.%X).).(.%X%X(.).%X%X).).(.).$X).).$X(.).$XW.).W.] ' W.R.W.R.E.W.T.T.!.W.W.Y.W.!.!.W.T.Y.Q.W.!.!.$XW.Q.T.Q.Y.I.Q.g.f.Y.f.I.T.W.W.Q.Y.Q.I.Q.Q.Q.Y.I.Q.Q.I.Q.W.W.Y.W.T.E.W.E.$X$X$XQ.E.Y.f.W.W.Q.I.Q.I./ g.Q.Q.W.!.+XW.W.+XE.E.Q.OXQ.U.Q.OXU.U.U.U.I.g.U.U.U.Q.U.U.U.OXI.j.I.j.",
"u.u.'.J.u.u.'.'.u.] u.p.` ` ` ` ` S ` J.u.u.u.J.J.J.J.d.P.u.P.P.J.J.H.P.d.K.d.J.P.d.d.K.K.K.d.K.K.d.K.d.K.d.K.L.R.W.R.W.T.L.T.R.T.s.t.d.K.K.K.K.d.K.L.R.L.L.K.R./.P.P.K.K.K.d.d.u.u.f $ ..q & & , d 0.0.0.0.w.0.>.e.i.w.Z 6 ] d.d.K.d.K.K.R.W.(.W.(.W.(.).).).).(.%X).%X%X).$X$X).$X$X%X).(.).R.).W.R.f.N d.R.R.!.!.W.Y.!.!.$X!.).$XR.T.W.!.).W.!.W.!.W.W.Q.T.Y.f.Q.Q.G.Q.I.G.T.Q.Q.W.Y.Q.Q.I.Q.Y.T.Y.Q.Q.Q.Q.Q.Q.Q.Q.Y.Q.E.W.$X+XE.W.Q.E.W.W.Q.Q.Q.G./ I.W.Q.Q.+XW.$X+XW.E.OXQ.U.Q.I.U.Q.Q.E.U.E.U.U.U.I.U.I.I.U.U.I.I.I.j.I.I.",
"u.i.'.P.J.u.u.u.u.u.J.J.` ] ` ` S S S u.u.H.d.J.u.J.P.J.P.P.P.u.P.J.J.P.L.K.P.K.d.K.P.d.K.K.T.K.K.K.d.d.K.K.K.T.W.R.W.R.T.T.K.K.u.d.T.K.T.T.K.H.K.d.d.K.R.R.(.R.R.L.P.(.d.K.d.u.u.[ q > T ~ o. .; ; g D e.>.w.w.0.e.i.w., 3 ' d.K.d.K.d.d.K.T._.(.(.W.).).W.%XW.).%X%X%X%X%X$X(.%X%X%X%X).(.).).).).T.T.Y.] ] Y.W.!.!.T.T.T.W.W.W.!.).W.!.T.%X!.%X$X$X+XQ.T.Y.G.Y.Y.T.Y.Q.Q.g.I.Q.Q.Q.G.Q.Q.Q.I.I.W.Q.Q.Q.Q.I.g.I.Q.Q.I.I.Q.+XE.Q.Q.Q.W.W.OXW.Q.Q.g.{ Q.W.Q.Q.W.W.+X$X$XOXW.Q.OXU.Q.Q.I.U.U.Q.I.U.OXU.U.OXE.U.I.U.U.j.U.U.I.I.U.",
"'.'.'.J.J.u.u.J.u.u.u.u.` S ` ` ` ` t.u.H.H.J.J.u.d.J.J.P.P.P.P.P.P.K.J.K.K.K.K.d.J.K.P.T.K.K.K.d.d.d.K.T.T.T.R.R.T.W.(.R.T.u.u.K.K.W.T.T.T.K.K.R.u.K.P.L.R.(.(.R.P.L.L.d.K.u.u.u.[ 9 o ; & 5 ..o.3 ; , w.>.e.e.0.e.i.m ; 5 / P.d.d.K.K.K.d.d.R.(.%X).).W.Y.(.R.W.(.W.).).W.W.(.%X$X$X).%X%X%X(.!.T.!.R.R.Y.s./ Y.W.W.W.!.W.T.$XW.W.W.$X!.%X%X$X%X%X$X%X+XW.Q.Y.E.I.G.Y.Q.f.I.Y.Q.E.I.Q.Q.W.Q.Q.Q.I.Q.Q.I.I.Y.Q.I.I.Q.I.Q.E.Q.I.I.I.Q.E.T.!.W.I.f./ g.+X+X+XW.W.OXOXW.+X$X$XQ.OXOXE.Q.E.U.Q.U.j.Q.Q.E.U.U.I.I.U.U.U.I.j.j.j.U.U.",
"'.'.'.'.J.J.'.u.u.u.u.u.` u.u.u.t.u.u.u.H.J.J.d.P.P.J.P.P.J.J.J.P.K.K.K.P.d.P.K.J.J.T.J.d.K.d.d.d.T.K.K.K.W.T.R.(.T.K.T.K.] d.K.K.W.Y.R.W.Y.R.(.R.R.L.L.L.R.L.P.R.P.P.K.P.d.d.d.u.[ 9 & g a ; ; ; 5 > ; , Z e.e.0.e.t.; ; 1 W d.d.u.d.f.K.d.d.K.Y.W.R.Y.R.).).(.R.%X).(.$X).).W.W.W.W.$X$X%X%X).$XT.W.Y.Y.Y.K.f.N ' W.W.W.$X!.W.W.T.!.).$X$X%X!.$X$X$X%X$XW.W.T.Y.G.f.Y.f.I.Q.Y.I.Q.Q.Q.I.Q.Q.Q.f.g.Q.I.I.I.Q.Q.I.Q.Q.f.j.j.Q.U.Q.Q.Q.Q.W.Q.I.f./ Q.OXW.W.+X$X+X+XW.Q.W.+XE.OXQ.OXOXOXE.E.Q.I.U.E.E.E.E.U.U.j.I.U.U.I.I.I.I.I.j.",
"u.'.J.u.J.'.u.J.J.u.u.u.u.J.J.H.J.J.d.d.d.d.u.J.J.d.J.J.P.J.H.J.J.K.K.d.K.K.d.K.L.T.P.R.T.K.K.K.K.K.K.T.K.T.R.W.d.K.K.] ] T.W.R.R.R.W.).(.W.).(.T.K.L.T.R.R.P.P.J.L.d.d.L.P.J.d.u.] 3 s ( d g a 1 > 5 ; > > ( y.w.w.s % 1 3 { u.d.K.d.d.d.d.d.d.f.R.W.W.W.W.).).W.(.(.W.R.W.K.K.).).).%X$X%X%X%X$X).W.).$XW.Y.Y.f.] / W.R.W.W.W.!.!.W.W.!.Y.W.W.$X!.W.$X!.!.W.W.Y.E.Q.Q.G.Q.G.Q.Q.Q.W.Q.Q.G.Q.Y.I.I.f.f.g.I.Q.Q.Q.Q.I.I.I.Y.I.I.j.I.I.g.Q.Q.f.' Q.+X+X!.W.+X+X+XW.W.W.+X+XE.+XQ.E.+XU.U.E.OXOXU.E.OXE.U.I.U.I.I.j.U.U.Q.U.U.U.j.",
"J.J.J.J.J.'.'.J.u.u.d.J.J.J.J.J.J.J.J.d.P.P.d.P.J.d.P.d.H.J.J.K.K.P.K.K.K.P.K.L.P.R.W.L.T.d.K.K.f.K.K.K.T.R.K.W.(.K.u.K.).(.).(.W.K.).%X).).(.R.L.T.L.L.L.P.P.P.K.K.K.K.d.P.L.d.u.] ; m w.S w.g 6 3 ; ; ; 5 3 ( w.A & & 4 9 u.J.J.J.K.u.d.s.k.d.K.f.K.W.W.R.).).).(.(.(.$X).).W.$X).$X).).%X%X$X).$X!.R.W.Y.R.R.Y.I.X.N s.R.W.!.!.T.!.!.!.E.W.!.$X%X%X%X$X$X+X$XQ.E.Q.Y.Q.Q.Y.Q.Q.Q.I.I.Q.Q.Q.Q.Q.Q.j.j.f.Q.Q.Y.I.Q.I.I.Q.I.j.j.j.I.U.j.I.j.' W.Y.W.+X+X+X+XOXQ.+XW.W.E.+XOX+X+XOXOXOXE.E.Q.E.OXE.OXE.U.g.U.U.E.U.I.I.Q.I.I.j.I.",
"P.L.L.L.P.J.u.J.J.u.u.J.P.P.P.u.d.u.P.P.J.J.J.u.d.H.d.J.J.J.P.d.d.P.K.P.K.K.P.T.K.d.T.T.W.T.K.d.K.R.T.W.T.Y.R.T.d.u.W.).).%X(.%X).).(.(.).).(.W.).W.K.K.P.P.K.K.K.K.J.K.J.K.K.d.u.] & A w.w.t.( Z s 6 5 ; 5 3 , Z s & ; 3 ( y.J.J.d.K.d.d.d.s.f.K.f.f.K.Y.R.W.).(.(.(.W.W.W.).).T.R.$X).).$X$X$X$X).!.W.T.W.(.T.R.Y.G.f.] { T.!.).$X!.W.!.W.$XW.%X%X%XW.W.!.$XW.W.R.Y.Y.I.Q.Y.I.E.E.Q.I.Q.Q.Q.f.f.Q.j.g.I.I.I.U.j.Q.j.j.Y.j.I.I.I.j.I.j.] ] E.$X$X$XW.+X+XW.+XE.+X$X$XW.OXQ.E.+XOXOXE.E.OXE.E.E.OXQ.E.E.I.E.U.U.U.I.I.Q.E.U.U.I.",
"J.P.P.P.P.J.u.J.J.J.J.J.J.J.J.u.d.J.d.J.J.P.d.u.J.J.J.J.H.J.J.d.K.K.K.T.J.R.R.P.W.T.K.T.L.T.T.T.W.R.(.(.T.T.K.u.d.(.).%X%X).).(.(.%X).(.(.R.(.).(.K.L.P.P.T.P.K.K.T.d.d.K.P.P.s.u./ ; S 0.e.w.0.0.( g g 6 ; 4 6 , - & 3 m i.i.u.K.J.K.d.s.d.f.f.K.K.K.f.W.W.(.$XW.).W.R.).W.W.$X).).(.).).%X).T.R.R.W.W.W.K.W.R.!.R.Y.E.W.g./ [ W.T.W.$XW.W.W.T.%X%X!.$X!.$XR.W.$X!.Q.T.Q.Q.Y.Q.Q.W.Q.Q.Q.Q.Q.I.f.I.I.f.Y.j.Y.Q.I.I.j.j.g.j.j.I.I.j.j...] E.E.+X$X$XW.W.W.I.!.$X+X+XW.E.$XOXOXE.OX+XE.E.OXOXOXU.E.E.U.OXOXE.U.U.j.j.j.E.U.I.U.j.",
"u.J.L.J.J.J.J.J.J.J.J.P.P.P.J.P.J.J.J.P.P.J.J.K.J.P.J.H.T.J.d.K.L.K.J.d.K.W.T.(.(.(.W.W.(.).T.R.R.K.Y.K.T.d.d.W.T.(.(.%X_.).%X$X).).%X(.(.(.R.(.W.(.L.L.P.R.).L.P.R.L.d.K.P.K.d.u./ 6 S >.w.e.w.0.0.0.( g 6 > 8 3 & % 6 y.i.i.i.K.L.K.K.d.K.Y.K.f.K.f.Y.K.R.W.Y.T.).).T.(.W.T.K.R.R.).).).).).R.Y.Y.R.R.R.R.(.W.R.T.E.W.W.Y.T.' { T.!.).!.W.T.W.$X$X).$X%X%X$X$XW.!.Q.Q.W.Q.Q.W.f.W.Q.I.I.I.I.G.j.g.j.I.j.j.I.j.j.I.I.j.Y.Q.j.j.g.g.] ] Q.Q.W.Q.+X+XW.W.$XQ.E.W.W.+XW.W.+XOXOXOX+X+X+X+XQ.E.OXE.OXE.Q.+XE.U.j.OXQ.j.I.Q.Q.E.U.U.",
"J.J.J.P.P.J.u.J.J.J.(.P.P.P.J.J.R.P.J.d.d.K.d.K.P.u.P.P.K.K.P.K.K.K.P.J.T.R.W.W.(.(.W.W.(.).).(.K.f.K.u.] K.W.K.T.W.(.(.(.(.).$X).).).).).W.(.R.W.(.R.R.L.R.(.P.K.L.K.K.d.K.d.d.[ / 9 S S <.r.e.w.0.w.y._ g 6 > 0 1 % A i.l.i.i.L.d.K.K.K.f.K.f.Y.K.Y.f.f.Y.Y.Q.E.Y.$X(.(.R.Y.Y.T.W.).).).).R.).W.W.W.R.T.R.W.W.R.E.W.W.E.W.Y.K.[ / f.!.!.W.W.W.!.!.$X$X%X$X$X$X%X%X!.+XW.Y.I.E.I.I.I.I.g.f.I.I.j.f.g.j.I.j.I.I.j.I.Q.I.j.Q.j.j.g...' g.W.E.W.W.+XQ.Q.Q.+XW.W.W.Q.W.+XT.W.+X$XOXU.OXOXOXE.+XOXOXE.E.Q.OXU.E.I.E.U.I.I.E.I.E.U.E.",
"u.J.J.J.J.u.d.J.u.J.P.P.P.J.J.d.K.P.J.J.J.H.P.P.P.P.P.P.J.K.K.T.K.K.T.R.T.W.W.W.W.T.T.(.).W.(.(.K.K.u.d.K.R.W.R.T.Y.T.).)._.).).$X).%X(.(.K.(.W.(.(.(.R.L.d.T.R.R.R.R.P.K.d.d.s.] W 9 S D >.r.w.0.0.w.y.t.( N > 4 3 ; ( i.a.h.i.h.P.K.T.K.K.K.f.f.d.d.f.f.f.f.Y.T.W.R.(.(.Y.R.R.Y.R.R.(.W.T.).R.T.T.W.R.W.).K.W.R.Y.Y.W.W.R.R.K.Y.f.' ' W.W.!.W.$XW.).$X$X%X%X$X$X$X!.$XW.W.W.Q.Q.g.I.f.j.f.I.f.Y.j.g.j.I.j.I.j.I.I.j.j.I.j.I.E.X.] I.I.Q.OXE.+XQ.Y.Q.E.E.W.+X+X+XW.OXQ.E.+XOXQ.I.I.OX+X+XOX+XE.E.E.Q.E.Q.E.Q.E.E.E.U.j.E.I.E.E.",
"A u.u.d.J.J.J.P.J.J.P.P.J.J.P.P.K.P.J.P.P.P.J.H.u.J.J.J.J.K.K.K.d.K.d.R.K.R.W.W.T.R.R.(.W.L.(.W.f.d.T.R.R.W.W.R.R.Y.).$X(._.(.).$X%X%X(.(.L.K.T.(.T.K.W.R.K.R.R.P.R.J.W.K.K.d.d.] N 6 Z D <.a.>.S 0.w.y.y.y.( s 1 5 a >.i.a.i.h.K.T.K.K.d.d.f.f.f.T.K.f.f.d.f.K.d.R.T.T.R.W.W.R.R.).R.).W.R.T.W.R.Y.R.Y.T.R.K.R.R.Y.Y.T.T.R.W.Y.$XQ.W.g.{ Y.W.I.W.T.$X$XQ.$X!.!.$X$X+X+XW.+XW.W.Q.f.I.j.g.f.j.f.j.I.j.j.j.Q.j.j.Q.I.j.j.j.Q.Q.....Q.Q.Q.I.Q.Q.Q.Q.I.E.OXW.E.OXW.E.+XQ.E.OXOXI.Q.I.I.OX+XOXOX+X+XOXQ.U.+XOXE.OXOXE.OXQ.E.E.U.I.U.",
"s m d.P.P.u.P.P.J.J.L.L.J.J.d.P.P.J.J.L.P.K.d.R.R.P.P.P.K.P.K.L.P.T.T.T.K.T.W.T.T.W.(.L.T.T.R.f.f.T.d.R.T.Y.).).(.(.%X%X).%X).%X).R.).T.W.T.T.L.L.W.W.%X(.(.K.L.R.P.P.K.R.T.K.u.[ T 3 s Z e.a.0.D >.>.w.e.r.e.Z 6 1 g S i.a.i.h.d.K.K.K.d.f.Y.K.Y.f.T.Y.G.f.Y.f.Y.Y.R.W.K.T.R.R.(.(.W.$X(.W.W.).R.W.W.Y.T.Y.d.R.R.R.R.W.W.!.K.T.W.W.W.E.Q.' ] T.Y.!.%X$X!.$XW.W.$X%X%X+X$X$X!.G.Q.I.f.f.g.f.j.j.f.f.j.f.j.j.I.I.j.f.f.I.Q.I.....j.j.I.I.I.I.E.E.I.E.+XE.Q.W.$XOXOXOXQ.Q.E.W.Q.OXOXE.Q.E.OX+X+X+XOXQ.E.OXOXOXU.OXOXOXOXOXE.U.U.E.",
"d.M / u.J.u.u.J.L.R.R.L.P.P.P.P.R.K.P.P.R.P.P.P.P.J.P.J.K.L.K.K.K.T.W.R.W.W.W.R.T.T.T.R.Y.s.u.R.Y.W.R.W.).R.).W.(.).).$X%X%X%X%X(.T.T.K.T.R.L.T.(.(.R.T.L.).R.P.P.L.P.W.R.K.K.d.s.B 6 + Z <.a.e.D S S S <.e.r.w.g % s D r.a.y.t.K.K.d.K.f.d.d.Y.Q.Y.Y.G.f.Y.Y.f.Y.Y.Y.R.W.(.W.K.(.(.W.R.W.R.R.R.R.R.Y.K.K.R.R.).).(.W.W.W.R.Y.W.W.!.W.$X+XQ.g./ f.!.W.$X$X$X$X).%X&X+X%X$X$X!.W.Q.Y.I.g.Q.j.j.Q.j.f.j.j.j.j.j.j.g.j.g.U.g.] ..j.I.U.I.I.U.E.I.Q.Q.Q.+XE.E.OXW.+XE.Q.OXE.Q.I.E.+X+XOXE.E.+XOXOXI.Q.OXE.+X+XE.E.U.OXE.U.E.+XOXE.OX",
"u.d.a { J.J.T.L.P.R.L.P.J.L.L.P.L.K.P.P.P.P.K.J.K.(.(.K.P.W.K.T.P.K.d.T.K.T.T.(.R.T.d.K.s.f.T.W.W.R.Y.).R.R.).).W.W.).).%X).).).W.T.R.).K.(.R.(.(.(.W.(.(.).R.P.L.T.T.T.P.R.d.d.[ W 6 # 6 >.a.w.S >.D V S >.>.S A ; a D e.>.S Z K.K.d.d.K.K.f.f.Y.G.s.f.Y.Y.Q.f.Q.Y.Y.K.R.R.W.R.R.(.T.W.T.W.R.Y.T.T.T.d.d.R.W.W.(.$X).W.Y.W.W.).%X).$X$X$X!.W.Q.' s.!.$X!.).%X%X%X%X$X$X$X+XW.$XQ.I.G.f.j.I.X.Q.I.j.j.g.f.f.j.f.I.j.U.j.' X.I.E.E.U.I.U.U.I.U.E.Q.OXQ.Q.Q.OXE.W.E.Q.E.E.OXOXE.+XOXE.OX+XE.OXOXE.I.OXOX+XOXE.+XOXE.E.E.OXE.OXOXOX"
};
