/* XPM */
static char *a4a0cd90589941f1c88d3c2ade3bab2c8K82yudfx9cMML9G[] = {
/* columns rows colors chars-per-pixel */
"256 455 256 2 ",
"   c #09060A",
".  c #0C090C",
"X  c #080506",
"o  c #140C0A",
"O  c #1A120C",
"+  c #120E11",
"@  c #150F1A",
"#  c #161213",
"$  c #1C1718",
"%  c #0E0C10",
"&  c #26160B",
"*  c #261C16",
"=  c #331B0C",
"-  c #29231B",
";  c #36261A",
":  c #3A260E",
">  c #221D22",
",  c #351C21",
"<  c #2B2926",
"1  c #372B24",
"2  c #33332C",
"3  c #3B3428",
"4  c #3B3B34",
"5  c #363734",
"6  c #322D34",
"7  c #1E1B20",
"8  c #462B18",
"9  c #573819",
"0  c #4F320E",
"q  c #663915",
"w  c #442D25",
"e  c #473728",
"r  c #573927",
"t  c #463C34",
"y  c #553B34",
"u  c #643D29",
"i  c #481E0C",
"p  c #3C413B",
"a  c #5C4316",
"s  c #5C420B",
"d  c #684708",
"f  c #795708",
"g  c #654918",
"h  c #775916",
"j  c #6F4F0F",
"k  c #7C6214",
"l  c #5A432B",
"z  c #494338",
"x  c #564839",
"c  c #5B523B",
"v  c #4B422D",
"b  c #67462A",
"n  c #744B29",
"m  c #785629",
"M  c #684A35",
"N  c #6A533A",
"B  c #785638",
"V  c #714F32",
"C  c #7B642C",
"Z  c #3B3547",
"A  c #443D4D",
"S  c #3D4848",
"D  c #3C4868",
"F  c #474947",
"G  c #574B44",
"H  c #5C5348",
"J  c #484657",
"K  c #445352",
"L  c #4C5A54",
"P  c #4B5856",
"I  c #545B58",
"U  c #495050",
"Y  c #665849",
"T  c #785A45",
"R  c #665B54",
"E  c #6D524B",
"W  c #57615C",
"Q  c #7A6349",
"!  c #6B6358",
"~  c #766857",
"^  c #786E57",
"/  c #4D556C",
"(  c #5B6667",
")  c #686867",
"_  c #766B65",
"`  c #7C7368",
"'  c #787A78",
"]  c #6C7174",
"[  c #665C67",
"{  c #943912",
"}  c #835D05",
"|  c #8B5317",
" . c #B25015",
".. c #896609",
"X. c #936C06",
"o. c #9A7408",
"O. c #876715",
"+. c #977516",
"@. c #916F15",
"#. c #A37C09",
"$. c #A57A15",
"%. c #835C37",
"&. c #89552B",
"*. c #89643A",
"=. c #966937",
"-. c #916F2E",
";. c #AC7734",
":. c #AD5429",
">. c #CE661B",
",. c #D66C25",
"<. c #DB722B",
"1. c #D16E2D",
"2. c #E5782E",
"3. c #CB611A",
"4. c #855C47",
"5. c #865A52",
"6. c #886648",
"7. c #936B48",
"8. c #98734A",
"9. c #886955",
"0. c #956B56",
"q. c #86765B",
"w. c #987657",
"e. c #897448",
"r. c #A47B58",
"t. c #AA7947",
"y. c #877A67",
"u. c #987964",
"i. c #877C73",
"p. c #896D64",
"a. c #A67B67",
"s. c #AE7D6F",
"d. c #CE784D",
"f. c #79827D",
"g. c #7D8407",
"h. c #AA830B",
"j. c #AA8515",
"k. c #B48C16",
"l. c #BC9316",
"z. c #B78D0B",
"x. c #B78931",
"c. c #938322",
"v. c #C59A18",
"b. c #C4970C",
"n. c #CE9335",
"m. c #E38D3A",
"M. c #EEAC38",
"N. c #D1A12A",
"B. c #B18550",
"V. c #8D8268",
"C. c #94856C",
"Z. c #9B8B6D",
"A. c #968768",
"S. c #8D8274",
"D. c #8B847A",
"F. c #938573",
"G. c #968975",
"H. c #9C8D73",
"J. c #958A7B",
"K. c #9B8D7B",
"L. c #928679",
"P. c #9E917C",
"I. c #9D9174",
"U. c #999270",
"Y. c #A6876A",
"T. c #A38C75",
"R. c #A29275",
"E. c #A4947B",
"W. c #AA9A7D",
"Q. c #A8977A",
"!. c #B18C73",
"~. c #A19068",
"^. c #CF9149",
"/. c #E59347",
"(. c #E9AB48",
"). c #DA9F57",
"_. c #70768C",
"`. c #586B96",
"'. c #857E85",
"]. c #7C8786",
"[. c #7C8399",
"{. c #7985A7",
"}. c #888985",
"|. c #968D82",
" X c #9D9283",
".X c #99958A",
"XX c #8E9493",
"oX c #A39582",
"OX c #A69984",
"+X c #AB9C83",
"@X c #A79B89",
"#X c #A99D8F",
"$X c #97A599",
"%X c #ADA28B",
"&X c #B2A287",
"*X c #A9A497",
"=X c #B5AD99",
"-X c #989DAB",
";X c #9C9EB3",
":X c #959CB1",
">X c #888EA6",
",X c #9EA1B5",
"<X c #9EA2B9",
"1X c #9BA3AB",
"2X c #AAA7A8",
"3X c #B3ADA9",
"4X c #BAB4AA",
"5X c #A3A4B5",
"6X c #A7A8B6",
"7X c #ABABB5",
"8X c #A3A5BA",
"9X c #ABACBB",
"0X c #A8A7BA",
"qX c #B4ABB8",
"wX c #AEB0BD",
"eX c #B3B2B5",
"rX c #B4B4BB",
"tX c #B9B6BA",
"yX c #BCBABC",
"uX c #BCB6B4",
"iX c #A6B5A6",
"pX c #A49EAA",
"aX c #C4BAA8",
"sX c #C2BDBB",
"dX c #C4BCB4",
"fX c #C8ACB8",
"gX c #C7B096",
"hX c #C9C3BA",
"jX c #D5CAB8",
"kX c #D5CBB1",
"lX c #E4D6BB",
"zX c #DCC8A0",
"xX c #ADB2C3",
"cX c #AEB6C9",
"vX c #B3B4C3",
"bX c #B8BAC8",
"nX c #B5BCD1",
"mX c #AEAEC1",
"MX c #C3BBC6",
"NX c #CDBCC9",
"BX c #C8C5C4",
"VX c #D3CCC4",
"CX c #DAD3C9",
"ZX c #D4D2D4",
"AX c #E5DAC8",
"SX c #E5DDD1",
"DX c #ECE4D5",
"FX c #F5EBD7",
"GX c #FBF4DA",
"HX c #F1E5CA",
"JX c #FCF9E6",
"KX c #FDFBFC",
"LX c #FCFAF4",
"PX c #EFEBE4",
"IX c #D6E1C8",
"UX c #B9C3C2",
/* pixels */
"2 F < < < < < < < 5 2 < < < # $ - < 2 < 2 < 2 < 2 2 5 2 5 5 5 5 2 2 2 < $ . + # $ # - - - - < 2 2 2 5 4 2 - < < < - $ $ * $ # $ $ - - $ $ $ - < - 1 4 3 3 z t z z z z z z z x z 2 3 $ - 3 1 2 4 1 z 3 ; 1 3 e 3 v 3 3 e v v v c x c N x N c c c c c v e ; 3 ; ; 1 v 3 3 3 3 e v v v x v x q.^ V.U.U.G.y.A.C.A.C.C.C.V.V.V.V.q.C.y.y.y.V.y.y.y.q.y.V.y.y.^ y.^ q.q.^ Q ~ ^ ^ ^ ^ ^ ^ ^ y.y.V.C.V.V.y.y.q.y.y.^ Q ^ ^ Y Y ! Y Y ! ! H ! H H ! y.S.S.S.i.` _ R H H H H I H I H H I ) _ _ _ _ _ _ _ _ _ _ _ _ _ _ ! ) ) ! ! _ ! ! ! ",
"< 2 5 2 2 5 2 < < 2 < 2 2 2 < $ $ < < $ < < < < < < 2 < 2 5 5 5 5 2 2 < $ # # # # $ - < < < < 2 2 2 2 2 < < 2 < 2 < $ $ # # $ - $ $ $ $ $ * - - - 3 4 z z z z z G z v z x 3 3 - $ $ $ * * - 3 3 3 t 3 ; 1 v e 3 3 t v x x x v H x x Y c N x v v e v - 1 ; 3 3 ; z e e e 3 3 v v v x x c c c c c Y ^ G.V.C.C.y.V.C.U.C.V.V.C.V.C.V.y.q.q.y.V.V.q.q.y.y.y.q.V.q.q.q.q.~ ^ ^ ^ ^ ^ ^ q.V.V.V.V.V.V.V.q.V.C.V.y.^ q.^ ~ ^ ^ ~ ~ ^ ` ^ ^ ^ H H R ! ! R ^ i.S.S.S.i._ R H U U I I I ) ` ` ` _ _ _ _ _ _ _ _ _ _ _ _ _ ) ! ! ! ! ! ! ! ",
"4 - z 5 2 2 2 < 2 5 2 < 2 2 < 2 < < < < < < < < < < < < < 5 2 5 5 2 5 5 < $ - $ $ $ - - - $ - 2 2 5 2 5 < 2 2 2 - - $ # # # $ $ $ # $ $ $ - $ - - t 4 3 z z x v z z x z 1 * - $ * - * O O - 2 2 ; t 3 3 t v z x v x x c x H v v x x c v v ; 1 1 3 3 ; 1 ; e 3 z v e v 3 e v x e v x c Y N c c Y Y Y Y v Y y.V.U.I.C.C.C.H.C.V.C.C.C.C.q.V.y.y.q.y.V.q.q.q.q.q.q.A.q.q.^ ^ ^ q.^ q.y.q.q.y.^ y.^ y.^ ^ q.V.q.y.V.V.q.y.V.V.V.V.` ` ^ ^ ^ ! ! Y ~ Y ! ! ! ~ ` S.D.S.i.` ) R H H R H H R R ! ! ! _ _ _ _ ! ! ! R R R ! ! ! ! ! ! ! ",
"4 2 5 5 5 5 5 5 2 < 2 2 5 5 2 2 5 5 < < < < 2 < < - < < < < < < 5 < 2 5 2 < < < $ $ - < - - < 2 2 < 2 5 2 2 5 2 2 < $ $ # o # $ $ # - $ $ - - - 3 4 4 z v v z z z 4 x - * * - - * * * - - - - ; 3 t 3 v z t H x c x v x x c z x x v v ; 3 ; ; 1 ; 3 3 3 ; x e e e v v e v v c x c x N Y Y Y Y c c v 3 e e e e v Y G.I.C.U.G.V.V.C.V.y.V.y.y.y.q.y.V.V.y.A.V.V.V.C.C.C.V.q.^ ^ q.y.^ ^ q.^ ^ q.q.^ q.q.q.y.V.V.V.V.V.q.V.V.V.V.V.V.y.V.` ^ ! ^ ^ ^ ! ^ ~ ^ ~ H R _ i.S.D.i.y.y.i.y.` ` _ ) ! R R I I R R ! ! ) ) ! ! H R H ! ! ! ",
"5 < 2 2 5 2 5 4 5 5 2 2 5 5 5 2 5 5 4 z 5 2 2 < 2 < < < < < 2 < < < < < < < < 2 - - < < 2 2 2 2 5 5 2 2 2 2 2 2 2 < $ # # o o - - # $ $ - < < < 2 4 3 4 4 z t 3 - - - $ $ - $ * - - - $ - - - 1 v 3 z 4 z z H x c x v H x H z e ; ; 1 - 3 ; 1 - 3 3 v 1 v x 3 e v v x c Y c N c c N N Y Y v v e 1 1 e v e e e 3 e e ^ V.I.C.C.C.U.H.C.C.C.y.y.V.A.V.q.y.V.A.A.V.V.V.C.C.V.q.q.q.q.q.^ ~ Q ^ ^ ^ ^ q.^ y.q.q.y.y.y.V.y.y.^ y.q.V.V.V.y.y.y.y.~ ^ ^ y.! Y ^ ! ~ ! H H H ~ ` y.S.i.i.y.y.y.` ` ` ` _ _ _ _ ! R H I R H I ! H I ! ! ",
"5 < 2 5 5 5 2 4 2 2 5 2 5 2 5 5 2 2 5 2 2 < 5 5 2 2 < < 2 2 < 5 < < < 2 < < < < 2 2 2 2 2 2 2 < 4 2 2 2 2 2 < 2 2 2 - + # # o $ - * * - < 2 < 3 2 < 5 1 2 2 * * O $ $ O $ $ $ * - - - - ; * - 3 v t z z G z c z G H v z c z 1 3 ; ; ; ; t - - - 3 3 e 3 1 v e x c c c c x c N c N c c v v e e e 3 3 e e e e 3 3 e v x v V.C.P.V.U.A.Z.C.H.C.A.V.q.V.V.V.V.V.V.V.V.V.V.y.V.V.C.V.y.V.^ ^ y.V.V.q.q.y.y.y.y.y.q.y.^ y.y.y.y.V.V.C.V.V.V.V.V.y.y.` ^ ^ ` ` ` ^ ^ ^ ^ ~ ~ ! G G H R _ y.i.i.` ` ` _ ! H G H H H I H I H I I R I I H ",
"4 < > 5 5 5 2 2 2 2 5 5 5 4 5 < 2 5 5 5 5 < 5 5 5 4 5 < 2 5 2 5 < 5 2 2 < < < < 2 2 < < < < 2 2 2 2 5 2 2 2 < 2 2 2 < # # # $ - < - $ < < 2 3 2 < < 5 2 2 - $ $ $ $ $ $ # O - - < - - - - - ; 3 - z c z z x z z z z e ; ; e ; 1 - 1 ; 3 3 - - e t v e v x x c c c c c Y c Y Y c v ; e ; e v 3 3 3 e e 3 e e v e e v c v Y Y Y V.q.A.Z.A.V.Z.C.A.q.y.q.q.V.V.V.V.V.V.V.C.V.V.C.C.C.C.C.C.C.C.V.C.q.V.C.y.V.y.y.y.y.V.V.q.^ y.q.C.V.C.V.V.q.q.V.V.q.^ ` ^ y.` ^ ^ ^ ^ ^ ~ ! ! R H R Y z H H G H H z F G H H G H H I H R H I I I I ",
"4 5 - 5 2 2 2 5 5 2 5 5 5 4 5 5 5 2 4 4 5 5 2 5 5 4 5 5 5 5 5 5 5 < 2 < 2 2 2 < < < < < < < < < 2 < 2 2 2 2 < 2 2 2 2 < - - - $ - $ $ - - - < < 3 2 5 2 2 < $ O * $ - $ $ O - < - - - - O - 1 z 3 H z v v z v z 3 1 1 1 ; 3 1 3 - ; 3 3 3 ; - ; z v v c Y x x c c N x c x v v 1 3 ; e e v e 3 v v v e e v e x x v c c c Y Y N N N Y A.Z.U.V.V.V.A.V.q.q.y.q.V.^ q.q.y.V.y.q.y.V.V.q.y.V.y.q.q.y.y.y.V.V.C.y.V.V.y.V.y.q.V.V.y.V.C.V.C.V.^ V.V.q.q.q.y.V.V.V.q.^ y.^ ^ ~ ^ ^ ~ ! ` ` H H G z x x F G G F G G U H H I H H H H H H ",
"5 4 < 2 5 5 5 2 4 5 5 5 5 5 5 2 2 5 5 5 2 2 2 5 < 5 5 2 2 5 < 5 5 2 5 5 2 < < 5 2 2 < < < < 2 2 2 5 < < < 2 2 < 2 2 2 2 < < < - - - < < < 3 2 3 2 3 3 2 2 - - # $ $ $ $ $ $ - - < - - # - 1 t x z z v v t v 2 ; 2 - 1 - ; 3 ; 3 2 3 t ; 3 t e e x c c Y Y c x Y c c x v e 1 1 1 3 ; 3 e 3 e v e 3 v 3 v x e v x x c N N N Y Y Y N c x ^ ^ V.V.Z.Z.C.A.V.V.V.V.C.V.q.y.y.q.^ y.^ y.y.y.y.q.q.q.q.^ ^ q.V.C.V.V.V.y.V.V.V.V.V.y.q.V.V.V.C.C.C.V.V.q.q.y.V.y.y.q.q.^ ^ ^ ^ ^ ^ ^ ^ ^ ! ^ ! ! H ! ! H G F F G G H G H G H H H H H H ",
"4 4 < 5 5 5 2 2 5 2 2 4 4 5 5 5 5 5 5 5 5 2 5 5 5 5 5 2 5 p 4 5 5 5 5 5 5 5 < 2 2 5 2 2 < < 2 2 2 < < 2 < < 2 < < < 2 < < < < < < < < 2 4 5 2 2 3 5 5 2 2 < - $ $ - - $ $ * - - - - - - < z H z 2 t 3 3 1 2 2 1 - - - - 1 - - 3 1 ; v t t x x H c c x Y N x x c t 3 e 3 ; 1 3 3 3 3 3 v v v v v v x e x x c c c x N N N c Y x v 3 3 e e e e v Y ^ q.^ q.q.^ ^ q.V.A.y.C.V.y.^ q.V.V.y.q.q.^ q.y.y.y.y.q.y.q.y.V.C.y.V.y.y.y.y.y.V.V.y.y.A.V.V.q.q.y.y.y.y.y.^ ^ q.y.y.q.^ q.q.^ ^ ^ ^ ^ ` ~ ! ^ ^ R H 4 G G z G H H H H G G G H ",
"5 5 < 5 4 4 5 2 5 4 5 5 5 2 5 5 5 5 5 5 2 5 5 5 5 2 5 2 2 4 5 5 4 4 5 5 5 5 5 5 5 2 2 2 2 2 2 2 2 2 2 2 < < < 2 < - 2 < < < < - - 2 < < 2 5 5 5 t 2 2 5 < < < - $ $ - - - - - - - - 2 1 1 3 z 4 3 3 < * 2 - - - - - 4 - 1 2 - 1 3 4 3 z z z x x v x c H z H v t 3 3 3 v ; 1 1 3 3 ; 1 z t v x v e c c x Y c Y c Y c v x e e ; v e e e 3 v e e e v v e v c N N N N ^ Y q.C.U.Z.Z.A.y.y.y.y.y.^ q.y.y.y.y.V.V.V.V.y.q.q.V.V.y.y.y.y.y.y.y.C.C.C.C.C.V.y.V.V.q.V.y.y.V.y.y.^ y.q.` ^ ` ^ ` ^ ` y.` ^ ` ! R H H z G z G G H G z G G ",
"2 2 < 2 5 4 2 2 4 4 4 5 5 5 4 4 5 < 5 5 5 2 5 4 5 5 5 5 2 5 4 5 5 5 5 5 5 4 5 5 5 5 5 5 4 4 2 4 2 4 2 5 2 5 5 2 2 2 5 2 < 2 < < - - - < 2 < 2 2 2 2 2 2 2 5 2 < $ $ $ - < - < - - 2 2 3 t t G < 4 3 < - - - O - - - < - < < 2 3 3 z z z x z H c t z c 3 3 3 z 3 3 3 3 t ; 3 ; e 3 v e e e t x c v Y Y c Y Y Y c v 3 3 e e e 1 v e e 3 e e e e v v x x c c c Y Y N Q Y c v Q q.U.Z.Z.A.q.V.y.y.V.V.V.V.V.V.V.V.A.V.V.V.V.V.y.q.q.y.q.q.y.V.q.y.V.C.V.V.C.U.C.V.V.V.V.V.y.V.y.q.V.y.` y.^ ^ ^ y.y.y.^ ^ ^ ! ^ ! H H G z G G F H H ",
"2 2 < 2 5 5 5 2 5 5 5 2 5 2 5 5 2 2 5 4 5 5 5 5 2 5 4 5 5 5 4 5 5 5 5 5 5 4 5 5 5 4 2 2 2 5 4 4 5 4 5 4 5 4 2 5 2 2 5 5 2 4 5 2 2 - < < < < < - - < 2 - - 2 2 < - - - - $ - < < 3 4 3 3 5 3 z 2 3 5 - < - - $ $ - - - < 3 1 3 z v z x z z x x v - - - - 1 - 2 3 ; ; 1 3 1 t 3 3 z v 3 z e e c c H c Y Y Y N c e e 1 e 3 v 3 ; v v 3 e v e x v x c Y c N c N N Y N c c v e v v N ^ q.A.U.V.V.V.C.G.A.U.C.G.C.C.C.A.V.V.V.C.y.q.V.q.q.q.y.q.V.y.V.V.V.V.V.V.V.V.V.V.V.y.V.V.V.V.C.q.y.V.y.^ q.y.^ ^ ` ^ ~ ` ` ` ^ ^ ! G H z z G H ",
"6 < < 2 5 5 2 5 5 5 5 < 5 5 5 2 5 5 5 5 5 5 4 5 5 5 5 5 5 5 2 5 5 5 5 5 5 5 5 5 2 5 5 5 4 4 2 4 2 2 5 5 4 4 2 2 2 2 5 5 4 p 5 5 4 2 5 5 5 < < < < < $ $ - - < 2 - < - - - - 2 5 3 5 3 2 3 3 z 5 5 4 2 - $ - - - - - 1 1 5 2 t z z v z z G G 3 1 - - - - < * - 4 1 ; 1 t t v t v 3 x 3 v Y c x v c c c c v 3 1 v 3 3 v 3 v e 3 v v e c c c c c c Y N Y N c x v v v e v v e v v e e x c ^ V.^ V.Z.R.I.Z.U.G.G.G.C.C.V.U.U.A.I.A.Z.A.q.q.V.^ C.V.y.V.V.V.y.V.V.C.V.V.V.V.V.C.V.V.V.q.V.y.y.y.q.y.` y.` ` ` ^ ^ ^ ^ ^ ^ ! ^ H H ! G ",
"U S p 4 5 2 2 2 < 2 < < 5 2 5 2 2 2 5 5 2 2 5 5 5 5 2 4 5 5 5 5 2 5 5 5 5 5 5 5 < 5 5 5 4 5 5 5 5 2 4 4 4 5 5 5 2 5 5 5 4 4 4 5 4 5 4 4 z 4 5 2 2 < < - - - < - - - - < 2 3 < 5 2 4 4 2 4 3 t t z z 5 - * - - - - 1 2 3 4 2 2 z z v 3 z 3 - - 2 2 - - * 1 - 3 t z 1 3 t 3 z 3 z z v t G c H z v v 3 ; 1 1 1 3 t 3 v e e v v v x Y v c c N N Y c c Y v e 3 3 3 e v e e e e e v v v c v v c N N Q q.C.H.U.Z.U.A.V.C.U.C.V.q.A.V.U.A.V.V.V.y.V.V.V.C.V.V.V.V.V.V.V.C.V.V.V.V.V.C.C.A.V.V.q.y.y.V.y.^ y.V.y.y.` ^ ^ ^ ^ ^ ` ^ ^ ^ ! ",
"K K K K K U F S S 4 5 2 2 2 < < 2 2 2 2 < < 5 5 2 5 5 5 5 4 5 5 2 < 5 4 5 5 5 5 5 4 2 5 4 5 5 5 5 5 5 z 4 2 2 2 5 5 4 5 4 5 4 5 5 5 4 p 4 4 4 5 2 2 2 2 5 4 < < - - O - < 2 < 3 2 5 5 4 5 3 z z 5 z 3 - 2 < - 3 2 < - < 3 5 2 t 5 t 4 4 - * - 2 < - - - 2 1 ; t z 2 t x z z z x z v z z 3 1 ; ; ; 3 3 3 ; 3 3 3 3 v v 3 v H c Y x c Y N c c Y x e e e 3 3 3 e e e x 3 e v x v c c c c c x Y Y N N c v Y C.C.H.H.H.U.C.U.V.V.q.H.C.V.q.^ ^ y.V.y.V.V.y.y.q.y.V.V.V.V.V.V.C.C.A.U.C.A.A.V.C.V.V.V.y.q.V.V.V.y.y.` y.y.y.y.y.V.y.` ",
"K K K K K K K K K K K U U S p 4 5 5 2 2 2 2 2 2 2 2 2 5 5 5 5 5 5 2 5 5 5 5 5 5 4 4 2 4 5 5 5 2 4 2 2 2 5 5 4 5 z 5 5 5 5 5 5 z 5 4 4 4 5 p 4 5 2 2 2 2 2 2 < 2 3 2 5 2 2 < - - < < 3 4 2 t z t 4 4 2 < < - 3 5 3 < 1 4 z 4 z 4 t t 4 3 - - - 2 < - - 3 - 2 1 4 z 3 v v z z z z t 2 < - - - ; - - 3 1 ; 3 3 1 3 t x v x x Y H c x c x v 3 3 3 ; 1 3 e e e v 3 e 3 v e x e c c N c N c Y Y c c e 3 e e v e v v c ^ V.I.Z.A.V.q.V.V.C.V.q.y.^ ^ ^ y.q.q.y.y.V.y.V.y.V.V.V.V.V.q.V.A.C.C.A.V.A.V.V.V.y.V.V.V.V.C.V.V.V.y.y.V.y.` ^ ",
"K K K K K K K K K K K K K K K K K K F S 4 4 5 2 < 2 2 2 2 2 2 2 2 5 5 5 5 5 2 5 4 5 2 5 5 4 5 5 4 5 2 5 4 5 5 4 5 5 5 5 5 5 4 5 4 4 p 4 5 4 4 4 2 < 5 z 4 2 4 5 5 5 5 5 4 2 2 5 < 2 < < 3 5 t 3 2 4 2 2 2 < 5 2 2 z z 5 4 z t 4 t 4 3 3 - - 5 2 - < 1 4 3 3 3 v z 4 z z z 4 < - < < - - 1 - - 1 1 4 3 3 t 3 3 t v x e c c x z z t 1 1 3 2 ; - ; ; e v e v 3 e v e x c c c c N c c c x v 3 v e e e e e e e x v e v N ^ U.C.U.A.A.C.C.U.V.C.^ y.y.^ q.y.^ q.V.V.V.q.^ ^ q.V.q.q.V.V.q.Z.V.A.C.V.C.V.V.y.C.V.V.V.C.C.C.C.V.C.V.y.V.",
"K K K K K K K K K K K K K K K K K K K K K K K F F F 4 5 < < 2 < 2 2 2 5 5 2 < 2 5 5 < 5 2 5 5 5 5 5 4 5 5 2 5 5 5 4 2 5 p 4 p p 5 4 4 p p 4 4 4 2 2 2 4 2 2 5 5 2 2 5 5 4 2 3 2 5 2 3 2 2 3 2 5 2 5 < - 3 3 4 3 2 5 4 5 t z 4 t z z 4 2 - $ 5 < 1 < 2 3 3 5 3 z 5 5 3 < - < * - 2 2 - < < 1 - 4 2 1 v v z t v z v z x x t 3 3 ; - 3 1 1 ; ; v 4 t v e x x v x e c c c N x N c x e 3 z e 3 v e e e 3 e v v x v v c c c N ^ C.U.I.U.Z.Z.U.U.q.` q.V.q.V.q.V.V.V.V.V.y.y.y.V.V.C.C.C.V.V.V.Z.A.V.V.A.V.y.V.y.y.y.V.q.V.V.V.C.V.G.C.",
"K K K K K K K K K K K K K K K K K K K K K K K K K K K K K S S 4 6 2 5 2 2 2 < 2 5 2 2 5 4 5 5 5 2 5 4 2 5 5 5 5 5 4 5 2 5 5 4 5 4 z 4 4 4 4 5 4 2 5 z p 4 5 t p z 5 4 5 5 z z 2 p t z t z p 2 z z 4 5 4 < < 3 2 2 5 2 < 5 t t 4 4 4 t 2 2 - 1 3 - 5 2 5 4 3 5 5 5 < * - - $ $ 2 - < - < - 2 3 3 t 3 z t z t z z z 3 4 1 - 1 3 1 3 1 3 t ; 3 3 3 v v v v c c x x x Y c x v e - z 1 3 v 3 3 v 1 3 3 e c c c x x c c N N N N N N Y ^ I.I.Z.U.U.C.V.C.A.V.Z.U.C.V.y.q.q.q.q.y.V.V.V.A.A.V.A.V.A.V.V.A.V.V.V.q.q.q.q.q.q.q.y.y.V.V.C.",
"K K K K K K K K K K K K K K K K K K K K K K K K K K K K K K K K K U F F S 5 5 2 5 2 2 5 5 5 5 2 5 5 5 5 5 5 5 2 < 5 5 4 4 5 2 4 z 4 4 5 4 p 2 4 5 5 2 4 p 4 2 5 4 4 p p 2 4 t 4 z 5 4 z z z 5 4 4 4 4 t 5 4 5 3 4 5 5 < < 4 < 5 2 t z 4 5 < 2 2 < 3 3 5 5 5 5 3 5 2 - $ $ $ $ - 2 < - - - 3 1 1 4 3 3 z t 3 t t - - 1 < - - 1 - 1 1 t e 1 1 e v z z x c Y c x x v 3 3 t 3 3 ; z ; 3 v v e v v z x x x c c x v c N N c x v e v v v c V.U.Z.C.V.V.V.C.I.U.Z.I.V.y.q.V.V.V.V.V.C.A.A.C.V.V.V.V.q.V.V.V.q.q.q.q.q.q.q.y.V.q.q.V.y.V.",
"K K K K K K K K K K K K K K K K K K K K K K K K K K K K K K K K K K K K P P P K U F p 4 4 5 2 < 2 2 2 5 5 5 5 5 2 5 2 p 5 5 4 z 4 p p 4 z z 5 5 5 2 4 z 5 4 5 4 z z p p 4 p 5 z z 4 5 t 5 5 2 F z 4 z z 2 z z z 5 t z 4 2 4 5 < 1 2 2 2 3 3 3 2 3 2 3 2 5 5 4 4 5 3 < * $ * $ < - 2 2 - < 2 - - 1 1 z 3 < - - - * 2 3 5 - < 1 - 1 - z t t z c v z c x z v e - t 3 1 3 3 3 3 ; z t t v x x c x c H c v c c c x x v v e 3 v x v v x x v x Q ~ c N c N ^ V.I.U.U.U.A.A.A.C.C.V.V.A.V.V.U.C.A.Z.U.U.V.C.V.A.V.V.q.q.V.q.q.q.y.V.V.G.",
"K K K K K K K K K K K K K K K K K K K K K K K K K K K K K K K K K K K K K P P K K K K K K K U F 4 5 < 2 5 5 5 2 2 2 5 4 5 5 5 p p 5 4 4 4 5 5 4 4 2 5 z p z 4 4 4 4 2 z 4 z 2 5 4 5 z z 5 4 5 z z 4 4 4 4 t 4 z z z z 4 4 F z 5 4 5 3 2 5 3 2 2 4 2 2 3 2 5 4 4 3 3 5 - - $ $ < < - < 2 < 5 2 5 - < F * - - $ < - 2 2 < - < < 1 4 4 z z z z z t z z 3 - - 1 - 3 e ; z 3 ; z 1 x e v x c x c v c x c x v e e e 3 x x e e v v v v x v v c c c c N Y Y Y Y Y Y Q q.V.C.V.I.A.C.A.V.U.C.C.V.V.A.V.C.V.V.V.A.V.V.V.q.V.y.q.q.q.q.q.y.",
"K K K K K K K K K K K K K K K K K K K K K K K K K K K K K K K K K K K K K K K K K K K K K P P P P P P U F S 4 5 2 5 4 5 5 5 5 2 2 5 5 4 5 4 4 5 4 5 5 4 5 z 4 4 4 4 4 z z p 2 5 4 5 4 5 z 4 2 z z 4 z z 4 z z z z z z 5 z z 4 z z 4 t 5 4 5 5 2 5 2 < < - < 2 2 5 2 2 2 < - < < < - - - - 2 2 2 < 3 < < $ - - - $ - < - < 1 2 z 3 4 t z t z 2 < 2 1 - - 1 2 - z t t 3 e 3 v x c x H x x c x v v v 1 1 3 e v 3 e e v v e x e x x c x c c N N c Y Y Y N Y c z v v v x c ~ V.Z.I.U.I.U.V.V.V.q.V.y.q.q.q.q.q.q.q.V.V.V.q.V.q.q.q.q.",
"K K K K K K K K K K K K K K K K K K K K K K K K K K K K K K K K K K K K K K K K K K K K K K K P K K K P P P P P U U F p 5 2 < 2 5 4 5 5 5 5 5 5 5 4 4 4 5 5 5 5 z p p 4 4 5 4 4 5 4 4 t 4 p p 4 z 4 4 z 4 z z z z 4 z z z 4 4 z 4 t 4 4 z 4 5 4 t 2 5 2 < 2 < < < - < < < < < < < < 2 2 2 2 2 2 < 2 - < * $ < - - 2 2 - 2 4 < 4 2 3 2 < 2 2 - - - < < < - 3 3 3 t t v v v x x c H x e t e ; ; v ; ; ; e z 3 e v v e x v x x x c N c c N N c c v x v e v v v x v x x c x c Y ^ ^ C.I.q.q.^ q.q.q.q.q.^ ^ ^ ^ q.q.q.V.q.V.V.q.q.q.",
"K K K K K K K K K K K K K K K K K K K K K K K K K K K K K K K K K K K K K K K K K K K K K K P P K K P P P P K K K K P P P P U F S 4 5 2 5 5 5 2 5 5 5 4 4 5 5 5 z 4 4 p z p z p 5 5 z z p z z 4 z z z 4 z z 4 z z z z z z 4 z z 4 4 t 4 4 4 4 z 5 2 4 5 5 2 3 2 2 < < - < - < < < < < 2 2 2 2 2 2 2 < * $ $ $ - - 2 - - < 2 2 2 - < < $ $ < - - * 5 - 2 < 4 1 3 v v x x x H z z t ; 3 3 1 3 e 3 - t t z 3 ; 3 x v x c x x x c c N N x v v e v e v e v v v v v x v x x x x x e 3 ; ! V.V.V.V.V.V.V.q.q.q.q.q.q.V.V.V.V.q.V.V.V.q.",
"K K K K K K K K K K K K K K K K S K K K K K K K K K K K K K K K K K K K K K K K K K K K K K K K K K K P P P P K K K K K K K P P K P P K U F F 5 4 5 5 5 5 5 5 2 5 4 5 4 p z z z z z z F z z z 4 z z z 4 t z z z z F 4 4 z z z z 5 z z z z 2 z 4 5 2 4 2 5 4 5 5 2 2 2 2 2 2 < 2 2 < < < - < - 2 5 < < - < $ * - - < < < < < 2 2 - < - - $ - < - * 2 - 2 < 3 4 3 v t z z v z < 3 3 - 4 3 1 t 3 1 4 3 3 x t z c c z c c x x v v v v v 3 3 x v e v x z z v x z z z z z e 3 - * $ $ * 3 c Q ^ q.V.Z.A.A.A.V.q.q.q.q.q.q.V.V.V.V.V.q.",
"K K K K K K K K K K K K K K K K K S S K K K K K K K K K K K K K K K K K K K K K K K K K K K K K K K K K K K K K K K P P K K P K K K P P P P K P P U F F 4 5 5 5 5 2 5 5 4 4 z z 4 z F p z F z z z z F z z z z z 4 z z z z z z 5 z z z z z 5 2 t 5 2 5 5 5 4 5 4 4 5 5 4 5 5 2 2 2 2 2 2 < - - - - < < < < < < < 2 < < < < < < 2 < - $ < $ - - - - < - - < < 3 < 3 4 2 < - * - 5 3 - 3 3 2 3 3 3 v z z z x z x c v x x v v t ; t v t 3 e x t v z z v v z v t 3 1 - - $ * $ $ $ $ ; v v x x x c N A.~.A.A.V.V.V.V.q.q.V.V.q.q.q.q.",
"K K K K K K K K K K K S S K K K K K K K K K K K K K K S K K K K K K K K K K K K K K K K K K K K K K K K K P K K K K K K K K P P P P P P P P P P P P K P P K K U F F 5 4 4 5 4 4 z z z p p p z 4 z z z p z z 5 F z z z 4 z z z z z 4 4 z 4 4 2 5 5 5 5 2 4 5 5 2 5 5 5 5 5 5 2 2 5 2 5 5 2 2 < 2 < < $ < < < < < < < 2 2 5 2 2 2 2 < - * < - < < < - < 2 < < < < 2 - $ < - $ - t 2 - 5 1 ; 3 z z z G G v z 4 3 3 3 1 1 e 3 e 3 t v v t z v z z z t 3 3 1 3 * - - - * * * $ $ $ $ 3 z c c H c x v c V.Z.U.A.A.Z.V.V.U.V.V.q.q.q.q.",
"K K K K K K K K K K K K S K K K K K K K K K K K K K K K K K K K K K K K K K K K K K K K K K K K K K K K K K K K K K K K K K P P K K P P P P P P P K K K K K P P P P P L L U F F 4 4 4 4 4 p 4 4 z 4 4 4 z z z z z 4 z z z 5 4 z z 4 5 4 t 5 5 4 4 z 5 4 z 5 5 2 4 z 5 2 5 2 2 5 5 5 5 5 < 2 2 5 2 < * 2 < $ < < < < < < < 2 2 2 2 < < < < < < < < < 2 < 2 < - - < < $ < - $ < 4 < < 2 2 < z G z G t v 4 3 - * 3 2 3 2 3 3 4 3 t t v t z v e 3 3 - - - - - - - * - - * * $ $ # O - 3 x c Y c x v v 3 Q ~ A.V.Y ~ A.Z.A.U.A.A.V.q.",
"K K K K K K K K K K K K K K K K K K K K K K K K K K K K K K K K K K K K K K K K K K K K K K K K K K K K K K K K K K K K K P P P K K K K K K P P K K P P K P P P P P P P L L P L L L U F F z 4 5 z 4 z 5 5 5 z z 4 5 z z z z 4 p z 5 5 4 4 4 z 4 5 5 5 5 4 4 4 5 5 5 5 5 5 2 2 5 5 5 5 5 2 2 2 2 2 < - 2 5 2 2 2 < < < < < < < < < < < < 2 2 < 2 2 2 2 < < < $ - $ - - - * - - 2 < * < 2 4 G t 2 2 - - - 5 * 2 3 2 4 4 t 4 3 3 t t t t 2 - * - - - - - - - - - * * * $ $ $ # O o - 3 c c c H c c z v 3 - V.^ o X c ^ ^ V.U.Z.V.V.",
"S K K K K K S S K K K K S S S S S K K K K K K K K K K K K K K K K K K K K K K K K K K K K K K K K K K K K K K K K K K K K K K K K K K K K K K K K K K P P P P P P P P L P I P P I P P I L L L L U F F p 2 2 2 p z 4 5 5 5 z 4 2 4 4 4 2 4 5 4 4 4 4 4 5 4 4 5 5 5 2 2 5 5 5 2 5 5 5 2 5 5 5 5 5 2 2 < 2 5 2 2 2 < 2 < < 2 2 2 2 < < < < < < 2 2 2 2 2 < 2 < $ * - $ $ - * $ * * - - < 3 x 4 $ - < $ < - 2 - 2 5 2 t 4 t t 4 3 2 5 - - - - - - - - < - - - - * $ $ $ $ # O o o X 1 v H Y c c c x v 3 - o z - X X X X X # ! Z.A.V.",
"].] W K S S S S K S S S S S S S S S K K K S S K K K K K S K K K K K K K K K K K K K K K K K K K K K K K K K K K K K K K K K K K K K K K K K K K K K K K P P P P P P P P P P P P P P P P P P I I I L L L L L U F z p 5 5 2 2 4 4 z z 4 4 p p p p 4 4 4 4 5 4 2 4 z 5 5 5 5 5 4 5 5 5 5 2 5 5 5 5 2 2 < 2 2 5 2 2 5 5 2 < < < 2 < < 2 < < < < - < < < < < < < < $ $ $ - * - - < < < < < 5 G 2 $ * - - < < 2 < < 2 2 5 5 2 < - * * - - < - < - < - - - - * $ $ $ $ # # o . . . . X - x H c Y Y c c v 3 ; o X X X X X X X X X x V.C.",
"iXiXiXiX$XXX].] ( P S S S S S S S S K K K S S K S K K K S S K S K K K K K K K K K K K K K K K K K K K K K K K K K K K K K K K K K K K K K K K K K K K K K P P P P P P P P P P P P P P P P I I I I L L P P L I I I I L U F F p 4 4 p 5 2 p p 4 2 4 4 4 z 5 4 4 4 2 5 5 5 5 5 5 5 5 5 5 5 2 2 2 5 5 5 < 5 5 5 2 2 2 2 2 < 2 2 2 < 2 < 2 5 < 2 < < < < < < < < < $ - * < < < < < < < < - 2 z - $ < - - < < - < < - < - * $ $ $ * * - < < < < < - * * * * $ # o o . . . . . . o . . - z c c Y Y H c v e - # O o X X X X X X X X X c ",
"iXiXiXiXiXiXiXiXiXiX$XXXXX].] ) W K S S S S S S S S K K K K S S K K K K K K K K K K K K K K K K K K K K K K K K K K K K K K K K K K K K K K K K K K K K K K K K K P P P P P P P P P P P P P P I P P I I I I I I I I I I I I I I L U F F 4 4 p 5 5 4 5 4 4 4 5 5 2 5 5 2 4 z 4 5 4 5 5 5 5 5 2 2 2 5 < 5 5 5 2 5 5 5 5 2 2 2 2 2 5 5 < 2 2 2 2 2 < < < < - < < < < - < < < < < $ - < - < 5 - - - * * - < - * * $ $ $ $ * * * - * - * - - * * $ $ $ # O o o o o o o o o . . o o o - z c Y Y Y Y c x v - $ $ $ O o . . . X X X X X ",
"iXiXiXiXiXiXiXiX$X$X$X$X$X$X$X$X$X$XXXXX].f.] ( P S S S K K S S K K K S S S K K K S K K K K K K K K K K K K K K K K K K K K K K K K K K K K K K K K K K K K K K K P P P P P P P P P P P P P P P P P I P I I I I I I L L L I I I I I I I L L U F F p 4 5 5 5 5 5 5 4 5 5 5 4 5 4 5 2 4 4 5 5 5 2 5 5 < 2 5 5 5 5 5 2 2 2 2 2 2 2 2 2 2 2 2 2 < < 2 2 2 < < < < 2 < < < < < < < - < - - < 5 - - * * * $ * * * * * $ $ * * * * - * * $ * $ # $ # O # # o + o o # o o . . . . X X X < c H Y Y ! Y z H 3 < - * - $ + + . . . X X X X ",
"iXiXiXiXiXiXiXiXiX$X$X$X$X$X$X$X$X$X$XXXXXXXXXXXXXXXXX].] ] ( P S S S S S K K K K S S S K K K K K K K K K K K K K K K K K K K K K K K K K K K K K K K P K K K K K K P P P P K P P P P P P P P P P P I P P P P I I I I I L I I I I I I I I I I I W I I L U F p 4 5 5 5 5 5 5 5 5 2 5 2 5 5 5 4 5 5 5 2 < 5 5 2 2 5 2 2 5 5 5 2 2 < 2 2 5 5 2 2 2 < 2 2 < < < < < < 2 < < < < < < < - * < 5 - - < - * * * * * $ $ $ $ $ * $ $ * * $ # # # # + + O # O o o # o o O o o . . X X X X $ z H Y Y Y Y c c z 2 - - - - # # # + . . X X X ",
"iXiXiXiXiXiXiXiX$X$X$X$X$X$X$X$X$X$X$XXXXXXXXXXXXXXXXXXXXXXXXXXXXX].].] ( I K S S S S S K K K K K K K K K K K K K K K K K K K K K K K K K K K K K K K K K K P P P P K K P P P P P P P P P P P P P P I P P P I I I I L L I L I I I I I I I I I I W W W W I I I I L U F S 5 5 5 5 5 5 5 5 2 5 5 5 5 2 2 2 5 5 5 5 5 5 2 2 5 5 2 2 2 2 2 2 2 2 2 2 < < 2 < < < 2 < < < < < < < < < < < - 2 < - - * * * * $ $ * $ $ $ $ O O $ O $ # # O O # O O O O # o o # o . . o . X X X X X X X . 3 c H Y Y H H z 4 < - - < $ # $ # . . . . X . ",
"iXiXiXiXiXiXiXiX$X$X$X$X$X$X$X$X$XXXXX$XXXXXXXXXXXXXXXXXXXXXXXXXXXXXXXXXXXXXXXXX].' ] ( W K S K K K K K K K K K K K K K K K K K K K K K K K K K K K K K K K K K K K P P K K K P P P P P P P P P P P P P P P I I I I I I I I I I I I I I I I I I I W W I I I I I I I I I I L U F S 5 5 5 2 2 2 2 2 2 2 < 5 5 2 5 5 5 5 5 5 5 2 5 5 2 2 2 2 2 2 2 2 2 2 < 2 < < < < < < < < < < < < < - 2 < * * * $ * $ $ * * $ $ $ $ # O # $ # # # # # # O o o o o o . .   X . X X X X X X . X X X < c c Y H c z z 5 < - < < $ # # + + o + . . . ",
"iXiXiX$XiX$X$X$X$X$X$X$X$X$X$XXXXXXXXXXXXXXXXXXXXXXXXXXXXXXXXXXXXXXXXXXXXXXXXXXXXXXXXXXXXXXX].].] ( W P K K K K K K K K K K K K K K K K K K K K K K K K K K K P K K K K K K K P P P P P P P P P P P P P P P P P P I I I I I I I I I I W I I I W I I I W I I I I I I I I I I I L I I L L F F p 5 5 2 2 < < 2 2 2 < 2 2 2 2 5 2 2 2 2 5 2 2 2 2 2 2 2 2 2 2 2 < < < < < < < 2 < < < < < 2 < - * * - * $ $ $ $ $ $ $ $ $ $ $ $ # # O o o o o o . . . . X X X . .   .   . . . . X . . $ z c c x c z z 3 2 < < < $ # # + o . + . . X ",
"$X$X$X$X$X$X$X$X$X$X$X$X$X$XXXXXXXXXXXXXXXXXXXXXXXXXXXXXXXXXXX}.].].].].].].].XX].XXXX].].].].].XXXXXXXX].].' ] ( P K K K K K K K K K K K K K K K K K K K K K K K K K K K K P P P P P P P P P P P P I P P P I P P I P I I I I I I I W W I I W I W W W I I I I I W W L L L I I I I I I L L L L I L P F p 4 5 2 2 2 < < 2 5 5 2 < 2 2 2 2 < 2 2 2 2 2 2 2 2 < < 2 < 2 < < < < < < < < < < < - - - * $ $ $ $ $ $ $ $ $ $ $ O o O + # O # + o . X X . X X . . . . . . . . . . . . . X . 1 z z z z z z 2 < 2 < - $ # + + . . . . o X ",
"( ] f.].}.XXXXXXXXXXXXXXXXXXXXXXXXXXXXXXXXXXXXXXXXXXXXXX].}.].].].].].].].].].].].].].].].].].].].].].].].}.}.}.XXXX}.].].] ] ( P K S S K K K K K K K K K K K K K K K P K P P P P P P P P P P P P P P P I I I I I I I I I I W W W W W W W W W I W W W I I I I I I W W L L I I I I I I L L L L L L L I I I L L U F S 5 5 2 < < < < < < < < 2 2 2 2 2 < < 2 2 < 2 < 2 2 2 2 < < < < < < < < < - - * - $ $ $ $ $ $ $ $ $ $ O o . o o # + . o o . . . . . . . o o o o o o . . . X X X X # 1 3 z 4 4 3 < < < - $ # # + . . . . . o . ",
") I U S 5 p F L ( ] ' f.f.].].].].].].].].].}.].].].].].].].].].].].].].].].].].].].].].].].].].].].].].].].].].].].XXXX}.XXXXXXXXXXXX].f.] ] ( P K K K K K K K K K K P K K K K K P P P P P P P P P P P P P P P I I I I W W W W W W W W W W W W W W W W I I I I W I I L L L P P I I I I I I L L L L I I I I L L L L I L L U F p 5 2 < < < < < < < 2 < < 2 < < < < 2 < 2 2 2 2 < < < < < < - < - - - * $ * * $ $ $ $ $ $ # # + o . o o . o O + + o o o o + # o o . . . . . . . . . X X o - - - ; - - - - $ $ # . . . . . . . X - ",
"XXXXXXXX}.].] ) W P S 6 6 5 S P W ( ] ] ' f.f.].].].].].].].].].].].].].].].].].].].].].].].].].].].].].].].].].].].].].].XX}.XXXXXXXXXXXXXXXXXX$X$XXX}.f.] ( L U K K K K P K K K P K P P P P P P P P I I I I I I I I I W W W W W W W W W W W W W W W W W W I I I I I W L L I I I I I I I I I L I L P P I I L P I L L L L I I I L L P U F p 5 < < < < < < < < < < < < < < 2 2 < < < - < < < * * - - * $ $ $ $ $ $ $ $ $ $ # # # # o o # + O # # # # # + o # + o . . . . . . . . X X X X X $ $ $ $ - $ $ . + . . X X . . X X X 2 ",
"$XXXXXXXXXXX}.}.}.}.}.].].' ] ) I U 4 < < 5 S K I ( ) ] ] ] ' ' ' ' ' ' f.f.].f.].].].].].].].].].].].].].].].].].].].].].].}.}.}.XXXXXXXXXXXXXXXXXXXX$X$X$X*X*X*X$XXX}.f.) L K K K P P P P P P P P P P I I I I I I W W W W W W W W ( ( ( ( ( ( W W W W W W W W W I I I I P I P I I I L I I I I I I P P P I L L L L L L L L L L L L L I L L L L P U F F 4 5 2 < < < < < < < < < < < - < < < * * $ $ $ $ $ $ $ $ $ # # # # $ # # # + # # # # # # # + + o o # o o o . . . . . . X . X X X X X # $ $ $ # + . . . X X X X X X $ 2 p ",
"XX$X$X$XXXXXXXXXXXXX}.}.}.].].].].].].}.f.] ) W I F 2 < < 5 S K P ( ( ) ] ] ] ] ] ] ] ] ' ' ' ' ' ].' ].].].].].].].].].].].].].].}.XXXXXXXXXXXXXXXXXXXX$X$X$X*X*XiXiX4X4XaXhX4X4X*X.Xf.) L K P L P P I P I I I I I W W W W W W ( ( ( ( ( ( ( ( ( ( W W W W W W W I I I I I I I I I I L L L L L P P P P P P L P P P P P L P P L P P P L L L L I P L L L L I L P U F p 5 < < < < < - - < < * * $ $ * $ $ $ $ $ $ $ # # # # # # # # # # # # # # O # + + o o . . . o . . . . . . . X . . X X X X X X X X X X X X . > 2 p F U L L L ",
"/ P I ( ) ] ' ' }.}.XXXXXXXX}.}.}.}.}.].].].].].].].]._.' ] ) W U S 6 > 6 5 S K P W ( ( ) ] ] ] ] ] ' ' ' ' ' ' ' ].].].].].].].].].}.}.}.}.XXXXXXXXXXXX$X$X$X$X*X*XiX=X4X4XaXhXkXkXkXjXjXjXkXaX=X.XD.) L L I I I W W W W W ( ( ) ) ) ) ) ) ) ) ) ) ( ( ( W W W W I I I I I I P I I I P L L L P P P P P P I P P P P P P I P P P P P P P P P P P P L P P P L P P L L L L L P U F p 5 < < < $ $ $ $ * $ $ $ $ $ $ $ $ # $ # $ # # # # # # # # # # # # # + + + . . . . o . . . . . . . X X X X X X X X . > 5 p F L L L L L P L L L ",
"( / / / / / / / / J J P W ( ) ] ] ' ].}.].}.}.].].}.}.].]._.].].].].]._.] ) ) I U 4 < < 6 5 S K P I ( ) ] ] ] ] ] ' ' ' f.f.f.f.f.].].].].].}.XXXXXXXXXXXX.X.X$X$X*X*X=X=X4X4XhXkXkXkXkXkXlXlXlXAXHXHXHXHXjXaX*X|.` W I W ( ) ) ] ] ] ] ] ] ] ] ] ] ) ) ( ( W W W W W I I I I P P P I P L L L L P P P P P P P P P P P P P P P P P P P P P P P P P P P P P P P P P L L P L P L P P P L P U F p 5 < < $ $ $ $ $ $ $ $ $ $ $ $ # # $ $ # # # # # # # # # + + o . . . . . . . . . . . X X X X # < 5 S F P L L L L L L L L L L L L L ",
"( ( / / / / / / / / / / / / / / J J J J P I ( ) ) ] ' _.].].].].].D.}.}.]._._._._.].].' ] ) W P F 4 U S 4 S S K I ( ) ] ] ] ' ' f.f.f.f.f.].}.}.}.XXXXXX.XXX.X.X$X$X*X*X=X=X4XaXhXhXkXkXkXlXlXlXAXHXHXFXFXGXGXFXHXHXHXlXkXhX4X*XXX' ] ] ] ] ] ] ] ] ) ) ( ( W W W W I I I I I I L P P P P P P P P P P P P P P P P P P P P P P P L P P P P P P P P P P P P P P P P P P P L L L L L L L L L L L L L L P F p 5 < - $ $ $ $ $ $ $ $ $ $ # # # # $ # # # # + + + . . . . . . . . . . $ < 5 p U L L L L L L L L L L L L L L L L L L L ",
"|.D.i.' ] ) ( ( / / I I / / / / / / / J J J J J J J S S J P I ( ) ) ] ' ' ' _._.}.}.}.}.' ' ' ' ' ) _._.' ' ] ) W P F 4 5 S U I W ( ] ] ' ' f.f.].].}.}.}.XXXX.X.X$X$X*XiX=X4X4XaXhXkXkXkXkXlXlXAXHXHXFXGXGXGXGXFXHXHXFXGXJXKXKXKXKXLXDXCXaX*X|.` _ ) ) ) ( ( W W W I I I P I I P P P P P P P P P P P P P P P P P P P P P P P K P P P P P P P P P P P P P P P P P P P P P L P L L P L L L L L P L L L P L L L L U F z 5 < $ $ $ $ $ # $ # # $ # # # # + . . . . . . . $ < 5 p F L L P P L L L L P L L L L L L L L L L L L L L L ",
"=X=X%X#X X XJ.D.D.' ' ) ) ) W I / / / / P P P J J J J J J J J J J J J F J J P P W ) ) ] ' ' D.D.D.' ' ' ' ' ' ' ' ' ' ' _.] ) ( I U S 4 p U L ( ) ] f.f.f.}.}.}..X.X$X$X*XiXiX=X4XaXhXkXkXkXlXlXAXHXHXHXFXGXGXGXFXFXFXGXJXLXKXKXKXKXKXKXLXLXJXGXHXlXhX=X.XD.) W I L I L P P P P P P P P P P P P P P P P P P P P P P P P P P P P K P P P P P P K K P P P P P K K P P P P P L L L L L P L P L L L P L L L L L L L L L L L L L U S 4 2 < $ # # # # # # # + . + $ < 2 4 S S F K U L L P P P P P P P L L L L L L P L L L L L L L L L ",
"aXaX=X=X=X%X%X#X.X X XJ.D.D.D.i.' ] ] ) ) W I P P J J J J J J J J J J J J J S S A J J F F U I ) ) ) ) ] ] ' ' ' ' ' _._.].' ' ' ' ' ' _.' ] ) I P F S p F L ( ) ' f.}.XX.X$X*X*XiX4XaXhXkXkXkXlXlXAXHXHXFXFXGXGXGXGXGXJXLXKXKXKXKXKXKXKXKXKXLXJXGXHXHXlXjXjXhXaXiX$XXXf.] W P P P P P P K P P P P K K K K K K P P P P P K K K K P K P P P K K K P P P P P P P P P P P P P P L P P L L P L L L L L L L L L L L L L L L L L L L L L P U U S p 5 < $ $ < < 2 4 p S S S S F K K U L L L P P P P P P P P P L L L L L L L L L L L L L ",
"kXaXaX4X=X=X=X*X%X#X#X@X X.X|.|.|.D.D.D.i.i.' ` ] ) ) ) W I P J J J J J J J J J S J J J J J J J J J S S S U P I ( ) ] ' ' ' ' ' ' ]._._.].f._._.f.f.f.].' ] ( I U F S F I ) ] f.D..X$XiX=XaXhXkXjXlXAXHXFXFXGXGXGXJXJXLXKXKXKXKXKXKXKXKXKXKXKXLXJXGXFXHXCXjXkXhXdXdXuX4X4XiXiX$X].' ] W L K K K K K K K K K K K K K K K K K K K P K P K K K K P P P P P P P P P P P P P L P P P P P L P L L L L L L L L L L L L L L L L L L L L L P P P U U K F S 5 5 5 p p S S S S F K K K L L P P P P P P P P L P P L L L L L L L L L L I L L ",
"kXkXaXaXaX=X=X=X=X*X*X*X#X@X.X.X.X|..X|.}.}.D.D.D.D.i.i.' ' ` ` _ ) ) W W I P P J J J J J J J J J J J J S J J J J J J J U P I W ) ] ' ' ' ].].].f.D.].].].].f.f.f.f.D.f.' ] ) W I U L I ) f.D..X*X4XkXjXAXHXFXGXJXJXLXKXKXPXPXKXKXKXKXKXKXKXKXKXLXLXJXFXCXkXkXhXhXUXUXUX4XiXiXiXiXiXiXiXiX$XXXXX].] ( L U U K K P P K P K K K P P P P P K P P P P P P P P P P P P P L P P P P P P P P P P L L L L L L L L L L L L L L L L L L L L P P P K U K F S 5 5 4 p p S S S F K K K K U L P L P P P P P P P P P L L L L L L L L L I L L L ",
"kXkXkXaXaXaXaX4X=X=X=X*X*X*X#X#X.X.X.X.X|.|.|.|.|.}.}.}.D.D.D.i.i.' ' ' ' ` ` _ ) ) ) ) W I I P U J J J J J J J J J J J J P P P P J P P I I ( ) ] ' }.}.}.}.}.}.}.}.}.}.}.}.}.}.}.}.}.D.f.f.` ) ! W ! ` |.*X4XjXDXLXKXKXPXLXKXKXKXKXKXKXKXKXKXKXKXKXKXKXLXFXkXhXhXUXUXUXUXuXiXiXiXiXiXiXiXiXiX$X$X$X1X$X$XXX].' ] ( L K K K K P P P P K K P P P P P K P P P P P P P P P P P P P P P P L P P P P L L L L L L L L L L L L L L L L L L P P K K K F p 5 5 4 p p S S F F K K K L L L L P P P L L L L L P L L L L L L L L L L I L L L ",
"lXkXkXkXkXaXaX4X4X=X=X=X*X*X*X#X#X#X.X.X.X.X.X|.|.|.|.}.}.}.}.}.}.D.D.D.D.i.i.' i.' ' ' ' ` ` _ _ _ ) ) ) I I I P P J J J U P P P I I I I / ( ( ( ( W ) ) ) ] ' D.|..X.X.X#X*X#X.X$X#X$X*X*X*X=X4X4XhXVXVXVXsX3X2X3XyXZXKXKXKXKXKXKXKXKXKXKXKXKXKXKXKXKXLXFXIXIXhXUXUXUXUXuXiXiXiXiXiXiXiX$X$X$X$X$X$X$X$X$X$X$XXXXXXXXX].f.] ) W L U U K U P U U U P U U U P K P P U U P P P P P P P P P P P P L L L L L L L L I I L L L L L L L L L P P K U F p 4 4 p p S S S F K K K K K L L L P P P L L L L L L L L L L L L L L L I L L L I ",
"lXlXkXkXkXaXaXaX4X=X=X=X=X*X*X*X*X#X@X.X.X.X.X.X.X|.|.|.}.}.}.}.}.}.D.D.D.D.D.D.D.D.D.D.D.i.i.i.i.i.' ' ' ' ' ' ` ` ] ) ) ) ) I I I P P P I I I W ( ) ) ] ] ' f.}.}.D.D.J.}.J.J..X*X=X4X4XhXhXkXlXSXLXKXKXKXKXKXKXKXKXKXLXKXKXKXKXKXKXKXKXKXKXKXLXLXLXJXDXIXIXUXUXUXUXiXiXiXiXiXiXiX$X$X$X$X$X$X$X$X$X$X$X$X$XXXXXXXXXXXXXXXXXXXXXXXXX].f.] ] ( I P K K U U U K U U U U P K P P P P P P P P P L L L L L L I I I I I I I I I I I I P L P K K K K p 4 p p p S S F K K K P P L P P P L L L L L L L L L L L L L L L L L L I W ! _ _ ",
"AXlXkXkXkXkXhXaXaX4X4X=X=X=X=X*X*X*X#X#X.X.X.X.X.X.X|.|.|.|.}.}.}.}.}.}.}.}.D.D.D.D.D.D.D.D.D.D.D.D.D.D.D.D.D.D.D.D.i.i.i.i.i.i.i.' ' ' ` ] ) ) ) ) ( ) W ) ) ) ] ' D.D. X*X4XhXkXaX4X=X=X=X%X=X4XjXSXFXPXLXKXKXKXKXKXKXKXKXKXKXKXKXKXKXLXLXFXAXkXaX4X=X*X$X$X$X$X$X$X$X$X$X$X$X$X$X$X$X$X$XXXXXXXXXXXXXXXXXXXXXXXXXXXXXXXXXXXXX}.XXXX}.}.XXXXXXXXXXXX].f.f.] ) I U F K U U U K K P P P P P P L L L L L L I I I I I W W I I W I W I I P P P K K p p p S S F F K P K K P P P L P P L L L L L L L L L L L L I W ! ) ` ` V.y.q.y.` ",
"AXlXlXlXkXkXkXaXaXaXaX4X=X=X=X=X=X*X*X*X#X.X.X.X.X.X.X.X.X|.|.|.}.}.}.}.}.}.D.}.}.D.}.}.}.}.}.D.D.D.}.}.D.}.}.}.}.}.}.D.D.|.|.|.J.J.J.|.|.J.J.J.J.D.D.D.D.D.D.' ' ` ` ` ` ` ` i.L. X*X=XhXhXkXkXkX4X*X*X*X=X4XhXSXPXLXLXKXKXKXKXKXKXKXKXKXKXKXLXLXFXlXaX*XD.' ) I L L W ( ) ] f.f.].].].].].].].].].].].].].].].].].].].].].].].].].].].}.}.}.}.}.}.}.XXXXXXXXXXXX$X$X|.D.f.] ) L U U U U P P P P L L L L I I I W W W W ( ( ( ( ( W W W I L K K p p S S F K K K K P P P P L L L L L L L L L L I I ! _ ` y.V.V.V.V.y.V.V.q.q.q.q.",
"AXlXlXlXkXkXkXkXaXaXaX4X4X=X=X=X=X*X*X*X*X#X.X.X.X.X.X.X.X.X|.|.|.|.|.}.}.}.}.}.}.}.}.}.}.}.}.D.D.D.D.}.}.}.}.}.}.|.|.|.|.|.|.|..X.X.X.X.X.X.XoX@X@X@X@X@X%X%X*X*X*X=X*X*X%X%X@X.X XJ.J.J.J.J.J.P. X.X.X.X.X.X.XJ.D.D..XhXLXKXKXKXKXKXKXKXKXKXKXLXLXJXFXCXjXaX3X*X$XXXf.] ) I U S p S K L W ( ] ] ] ] ] ' ' ] ' ' ' ' ' ' f.f.f.f.f.f.f.f.].].].].].].}.}.}.}.XXXXXX.X.X$X*X*X=X4X4X=X*X%X|.D.) I U L I I W W W W ! ) ) ) ) ) ) ) ( ( W W I P U p p S F K K P P L L L P P L P L L L I ! _ ` V.C.U.C.C.C.A.V.V.V.y.y.V.q.y.q.` ` ",
"HXAXlXlXkXkXkXkXkXaXaXaX4X4X=X=X=X=X*X*X*X*X#X.X.X.X.X.X.X.X.X|.|.|.}.}.}.}.}.}.}.}.}.}.}.}.}.}.}.}.}.}.}.}.}.}.|.|.|.|.|.|..X.X.X.X.X.X@X#X@X#X*X*X%X=X=X=X=X=XgXaXaXzXkXkXkXkXlXlXlXlXlXlXjXkXhX4X=X*X%X XJ.D.S.i.i.D.LXKXKXKXKXKXKXKXKXKXKXKXLXPXDXCXjXhX4X=X=X*X2X$X$XXXXX}.}.}.' ] ) I U F 4 5 S K P I W ( ( ( ) ] ] ] ] ] ] ] ] ' ' f.f.].f.f.].f.}.}.}.}.}.}.XX.X.X*X*X*X=X4XaXkXkXkXlXlXHXAXCXhX3X$X}.` ! ! ! ! ) ] ] ] ) ) ( ( W I P K S S K P P L L L L L P L I ! ` V.V.G.I.H.Z.A.A.A.A.A.A.C.V.V.V.y.y.y.V.V.q.q.` ` ",
"HXHXAXlXlXkXkXkXkXkXkXaXaX4X4X=X=X=X*X*X*X*X*X#X.X.X.X.X.X.X.X.X.X|.|.|.|.|.|.|.|.}.}.}.}.}.}.}.}.}.}.|.|.|.|.|.|.|.|..X.X.X.X.X.X.X@X@X#X#X%X*X*X=X=X=X=XgXaXaXaXkXkXkXkXlXlXAXHXFXGXGXJXJXJXLXLXLXLXLXLXJXJXFXCXkX=X=XKXKXKXKXKXKXKXKXKXKXKXKXKXKXKXKXLXJXDXCXhX=X#X.X}.}.f.' f.}.}.}.}.}.}.]._._.' ] ) I U F S 4 S U L I W ( ( ( ) ) ] ] ] ] ] ' f.f.f.D.D.D.}.}.}..X.X$X*X*X=X=X4XkXkXkXlXlXHXGXJXKXKXKXKXKXLXDXCXhX*X XS.` ) ) ) W W W L P S F P L I L I ! ` V.G.I.E.R.R.R.~.~.Z.Z.Z.Z.Z.A.Z.A.A.A.V.V.V.V.V.V.V.q.q.q.` ` ",
"HXHXAXlXlXkXkXkXkXhXkXaXaXaX4X4X=X=X=X*X*X*X*X#X#X@X.X.X.X.X.X.X.X|.|.|.|.|.|.|.|.|.|.|.}.}.}.}.|.|.|.|.|.|.|.|.|.|..X.X.X.X.X.X.X.X@X@X#X%X*X=X=X=X=X=XaXaXaXzXkXkXkXlXlXAXHXFXGXGXJXLXLXKXKXKXKXKXKXKXKXKXKXKXKXLXAXlXKXKXKXLXDXSXSXSXDXPXPXPXPXPXPXPXDXDXDXSXCXjXhXaX4X3X*X$XXX}.' ' _ ] ) ) ) ' ' ].]._._.' _.' ] ) ) I P U F S F U I W ( ) ) ) ) ] ' ' ' f.f.D.D.}..X.X@X*X*X=X4XhXkXkXlXlXHXGXLXKXKXKXKXKXKXKXLXLXGXFXHXlXkX=X%X|.' ) L U I ! ` f.D.P.W.W.Q.Q.Q.Q.R.R.R.U.~.~.I.Z.Z.Z.U.C.U.C.C.A.V.V.V.V.V.V.q.q.` ` ^ ` ",
"HXHXHXAXlXlXkXkXkXkXkXkXaXaXaX4X=X=X=X=X*X*X*X*X#X#X.X.X.X.X.X.X.X.X|.|.|.|.|.|.|.|.|.|.}.}.|.|.|.|.|.|.|.|.|.|.|..X.X.X.X.X.X.X@X#X#X%X*X%X*X=X=X=X=XaXaXaXzXzXkXkXlXlXAXHXFXGXGXJXLXKXKXKXKXKXKXKXKXKXKXKXKXKXKXKXGXHXKXKXKXKXFXlXkXkX=XgX}.] ' ].}.XXXXXXXXXX.X$X$X*X$X$X$X$X$X.XXX.X|.}.}.}.}.' ] ] ) ) ) ) ) ] ' ' _._.' ' i.' ' ) ) I I U F F F U I ! ) ) ] ` f.f.D.}..X.X*X*X=X4XzXkXlXAXFXJXKXKXKXKXKXKXKXKXKXKXLXGXFXHXAXlXkXkXkXhX=X*X*X*X%X%X%XW.W.W.W.W.W.Q.Q.Q.R.R.R.I.U.U.U.U.U.C.C.C.A.V.V.q.q.q.q.q.q.^ q.^ ^ e.",
"FXHXHXHXAXlXlXkXkXkXkXhXhXaXaX4X4X=X=X=X*X*X*X*X*X*X.X.X.X.X.X.X.X.X.X.X.X|.|.|.|.|.|.}.}.}.}.}.|.|.|.|.|.|.|..X.X.X.X.X.X.X@X@X@X#X%X*X*X*X=X=X=X=XaXaXaXzXzXkXkXlXlXlXHXFXGXGXJXLXKXKXKXKXKXKXKXKXKXKXKXKXKXKXKXKXJXHXKXKXKXKXKXLXLXJXDXAX3X}.' ] ] ] ] ( / / / / / ( ] ] _._._._._.].].}.}.}.}.}.}.}.}.}.i.i.' ' ] ) ) ) ) ) ) ) ] ' _._.' ' ' ' ' _ ) ! I H U H L W ) ] ' D.}..X*X=X4XkXjXAXGXJXKXKXKXKXKXKXKXKXKXKXKXLXJXJXGXHXAXlXkXkXaXiX=X=X=X%X&X&X&X&X&XW.W.W.W.Q.Q.R.I.U.I.U.U.C.C.A.V.V.V.V.q.^ q.e.e.e.e.=.=.*.=.=.",
"GXHXHXHXAXlXlXkXkXkXkXkXkXaXaXaX4X4X=X=X=X*X*X*X*X*X#X.X.X.X.X.X.X.X.X.X|.|.|.|.|.|.|.}.|.|.|.|.|.|.|.|.|.|.|..X.X.X.X.X.X@X@X@X#X*X*X%X*X=X=X=X=X=XaXaXaXzXkXkXkXlXlXAXHXGXGXJXLXKXKXKXKXKXKXKXKXKXKXKXKXKXKXKXKXKXKXJXKXKXKXKXKXKXKXKXKXKXKXKXKXPXZXZXrX5XXX_./ / / / / / / / / / / / / ( ( ] ] ] ] _.' ' ' ' ' ' ' ' ' ' ' ' ' ' ] ) ) ) ) ) ) ) ] ' ' D.D.D.D.D.' ` ` ) ! ! W ! ! ` J.*X4XjXHXJXKXKXKXKXKXKXKXKXKXKXKXKXKXLXLXLXLXDXkXkXhX4XiX=X=X=X=X&X&X&X&XW.W.Q.Q.Q.R.I.U.Z.U.Z.A.V.V.V.e.e.e.Q N V =.-.=.=.=.;.;.-.=.=.",
"GXFXFXHXAXAXAXlXkXkXkXkXkXkXaXaXaX4X4X=X=X*X*X*X*X*X*X#X#X#X.X.X.X.X.X.X.X.X.X.X|.|.|.|.|.|.|.|.|..X.X|.|..X.X.X.X.X.X.X.X@X@X@X#X*X*X*X*X=X=X=X=XaXaXaXzXzXkXkXlXlXAXHXFXGXJXLXKXKXKXKXKXKXKXKXKXKXKXKXKXKXKXKXKXKXKXKXKXKXKXKXKXKXKXKXKXKXKXKXKXKXKXKXKXKXKXKXLXDXVXdX2XXX].( / / / / / / D D D D / / / / / ( ] ] ] ] ' ' ' ' ' ' i.' i.i.i.' i.' ' ' _ _ _ _ _ ] ` D.}..X.X.X.X.X$X.X.X.X.X.X*X3XBXSXPXKXKXKXKXKXKXKXKXKXKXKXKXKXKXJXHXkXhXaXiX=X=X=X%X&X&XW.W.W.Q.R.I.I.U.Z.A.A.A.8.8.*.8.t.*.=.;.=.*.m ;.;.;.;.;.;.;.=.;.=.",
"GXGXFXHXHXAXAXAXlXjXjXkXhXhXkXkXaXaX4X4X3X3X=X*X*X*X*X#X#X#X#X#X.X.X.X.X.X.X.X.X.X|.|.|.|.|.|.|.|.|..X.X.X.X.X.X.X.X.X.X.X#X#X#X%X*X*X*X=X=X=X=X4XaXaXaXzXkXkXkXlXlXAXHXFXGXJXLXKXKXKXKXKXKXKXKXKXKXKXKXKXKXKXKXKXKXKXKXKXKXKXKXKXKXKXKXKXKXKXKXKXKXKXKXKXKXKXKXLXJXGXFXHXAXAXlXjXhX3X1X>X[._.] / / / D D D / / D / / / / / / ( ] ] _._._._.' ' ' ' f.D.D.D.}.}.}.|.|.}.D.D.D.J.P. X*X4XCXPXPXLXLXKXKXKXPXKXKXKXKXKXKXKXKXKXKXKXLXLXPXIXkXhX4XiXiX*X%X%XW.Q.Q.R.R.~.A.A.V.8.8.B -.;.;.;.;.-.t.;.=.;.x.x.-.-.;.;.;.;.;.;.;.=.t.;.",
"GXGXFXDXDXAXAXAXCXVXVXjXjXhXhXhXhXdXuXuX4X4X4X3X3X3X*X*X*X*X*X#X.X.X.X.X.X.X.X.X.X.X.X.X|.|.|.|..X.X.X.X.X.X.X.X.X.X.X.X.X#X#X%X*X*X*X=X=X=X=X=XaXaXaXaXzXkXkXlXlXlXHXHXGXGXJXKXKXKXKXKXKXKXKXKXKXKXKXKXKXKXKXKXKXKXKXKXKXKXKXJXHXHXFXFXFXFXFXPXPXPXPXPXPXJXJXFXFXHXHXAXlXlXkXkXkXkXhXaX4X4X=X*X*XpXXXXX}._._.`./ / / / / / / / / / / / / ( ] ] _._._._._.'.}.}.}.}.|..X#X*X*X4XhXkXkXjXCXDXPXKXKXKXKXKXKXKXKXKXKXKXKXKXLXFXlXkXaX=X%X%X$X$X.X.XJ.U.U.G.C.V.e.e.=.-.-.-.-.;.;.&.;.x.;.x.;.=.x.B.t.x.B.B.B.-.x.;.;.x.x.x.x.-.x.x.",
"JXGXFXFXDXSXAXAXCXVXVXjXjXjXjXhXhXdXdXuX4X4X4X4X3X2X2X2X2X2X2X2X*X$X$X.X#X.X.X.X.X.X.X.X.X.X.X.X.X.X.X.X.X.X.X.X.X.X.X@X.X#X%X*X*X*X=X=X=X=X=X4XaXaXaXzXkXkXkXlXlXlXHXFXGXGXLXKXKXKXKXKXKXKXKXKXKXKXKXKXKXKXKXKXKXKXKXKXLXLXHXzXzXgXgXgXgXgXgXaXgXaXgXgXaXaXgXgXgXgXgXgXgXgX=X=X=X=X=X=X=X=X*X*X*X#X#X.X.X.X.X.XXXXX}.}._._.] ] ] ] ( ( ( ( ( ( ( ] ] ] ] ' _._.].}.}.}.|.|..X*X=X4XjXAXJXLXKXKXKXKXKXKXKXKXKXKXKXKXKXKXKXLXGXAXkXgX+XG.y.^ ! ! H x c N n &.-.-.$.;.;.x.;.x.x.=.n.;.$.n.x.;.^.t.B.^.^.n.B.=.x.x.x.x.x.x.;.=.B.x.",
"JXGXFXFXDXHXAXAXCXCXVXjXVXjXjXjXhXhXdXdXuX4X4X4X3X3X3X2X2X2X2X2X2X2XpXpXpX$X.X.X.X$X$X.X.X.X.X.X.X.X.X.X.X.X.X.X.X.X.X#X#X*X*X*X*X=X=X=X=X=X=XaXaXaXkXkXkXkXlXlXlXAXHXFXGXJXLXKXKXKXKXKXKXKXKXKXKXKXKXKXKXKXKXKXKXKXKXLXGXGXlXzXgXgXgXgX&X&X+XOXoXP.K.J.G.G.K.P.oXoXOXoXoXoXoXoXoXE.P.P.P. X X X X X.X.X.X.X|.|.|.|.|.|.|.|.}.}.}.}.}.}.}.'._._.}.'.}.}.'.}._.' ' ' }.}.|..X.X#X#X*X*X4XhXDXLXKXKXKXKXKXKXKXKXKXKXKXKXKXKXLXPXlXkX=X%XOXoXE.G.V.^ a m *.&.;.;.;.x.n.n.n.n.n.n.-.n.;.;.n.x.;.^.B.^.^.^.^.B.;.x.x.x.x.B.B.x.-.B.x.",
"JXGXGXFXFXDXSXAXAXCXCXVXVXjXjXhXhXhXhXdXuXuX4X4X3X3X3X2X2X2X2X2X2X2X2XpXpXpX$X$X$X$X-X$X-X-X-X-X-X-X.X$X$X$XpX$XpX*X*X*X*X*X*X*X=X=X=X=X=X=X4XaXaXaXkXkXkXkXlXlXlXHXHXGXGXJXLXKXKXKXKXKXKXKXKXKXKXKXKXKXKXKXKXKXKXKXKXLXFXGXLXJXJXFXDXAXlXkXgX%XoXP.K.G.L.L.L.L.L.L.L.S.i.i.i.i.i.S.S.S.S.F.L.L.J.J.J.J.J.L.L.L.L.D.L.D.L.L.D.L.L.L.L.J.J.J.J.|.|.|.|..X.X X@X#X*X*X*X*X*X%X.X.X.X.X X.X|.J..X2XuXVXSXPXLXKXKXKXKXKXKXKXKXKXKXLXGXHXkXgX&XH.^ ~ Y &.-.;.-.x.x.n.n.n.n.n.n.n.N.;.n.x.n.n.n.;.^.n.^.).).^.^.;.n.n.n.x.n.x.x.-.x.x.",
"JXJXGXFXFXDXSXSXAXCXCXVXVXVXVXhXhXhXhXdXdXuXuXuX3X3X3X3X3X2X2X2X2X2X2X2X2X2XpX$X*X$XpX-X-X-X-X-XpX-X$X-X$XpXpXpXpX*X*X*X2X3X3X3X3X3X4X4X4XaXaXaXaXkXkXkXjXjXlXlXAXHXHXGXGXLXKXKXKXKXKXKXKXKXKXKXKXKXKXKXKXKXKXKXKXKXKXLXHXGXKXKXKXKXKXKXLXLXLXJXFXAXkX=X=X@X X XJ.L.L.S.i.i.i.i.i.i.i.i.i.i.i.y.i.i.i.i.i.i.i.i.i.i.i.S.S.S.S.S.L.S.S.S.S.D.S.F.G.J.K. XoXoX@X@X%X=X=XaXzXkXkXlXlXlXCXCXVXsXeX2X*X.X|.J. X@X*X4XdXhXVXVXVXVXjXjXkXkXaXgX=X&XQ r r -.;.x.;.n.n.n.n.n./.n.N.N.n.x.n.n.n.n.n.;.n.n.).).).).^.x.n.n.n.n.n.n.x.;.x.n.",
"JXJXGXFXFXDXSXSXAXAXCXCXVXVXjXhXhXhXhXhXdXuXuXuXuXeXeXeX3X3X2X2X2X2X2X2X2X2XpX$X$X$XpXpX-X-X-X-XpXpXpXpXpXpXpX2X2X2X2X*X2X3X3X3X3X4X4X4X4XaXdXaXkXhXkXjXkXlXlXAXHXHXFXGXJXLXKXKXKXKXKXKXKXKXKXKXKXKXKXKXKXKXKXKXKXKXKXKXGXGXKXKXKXKXKXKXKXKXKXKXKXLXLXJXFXHXlXkXkXaX=X#XoX XJ.L.S.i.i.i.i.i.i.i.i.i.i.i.i.i.i.i.i.i.i.i.i.i.i.i.i.i.i.i.i.i.S.S.F.F.F.F.F.G.J.E.E.+X&X=XgXaXzXzXlXHXGXLXKXKXKXKXKXKXKXLXLXPXDXSXVXdX*X|._ ! ! ! ^ ` .XP.&XlX~ e r ;.;.n.;.n.N.N.M.(.(./.M.M.M.x.n.n.n.n.m.;.n.(.(.(.(.).^.x.^.n.n.^.^.n.n.;.n.n.",
"JXJXGXFXFXDXDXSXAXAXCXCXCXVXVXVXhXhXhXhXdXsXuXuXuXeXeXeX3X3X3X3X3X2X2X2X2X2X2XpXpX-XpXpX-XpX-X-XpXpX2X2X2X2X2X2X2X2X2X2X2X2X3X3X3X4X4X4XuXuXdXaXhXhXkXjXjXlXAXAXHXHXFXGXJXLXKXKXKXKXKXKXKXKXKXKXKXKXKXKXKXKXKXKXKXKXKXKXGXGXKXKXKXKXKXKXKXKXKXKXKXKXKXLXLXJXGXFXHXlXlXkXaXaX=X=X=X#XoX X|.|.|.|.|.D.D.D.i.i.i.i.i.i.i.i.i.i.i.i.i.i.i.y.y.y.y.y.i.i.y.i.F.F.F.G.G.H.T.E.E.W.&X&XgXzXlXHXJXLXKXKXKXKXKXKXKXKXKXKXKXKXKXKXLXPXZXBX4X#XJ.kXHXGXq.l n ;.n.n.x.N.N.M.M.M.(./.M.M.M.x.n.M.n.(.n.x.(.(.(.(.(.(.n.n.^.n.n.^.^.n.n.;.n.n.",
"JXJXFXFXFXDXDXSXSXAXCXCXCXVXVXVXhXhXhXhXdXdXuXuXuXuXeXeX7X3X3X3X7X2X2X2X2X2X2X2XpX$X2XpX2X2XpX2X2XpX2X2X2X2X2X2X2X2X2X2X2X3X3X4X4X4X4XuXuXdXdXhXhXhXkXjXjXCXAXAXHXFXFXGXJXLXKXKXKXKXKXKXKXKXKXKXKXKXKXKXKXKXKXKXKXKXKXKXJXJXKXKXKXKXKXKXKXKXKXKXKXKXKXKXKXLXJXGXGXHXAXlXlXkXkXkXaX=X=X=X*X*X*X#X#X@X X.X|.|.|.|.|.}.D.i.i.i.i.i.i.i.i.i.i.i.y.y.i.i.i.i.i.i.i.i.y.i.F.G.H.T.E.W.W.&XgXgXzXkXAXFXPXLXKXKXKXKXKXKXKXKXKXKXKXKXKXKXKXKXLXJXGXGXq.b &.;.n.n.n.N.M.M.M.M.M.M.M.M.M.x.(.n.n.n.M.;.(.(.(.(.(.(.n.n.(.n.n.).^.n.n.;.^.^.",
"JXJXGXFXFXDXDXSXSXAXCXCXCXVXVXVXhXhXhXhXsXsXsXuXuXuXeXeXeX7X3X7X3X2X2X2X2X2X2X2X*XpX2X2X2X2X2X2X2X2X2X2X2X2X2X2X2X2X2X2X3X3X4X4X4X4XuXdXdXdXdXhXhXhXjXjXjXCXAXAXHXFXGXGXJXLXKXKXKXKXKXKXKXKXKXKXKXKXKXKXKXKXKXKXKXKXKXKXKXLXKXKXKXKXKXKXKXKXKXKXKXKXKXKXKXKXLXJXJXGXFXAXAXlXlXjXkXaXaX=X=X=X=X=X=X*X#X#X#X@X.X.X.X.X|.|.|.|.|.|.|.L.D.L.L.L.S.S.S.S.i.i.i.i.i.i.y.y.i.i.C.C.G.G.G.H.T.Q.W.&XgXgXzXlXAXFXGXJXLXLXLXLXLXKXKXKXLXLXLXLXJXGXHXGXA.n &.n.n.n.n.M.M.M.M.(.(.M.M.M.M.n.M.(.(.M.N.;.(.(.(.^.(.(.^.n./.n.n.).^.n.n.;.^.^.",
"JXJXGXFXFXDXDXDXSXAXCXCXCXCXVXVXhXhXhXhXhXsXsXuXuXuXuXeXeXeX7X7X3X2X2X2X2X2X2X2X2XpX2X2X2X2X2X2X2X2X2X2X2X2X2X2X2X2X2X2X3X3X3X4X4XuXuXdXdXdXhXhXhXhXjXjXVXAXAXHXHXFXFXJXJXLXKXKXKXKXKXKXKXKXKXKXKXKXKXKXKXKXKXKXKXKXKXKXKXLXKXKXKXKXKXKXKXKXKXKXKXKXKXKXKXKXKXLXJXGXFXHXHXAXAXjXkXkXaXaXaX4X4X4X3X=X*X*X#X#X#X#X.X.X.X.X.X.X.X.X.X|. X.X X XoX X X XoX X XoXoXoXE.K.J.G.K.H.G.Z.H.H.R.R.Q.Q.W.&X&X&X&XgXgXgXgXzXzXkXkXkXlXlXlXlXzXzXzXzXzXGXQ n -.n.n.n.n.M.M.M.M.M.(.M.M.M.M.x.M.(.M.M.M.x.(.(.(.).(.(.n.n.n.n.n.^.^.n.n.;.n.^.",
"JXJXJXFXFXDXDXDXSXAXAXCXCXCXVXVXVXVXhXhXhXsXsXuXuXuXuXeXeXeX7X7X7X3X2X2X2X2X2X2X2X2X2X2X2X2X2X2X2X2X2X2X2X2X2X2X2X2X2X3X3X3X4X4XuXuXuXdXdXhXhXhXhXhXjXjXjXAXAXHXHXFXGXGXJXLXKXKXKXKXKXKXKXKXKXKXKXKXKXKXKXKXKXKXKXKXKXKXKXLXKXKXKXKXKXKXKXKXKXKXKXKXKXKXKXKXKXKXJXJXGXFXHXAXAXlXjXkXkXaXaXaXdXdX4X3X*X*X*X*X#X#X#X.X.X.X.X.X.X.X.X.X.X.X@X#X#X#X#X#X#X%X%X%X=XgXgXgXgXgXgXzXzXzXkXkXlXlXlXkXaXaXgXgXgXgX&XgX&X&X&XW.W.W.W.Q.Q.!.Q.W.!.W.zXJX9.n -.n.m./.n.M.M.M.M.M.M.M.M.M.M.n.(.M.M.M.M.x.(.(.(.(.(.(.n.n.n.N.N.^.^.^.n.x.n.^.",
"JXJXGXFXFXDXDXDXSXAXAXCXCXCXVXVXVXVXhXhXhXhXsXsXuXuXuXuXeXeXeXeX3X3X2X2X2X2X2X2X2X2X2X2X2X2X2X2X2X2X2X2X2X2X2X2X3X3X2X3X3X3X3XuXuXuXdXdXdXhXhXhXhXhXhXhXjXCXSXHXHXFXFXGXJXLXKXKXKXKXKXKXKXKXKXKXKXKXKXKXKXKXKXKXKXKXKXKXKXKXKXKXKXKXKXKXKXKXKXKXKXKXKXKXKXKXKXKXLXJXGXFXHXHXAXAXjXkXhXhXhXhXdXdXaX4X3X3X2X*X*X*X#X#X#X#X#X.X#X.X.X.X#X#X#X#X*X*X=X=X=X%X=X=XaXaXzXzXzXkXlXlXlXHXFXGXLXLXLXLXLXLXLXLXLXLXLXLXJXFXAXlXkXgX&XW.Q.!.Q.W.A.gXGXSXb m -.n.M.m.n.M.M.M.M.M.M.M.M.M.M.n.(.m.N.M.M.n.(.(.(.(.(.(.n.n.n.N.N.(.).).n.;.n.n.",
"JXJXGXFXFXDXDXDXSXAXAXAXCXCXVXVXVXVXhXBXhXhXsXyXyXuXuXuXeXuXeXeX7X3X3X2X2X2X2X2X2X2X2X2X2X2X2X2X2X2X2X2X2X2X2X2X3X3X3X3X3X3XeXuXuXuXdXdXdXdXhXhXhXhXhXhXjXjXAXDXFXFXGXJXJXLXKXKXKXKXKXKXKXKXKXKXKXKXKXKXKXKXKXKXKXKXKXKXKXKXKXKXKXKXKXKXKXKXKXKXKXKXKXKXKXKXKXKXLXJXGXFXFXHXAXAXjXkXhXhXhXhXhXdXdX4X4X3X3X3X*X*X*X#X#X#X#X#X#X#X#X#X#X#X#X*X=X=X=X=X=X=XgXaXaXzXkXkXlXlXlXHXHXGXGXLXKXKXKXKXKXKXKXKXKXKXKXKXKXKXKXLXLXLXJXGXHXlXzXzXY.gXQ =Xb &.;.n.M.m.n.M.M.M.M.M.M.M.M.M.M.n.M.m.n.M.N.n.(.(.(.(.(.(.n.n.m.m.N.(.).).n.x.n.n.",
"JXGXFXFXFXDXDXDXSXAXAXCXCXCXVXVXVXVXVXBXBXhXsXyXyXyXuXuXeXuXeXeXeX3X3X2X2X3X2X2X2X2X2X2X2X2X2X2X2X2X2X2X2X2X2X2X3X3X3X3X3XeX3XuXuXuXdXdXhXdXhXhXhXhXhXhXhXjXAXSXFXFXJXJXJXLXKXKXKXKXKXKXKXKXKXKXKXKXKXKXKXKXKXKXKXKXKXKXKXKXKXKXKXKXKXKXKXKXKXKXKXKXKXKXKXKXKXKXLXJXGXFXFXHXAXAXjXjXjXjXjXhXhXhXdXdX4X3X3X3X*X*X*X#X*X*X*X#X*X*X*X*X*X*X*X*X=X=X=X=X=X4XaXaXkXkXkXlXlXlXHXHXHXGXJXLXKXKXKXKXKXKXKXKXKXKXKXKXKXKXKXKXKXKXKXLXLXGXGXHX+X=Xl gXb &.;.m.M.N.n.M.M.M.M.M.M.M.M.M.M.n.M.N.M.M.N.x.(.(.(.(.(.(.n.n.N.N.N.N.).).n.;.n.n.",
"JXJXFXFXFXDXDXDXSXAXAXCXCXCXCXVXVXVXVXBXhXhXhXsXsXyXuXuXtXuXeXeXeXeX7X3X7X2X2X2X2X2X2X2X2X2X2X2X2X2X2X2X2X3X2X3X3X3X3X3XeXuXuXuXuXuXdXsXhXhXhXhXhXhXhXjXhXjXCXSXDXFXGXJXJXLXKXKXKXKXKXKXKXKXKXKXKXKXKXKXKXKXKXKXKXKXKXKXKXKXKXKXKXKXKXKXKXKXKXKXKXKXKXKXKXKXKXLXLXJXGXGXFXHXHXAXCXjXjXjXjXjXjXhXdXdX4X4X3X3X3X*X*X*X*X*X*X#X*X*X*X*X*X*X*X=X=X=X3X3X4XaXaXaXkXkXlXlXlXlXHXHXGXGXJXKXKXKXKXKXKXKXKXKXKXKXKXKXKXKXKXKXKXKXKXKXKXLXJXGX&X=Xl aXb =.;.m.m.m.n.M.M.M.M.M.M.M.M.M.M.n.M.N.M.M.M.x.(.(.(.(.(.(.n.n.n.N.N./.).).n.;.n.n.",
"JXJXFXFXDXDXDXSXSXAXAXCXCXCXCXVXVXVXVXBXhXhXhXsXsXyXyXtXtXuXeXeXeXeXeXeX3X3X2X2X2X2X2X2X2X2X2X2X2X2X2X2X2X2X2X3X3X3X3X3XeXuXuXuXuXuXdXhXhXhXhXhXhXhXhXjXjXjXVXAXSXFXGXJXJXLXLXKXKXKXKXKXKXKXKXKXKXKXKXKXKXKXKXKXKXKXKXKXKXLXKXKXKXKXKXKXKXKXKXKXKXKXKXKXKXKXKXLXLXJXGXGXFXHXSXAXCXVXjXjXjXjXjXhXdXdXdX4X3X3X3X*X*X*X*X*X*X*X*X*X*X*X*X*X=X=X3X4X4X4X4XaXaXkXkXkXlXlXlXlXHXHXGXGXLXKXKXKXKXKXKXKXKXKXKXKXKXKXKXKXKXKXKXKXKXKXKXKXLXGX&XgXM hX=.B.x.m.M.n.n.M.M.M.M.M.M.M.M.M.M.n.M.M.M.M.M.x.(.(.(.(.(.(.^.n.n.N.N./.(.n.n.;.n.n.",
"JXGXFXFXDXDXDXSXSXSXAXCXCXCXVXVXVXVXVXhXhXhXhXsXsXyXtXtXtXuXeXeXeXeXeXeX7X3X3X2X2X2X2X2X2X2X2X2X2X2X2X2X2X2X3X7X7X3XeXeXuXuXuXuXuXdXhXhXhXhXhXhXhXhXjXjXjXjXVXCXAXFXGXJXJXLXLXKXKXKXKXKXKXKXKXKXKXKXKXKXKXKXKXKXKXKXKXKXKXLXKXKXKXKXKXKXKXKXKXKXKXKXKXKXKXKXKXLXLXJXGXGXFXHXSXAXCXVXjXjXjXjXjXhXhXdXdX4X4X3X3X2X*X2X*X2X*X*X2X*X*X*X*X*X=X3X3X4X4X4XaXaXaXkXkXkXlXlXlXAXHXHXGXGXLXKXKXKXKXKXKXKXKXKXKXKXKXKXKXKXKXKXKXKXKXKXKXKXLXGX%XgX6.zXx.^.^.m.M.m.n.M.M.M.M.M.M.M.M.M.M.n.M.(.M.M.M.x.(.M.(.(.(.(.n.n.n.N.N.N.(.n.n.;.n.n.",
"JXFXFXFXDXDXDXSXSXSXAXCXCXCXCXVXVXVXVXhXhXhXhXsXsXyXyXtXtXrXeXeXeXeXeXeX7X3X2X3X2X2X2X2X2X2X2X2X7X2X2X7X3X2X3X3X7XeXeXeXuXuXuXuXuXdXhXhXhXhXhXhXhXjXjXjXjXjXVXCXAXHXFXGXJXLXLXKXKXKXKXKXKXKXKXKXKXKXKXKXKXKXKXKXKXKXKXKXKXLXKXKXKXKXKXKXKXKXKXKXKXKXKXKXKXKXKXLXLXJXGXGXFXHXSXAXCXVXjXjXjXjXhXhXhXdXdXuX4X3X2X2X2X2X2X2X*X*X*X2X2X*X2X2X3X3X4XaXaXaXaXaXaXkXkXkXlXlXlXHXHXFXGXGXLXKXKXKXKXKXKXKXKXKXKXKXKXKXKXKXKXKXKXKXKXKXKXKXLXJX%XaX7.zX^.^.^.M.M.n.m.M.M.M.M.M.M.M.M.M.M.n.M.(.M.N.(.x.(.(.(.(.(.(.n.n.n.N.N.N.N.n.n.;.n.n.",
"FXFXFXDXDXDXDXDXSXAXAXCXCXCXCXVXVXVXVXhXhXhXhXhXsXyXyXyXtXtXtXeXeXeXeX7X7X3X3X3X2X2X2X2X2X2X2X2X7X7X2X7X2X2X3X3XeXeXeXeXuXuXuXuXsXdXhXhXhXhXhXhXhXhXjXjXjXjXVXCXAXDXFXGXJXJXLXLXKXKXKXKXKXKXKXKXKXKXKXKXKXKXKXKXKXKXKXKXKXLXKXKXKXKXKXKXKXKXKXKXKXKXKXKXKXKXKXLXJXJXJXGXFXHXHXAXCXVXjXjXhXhXhXhXjXhXdXuX4X4X3X3X2X2X2X2X2X2X2X2X2X2X2X2X3X3X4XaXaXaXaXaXdXkXkXlXlXlXlXHXHXFXGXGXJXKXKXKXKXKXKXKXKXKXKXKXKXKXKXKXKXKXKXKXKXKXKXKXLXJX%XaX8.zXn.n.^.M.M.n.m.M.M.M.M.M.M.M.M.M.M.x.(.(.M.M.(.x.(.(.(.(.(.(.n.n.n.N.N.n.N.n.n.;.^.n.",
"FXFXFXDXDXDXDXDXSXSXAXCXCXCXVXVXVXVXVXBXBXBXhXhXsXyXyXtXtXtXtXuXeXeXeXeXeXeX3X3X3X2X2X2X2X2X2X7X7X2X7X3X2X3X7X3XeXeXeXuXeXuXuXuXdXdXhXhXhXhXhXhXhXhXjXVXjXjXVXCXAXSXDXFXJXJXLXLXKXKXKXKXKXKXKXKXKXKXKXKXKXKXKXKXKXKXKXKXKXJXKXKXKXKXKXKXKXKXKXKXKXKXKXKXKXKXKXLXJXJXGXFXFXHXSXAXCXVXjXjXjXjXhXhXjXhXdXuX4X4X3X3X2X2X2X2X2X2X2X2X2X2X2X3X3X4X4XaXaXaXaXaXdXkXjXlXlXlXlXHXHXFXFXGXJXKXKXKXKXKXKXKXKXKXKXKXKXKXKXKXKXKXKXKXKXKXKXKXLXJX%XaXr.zX^.^.^.M.M./.m.M.M.M.M.M.M.M.M.M.M.n.n.(.M.(.(.B.(.(.(.N.M.(.x.n.n.N.N.n.N.n.n.;.n.n.",
"FXFXFXDXDXDXDXSXSXSXAXCXCXCXVXCXVXVXVXVXBXBXhXhXsXsXyXtXtXtXrXtXuXuXuXeXeXeX7X3X3X2X2X2X2X2X7X2X3X3X3X3X2X3X7XeXeXeXeXuXuXuXuXuXuXdXhXhXhXhXhXhXhXjXjXVXVXjXVXCXAXSXDXFXGXJXJXLXLXKXKXKXKXKXKXKXKXKXKXKXKXKXKXKXKXKXKXKXKXJXKXKXKXKXKXKXKXKXKXKXKXKXKXKXKXKXKXLXJXJXGXFXFXDXSXAXCXVXjXjXjXjXjXjXhXhXsXdX4X3X3X3X2X2X2X3X2X2X2X2X2X3X3X3X3X3X4XaXaXaXdXdXhXkXkXjXlXlXAXAXHXHXHXGXGXLXKXKXKXKXKXKXKXKXKXKXKXKXKXKXKXKXKXKXKXKXKXKXLXJX%XzXr.zX^.^.^.(.M.n.m.M.M.M.M.M.M.M.M.M.M.n.M.n.(.(.(.x.(.(.n.(.(.(.x.n.n.n.N.n.N.n.n.;.^.n.",
"FXFXFXDXDXDXSXSXSXSXAXCXCXCXVXCXVXVXVXBXBXBXBXhXhXsXyXtXtXtXtXtXuXrXuXeXeXeX7X3X3X2X2X2X7X7X7X7X7X7X3X7X7X3XeXeXeXeXeXuXuXuXuXuXuXdXdXhXhXhXhXhXhXhXVXVXVXVXVXCXAXSXDXFXFXJXJXJXLXKXKXKXKXKXKXKXKXKXKXKXKXKXKXKXKXKXKXKXKXJXLXKXKXKXKXKXKXKXKXKXKXKXKXKXKXKXLXJXJXJXGXFXHXDXSXAXCXCXVXjXjXjXjXVXjXhXdXdXuX3X3X3X2X2X3X3X2X3X2X2X2X2X3X3X3X4X4X4XaXaXdXdXhXkXjXjXlXlXAXAXHXHXHXGXGXLXKXKXKXKXKXKXKXKXKXKXKXKXKXKXKXKXKXKXKXKXKXKXLXJX#XzXr.zX^.^.^./.M.n.m.M.M.M.M.M.M.M.M.M.M.;.(.(.(./.(.x.m./.(.M.(.(.x.n.n.m.N.n.n.n.n.;./.n.",
"FXFXFXDXDXDXDXSXSXSXSXCXCXCXVXCXVXVXVXBXBXBXBXhXBXsXyXyXyXtXyXtXtXuXeXeXeXeX7X3X3X2X2X2X2X3X7X7X7X7X3X3X7X7XeXeXeXeXeXuXuXuXuXuXuXdXsXhXhXhXhXhXhXjXVXVXVXVXCXCXCXAXDXDXFXGXJXJXLXLXKXKXKXKXKXKXKXKXKXKXKXKXKXKXKXKXKXKXKXPXLXKXKXKXKXKXKXKXKXKXKXKXKXKXKXKXLXJXJXGXFXFXDXDXSXAXCXVXVXjXjXVXVXVXjXjXhXdXuX4X3X3X2X2X3X3X3X3X2X2X2X2X3X3X3X4X4XaXaXaXaXdXdXkXjXjXlXlXAXAXAXHXFXFXGXLXKXKXKXKXKXKXKXKXKXKXKXKXKXKXKXKXKXKXKXKXKXKXLXGX@XzXr.zX^.^.^.(.M./.m.M.M.M.M.M.M.M.M.M.M.n.(.(.(.(.(.x.M.M.(.M.M.(.x.n.n.m.N.n.n.n.n.;.^.n.",
"FXFXFXDXDXDXSXSXSXSXSXCXCXCXCXVXVXVXVXBXBXBXBXhXhXsXyXyXyXyXyXtXtXrXrXeXeXeXeX7X3X2X2X2X3X7X7X3X7X7X7X7X7XeXeXeXeXeXuXuXuXuXuXuXuXdXhXhXhXhXhXhXhXVXVXVXCXCXCXCXCXAXSXDXFXGXJXJXJXLXLXKXKXKXKXKXKXKXKXKXKXKXKXKXKXKXKXKXKXPXLXKXKXKXKXKXKXKXKXKXKXKXKXKXKXLXLXJXJXGXFXFXHXDXSXAXAXVXVXjXVXVXVXVXhXhXdXdXuXuX3X3X3X3X3X3X3X3X2X2X2X3X3X3X3X4X4XaXaXaXdXdXdXkXjXjXlXlXAXAXAXHXHXFXGXJXKXKXKXKXKXKXKXKXKXKXKXKXKXKXKXKXKXKXKXKXKXKXLXGXoXaXr.zX^.^.^./.M.m.n.M.M.M.M.M.M.M.M.M.M.^.N.(.M.(.(.x.(.M.(.M.(.(.x.n.n.N.M.n.n.n.n.;.^.n.",
"FXDXDXDXDXDXSXSXSXAXAXCXCXCXCXVXVXVXVXBXBXBXBXBXhXsXsXyXyXtXyXtXtXrXrXeXeXeXeXeX3X2X2X2X3X3X3X3X7X7X7XeXeXeXeXeXeXeXuXuXuXuXyXuXdXdXhXhXhXhXhXhXhXhXVXVXCXCXCXCXAXAXSXDXFXFXGXJXJXLXLXKXKXKXKXKXKXKXKXKXKXKXKXKXKXKXKXKXKXFXPXKXKXKXKXKXKXKXKXKXKXKXKXKXLXLXJXJXJXGXFXFXHXDXSXAXCXVXVXjXVXVXVXVXVXhXhXdXuXuX3X3X3X2X3X3X3X3X2X2X3X2X3X3X3X3X4XaXaXdXdXdXhXkXjXjXlXlXlXAXAXAXHXFXGXJXLXKXKXKXKXKXKXKXKXKXKXKXKXKXKXKXKXKXKXKXKXLXJXGX XaXB.zX^.^.^./.(./.n.M.M.M.M.M.M.M.M.M.M.^.n.n.m.(.(.B.(.M.M.M.(.(.x.m.n.N.N.n.n.n.^.x.^.^.",
"FXDXDXDXDXSXSXSXAXAXCXCXCXCXCXVXVXVXVXBXBXBXBXBXBXhXsXyXyXyXtXtXtXrXuXeXeXeXeXeX3X3X2X2X3X3X3X7X7X7X7X7X7XeXeXeXeXeXuXuXuXuXuXuXsXdXhXhXhXhXhXhXhXhXVXVXCXCXCXCXCXAXSXDXFXFXFXGXJXJXLXLXKXKXKXKXKXKXKXKXKXKXKXKXKXKXKXKXKXDXPXKXKXKXKXKXKXKXKXKXKXKXKXLXLXJXJXJXGXGXFXDXHXSXSXAXCXVXVXjXVXVXVXVXVXhXhXsXuXuX3X3X3X3X3X3X3X3X2X2X3X2X3X3X3X4X4XaXaXdXdXdXdXkXjXkXjXlXlXAXAXAXHXHXGXGXLXKXKXKXKXKXKXKXKXKXKXKXKXKXKXKXKXKXKXKXKXLXJXGX XaXB.zX^.^.^.(.(./.n.M.M.M.M.M.M.M.M.M.M.n.(.n.(.(.(.;.(.M.M.M.(.(.;.m.n.N.N.n.n.n.^.x.^.^.",
"DXDXDXDXSXSXSXSXAXCXCXCXCXCXVXVXVXVXVXBXBXBXBXBXhXhXsXyXyXyXtXyXtXrXeXeXeXeXeXeX3X3X2X2X3X3X7X7X7X7X7X7X7XeXeXeXeXuXuXuXuXyXyXuXsXsXhXhXhXhXhXhXhXhXVXVXCXCXCXCXCXAXSXDXDXFXFXGXJXJXJXLXLXKXKXKXKXKXKXKXKXKXKXKXKXKXKXKXKXDXPXKXKXKXKXKXKXKXKXKXKXKXKXLXLXJXJXJXGXFXFXDXDXSXSXAXCXVXVXjXVXVXjXjXVXhXhXhXuXuX3X3X3X3X3X3X3X3X3X3X3X3X3X3X3X4X4XaXaXaXdXdXdXkXjXkXjXlXlXAXAXAXHXHXFXGXJXLXKXKXKXKXKXKXKXKXKXKXKXKXKXKXKXKXKXKXKXLXGXGX XaXY.zX^.^.^./.(.^.m.M.M.M.M.M.M.M.M.M.(.x.(./.(.(.(.;.(.M.(.M.(.(.x.n.n.N.N.N.n.n.^.x.n.n.",
"DXDXDXDXSXSXSXSXAXCXCXCXCXCXVXVXVXVXBXBXBXBXhXBXBXhXsXyXyXyXyXyXrXeXeXeXeXeXeXeX7X3X2X2X3XeXeXeXeXeX7X7X7XeXeXeXeXuXuXuXuXuXyXsXyXsXhXhXhXhXhXhXhXhXVXVXCXCXCXCXCXAXAXSXDXFXFXGXGXJXJXJXLXLXKXKXKXKXKXKXKXKXKXKXKXKXKXKXLXDXPXKXKXKXKXKXKXKXKXKXKXKXLXLXJXJXJXJXGXFXFXDXDXSXAXAXCXVXVXjXVXVXVXVXVXhXhXhXdX4X3X3X3X3X3X3X3X3X3X3X3X3X3X3X3X4X4XaXaXaXdXdXhXhXjXkXkXlXlXlXlXAXHXHXFXGXJXJXLXKXKXKXKXKXKXKXKXKXKXKXKXKXKXKXKXKXLXJXGXGX|.aXY.gX^.^.B.).(.^.m.M.M.M.M.M.M.m.M.M.M.x.(.(.(.(.m.x.(.(.(.M.(.(.x.n.n.n.m.n.n.n.n.x.^.^.",
"DXDXDXDXSXSXSXSXAXCXCXCXCXCXCXVXVXVXVXBXBXBXhXhXBXBXMXyXyXyXtXtXtXrXrXuXeXeXeXeX3X3X3X2X2X7XeX7X7X7XeXeXeXeXeXeXeXuXuXuXuXyXyXsXyXsXsXhXhXhXhXhXhXhXVXVXVXCXCXCXCXAXAXSXSXDXFXFXGXGXJXJXJXLXLXKXKXKXKXKXKXKXKXKXKXKXKXKXLXDXPXKXKXKXKXKXKXKXKXKXLXLXLXJXJXJXJXJXGXFXDXDXSXSXAXAXCXVXVXVXVXVXVXVXVXhXhXsXsXuX4X3X3X3X3X3X3X3X3X3X3X3X3X3X4X4X4XaX4XdXdXdXdXhXkXkXkXjXlXlXAXAXAXHXHXFXGXJXLXLXKXKXKXKXKXKXKXKXKXKXKXKXKXKXKXLXJXGXGXGX|.gX!.gX^.^.B././.^.m.(.(.(.(.M.M.M.M.M.(.n.(.(.(.M.n.B.(.M.M.M.M.(.;.n.n.n.n.n.n.n.^.;.).x.",
"DXDXDXSXSXSXSXSXAXCXCXCXCXCXVXVXVXVXBXBXBXBXhXhXBXsXyXyXyXyXyXyXtXtXrXrXeXeXeXeX3X3X3X2X2X7XeX7X7X7XeXeXeXeXeXeXeXeXuXuXuXuXuXyXyXsXhXhXhXhXhXhXhXhXhXVXVXVXCXCXCXCXAXSXSXDXDXFXFXGXJXJXJXJXJXLXLXKXKXKXKXKXKXKXKXKXKXKXLXSXPXKXKXKXKXKXKXKXLXLXLXLXJXJXJXJXGXGXFXFXDXDXSXSXAXAXCXVXVXVXVXVXVXVXVXhXhXsXuXuX4X3X3X3X3X3X3X3X3X3X3X3X3X4X4X4X4XaX4XdXdXdXdXhXkXjXkXkXlXlXlXAXAXHXHXFXGXGXJXLXKXKXKXKXKXKXKXKXKXKXKXKXKXKXLXLXJXGXGXGXi.gX!.gXB.^.B.)./.^./.(.(.(.(.M.M.M.M.M.(.^.n.(.^.(./.B.(.M.M.M.M.(.;.n.n.n.m.n.n.n.^.;.^.x.",
"DXDXSXSXSXSXSXSXCXCXCXCXCXCXCXVXVXVXVXBXBXBXBXhXhXsXyXyXyXyXyXyXtXtXtXrXeXeXeXeX3X3X3X2X3X7X7X7XeX7XeXeXeXeXeXuXeXeXuXuXuXsXuXyXuXsXhXhXhXhXhXhXhXhXhXVXjXVXCXCXCXCXAXAXSXDXDXDXFXFXGXJXJXJXJXJXLXKXKXKXKXKXKXKXKXKXKXKXLXSXDXKXKXKXKXKXLXLXLXLXJXJXJXJXJXJXFXFXFXDXDXDXSXAXAXCXCXVXVXVXVXVXVXVXVXhXhXsXdXuX3X3X3X3X3XeXeXeX3X3X3X3X3X4X4X4X4XaXaXdXdXdXkXhXjXjXkXkXjXlXlXAXAXAXHXFXGXGXJXJXLXLXKXKXKXKXKXKXKXKXKXKXKXKXLXJXGXGXFXHXi.aX!.gXB.^.B././.^./.(.(.(.M.M.M.M.M.(.(.^.n.n.n.(.(.^.(.M.M.m./.).;.n.n.n.n.n.n.n.^.;.n.^.",
"DXDXSXSXSXSXSXSXCXCXCXCXCXCXCXVXVXVXBXBXBXBXBXBXBXsXsXyXyXyXyXtXtXtXtXrXuXeXeXeXeX3X3X3X3X7X7XeX7X7XeXeXeXeXeXeXeXeXuXuXuXyXuXsXsXsXsXsXhXhXhXhXhXhXhXhXhXVXVXCXCXCXAXAXSXSXDXDXFXFXFXGXJXJXJXJXJXLXLXKXKXKXKXKXKXKXKXKXLXSXDXLXLXLXLXLXLXLXJXJXJXJXJXJXGXFXFXFXDXDXDXSXSXAXAXCXCXVXVXjXVXVXVXVXVXhXhXdXdXuXuX3X3X3XeX3XeXeX3X3X3X3X3X3X3X4X4X4XdXdXdXdXdXhXjXjXkXkXjXjXlXlXlXAXHXHXFXGXGXGXJXLXLXLXKXKXKXKXKXKXKXKXLXLXJXGXGXGXFXHXi.aX!.gXB.^.B././.^./.(.(.(.(.M.M.M.M.n.(.B.).;.(.(.).B.(.(.M.m./.).;.n.n.n.n.n.n.n.n.;.n.^.",
"DXSXSXSXSXSXSXCXCXCXCXCXCXVXVXVXVXBXBXBXBXBXhXBXhXhXyXyXyXtXtXtXtXrXtXuXeXuXeXeXeXeX3X2X3X7X7XeX7X7XeXeXeXeXeXeXeXuXuXuXuXyXyXsXsXsXsXsXhXhXhXhXhXhXhXhXVXVXVXCXCXCXAXAXSXSXDXDXDXFXFXGXGXJXJXJXJXJXLXLXLXLXKXKXKXKXKXKXLXSXSXJXJXJXJXJXJXJXJXJXJXJXJXGXGXFXFXFXDXDXDXSXAXAXCXCXVXVXVXVXVXVXVXVXVXBXhXhXdXuX4X3XeXeXeXeXeXeXeX3X3X3X3X3X4X4X4X4XdXdXdXdXdXhXhXjXjXjXjXjXjXlXlXAXAXHXFXGXGXGXJXJXJXLXLXLXLXLXKXLXLXLXLXJXGXGXGXFXHXHXi.aX!.gXt.^.B.)./.^.).(.(.M.(.M.M.M.(.(.(.;.(.(.(.(.).x.(.(.M.m.(.).;.n.n.n.n.n.n.n.^.x.^.^.",
"SXSXSXSXAXSXCXCXCXCXCXCXVXVXVXVXVXVXBXBXBXBXhXBXhXsXyXyXyXyXyXtXtXrXuXeXeXeXeXeX3X3X3X2X3XeX7XeX7XeX7XeXeXeXeXeXeXeXuXuXuXyXyXyXyXsXsXsXhXhXhXhXBXhXhXhXhXVXVXVXCXCXCXAXAXSXDXDXDXFXFXFXGXGXJXJXJXJXJXLXLXLXLXLXKXKXKXKXLXSXCXJXJXGXJXJXJXJXJXJXJXGXGXGXFXFXDXDXDXDXDXSXAXAXCXCXVXVXVXVXVXVXVXVXVXhXhXhXdXuX4X3XeXeXuX4XeXeX3X3X3X3X3X3X4X4X4X4XaXdXdXdXdXhXhXkXjXjXjXjXjXlXlXAXAXHXFXFXGXGXGXGXJXJXJXJXJXLXLXLXLXJXJXGXGXGXFXFXHXHX' gX!.gXt.B.t.)./.^./.(.(./.(.(.M.(.(.(./.;.(.(.(.(.).x.M.(.M.m./.(.;.n.n.n.n.n.n.n.^.x.^.^.",
"SXSXSXAXAXCXCXCXCXCXCXCXCXVXVXVXVXVXBXBXhXhXBXBXhXsXyXyXyXyXyXtXtXuXuXeXeXeXeXeXeX3X3X3X7XeX7XeX7XeXeXeXeXeXeXeXeXeXeXuXuXuXyXyXsXsXsXsXsXhXhXhXhXhXhXhXhXhXjXVXCXCXCXAXAXSXDXDXDXDXFXFXFXGXGXJXJXJXJXJXJXJXJXLXLXKXKXKXLXZXCXGXGXGXGXGXGXGXGXGXGXFXFXFXFXFXDXDXDXDXSXSXAXCXCXCXVXVXVXVXVXVXVXVXVXhXhXhXsXuXuX3XeXeX4X4X4X4X3X3X3X3X3X3X3X4XuXuXaXdXaXdXdXdXhXhXjXjXjXjXjXjXlXlXAXHXHXFXGXGXGXGXGXGXJXJXJXJXJXJXGXJXGXGXGXGXFXHXHXHX` gXQ.gXt.B.;.^./.B.^.(.(./.(.(.(.(.(.(.(.x./.(.n.^.).x.(.(.m.N.(.n.;.n.n.n.n.n.n.n.x.x.^.n.",
"SXSXSXAXCXCXCXCXCXCXCXCXVXVXVXVXVXBXBXBXBXBXhXhXsXsXyXyXyXyXtXtXtXtXtXeXeXeXeXeXeX3X3X3X7X7X7X7X7XeXeXeXeXeXeXeXuXuXuXuXuXuXyXyXsXsXsXsXsXhXhXhXhXhXhXhXjXjXVXVXVXVXCXCXAXAXSXDXDXDXDXFXFXFXGXGXGXJXJXJXJXJXJXLXLXLXKXKXLXZXCXGXGXGXGXGXGXGXFXFXFXFXFXFXFXDXDXDXDXSXSXSXAXCXCXCXVXVXVXVXVXVXVXVXVXhXhXsXsXuXuX4X4X4X4X4X4X4X3X3X3X3X3X3X3X4XuXdX4XaXaXdXdXdXhXhXhXjXjXjXjXjXjXlXAXAXHXHXFXFXGXGXGXGXGXGXJXJXGXGXGXGXGXGXGXFXHXHXHXHX` gXW.W.r.t.t.^.^.B.^./././.(.(.M.(.(.(.(.^.n.(.n.^.).x.(.n.m.n.n.n.;.n.n.n.^.n.n.n.x.^.n.^.",
"SXSXSXAXSXCXCXCXCXCXVXVXVXVXVXVXVXBXBXBXBXBXBXhXhXhXyXsXyXtXtXtXtXrXtXrXrXeXeXeXeXeX3X3X3XeX7X7XeXeXeXeXeXeXeXeXeXeXuXuXuXyXyXyXsXsXsXsXsXhXhXhXhXhXhXhXVXVXVXVXVXCXCXCXCXAXSXDXDXDXDXDXFXFXFXFXFXJXJXJXJXJXJXJXJXLXLXLXJXZXVXFXGXGXGXFXFXFXFXFXFXFXFXDXDXDXDXDXSXSXAXAXAXCXCXCXVXVXVXVXVXVXVXVXVXBXhXsXsXuXuX4XeX4X4X4XuXeX3X3X3X3X3X3X4X4X4X4X4XaXdXdXdXdXhXhXhXjXjXjXjXjXjXlXAXAXAXHXFXFXFXFXFXGXGXGXGXGXGXGXGXGXGXGXFXFXHXHXHXHX_ aXW.W.r.t.t.^.^.B.^././.(.(.(.m.(.(.n.(.^.n.n.^.n.(.x./.M.m.n.n.^.;.n.n.n.^.n.n.n.^.^.n.x.",
"SXSXCXCXCXCXCXCXCXCXVXVXVXVXVXVXVXVXhXBXBXBXBXhXhXhXyXsXyXyXtXtXtXrXtXrXrXeXeXeXeXeX3X3X3X7X7X7XeXeXeXeXeXeXeXeXeXuXuXuXuXuXyXyXsXsXsXsXsXhXhXhXhXhXhXhXVXVXVXVXVXVXCXCXCXAXAXSXSXDXDXDXDXFXFXFXFXFXGXJXJXJXJXJXJXLXLXLXJXZXVXFXFXFXFXFXFXFXFXFXFXFXDXDXDXDXDXSXSXSXAXAXCXCXCXCXVXVXVXVXVXVXVXVXVXBXhXsXsXsXuXuX4XuX4X4XuXeX3XeX3X3X3X3X4X4X4X4X4XaXdXdXdXdXdXhXhXhXhXjXjXjXjXlXAXAXAXHXHXFXFXFXFXFXGXGXGXGXGXGXGXGXGXFXHXFXHXHXHXAX_ aXW.W.r.t.t.^.^.B.^.)././.(.(.m.(.(.n.(.n.^.;.).n.(.x.n./.n.n.n.^.;.n.^.^.^.n.n.n.^.x.^.x.",
"SXSXCXCXCXCXCXCXCXCXCXVXVXVXVXVXBXBXBXBXhXBXBXsXhXhXsXyXyXyXtXtXtXtXtXrXuXuXeXeXeXeXeX3X7X7XeXeXeXeXeXeXeXeXeXeXeXeXeXuXuXuXyXyXsXsXsXsXsXsXhXhXhXhXBXBXhXVXVXVXVXVXCXCXCXCXAXAXSXSXDXDXDXDXFXFXFXFXFXFXJXJXJXJXJXJXJXLXJXZXVXFXFXFXFXFXFXFXFXDXDXDXDXDXDXSXSXSXAXAXAXAXCXCXCXVXVXVXVXVXVXVXVXVXBXBXhXhXsXuXuXuX4X4XuX4XuX4XeXeXeX3X3XeX4X4XuXuX4X4XaXdXdXdXaXdXhXhXjXhXjXjXjXlXAXAXAXAXHXHXHXHXFXFXFXFXFXFXFXFXFXFXFXFXHXHXHXHXAXAX) gXW.W.r.t.t.^.^.B.^./././.).(.m.)././.(.x.(.^.(.n.(.x.m././.n.n.^.;.n.n.^.^.n.n.n.B.;.^.^.",
"SXCXCXCXCXCXCXCXCXCXVXVXVXVXVXVXBXBXhXBXhXhXhXBXMXsXyXyXyXyXtXtXtXtXtXrXeXeXeXeXeXeXeX3X7X7XeXeXeXeXeXeXeXeXeXeXeXeXuXuXuXuXuXyXsXsXsXsXsXsXhXhXhXhXhXhXhXhXVXVXVXVXCXCXCXCXCXAXSXSXDXDXDXDXDXFXFXFXFXFXFXGXJXJXJXJXJXJXJXZXBXFXHXHXHXHXHXHXDXDXDXDXDXSXSXSXAXSXSXAXAXCXCXCXCXCXVXVXjXVXVXVXVXBXBXBXhXhXsXuXuXuXuXuXuXuXuXuX4X4XeXeXeXeX4X4XuXuX4X4XaXdXdXdXdXdXhXhXhXhXkXkXkXjXlXAXAXAXHXHXHXHXHXHXFXFXFXFXFXHXFXFXFXHXHXHXHXAXlXAX) gXW.!.r.r.t.^.^.B.^././.).).(.n.^.^.n.).;.(.(.).n./.x.n.m.n.n.n.^.;.n.n.n.^.n.^.n.x.;.^.^.",
"CXCXCXCXCXCXCXCXCXVXVXVXVXVXVXVXBXBXBXBXBXBXBXsXsXsXyXyXyXyXyXtXtXtXtXtXuXuXeXeXeXeX3X3X7XeXeXeXeXuXeXeXeXeXeXeXeXeXuXuXuXuXuXyXyXyXsXsXsXsXhXhXhXhXhXhXhXBXVXVXVXVXVXCXCXCXCXAXSXSXSXDXDXDXDXDXDXDXDXFXFXFXPXJXGXJXJXJXPXZXBXHXHXHXHXHXHXHXDXDXDXDXDXSXSXAXAXAXAXSXAXCXCXCXVXVXhXdXdXhXjXhXBXBXBXBXhXhXsXsXuXuXuXuXuXuXuXuX4X4XeX4XeXeX3X4X4X4XuX4X4XdXdXdXdXdXhXhXhXhXkXhXjXjXjXlXAXAXAXHXHXHXHXHXHXHXHXHXHXHXHXHXHXHXHXHXHXAXlXAX) aX&X!.r.t.t.^.^.t.^.^.^.)././.n.).).^.).+.m.(.^.^.n.x.n.n.n.n.n.^.;.n.x.n.^.n.^.n.x.;.^.^.",
"SXCXCXCXCXCXCXCXVXVXVXVXVXVXBXVXBXBXBXBXBXBXhXsXsXbXyXyXyXyXyXyXtXuXrXrXtXeXeXeXeXeX3X3X3X7XeXeXeXeXeXeXeXeXeXeXrXuXuXuXtXuXuXyXsXyXsXsXsXsXhXhXhXhXBXhXBXBXVXVXVXVXVXCXCXCXCXAXAXAXAXSXDXDXDXDXDXDXDXDXFXFXFXFXFXPXJXJXPXZXBXHXHXHXHXHXHXHXDXDXDXSXSXSXSXAXCXCXCXCXCXCXVXVXVXVXdX4XdXhXhXdXdXhXhXhXhXsXsXsXuXuXuXuXuXuXuXuXuX4X4X4XeXeX3X4X4X4XuX4XuXdXdXdXdXdXdXhXhXhXhXhXkXjXjXlXAXAXAXAXAXHXHXHXHXHXHXHXHXHXHXHXHXHXHXHXAXlXlXlX] gX&X!.r.B.t.^.^.;.^.^.^.).^./.^.^.^.^.).-.n.).n./.n.;.n.n.n.n.n.^.;.n.x.n.^.n.^.n.x.;.n.n.",
"CXCXCXCXCXCXVXVXVXVXVXVXVXVXBXBXBXBXhXhXhXBXsXMXsXyXyXyXyXyXyXtXtXrXrXuXrXeXeXeXeXeXeX3X7XeXeXeXeXeXeXeXeXeXeXeXeXeXuXuXyXtXyXtXyXyXsXsXsXsXsXsXhXhXhXhXhXhXhXVXVXVXVXVXCXCXCXCXCXAXAXSXSXSXDXDXDXDXDXDXDXDXDXFXFXFXPXJXPXZXBXHXHXHXHXHXAXAXSXSXSXSXAXSXAXCXVXjXdXVXCXCXjXjXhX#X3X=X*X3X#X|.D.3XuXyXsXdXsXsXsXsXuXyXyXyXuXuXuXuXuX4XuX4X4X4X4X4XuXuXuXdXdXdXdXdXdXhXhXdXdXhXkXjXjXlXAXAXAXAXAXAXAXHXHXHXHXHXHXHXHXHXHXHXHXAXlXlXlXjX] gX&X!.r.t.t.^.).t.^.^.^.).^./.^.^.^.).).| ;.n.;.(.n.;.n.n.n.n.n.^.;.n.x.n.^.n.^.x.x.;.n.n.",
"CXCXCXCXCXVXVXVXVXVXVXVXVXVXBXBXBXBXBXBXhXsXsXsXsXyXyXyXyXtXtXtXtXuXeXeXuXeXeXeXeXeX7X3X7XeXeXeXeXeXeXeXeXeXeXeXeXeXrXuXtXtXtXyXyXsXsXsXsXsXsXsXsXhXhXhXhXhXhXhXVXVXVXVXCXCXCXCXCXAXAXAXSXSXSXDXDXDXDXDXDXDXDXDXDXFXPXPXPXZXbXAXAXAXAXAXAXAXSXSXAXAXCXCXCXVXhX=X#X#X4XhXdXhXdX|.*X*X#XoXL.` i.` 3X3XdXdXsXsXyXuXsXsXyXyXuXuXuXuXuX4X4X4X4X4X4X4XuXuXdXdXdXdXdXdXdXdXhXdXdXdXhXkXjXjXAXAXAXAXAXAXAXAXAXAXAXAXAXHXAXAXAXAXAXlXlXlXlXjX) aXgX!.r.t.8.^.^.t.^.^.).).n./.^.^.^.).).-.;.;.;.(.x.;.n.n.n.n.n.^.;.n.x.n.^.n.^.x.t.;.n.x.",
"CXCXCXCXVXVXVXVXVXVXVXVXVXBXBXBXBXBXBXhXhXBXMXyXyXyXyXyXyXyXyXtXtXrXeXuXuXuXeXeXeXeX7X7X3XeXeXeXeXeXeXeXeXeXeXeXeXeXeXeXuXyXyXyXyXyXsXsXsXsXsXsXhXhXhXBXhXhXBXBXVXVXVXVXVXVXVXCXCXCXAXAXAXSXSXSXDXDXDXDXDXDXDXDXDXDXFXPXPXZXyXAXAXAXAXAXAXAXAXAXAXAXCXjXhXhXdX|.p.}.#X*X X#X=XD._  X*X.XJ.G G G ` *X3XuXyXuXyXyXsXsXsXsXyXuXuXuXuX4X4XeX4X4X4XuX4XuXuXuX4XdXdXdXdXdXdXdXdXaXhXhXkXjXlXlXAXAXAXAXAXAXAXAXAXAXAXAXAXAXAXAXlXlXlXlXlXkX[ gX&X!.r.r.8.^.B.=.^.^.).).^.^.^.^.^.^.^.;.;.;.n.).B.;.n.^.n.n.n.^.;.n.x.n.n.n.^.x.t.;.n.;.",
"CXCXVXVXVXVXVXVXVXVXVXVXVXBXBXBXBXBXBXhXBXBXsXyXyXyXyXyXyXyXtXtXtXrXrXrXuXuXeXeXeXeX7X7X7X7XeXeXeXeXeXeXeXeXeXeXeXeXeXeXeXtXyXtXyXyXsXyXsXsXsXsXsXhXhXhXhXhXBXBXVXVXVXVXVXVXCXCXCXCXCXAXAXAXAXSXSXSXSXDXDXDXDXDXDXDXDXPXPXZXbXAXAXAXlXAXAXAXCXCXAXCXjXhXhX4XaX|.` R i.i.i.Y _ .X|.*X*XD._ G H H ! i.#X2X2XyXyXsXsXsXdXsXsXsXuXuXuXuXuXuX4XuX4X4X4XuXuXdXaXdXdXdXdXdXdXdXdXaXdXhXkXjXjXlXAXAXAXAXAXAXAXAXAXAXAXAXAXAXAXAXlXlXlXlXlXkX[ gX&XY.r.r.8.^.B.8.^.^.^.).^.^.^.^.^.^.^.B.;.;.^.^.^.;.n.^.n.n.n.^.;.n.x.n.^.n.^.x.=.;.n.;.",
"CXCXVXVXVXVXVXVXVXVXVXVXBXBXBXBXBXBXBXhXhXMXyXyXyXyXyXyXyXyXyXtXtXrXrXrXuXrXeXeXeXeXeXeXeX7XeXeXeXeXeX7XeXeXeXeXeXuXeXeXtXuXtXyXyXyXsXsXyXsXsXsXsXhXhXBXhXhXhXBXVXVXVXVXVXVXVXCXCXCXCXCXAXAXAXSXSXSXSXSXDXDXDXDXDXDXDXPXPXZXbXAXlXlXlXlXlXAXCXVXCXCXdX=X#XJ.#X X` _ _ G _ ! t _ i.3X#Xi.! Y R A ! ` |.$X.XpXeXyXsXsXsXsXsXsXuXuXuXuXuXuXuX4XuX4XuXuXuXuX4XdXdXdXdXdXdXdXdXdXdXhXjXjXjXlXlXlXAXAXAXAXAXAXAXAXAXAXlXlXlXlXlXlXlXlXlXkX] aX&XY.r.r.8.^.B.=.^.^.^.).^.).).^.^.^.^.^.$.;.^.n.^.;.n.^.n.n.n.^.;.x.;.x.^.n.^.x.=.;.n.;.",
"CXCXVXVXVXVXVXVXVXVXVXVXBXBXBXBXBXBXBXhXBXMXMXyXsXyXyXyXyXyXyXyXtXrXrXrXeXuXeXeXeXeXeXeX7X7XeXeXeX7XeX7XeXeXeXeXeXuXuXrXtXtXtXtXyXyXyXsXsXsXsXsXhXsXhXhXBXBXhXhXVXVXVXVXVXVXVXCXCXCXCXCXCXCXSXSXSXSXSXSXSXSXSXDXDXDXDXPXPXZXbXAXlXlXlXlXlXjXCXjXjXjX3X XJ.y.i.L.! G H H 3 z 3 R ` _ _ ! Y H G _ t _ ' }..X*X2X3XuXsXsXsXsXsXsXyXuXuXuXuX4X4XuX4XuXuXuXuX4XdXdXdXdXdXdXdXaXdXdXhXjXjXjXjXjXjXlXAXlXlXlXAXAXAXAXlXlXlXlXlXlXlXlXlXlXkX] aXgXu.r.r.7.B.t.8.^.^.^.).^.^.).^.^.^.^.^.;.;.).x.^.;.n.^.n.n.n.^.=.;.;.x.n.x.^.x.=.;.n.;.",
"VXVXVXVXVXVXVXVXVXVXBXhXBXBXBXBXBXBXBXhXhXsXsXyXyXyXyXyXyXyXyXtXtXtXrXuXeXuXeXeXeXeXeXeX3X7X7X7X7X7XeXeXeXeXeXeXeXeXuXuXeXtXtXyXyXyXyXyXyXsXsXsXsXsXhXhXhXhXhXhXhXhXVXVXVXVXVXVXCXCXCXCXCXCXCXAXSXAXAXSXSXSXSXSXSXSXDXDXDXZXbXlXlXlXlXlXkXkXjXjX4XoXy.i.! ` ~ ! H z y t < < < t G G G G G G 5 R t R _ i.}..X3X3XuXuXsXsXsXsXsXsXyXuXuXuXuXuXuXuXuXuXuX4XuXdXdXdXdXdXdXdX4X4XdXdXhXjXjXjXjXjXjXlXlXlXCXCXAXAXlXAXlXlXlXlXlXlXlXlXjXaX] 3XgXu.r.r.7.B.t.7.^.^.^.).).).).^.^.^.^.^.^.;.).;.).;.n.^.n.n.n.^.=.;.;.;.x.n.^.x.=.;.n.;.",
"VXVXVXVXVXVXVXVXVXVXBXBXBXBXBXBXhXhXhXsXsXyXyXyXyXyXyXyXyXyXyXtXtXtXrXrXuXeXeXeXeXeXeXeX7X7XeX7XeX7XeXeXeXeXeXeXeXeXeXuXrXtXtXtXyXyXyXyXyXyXsXsXsXsXsXhXhXhXhXhXhXhXBXVXVXVXVXVXCXCXCXCXCXCXCXCXCXCXCXCXSXSXSXSXSXSXDXDXDXZXbXlXlXlXlXlXkXaXG.y._ ~ ~ G e G ! Y R t e t < * < t < 1 t F t t F t G ! R ` }..X.X2X2X2X3XsXsXsXyXyXuXuXuXuXuXuXuXuXuXuXuXuXuXdXdXdXdXdXdXdX4X4X4XdXhXjXjXjXjXjXjXlXlXlXlXlXAXlXlXlXlXlXlXlXlXlXjXlXjXaX] 3X=Xu.r.r.7.r.t.7.^.^.^.).^.).).^.^.^.^.B.).^.^.;.).;.n.^.n.n.n.^.=.;.;.;.x.^.B.x.=.;.n.;.",
"VXVXVXVXVXVXVXVXVXBXBXBXBXhXBXhXBXBXBXMXMXyXyXyXbXyXyXyXyXrXtXrXrXuXrXeXuXeXeXeXeXeXeXeX3X3XeXeXeXeXeXeXeXeXeXeXeXuXuXtXtXtXyXtXyXsXyXyXyXyXsXsXsXsXsXsXhXBXhXhXBXBXBXVXVXVXVXVXCXCXCXCXCXCXCXCXCXCXCXCXAXSXSXSXSXSXSXSXSXZXvXlXlXlXlXkX=XG.R R e y ! t 3 t z G G 3 < < < * * * > > 4 t 2 < F H _ _ _ R R ` ` i.}.}.}.2X3X3X3X3X4X3XeXuXuXuXuXuXuXuXuXuXuXdXdXdXdXdXdXdX4X3X4XdXdXjXjXjXjXjXjXjXjXjXjXjXlXlXAXlXlXlXlXlXjXjXjXkXkXaX] 3X=Xu.w.r.7.r.t.7.B.^.^.).).).).^.^.^.B.^.).).^.;.).;.n.^.n.n.n.^.=.;.;.;.x.^.x.x.=.x.n.;.",
"VXVXVXBXVXBXVXBXhXhXBXBXBXBXBXhXBXhXBXMXyXyXyXyXyXyXyXyXyXtXtXtXtXrXrXrXrXeXeXeXeXeXeXeXeX7XeXeXeXeXeXeXeXeXeXeXeXrXuXtXtXtXyXtXyXsXyXyXyXyXyXsXsXsXsXsXBXBXhXBXBXBXBXVXVXVXVXVXCXCXCXCXCXCXCXCXCXCXCXCXAXAXSXSXSXSXSXSXSXZXvXjXlXlXlXaXF.y.Y G x R x t 3 1 1 2 < > > * * * $ $ $ $ > > > $ 5 4 t G G t 1 1 3 t F F R ) ` }.) i.3X3X3XuX4XuXuXuXuXuXuXuXuXuXdXdXuXdXdXdX3X3X4XdXdXhXhXjXjXjXjXjXjXjXjXjXlXlXlXjXlXlXjXjXjXjXjXkXkXaX] 4X=Xu.0.w.7.r.t.7.B.^.^.^.).).).^.B.^.B.^.).).^.;.).;.n.^.n.n.n.^.=.;.;.;.;.^.x.^.=.x.x.;.",
"VXVXVXVXVXBXBXhXBXhXhXhXBXBXhXhXsXMXMXyXMXsXyXyXyXyXtXyXyXtXtXtXtXrXrXrXrXrXeXeXeXeXeXeXeX3XeXeXeXeXrXeXeXeXeXeXeXrXeXtXtXtXyXyXyXyXyXyXyXyXyXsXsXMXsXsXhXhXBXBXBXBXBXVXVXVXVXVXVXCXCXCXCXCXCXCXCXCXCXCXAXCXCXSXSXSXSXCXCXZXvXkXkXkXkXkXJ.y.y._ R ` i.G H 1 < < > * * $ $ $ $ $ $ $ $ $ $ $ $ * * * > * * * * * 2 1 2 t H ! x R .X2X3XuX4XsXyXuXuXuXuXuXuXuXuXdXuXdXdXhXdXdXdXdXdXhXjXjXjXjXjXjXjXjXjXjXjXlXjXjXjXjXlXjXjXjXjXkXkX4X] 3X=Xu.w.w.6.r.r.7.B.^.^.^.).).).^.B.^.B.^.^.^.^.;.^.;.x.^.n.n.x.^.=.;.;.;.;.^.x.x.*.x.n.;.",
"VXVXBXhXBXBXhXhXhXhXhXhXhXhXsXsXsXMXMXMXsXyXbXMXyXyXyXtXyXtXtXtXtXtXtXrXrXrXuXeXuXeXeXeXeX7XeX7X7XeXeXeXeXeXeXeXeXrXrXtXtXyXtXtXyXyXyXyXyXyXyXyXsXMXsXsXBXBXBXhXBXBXBXBXVXVXVXVXVXVXVXVXCXCXCXCXCXCXCXCXCXAXCXCXAXCXCXVXhX2X$X=X=X=X=X=XK.~ _ ! ! ! ! R H 1 > * * $ # $ $ $ $ $ # $ $ $ $ # # # # $ $ $ * $ $ $ * - * - 1 G x R }.*X2XsXuXsXsXsXyXuXuXuXuXuXuXuXuXdXdXhXhXdXdXdXhXhXjXjXjXjXjXjXjXjXjXjXjXjXjXjXjXjXjXkXjXjXjXkXjX4X] 3X=Xu.0.0.6.B.r.7.B.^.^.).).^.).^.B.B.B.B.^.^.x.;.^.;.x.n.n.n.x.^.=.;.;.;.;.^.;.x.*.;.;.x.",
"VXBXBXhXhXBXhXhXhXhXsXsXsXhXhXhXsXyXyXMXMXbXyXyXyXyXyXyXyXyXyXyXtXtXrXrXrXrXeXeXeXeXeXeXeXeXeX7X7XeXuXuXeXeXeXeXeXeXtXtXtXyXyXtXyXyXyXyXbXMXyXyXsXyXMXMXBXBXhXBXBXBXBXBXVXVXVXVXVXVXVXVXCXCXCXCXCXCXCXCXCXCXCXCXCXCXjX*X3X}._ _ y.p.~ ~ Y G t < > < 5 4 < * * * $ $ + + + + $ # # $ $ $ # + + + + + # # # # # # # $ * * * 3 _ _ ' .X$XeXuXsXsXsXsXyXyXuXuXuXuXuXuXdXdXhXhXhXdXdXhXhXhXjXjXjXjXjXjXjXjXjXjXjXjXjXjXjXjXjXkXkXkXkXjX4X] 3X=Xu.0.0.6.Y.B.6.t.^.^.^.).).).^.x.B.B.B.^.^.;.;.^.B.n.n.x.n.n.B.=.;.;.;.;.^.;.x.%.;.B.;.",
"BXBXBXBXBXBXhXhXhXhXsXsXsXsXhXyXyXyXyXbXMXyXsXyXyXyXyXyXyXyXyXyXyXtXrXrXrXrXeXeXuXeXeXeXeXeXeX7XeXeXeXrXeXrXeXrXrXeXtXtXtXtXtXtXyXyXyXyXyXyXyXyXbXMXMXMXMXsXBXBXBXBXBXBXBXBXBXBXVXVXVXVXCXCXCXCXCXCXCXCXCXCXCXCXBXhX4X.X|.i.R R x 3 ; 3 1 < < * $ $ $ $ $ $ # # # # + + + $ $ $ # # $ # + + + % + + + + + + + # # # # $ * < G G ) i.pXeXyXyXsXsXsXsXuXuXuXuXuXuXuXuXdXhXhXhXdXdXdXdXhXjXjXjXjXjXjXjXjXjXjXjXjXjXjXjXjXjXkXkXkXkXkX3X_.3X=Xu.0.0.4.B.B.7.t.B.B.^.B.=.*.B.B.B.t.B.^.^.;.^.B.x.x.x.;.x.x.^.=.;.;.;.;.^.;.x.B ;.;.t.",
"hXhXhXhXBXhXhXhXhXhXhXsXsXsXsXsXyXyXyXyXsXyXyXyXyXbXyXtXyXyXyXtXyXtXrXrXrXuXuXeXeXeXeXeXeX7X7X7XeXeXeXeXeXrXeXrXrXeXtXyXyXtXyXrXtXtXyXyXyXyXyXyXyXMXMXMXsXhXMXBXBXBXBXBXhXBXBXBXBXVXVXVXCXCXCXCXCXCXCXCXCXCXVXVX4XS.y.~ G F t 3 t 1 1 3 1 < < > $ $ $ # # $ + + # # + # $ $ $ $ # # # # # + + . . . . + + . + # + + + # * < G F ) _ pXeXuXyXyXsXsXsXsXsXuXuXuXuXuXuXuXdXhXsXdXdXdXhXjXjXjXjXjXjXjXjXjXjXjXjXjXjXjXjXjXjXjXjXkXjXjX3X] 3X=Xu.0.0.4.r.r.6.B.B.B.^.B.=.%.t.B.B.B.x.^.^.;.^.B.;.n.x.;.n.x.B.=.;.;.;.;.^.;.x.m ;.;.B.",
"hXhXhXhXhXhXhXBXBXhXsXsXsXsXsXsXyXyXyXyXyXyXyXyXbXyXyXyXyXyXyXtXtXtXrXyXrXuXeXuXeXuXeXeXeXeX7XeXeXeXeXeXeXeXuXuXuXrXrXtXyXrXyXtXyXyXyXbXbXbXMXsXbXMXMXMXsXBXMXBXBXBXBXBXBXBXBXBXBXVXVXVXVXCXCXCXCXCXCXCXVXCXVXdX#XH ~ ! e t z t t t 4 1 < < < * $ $ $ # # + + + $ $ # $ $ $ $ $ # + # # + + + . . . o . . . + + + # # $ * 1 6 F }.}..XpX2X3X2XeXsXsXsXsXsXsXuXuXuXuXuXdXsXsXdXdXdXsXhXjXjXjXjXjXhXjXjXjXjXjXjXjXjXjXjXjXkXkXjXjXjX3X_.3X=Xu.0.0.4.r.r.%.B.B.B.^.B.t.=.t.t.B.t.x.^.n.;.^.;.t.n.x.;.;.x.B.=.;.;.;.;.x.x.x.m m x.x.",
"hXhXhXhXhXhXsXhXsXsXsXsXsXsXsXyXyXyXyXyXyXyXMXyXyXyXyXyXbXyXyXyXyXtXtXyXrXrXuXrXeXeXeXeXeXeXeXeXeXeXeXeXeXeXeXuXuXrXrXrXyXtXtXtXyXyXyXbXbXbXyXyXyXyXyXyXBXBXBXBXBXBXBXBXBXBXBXBXVXVXVXVXVXCXZXCXCXCXCXVXVXVX4X|.p.H y Y G G G G 3 3 3 1 > $ $ $ $ $ $ # + + + # # $ $ $ $ $ $ @ # + + + + + + . . . . + . . + + + + + > 6 1 A _ .Xi.` ` '.}.}..XyXsXsXsXsXsXyXuXuXuXuXdXdXsXsXdXdXdXdXhXVXhXhXhXjXjXjXjXjXjXjXjXjXjXjXjXjXjXjXjXjX2X_.3X*Xu.0.0.4.r.r.6.B.B.B.B.B.^.B.t.;.B.t.;.x.x.;.^.;.t.x.x.;.;.;.t.=.;.;.;.;.x.x.x.b n ^.B.",
"hXhXhXhXhXhXsXsXsXsXsXsXsXyXyXsXyXyXyXMXbXbXbXyXyXyXyXyXyXyXyXyXyXyXyXtXrXrXrXrXeXeXeXeXeXeX7XeXeXeXeXeXrXeXeXrXrXrXrXtXtXtXtXtXyXyXyXbXbXyXyXyXbXbXbXbXMXMXMXMXBXBXBXBXBXBXBXBXBXVXVXVXVXVXVXCXCXCXCXCXVXhX3Xi.! ! x R _ ) Y t < - < * * $ # $ $ $ $ # + + + + # # $ $ $ $ # + + + + + % . . . . . . . + + + + + + + # < 2 F R [ _ _ R ` ` ' }.uXsXsXsXsXyXyXuXuXuXuXuXuXyXsXuXsXsXsXhXhXhXhXhXhXhXjXjXjXjXjXjXjXjXjXjXjXjXjXjXhX2X] 3X=Xi.0.0.4.r.r.6.t.B.B.B.B.B.B.B.t.B.t.;.x.;.;.^.;.t.x.x.;.;.;.t.=.;.;.;.;.;.x.x.9 =.^.B.",
"hXhXhXhXhXsXsXsXsXsXsXsXsXyXyXyXyXyXyXsXbXbXyXbXyXyXyXyXyXyXyXyXyXtXtXrXyXrXrXrXeXeXeXeXeXeXeXeXeXeXeXeXrXeXrXrXrXrXrXyXyXyXyXtXyXyXyXyXyXyXyXyXyXbXyXyXyXMXMXMXBXBXBXBXBXBXBXBXBXVXVXVXZXVXVXVXCXCXCXVXVX4X#XL.! G H H H t t 3 1 - * $ $ $ $ # # + + + + + + + + # # $ $ $ # + % + + . . % . . .   . . + . . . + + + + $ * < 1 < U R R G _ i.}.2XsXMXsXsXyXuXuXuXuXuXuXuXuXsXuXdXdXdXjXjXhXhXhXhXhXjXjXjXjXjXjXjXjXjXjXjXjXjXhXhX2X_.2X=Xp.0.0.4.r.r.6.r.B.B.B.B.B.B.B.;.B.B.;.;.;.;.^.;.t.x.;.;.;.;.t.=.;.;.;.;.;.x.;.b B.B.x.",
"hXhXhXhXsXsXsXsXsXsXsXsXsXyXyXyXyXyXyXyXyXyXyXyXyXtXtXrXtXtXrXrXtXtXrXrXtXrXrXrXrXeXeXeXeXeXeXeXeXeXeXeXrXeXrXrXrXrXrXrXyXyXyXtXyXyXbXbXyXyXsXbXMXMXMXyXMXMXMXBXBXBXBXBXBXBXBXBXBXVXVXVXVXZXZXZXCXCXVXVXBX4X*X` t 1 t t 1 - 1 1 1 < * $ $ $ $ # + + + + + . + + + + + # # # + + # # + + % . % .   . . + + + + . . . + + + + # * 6 2 H _ R ` }..X2XtXMXsXyXsXyXyXyXyXuXuXuXuXuXuXuXdXdXhXhXhXhXhXhXhXhXjXjXjXjXhXhXhXjXhXjXjXjXhXhX2X_.3X*Xi.9.9.4.w.r.6.r.B.t.B.B.B.B.B.;.B.B.;.;.;.;.^.;.t.x.;.;.;.;.;.=.;.;.;.;.;.x.;.b ^.B.B.",
"hXsXsXsXsXsXsXsXsXsXsXsXsXyXyXyXyXyXyXyXyXyXyXyXyXyXyXrXtXrXrXtXrXtXtXrXrXrXrXrXrXuXeXeXeXeXeXeXeXeXeXrXuXrXrXrXrXrXrXrXyXtXyXyXyXyXbXyXbXyXMXMXbXbXyXMXMXMXBXBXBXBXBXBXMXMXBXBXBXBXVXVXVXVXVXZXVXVXVXVX3X2Xi.R z G < < < * < < - * $ @ $ $ $ # + + + + + + . . . % . + + + # + # # # + . . .       . . + + o . . . . o . . # # * * 5 H ) R ` }.2XeXyXsXyXyXsXyXtXyXuXuX4XuXuXuXdXdXsXhXhXhXdXhXhXhXhXhXjXjXjXjXhXhXhXhXhXhXhXhXhX2X_.2X=Xi.9.9.T w.r.6.r.B.B.B.B.B.B.B.;.B.B.-.;.;.;.^.-.t.x.;.;.;.;.t.=.;.-.;.;.;.x.-.b x.B.x.",
"sXsXsXsXsXsXsXsXsXsXsXsXyXyXyXyXyXyXyXyXyXyXyXyXyXyXyXtXyXrXtXyXtXtXrXrXtXrXrXrXrXuXuXeXeXeXeXeXeXeXeXrXrXrXrXuXrXrXrXtXrXtXrXtXyXyXyXyXyXyXbXbXbXbXyXyXMXMXBXMXbXMXMXMXsXMXBXBXBXBXBXVXVXVXVXVXVXVXBXdX}.G H e 3 t < * * * * * * $ # $ # $ $ # % % . . o . . . . . . + + + # # @ @ # # . . .       . . o + . . . . . . + . + + + $ < t R t H ] }.2XeXuXsXsXyXyXyXtXtXuXuXuXuXuXuXdXdXhXhXhXhXhXhXhXhXhXhXjXjXjXjXhXhXhXhXhXhXhXhX2X_.3X*Xi.9.9.T w.r.4.r.B.B.B.B.B.B.t.;.B.t.=.;.;.;.^.=.;.B.;.;.;.;.t.-.=.-.;.;.;.;.=.b B.x.;.",
"sXsXhXsXsXsXsXsXsXsXsXyXyXyXyXyXyXyXyXyXyXyXyXyXyXtXyXtXtXtXrXrXrXtXtXyXtXyXrXrXrXeXeXeXrXeXeXeXeXeXrXeXuXrXrXuXrXrXrXrXtXyXyXyXyXyXyXyXyXbXbXbXbXbXMXMXMXMXMXMXMXMXMXMXMXBXBXBXBXBXVXVXVXVXVXVXVXVXBX2X) G 3 3 1 < $ # $ $ # # $ # + @ # # # # + . . . . . . . . . . + + + + # # # + + . .   X     . . . . o . . . . . . + + + + + $ * t t F G ) }.$X3X3X3XtXtXtXtXtXuXuXuXuXuXuXsXdXhXhXhXdXhXdXhXhXhXhXjXhXjXjXhXhXhXhXhXhXhXhXpX_.3X2Xi.9.9.T w.r.6.r.B.B.B.B.B.B.t.t.B.8.=.;.;.x.^.-.;.B.;.;.;.;.;.-.-.-.=.;.t.=.t.V x.;.-.",
"sXsXsXsXsXsXsXsXsXyXyXyXyXyXyXtXyXyXyXtXyXtXyXyXyXtXtXyXrXrXrXrXrXtXyXtXyXyXrXrXrXrXeXeXeXeXeXeXeXrXeXrXuXrXrXrXrXrXrXrXrXyXyXbXyXyXyXyXbXbXyXbXbXMXyXsXMXMXMXMXMXMXBXMXBXBXBXBXBXBXVXBXBXVXVXZXVXhXhX2X_ t < * # $ # + # # + + + + . + # + # + + + + + + + . . . . . % + + + + + + + % . .   X       . . . . . .   . . . + + + + . # $ > t t t G ) i..XpX2X2XtXtXtXtXtXuXuXuXuXuXuXuXdXsXhXhXdXdXhXhXhXjXjXhXhXhXhXhXhXhXhXhXhXhX-X_.3X2Xi.9.9.T w.r.6.r.B.B.B.B.B.B.t.t.B.8.=.=.;.t.^.-.t.B.;.;.;.;.=.-.-.=.=.=.B.;.t.b x.;.&.",
"sXhXsXsXsXsXyXyXyXyXyXyXyXtXtXyXyXtXtXtXyXrXtXtXtXyXyXyXtXtXrXrXrXtXtXrXrXrXrXrXrXeXeXeXeXeXeXeXeXrXrXrXrXrXrXrXrXrXrXrXtXyXyXyXbXyXyXyXbXbXyXyXyXsXyXyXbXMXMXMXMXBXBXMXBXBXBXBXBXBXVXBXVXVXVXBXyX2X*X.XH 1 * # + # $ $ $ $ + . % % . . # . + # + + + . . . . . . . . . . % % % % . . . .     X       . . . . . . . . . . . + + . + + + * < G R R _ }.}.XX2X2XeXyXtXtXtXuXuXuXyXuXuXdXdXdXsXsXsXsXdXdXhXhXhXhXhXhXhXhXhXhXhXhXhXhX-X_.3X2Xi.p.9.T w.a.6.r.r.B.B.B.B.B.8.B.B.8.=.=.;.;.n.&.t.B.;.;.;.;.=.-.-.=.=.=.t.t.;.b ;.;.h ",
"sXsXsXyXsXyXyXyXyXyXyXyXyXyXyXyXtXyXtXyXyXrXrXrXtXrXyXyXtXyXtXyXtXtXtXrXyXrXrXtXrXeXeXeXeXeXeXeXeXeXeXeXrXrXrXrXrXrXrXrXrXyXyXyXbXyXyXbXyXyXyXyXyXyXyXyXbXbXMXMXyXMXBXBXBXBXBXBXBXBXBXVXBXVXVXBX3X}.}._ x 1 * # # # # $ $ $ + . . . . . . . . + + % % . . . . .       . . . . % % . % .     .           . . . . . . . . . . . . . . + + $ > 3 I ` ' '..XXXpX3XtXyXyXtXrXuXuXtXtXuXuXdXsXsXsXsXsXsXsXdXdXdXdXhXhXhXhXhXhXhXhXhXhXhX-X_.7X*Xi.9.9.T u.a.9.w.B.B.B.B.t.B.=.B.B.8.=.=.;.;.x.&.;.B.;.;.;.;.=.-.-.=.;.t.=.t.*.9 ;.;.| ",
"yXsXyXyXyXyXyXyXyXyXyXyXtXtXtXyXtXyXyXtXtXyXrXyXyXtXyXyXtXrXrXtXtXyXtXrXrXrXrXtXeXuXeXeXeXeXeXrXrXeXeXrXrXrXrXrXrXrXrXyXyXyXrXtXbXyXyXyXyXbXbXyXyXyXbXbXbXbXyXsXbXMXsXBXBXBXBXBXBXBXBXBXVXVXVXBXeX}.}.I 1 < * $ # # # # # # + + .   .   . . . . . .     . .               . . . . . . . . .           X   . . % . . . . . . . . . . . + # < < 5 4 [ ) }.XX2XtXqXtXtXtXtXuXuXuXuXuXuXuXuXdXsXsXdXdXsXsXdXhXdXhXhXhXhXhXhXhXhXhXhXdX-X`.7X*Xi.p.9.T u.Y.9.w.B.B.B.B.t.B.=.B.B.7.=.=.=.t.;.&.;.B.;.;.;.;.=.=.=.=.;.;.=.;.b 9 -.-.h ",
"yXyXyXyXyXyXyXyXyXtXtXyXtXrXtXyXtXyXyXtXtXyXrXyXtXrXyXtXrXrXyXtXrXrXtXrXtXrXtXrXeXeXeXeXeXeXeXeXrXeXeXeXrXrXrXrXrXrXrXrXyXrXyXyXyXbXyXyXyXyXbXyXyXbXbXbXyXbXyXyXbXbXsXBXBXBXBXBXBXBXBXBXBXVXVXBXuXpX}.H 3 * * $ # # # + + + + . .   . .       . . .       . .     .         . . . . . . . . .       X     . . . . . . . . . . . . . . + # * * * < t ) i.}.-X2XeXtXtXtXtXrXtXuXuXuXuXuXuXsXsXsXsXsXsXhXhXhXdXdXhXhXhXhXhXhXhXhXhXhX>X_.7X*Xi.p.9.Q Y.!.9.8.B.B.B.B.t.B.=.B.B.8.t.=.=.t.t.%.t.t.;.;.;.;.=.=.=.=.;.;.=.t.r l ;.;.h ",
"yXyXyXyXyXyXyXyXyXtXtXtXtXtXtXtXtXyXtXtXtXrXrXyXtXyXyXrXrXrXtXrXtXrXtXtXrXrXrXuXeXeXeXeXeXeXeXeXeXrXrXrXrXrXrXrXrXrXrXrXyXyXyXyXyXyXrXrXrXyXbXbXbXbXyXyXyXbXbXyXbXbXyXbXMXBXBXBXBXBXBXBXBXBXBXBXsX3X*XR 2 * $ # + + + + . o . . .   . .   . . .           .                 . . . . . . . .           X X   . . . . . . . . . . . . . + # $ $ $ < t H I _ i.pX7XtXtXtXyXtXtXuXtXuXuXuXyXsXsXsXsXdXsXsXsXdXdXdXhXhXhXhXhXdXhXhXhXdXXX_.7X*Xi.p.9.T u.Y.Q 7.r.B.B.B.t.B.=.B.B.8.t.=.=.;.;.&.;.;.;.;.;.;.=.=.=.=.=.;.;.t.l b -.;.n ",
"bXyXtXtXyXyXtXtXtXyXtXtXrXtXtXtXyXyXyXrXrXyXyXyXyXyXtXtXrXrXyXrXrXtXrXrXuXuXrXrXeXeXeXeXuXeXeXeXrXeXeXrXrXrXrXrXrXyXrXrXbXtXrXyXbXbXyXyXyXyXyXyXbXyXyXyXtXyXbXbXbXbXyXbXbXBXBXBXBXBXBXBXBXBXBXBXBXuXuX.X_ < $ # + . . . . . . . .   . .     . . . . .                         . .   . . . .   .       X     . . . . . . . . . + + . o + # # $ * 2 F H H R R XX2XrXyXtXtXtXtXtXtXtXuXuXuXyXsXsXsXsXdXsXsXsXsXsXsXhXhXdXdXhXhXdXhXdXXX_.6X*Xi.p.9.T u.u.T 0.w.B.B.B.t.B.=.B.B.7.t.=.-.;.;.m ;.t.;.;.;.;.-.=.=.=.t.;.;.x.C l -.;.n ",
"yXyXyXtXyXtXyXtXtXtXtXtXrXtXrXtXyXtXtXrXrXyXtXyXyXtXtXtXtXyXyXyXrXrXrXrXrXeXrXrXeXeXrXeXrXrXeXeXrXeXeXrXrXrXrXrXrXrXrXrXtXyXyXyXbXbXbXyXyXyXyXbXbXtXyXyXyXbXbXyXyXyXyXbXMXMXMXBXBXBXBXBXBXBXBXBXMXsX2X2X~ < $ # + . . . . . + . . . .         . . .                 X         . . .   . . .         X X     . . . . . . . . . . + + . . + + # * < t G _ _ ) }.pXeXtXtXtXtXtXtXtXtXtXuXuXyXsXuXyXsXsXsXsXdXsXsXhXhXdXdXdXhXdXdXdXdX>X_.2X2Xi.p.9.T u.w.T w.w.r.B.B.t.B.7.B.B.7.t.-.=.;.;.&.;.t.x.;.;.;.&.=.-.=.8.=.-.j =.b -.;.n ",
"yXyXyXtXtXyXtXtXtXtXtXuXtXeXeXeXyXyXyXrXrXrXrXyXyXtXtXtXrXyXrXrXrXrXrXrXrXrXrXrXeXeXeXeXeXeXeXeXrXeXeXeXrXrXrXrXrXeXtXrXrXyXtXrXbXbXyXyXyXrXyXrXyXyXyXbXbXbXyXyXyXbXyXbXbXMXMXMXBXBXBXBXBXBXBXBXBXsX2Xi.t < $ + . . . . . .   . . .   .           . .                         . . . .   . . .           X     . . . . . . . . . + + + . o + + $ * 2 t _ _ }.pX7XeXyXyXtXtXtXtXtXyXtXuXyXyXyXuXuXuXuXsXsXsXsXsXhXhXdXdXdXdXdXdXdXdX>X`.2X*Xi.p.9.T u.u.T w.r.Y.B.B.t.B.*.B.B.7.8.&.=.;.t.m ;.t.;.;.| &.n *.-.=.=.C d j x.b -.*.g ",
"tXyXtXyXtXtXtXyXtXrXtXtXuXeXeXrXrXrXrXrXrXrXrXrXyXrXrXyXrXrXrXrXrXtXrXrXrXrXeXeXuXeXeXrXrXeXeXeXeXeXeXeXrXrXrXrXrXrXrXrXrXrXrXrXyXyXyXyXyXrXrXbXyXyXbXbXyXyXyXyXyXyXbXbXbXMXMXBXBXBXBXBXBXBXBXBXBXyX|.t * $ # + . . . . .       .     .           . .       . .               . . . . X X . . .               . . . . . . . . + + + + . . . + > * > t 4 R i.$XeXrXtXyXtXtXtXtXtXyXtXuXtXyXuXuXuXyXuXsXsXsXsXsXhXhXdXsXdXdXdXdXdXdX>X_.2X*Xi.p.9.T u.u.Q w.r.B.B.B.8.B.7.B.w.B 7.&.=.=.t.m ;.t.;.=.n &.9 *.-.=.-.k s -.B.g =.*.g ",
"yXyXtXyXtXtXtXtXrXrXrXrXrXrXuXrXrXrXrXrXrXrXrXrXrXrXrXrXrXrXrXrXrXtXrXrXeXrXeXuXeXeXeXrXeXeXeXeXeXeXeXeXrXrXrXrXrXrXrXrXrXrXrXrXyXyXbXbXyXbXtXrXyXyXyXyXyXbXyXyXMXsXbXbXbXMXBXBXBXBXBXBXBXBXBXBXsX2XR < * # # + . . .         X     . .           . .     X . . . .           . . . . X X   . .   X           . . . . . + . . + + + o o o . . + # * 1 3 G _ pX2XrXyXyXyXtXtXtXtXtXtXuXyXuXuXuXuXyXyXsXsXsXsXsXhXhXdXsXdXdXdXdXsXdX>X_.5X2Xi.p.9.E u.u.T w.r.B.B.r.8.B.7.B.7.V 7.-.=.=.;.n t.;.;.=.;.;.u *.=.-.C B.B.c.B.g &.&.g ",
"yXyXyXyXtXtXrXrXrXrXeXeXrXrXuXuXuXrXrXrXrXtXrXtXyXyXrXrXrXrXrXrXrXrXrXrXeXrXeXeXeXeXrXeXeXeX7XeXeXeXeXeXrXrXrXrXrXrXrXrXrXrXrXbXyXyXyXyXtXtXyXrXyXyXrXyXbXbXyXbXyXsXMXMXMXMXBXBXBXBXBXBXBXBXBXyX2Xi.3 * # # + + + . . . .             . . .       . .         .                   . .                       X   .   . . + + + + + + . o o . . + # $ * * G ' 2X7XrXyXyXyXtXtXtXrXuXeXeXuXtXyXuXyXyXsXsXsXsXsXsXsXdXdXdXdXsXdXdXdXsX[._.2XpXi.p.9.E u.u.T r.r.B.B.r.8.B.7.B.*.b =.-.=.=.;.n B.t.B.;.;.;.*.&.=.-.B.B.B.B.-.9 &.-.g ",
"yXyXyXtXtXtXrXrXuXrXrXrXrXuXuXrXrXtXrXrXrXrXrXtXyXrXrXrXrXrXrXrXrXrXrXrXeXeXrXeXrXrXeXeXeXeXeXeXeXeXeXrXeXrXrXyXrXrXrXrXrXrXrXyXyXbXyXyXtXtXyXyXbXbXyXyXbXbXyXyXyXbXMXMXMXMXBXBXBXBXBXBXBXBXBX2X$XR - * # # # + + . . . . .         . . % .     . .     .     . .                 .               X         X   .   . . . + + + + + . o . . . o + # # $ H ] XXeXrXyXbXyXtXtXrXtXuXuXeXeXtXtXyXyXyXsXyXsXsXsXsXdXdXdXdXdXsXdXdXdXdX[._.2XpXi._ 9.E p.w.T w.r.B.B.r.8.r.7.B.%.B =.=.=.=.;.n B.t.B.;.=.;.7.&.;.x.B.B.B.B.-.g -.*.b ",
"rXrXtXrXrXrXrXrXeXeXrXrXrXrXrXrXrXrXrXrXrXeXeXrXrXrXrXeXrXrXrXrXrXrXrXrXeXrXeXeXrXeXeXeXeXeXeXeXeXrXrXrXrXrXrXrXrXrXrXrXrXrXrXrXtXbXrXrXyXyXyXbXtXrXbXbXyXyXyXbXyXbXbXyXbXMXMXBXbXBXBXBXBXBXMX2X3X' H - $ $ + + o o . . . . . .     . . . % . . .         .   . . .                 .           X X     .           . . . . + + + + . . . . o o + + # $ t ' 2XyXyXyXbXyXtXtXrXrXuXuXeXeXtXtXtXyXyXsXsXsXsXsXsXsXsXsXsXdXdXdXdXdXsX_._.pX2Xi.p.~ E u.u.T w.r.r.Y.r.8.r.7.r.*.%.7.=.=.-.=.n B.t.t.=.=.;.*.-.t.B.B.B.k @.c.@.-.*.V ",
"rXrXrXrXuXrXrXeXeXeXrXrXrXrXrXrXrXrXrXrXrXeXrXrXrXrXrXrXrXrXrXeXrXrXrXrXrXrXeXeXeXeXeXeXeXeXeXeXeXeXeXrXeXrXrXrXrXrXrXrXrXrXrXrXyXtXrXrXtXrXrXrXtXrXtXrXyXbXyXbXbXyXyXyXbXMXMXBXMXBXBXBXBXBXMXrX2XXXR * $ $ # + + + + .           X X .   + .     . . . . .     . . .   X       X X . .           X     X             . . . . . + . . . . . . o o o + # < ) pXtXyXyXbXyXtXtXrXrXeXuXeXeXtXtXuXuXyXyXyXsXyXsXyXdXdXsXsXdXdXdXdXdXyX_._.pXpX' p.~ E u.Z.T w.r.r.B.B.8.r.7.r.*.*.=.=.=.&.8.n B.8.;.=.-.;.*.-.x.x.c.c.k k g.j &.-.m ",
"eXrXrXrXrXeXrXrXeXrXrXrXeXrXrXrXrXrXrXrXrXeXrXrXrXrXyXrXrXrXyXrXrXeXrXeXeXeXeXeX7XeXeXeXeX7XeX7XeXeXeXeXeXrXrXrXeXrXrXrXrXrXrXrXrXtXyXrXtXtXrXrXyXyXyXyXyXyXbXyXyXbXbXbXbXbXBXBXMXBXBXBXBXBXMXyXtX2Xz > $ # + + + + . .               . . . %     . . . . .       .         X X   X . .       .                       . . o . . . . . . . . . . o . o $ * H -X2XeXyXbXyXrXrXrXrXrXeXeXeXuXuXtXtXyXyXyXyXyXyXyXuXsXsXsXsXsXdXdXuXuX_._.pX2Xi._ ~ E u.A.T w.r.B.r.B.8.w.7.8.7.B %.t.t.=.B.e.B.B.O.-.=.;.*.-.@.g.c.c.g.k k m -.=.V ",
"rXtXrXrXrXrXrXrXeXrXrXrXeXeXeXrXrXrXrXrXrXrXrXrXrXrXrXrXrXrXrXrXrXeXeXeXeXeXeXeX7X7X7X7X7XeX7X7X7XeX7XeXeXrXrXrXrXrXrXrXrXrXrXrXvXrXtXyXyXyXtXrXrXyXrXyXyXyXbXyXyXbXbXbXbXbXBXBXMXbXMXBXBXBXBXbXyX2X_ < $ + + . . . . .   X X       + $ %         . . . .   X   . . . .     X X   X . .       .                       . o + . . . . . . . o o . o . o $ * < ) pXXX7XrXrXrXrXrXrXrXeXeXeXtXtXtXtXyXyXyXyXyXyXyXyXsXsXsXsXdXdXdXuXuX_._.-XpXi.p.~ E u.u.T w.r.B.r.B.8.8.7.8.7.B A.~.Q.~.C A.B.=.-.-.=.;.*.-.@.c.c.g.c.k m g -.;.n ",
"rXrXrXrXeXrXrXrXeXeXeXeXrXrXrXeXeXeXrXrXeXrXrXrXrXrXrXrXrXeXeXeXrXrXeXeXeXeXeXeXeXeXeX7X7X7X7X7X7XeX7X7XeXeXrXrXrXrXrXvXrXvXrXrXrXrXyXtXyXtXtXtXyXrXyXyXyXbXbXbXbXbXbXbXbXbXBXMXbXbXBXBXBXBXBXbXeX3X) < # + .   . . . .         . % $ $ + . X X     . .   X X   . % . .       X X     .       . .           X       . . . + . . . . . . . . o o o + # * 5 5 F ] ' 2XrXvXrXtXrXrXrXeXrXrXtXtXtXtXyXyXyXyXyXsXsXyXsXsXsXsXsXuXuXuXuX_._.-XpX' p.~ E p.u.T w.w.B.r.B.8.8.7.7.8.~.e.e.B.*.=.n =.t.=.=.=.;.B B.x.B.B.c.c.-.n g -.=.n ",
"rXrXrXrXeXeXeXeXeXeXeXeXrXrXeXeXeXeXrXrXeXeXeXrXrXrXrXrXrXeXeXeXeXwXeXeXeXeX7X7X7XeXeX7X7X7X7X7X7X7X7XeXeX7XeXeXeXrXrXvXrXrXrXvXrXrXtXtXrXbXrXrXrXrXrXyXyXbXbXbXbXbXbXbXbXbXBXMXbXbXBXBXBXBXBXbXeXXXR 3 # + .     o . . .     .   % @ @ % . X X         X X   X   . % . .               X     . .                     . . + + . . . . . o o . o # # $ 1 F ) ] ' XX7XrXrXtXtXrXrXrXwXeXrXrXrXrXrXtXyXyXyXyXyXyXyXyXyXuXyXuXuXuXuXuX_._.-X*X' _ Q E p.u.T w.w.r.r.B.8.8.7.e.e.B *.B.B.=.8.V =.t.=.=.=.;.*.;.B.B.B.=.B.B.V g -.=.V ",
"rXrXeXeXeXeXeXeXeXeXeXeXeXeXeXeXeXrXrXrXrXrXeXrXeXrXrXrXeXeXeXeXeXwXeXeXeXeX7X7X7XeX7X7X7X7X7X2X7X7X7X7XeXeXeX9X9XwXrXrXrXrXrXrXvXvXrXrXrXvXrXrXrXrXrXyXbXbXbXbXbXyXyXbXbXbXMXBXbXbXMXBXBXBXBXbXrX_.I t # .     . + + + . .   .   % % # %     X X X X X X X       % % . .       . . .         . .   X X       X   .   . % + + . .     . o o o o + + $ t '.-XXXXXeXbXvXrXyXtXrXrXrXeXeXeXrXrXeXtXtXtXtXyXyXyXyXyXyXyXuXuXuXuXuXuXuX_._.-X$X` _ Q E p.u.T w.w.r.w.r.8.w.e.e.8.B B.B.B.t.=.B t.=.=.=.=.;.*.t.t.t.t.=.;.B.C g =.=.V ",
"rXrXeXeXeXeXrXeXeXeXeXeXeXeXeXeXeXrXrXrXrXrXrXrXeXrXrXrXeXeXeXeXeXeXeXeXeXeX7XeXeX7X7X7X7X7X2X2X7X7X7X7XeXwXeXwX9XwX9XrXeXrXrXrXvXvXvXrXrXrXrXrXvXtXtXbXbXbXbXbXyXyXbXbXbXbXBXMXbXbXMXBXBXBXBXbXbXtX] 4 * .     . o # # . .   . . % + . . . X X X X X X X X X . . % .   .       . % . .   .   . .   X X     . X . .     . + + o .   . . + + # # $ # # < }.2X2X7XrXbXvXvXtXtXrXrXrXeXeXwXrXrXrXrXtXtXtXyXyXyXyXyXyXyXyXsXsXyXuXuXuX_._.-XXX' _ Q E p.u.E w.r.w.r.r.w.w.e.6.8.B B.=.=.B.*.6.t.=.=.=.=.;.*.t.t.t.8.=.8.=.*.n -.-.m ",
"eXeXeXeXeXeXrXeXeX9XrXrXeXeXeXrXrXeXeXrXrXrXrXeXeXeXrXrXeXeXeXeXeX7X7X7X7XeX7X7X7XeX7X7X7X7X2X2X7X2X2X7X7X7X7X7XwXrXeXrXrXrXrXvXvXbXrXrXrXrXvXrXvXbXvXbXbXvXvXvXyXyXbXbXbXbXbXbXMXBXbXBXBXBXBXBXbXbX3XI < + % + . $ $ # .   X   X X . .     X X X X X X   X X     . .   . .   . . %   . X .   . . . .   .       . . .   . . + . . . . . + # # # 5 1 $ A _.rXtXbXbXbXbXvXvXvXrXrXwXwXrXrXrXrXrXrXrXtXtXyXyXyXyXyXyXyXyXyXyXyXuXyXuX( _.pX.X' _ ~ E p.u.T A.r.w.r.w.w.w.8.*.8.*.B.m &.t.&.6.8.8.=.=.=.;.B t.=.=.8.=.=.=.e.n -.-.V ",
"eXwXeXeXeXeXeXeXeXwXwXeXrXeXeXeXeXeXeXeXeXeXeXeXeXeXrXeX9XwXeXeXeX7X7XeXeX7X7X7X7X7X7X7X7X7X7X7X7X7X7X7X7X7XeX9XwXwXrXrXrXrXrXvXrXvXvXrXrXrXrXrXrXvXbXbXvXbXrXrXbXbXbXbXbXbXbXMXbXMXbXBXBXBXBXBXBXbX}.A t + < * # + + + . X   X X X X   .   X X X X X     X X     .     .     . . + .   X .   .   . + .   . . . . o +     . . . . .   . + # + $ 4 I < U XXvXbXbXbXbXbXvXvXtXrXrXeXeXrXeXrXrXrXrXrXtXtXyXyXyXtXtXyXuXyXuXyXyXyXyXuX( `.-XXX' _ ~ E 9.u.T A.w.w.w.w.w.w.8.*.8.6.=.=.=.=.=.B 8.8.=.=.=.;.B 8.=.=.8.=.=.=.-.*.-.&.m ",
"7XwXeXeXeXwX7X7X7X9XeXwXeXeXwXeXeXrXrXeXrXeXeXeXeXeXrXeXeXwXwXeXwX9X7X7X7X7X7X7X7X7X2X2X7X7X7X7X7X7X7X7X7X7XeX7X9X7X9X9XeXwXeXrXrXrXrXrXrXvXvXrXrXrXrXrXrXbXrXvXbXbXbXbXbXbXbXbXbXbXBXBXBXBXBXBXBXbX}.* < # # # + + . . .       X   X   X X X X X       X X X       X         . . + +   X X       . +       + . . . # .         . .   . + + + + F }.}.-XrXrXbXbXbXbXvXtXrXrXrXrXeX7X7XeXrXrXrXrXrXtXyXtXrXtXtXtXyXuXuXyXyXyXyXuXuX/ `.2X-X' _ ~ E p.u.E w.w.w.w.w.w.w.8.*.8.B =.B.B.=.t.B t.8.=.=.-.=.B =.=.=.=.=.=.=.B -.-.*.m ",
"9XeXeXeX7X9XeXwX7X9XeXeX9X9XwX9X9XeXrXeXrXeXeXeXeXwXrXrXeXwXwXeX9X7X7X7X7X7X7X7X7X7X7X7X7X7X7X7X7X7X7X7X7X7X7X7X7X7X7X9X9XeXwXrXrXrXvXvXvXbXrXrXrXrXtXbXrXtXbXbXbXbXbXbXbXbXbXbXbXbXBXBXBXBXBXBXBXbXXX< $ $ + # + . . .     . .           X X X X X     X X X   .     X       . . % % . X X X X     . X   . + + . + + .     .   . .   + + + o . F '.wXvXbXbXbXbXbXbXvXvXvXvXrXrXwX7X7XeXrXrXrXrXrXtXtXyXtXtXtXtXtXuXtXyXyXtXtXtXtX/ `.pXXX` _ ~ E p.u.E w.w.w.w.w.w.w.w.*.8.B B.=.7.t.t.B 8.7.=.-.-.=.B =.=.=.=.=.=.=.B -.-.*.n ",
"9X9XwXwX7X7X9X9X9X9XeXeXwXwX9X9X9X9XrXrXeXeXeXwXwXrXwXrXwXwX7X7X7X7X7X7X7X7X7X7X7X7X7X2X7X7X7X7X7X7X7X7X7X7X7X7X7X7X7X7XwXeXrXrXrXrXbXrXvXbXbXvXrXrXvXrXbXvXbXbXbXbXbXbXbXbXbXbXbXMXBXBXBXBXBXBXMXbXXX5 5 $ . + # . . . . . .   X X   X   X X X X X X . X X X . .         X     . . .       X X X X         + # . % % .   . .     . . + + + . > 4 ) 7XvXbXbXbXbXbXbXvXvXvXvXvX7X7X6X9XeXrXrXrXrXrXtXtXyXtXtXtXtXrXrXtXyXtXtXtXtXtX/ `.pX}.' _ Q E 9.p.E 0.0.w.w.w.w.w.w.*.8.B t.B.t.8.=.6.8.7.=.=.-.-.*.=.*.=.=.7.8.8.B m -.=.n ",
"rX9X9X9X7X7X7X9X7X7XeXeXwX9X9X9X9X9X9XeX9XeXeX9X9X9XeX9X7XwX7X7XwX7X7X7X7X6X7X7X7X7X7X7X7X7X7X7X7X7X7X7X7X7X7X7X7X7X7X7XwXrXeXeXvXrXvXvXbXvXrXvXbXvXbXbXvXbXbXbXbXbXbXbXbXbXbXbXbXbXBXBXBXBXBXBXBXBX}.5 t * . . . . . . % % .   X X X X   X       . X X X X X   . X     X         . . .   X X X X X     . . . + . + . . .   .       . o + + $ < < F '.'.6XbXbXbXbXbXvXvXvXvXrX9X7X6X9XeXeXrXrXrXrXtXtXtXrXrXrXrXuXrXtXtXtXtXtXtXrX/ `.-X}.' _ ~ E 9.p.E 0.0.w.w.8.w.8.w.6.8.6.B.8.8.t.=.B 8.=.=.=.-.=.m =.=.8.=.=.=.=.V n -.*.n ",
"9X9X7X9X9X7X7XwX9X7X7XeXeXwX9X7X9X9X9XwXeXeX7X7XeXwX7X7X7X9X7X7X7X7X7X7X7X7X7X7X7X7X7X7X7X7X7X7X7X7X7X7X7X7X7X7X7X7X7X9X9XwXwXwXvXrXrXrXbXvXvXbXvXvXvXbXbXvXvXbXbXbXbXbXbXbXbXbXbXMXBXMXBXBXBXBXBXMX_.F 4 < < # . . + % . .     X X X X X X .   X   X X X X X             . . X     . .   X X X X   X     . . . . . + . . .       . . . + + > < 6 ) [ ) XXvXbXbXbXbXvXrXrXvXrX9X7X7X9XwXrXeXrXrXrXtXtXyXrXtXtXeXeXeXrXrXtXtXtXuXtX/ `.-X}.' _ ~ E p.p.E 0.e.w.w.7.w.8.7.6.8.6.B.B.8.8.8.n 8.=.%.=.=.=.B =.-.=.=.7.*.*.V n -.*.n ",
"wX7X9XwXwX9X7X7X7X7X7X9XwX9X9X7XwXwXeXeX9X9X7X7XeX7X7X7X7X7X7X7X7X7X7X7X7X6X7X7X7X7X7X7X7X7X7X7X7X7X7X7X7X7X7X7X7X7X7X9X9XwXeXwXrXrXvXrXvXvXvXbXbXvXbXbXvXbXbXbXbXbXbXbXbXbXbXbXMXBXbXBXBXBXBXBXBXBX) F 5 F A * . . . + . .     X X X X X X X X X     X X X X X           . . .     . .       . X     X X   . . . . . . . . .   . . . # # # 3 ) ) _.) ] -XvXvXbXbXbXbXvXvXrXrX7X7X7X7XwXrXrXrXrXrXrXrXrXbXyXrXrXrXrXtXtXyXtXtXtXtX/ `.-X'.' _ ~ E p.p.T 6.0.w.w.8.8.8.8.7.w.6.=.7.B.8.8.B 8.=.%.=.=.=.B =.=.=.-.*.*.*.V n -.-.n ",
"9X7X7X7X7X7X7XwX7X7X7XwXrX9XwX7XeXeXwXeX7X7X7X7XeX7X7X7X7X7X7X7X7X7X7X7X7X7X7X7X7X7X2X7X7X7X7X7X7X7X7X7X7X7X7X7X7X7X7X7X7X9X9X9XrXrXrXrXvXvXvXvXvXbXvXvXvXvXvXbXbXbXvXbXbXbXbXbXMXBXBXBXBXBXBXBXBX2XU 5 < 6 < + . . % . .       X X X X X X X X X   X X X   X X         X   .       .         .   . . X     . . . . % .   . + . . . o # * < G .X2X-X-X6XrXvXbXbXbXbXbXvXvXrXrX9X9X7X9XeXeXeXrXrXrXtXrXyXyXtXrXyXtXtXtXyXtXtXtXtXtX/ `.-X'.' _ ~ Y p.u.E 9.0.w.w.8.w.e.8.e.w.Q 8.*.m 8.7.B 8.=.%.=.=.=.B =.=.*.B *.*.*.M n &.-.b ",
"9X9X7X7X7X7X7X7X7X7X7X9XrX9XwX7X9XwXeXeX7X7X7X7X7X7X7X7X7X7X7X7X7X7X7X6X7X7X7X7X7X7X7X7X7X7X7X7X7X7X7X7X7X7X7X9X9X9X7X9X9X9X9X9X9XrXrXvXvXvXvXvXbXbXbXvXvXbXvXvXbXbXbXbXbXbXbXMXMXBXBXBXBXBXbX6X}.U < 2 < < + + . + # +   .           X X X X X X X X   X X X X X   .   X X       . . . . . . . . . + .       . . . . .     . . . . + # * w Q pXwXvXbXbXbXbXbXbXbXbXbXvXrXrXrXrXwX9X9XwX9X9XeXrXrXvXrXrXrXrXrXtXrXrXrXtXtXtXtXrXtX/ _.-X'.' _ ~ Y p.q.T 9.0.w.w.8.w.7.7.e.w.6.8.B.7.6.7.V 8.=.*.=.=.7.B =.=.*.m *.*.*.M n m -.n ",
"9X7X7X7X7X7X7X7X7X7X9X9X7X7X7X7X9X7XeXwX9X7X7X7X7X7X7X7X7X7X7X7X7X7X7X7X7X7X7X7X7X7X7X7X7X7X7X6X7X7X7X7X7X7X7X9X9X9X9X9X7X7X9X9X9XrXrXvXrXvXvXvXvXbXbXvXvXvXbXbXbXbXbXbXbXbXbXMXbXMXBXBXBXBX] $ # 6 F F t > # + # # # o .   .   .       X X X X X X X X   X X X X     X X     . . % . . . . . . + $ * + . . . . . . % .     . . . + + # * E p.2XrXbXbXbXbXbXbXbXbXbXvXvXvXvXrXwXrXwXwX9XeXeXeXrXrXvXrXrXyXrXrXrXrXeXeXrXrXtXtXrXrX/ _.-X}.' _ ~ E p.q.E 9.0.w.w.w.w.e.7.7.w.B 8.B.8.B 7.M 8.=.%.=.-.8.B =.*.*.B *.C *.b m m -.%.",
"7X7X7X9X7X9X7X7X9X9X9X9X9X9X7X7X7X9XwX7X9X7X7X9X7X6X6X7X7X7X7X7X7X7X7X7X7X7X7X7X7X7X7X7X7X7X7X7X7X7X7X9X7X9X9X9X9X9X7X9X9X9XwXwXrXrXrXrXvXvXvXvXvXbXbXvXbXvXbXbXbXbXbXbXbXbXbXbXbXBXBXBXBXXX< % .   . < < $ # # < $ + .     . . $ % .       X X X X   X X X X X   X X X X     # $ $ # . + + . + * w w * # # # . + + . . . . o # + - $ $ * Q |.vXvXbXbXbXbXbXbXbXbXbXbXvXvXvXrXwX9X9X9X9XwXeXeXrXrXvXvXvXtXvXtXtXrXrXrXrXtXtXtXrXrX/ `.-X}.' _ ~ E p.q.E 9.9.w.w.w.w.w.7.8.8.6.B.B.w.*.6.V 8.=.%.=.-.8.B =.*.*.%.*.C *.l m %.C -.",
"wX7X7X9X9X9X7X9XwX9XwX9X9XwX9X9X7X7X9X9X9X7X7X7X7X7X6X7X7X7X7X7X7X7X7X7X7X7X7X7X7X7X7X7X9X7X7X7X7X7X7X7X7X7X9X7X9X7X7X7X9X9X9XwXrXrXrXrXvXvXvXvXvXvXbXvXvXvXbXbXbXbXbXbXbXbXbXbXbXBXBXMX4X^ v 1 $ . . .     . . . # # .   X   # * . .   . X X X X X   X X X   .   . .     . . * 1 1 - + # # # * y M M 1 * * 1 * # + o . o # # * * y - $ * x .XbXbXbXbXbXbXbXbXbXbXbXvXvXvXvXrXwXwX9X9X9XwXeXeXrXrXrXvXvXvXrXyXyXrXrXrXrXtXtXtXrXrX/ `.-X'.' _ ~ E p.q.E 0.9.w.0.w.w.8.7.8.w.6.B.B.8.7.6.b t.=.=.=.=.8.B =.*.%.%.*.*.*.N m %.m -.",
"9X7X7X7X9X9X9X7X7X7X9X7X9X7X9X9X9X9X9X9X9X7X7X7X7X7X6X7X6X7X7X6X6X6X7X7X7X7X7X7X7X7X7X7X7X7X7X7X7X7X7X7X7X9X9X7X7X7X7X7X7X9X9XwXwXrXrXvXrXvXvXvXvXvXvXvXvXvXbXbXbXbXbXbXbXbXMXBXBXBX_.R B b a l r 3 ; 3 3 - X       . . . X X o # . . . . .             X X   . o o # . . o # 1 y y 1 o $ * 1 y T 4.4.E y r M x 1 ; # - * * * x e E G e 1 y pXbXbXbXbXbXbXbXbXbXbXbXvXvXvXvXvXwX9X9X9X9XwXeXrXrXrXrXrXrXvXvXvXvXrXyXrXrXtXrXrXrXeX/ `.-X_.' _ ~ H p.9.Y 0.0.w.0.w.w.w.7.w.w.B 7.B.%.7.%.V 8.=.=.=.=.8.B =.*.*.%.*.*.*.*.m *.B -.",
"7X7X7X7X7X9X9X7X9X7X9X9X7X7X9X9X9X9X9X9X9X7X7X7X6X6X6X7X6X6X6X6X6X6X7X7X7X7X7X7X7X7X7X7X7X7X7X7X7X7X7X7X7X7X7X7X9X9X9X9X9X9X9X9XwXwXvXrXvXvXvXvXvXvXbXbXbXbXbXbXbXbXbXbXbXbXbXbXBXvX$ + 8 9 9 9 a 0 : : : w 3 - + X   X   X X . # + $ # + + +             X . # * # # # + . 1 y G G 1 o * e y T 6.0.w.9.T T 0.9.E N x y x w 1 e Y Q 9.9.y E rXbXbXbXbXbXbXbXbXbXbXvXvXvXvXvXvX9X9X9X9X9X9XrXrXrXrXrXrXrXvXbXbXbXbXvXrXrXrXrXrXrXrX/ `.-X_.' _ ! H p.q.Y 0.w.w.w.w.A.w.7.8.w.Q *.B n 7.6.V 8.=.&.=.=.=.V *.*.*.*.*.*.7.M -.*.*.-.",
"7X7X6X6X7X7X9X7X7X9X7X9X7X7X9X9X9X9X9X7X7X7X7X7X7X6X6X6X7X6X6X6X7X6X7X7X7X7X7X7X7X7X7X7X7X7X7X7X7X7X7X7X7X7X7X9X7X9X9X9X9X9X9X9XxXvXvXvXvXvXvXvXvXvXbXbXbXbXbXbXbXbXbXbXbXbXbXBX-X) # & l m C a b b b Q 8 = : 8 8 - .   X X X X # * > * * $ # . . + $ * $ * - 1 1 - # # $ * y E E E ; * w y y T 0.a.!.u.6.0.Y.Y.0.6.9.M E ; ; w E 4.0.0.9.i.bXbXbXbXbXbXbXbXbXbXbXvXvXvXvXvXvX9X9X9X9X9X9XwXrXvXrXrXrXrXvXbXbXbXvXrXrXrXrXrXrXrX9X/ `.-X_.] _ ! H p.q.Y 0.w.w.0.w.A.w.e.w.8.T w.B *.7.6.V 8.*.&.=.-.7.V *.*.*.=.*.*.=.V -.=.C C ",
"7X6X6X6X7X7X7X7X7X7X7X7X7X7X7X9X9X9X9X7X9X7X7X7X7X7X7X7X7X7X6X7X7X7X7X7X6X9X7X7X7X7X7X7X7X7X7X7X6X7X6X7X7X7X7X7X7X9X9X9X9X9XwX9XrXvXvXvXvXvXvXvXbXvXbXbXbXbXbXbXbXbXbXbXbXbXbXBXW + Q *.C C -.-.a 8 N g a 0 : : 0 0 w ; * * * O + * * < * * * $ * * 1 1 1 w e y e 1 - o $ , E E E G 1 1 y y M T 0.r.!.a.0.r.Y.!.a.w.Y.6.9.M M B T T 0.w.0..XbXbXbXbXbXbXbXbXbXbXbXvXvXvXvXvXvX9X9X9X9X9X9XwXrXvXrXvXrXvXvXvXvXrXvXrXrXrXrXrXrXrXwX/ _.-X_.' _ ~ G p.p.E w.w.w.0.Y.w.w.e.w.8.B 6.Y.w.6.6.V 8.*.*.=.*.7.V *.*.*.*.*.*.=.V m -.*.-.",
"6X6X6X6X7X7X7X7X9X7X7X7X7X7X7X9X9X9X9X7X7X7X7X7X7X7X7X7X7X7X7X7X7X7X7X7X7X7X7X7X7X7X7X6X7X7X7X7X6X6X6X6X7X7X7X9X9X7X9X9XrX9X9XwXwXvXvXvXvXvXvXvXbXbXbXbXbXbXbXbXbXbXbXbXbXbXBXBX@XC =.k h h -.C C 9 l a a a 9 : : 0 0 9 0 ; ; - # $ * < * * < * * < w e e e y y y w 1 - # 1 ~ ~ E y e y y e M T 6.0.Y.w.0.r.w.!.Y.Y.!.Y.a.4.6.0.6.%.w.r.w.2XbXbXbXbXbXbXbXbXbXbXbXbXvXvXvXvXvX9X9X9X9X9XwXwXrXrXrXvXvXvXrXrXrXrXvXrXrXrXrXrXrXrXwX/ `.-X_.] _ ~ G p.p.E w.w.w.w.Y.w.w.6.w.w.T 6.6.m 7.*.V 8.*.&.*.*.*.n *.*.%.*.*.*.7.V m %.C -.",
"6X6X7X7X7X7X7X7X7X7X9X7X7X7X9X9X9X7X7X7X7X7X7X6X7X7X7X7X7X7X7X7X7X7X7X7X7X6X7X6X6X7X7X7X7X7X7X6X7X6X7X7X6X7X7X7X7X9X9X9X9XwX9XrXwXvXvXvXvXvXvXvXvXvXvXbXbXbXbXbXbXbXbXbXbXbXBX&XB.-.-.-.-.c.-.-.-.m : = a a g 9 0 : 0 9 9 0 9 9 w O * * 1 * < * $ - 3 w w w y x y y y w 2 1 E E E y y y y y M T 4.7.r.0.0.w.0.r.a.a.Y.!.!.u.4.w.w.6.0.w.w.J.bXbXbXbXbXbXbXbXbXbXbXbXvXvXvXvXvX9X9X9X9X9X9X9XrXrXrXrXrXrXrXrXrXrXvXvXrXrXrXrXrXeX9X/ `.-X_.] _ ~ G p.p.E 0.w.w.w.w.w.w.6.w.w.V 8.m *.*.6.V 8.*.&.*.%.*.V *.*.*.*.*.*.=.M m m *.C ",
"6X6X6X6X7X7X6X7X7X9X9X9X9X9X9X9X9X7X6X7X7X7X6X6X6X7X7X6X7X7X7X7X7X9X7X7X7X7X7X7X6X7X7X7X7X7X6X6X7X7X7X7X7X6X6X9X7X9X9X9X9X9X9X9X9X9XrXvXvXvXvXvXvXvXbXbXbXbXbXbXbXbXbXbXbXUXaXB.B.=.-.-.-.h m O.m m 9 : & a g j a 9 0 0 9 9 9 a 9 ; O * ; - * * # * 1 1 ; w e y y y y e 1 * y E x y y y y y u B T 0.0.7.0.w.w.0.w.r.r.a.Y.a.4.w.Y.u.w.w.9.b Q bXbXbXbXbXbXbXbXbXbXbXvXvXvXxXvXrX9X9XwX9X9X9XwXrXrXrXvXvXvXrXrXvXvXrXrXrXrXrXrXwX9X/ `.-X_.] _ ! G ^ p.E 0.w.w.w.u.w.w.6.w.w.N 6.r.8.%.6.b 8.=.&.%.%.*.V *.*.*.*.*.*.7.b m %.N C ",
"6X6X7X7X7X7X6X7X9X9X9X7X9X9X9X9X9X7X7X7X7X6X7X7X6X7X6X6X7X7X6X6X6X6X7X6X7X7X7X7X6X6X7X7X7X6X6X6X6X7X7X6X7X7X7X9X9X9X9X9X9X9XwX9X9X9XwXvXvXvXvXvXvXvXbXbXbXbXbXbXbXbXbXBXbXhXW.=.g 0 a j j j d d d a a 9 : & a j h a 0 9 9 9 a 9 9 9 1 o * 1 & * # * ; , ; w w w w 1 w 1 * * w x y y y y y y M V 4.0.0.6.0.r.w.0.w.r.r.r.Y.w.4.w.Y.a.w.0.T O 8 |.bXbXbXbXbXbXbXbXbXbXvXvXvXwXwXwXwX9X9X9X9X9XwXrXrXrXvXvXvXvXvXrXrXrXrXrXrXrXrXrX9X/ _.-X'.] ! ! G ~ 9.E 9.q.w.w.u.B w.6.w.w.T B w.7.%.6.n 8.*.&.&.%.*.n *.*.*.*.*.=.8.b m %.Q e.",
"6X7X7X7X6X9X6X6X9X9X9X6X9X9X9X9X9X7X7X7X6X6X6X7X7X6X6X6X7X6X6X6X6X6X6X6X7X7X7X7X6X6X7X7X6X6X6X6X6X7X7X7X7X7X7X9X9X9X9X9X9XwXwX9X9X9XwXvXvXvXvXvXbXbXbXbXbXbXbXbXbXbXbXBXhXW.-.C m *.m j h h h h h g a a 9 8 : g j g 9 0 9 g g g a a l ; 1 * - # $ * ; & ; ; = = * O * * * * 1 e y y y y y M M V 4.0.0.6.0.w.w.r.w.r.r.a.Y.B T w.Y.a.0.0.T X o w rXbXbXbXbXbXbXbXbXbXbXvXvXxXwXwX9X9X9X9X9X9XwXrXrXvXvXvXvXvXvXvXvXrXrXrXeXrXrXrX8X/ _.-X'.] ! ~ G ~ ~ Y 9.q.q.w.w.V e.e.w.w.B V 7.B *.*.V 8.*.&.&.%.*.V *.*.*.=.*.=.8.9.w.w.q.Q ",
"6X6X6X6X7X9X9X9X9X9X9X9X9X7X7X9X9X9X7X7X7X7X6X7X7X6X7X9X6X6X6X6X6X6X6X7X7X7X7X7X6X6X6X6X6X7X7X7X7X6X7X9X7X7X9X6X9X9X9X9X9X9XwX9XrXwXwXvXvXvXvXvXbXbXbXbXbXbXbXbXbXbXbXBXW.B.-.*.-.-.-.C k h h h m m j g g s 9 8 g g g a 9 0 9 g n g a l - $ & & O O * O , ; * , * & O , 1 1 w w y e e y y M M V B 0.0.6.0.0.r.r.r.a.a.Y.w.b T 0.u.u.9.9.N X X & XXbXbXbXbXbXbXbXbXbXbXbXvXxXwXwXwX9XwX9X9X9XwXwXrXvXvXvXvXvXvXvXvXrXvXrXrXeXrXrX8X/ _.-X'.] [ ~ G ~ ~ E q.9.q.w.0.B 6.6.w.w.M B V b *.6.V 7.*.&.&.%.*.n *.%.%.%.*.*.T Y.q.q.Q c ",
"6X6X7X6X7X9X9X6X9X9X9X9X9X9X7X9X9X9X9X9X9X9X7X6X7X6X9X6X7X9X6X6X6X6X6X7X7X7X7X6X6X7X6X6X6X6X6X7X7X7X6X7X9X9X9X9X9X9X9X9XrXrXvXwXvXvXvXvXvXvXvXbXbXbXbXbXbXbXbXbXbXbXBX4XB.-.-.-.C m j d j j h h h h h g h n g 0 0 g g g g g 8 0 j n g a e * < & # o * O * ; ; , * * * , w w 1 1 w e e r r u M M V 0.0.6.w.0.r.r.a.a.a.Y.T b B 9.u.0.9.6.M X X o |.bXbXbXbXbXbXbXbXbXbXbXvXxXxXwXwXwX9XwXwXwXwXrXvXrXvXvXvXvXvXvXvXvXvXrXrXwXeXrX5X/ `.-X_.] [ ! G ~ 9.E q.9.w.w.9.6.B e.w.w.M B b B 6.%.V 7.*.%.%.%.B b %.%.%.m m m 9 V 6.9.q.q.",
"7X6X7X6X7X6X6X6X6X6X9X6X7X9X9X9X9X9X9X9X9X9X9X9X7X6X6X6X6X6X6X6X6X9X7X9X7X7X9X6X7X7X7X7X6X6X6X9X9X9X9X9X9X9X9X9X9X9X9X9X9X9X9XwXrXrXvXvXvXvXvXvXbXbXbXbXbXbXbXbXbXBXuX~.-.-.-.h j d d d j j h h h j h j s g m g d s g j j g g 9 0 a g g a w O $ * O O O * ; w ; ; 1 1 , w w w 1 1 w e r r y M V B 0.6.0.0.0.r.r.r.a.a.a.r u V 6.9.9.6.T r X X : T.bXbXbXbXbXbXbXbXbXbXbXvXxXwXxXwX9X9XwX9X9XwXvXvXvXvXvXvXvXvXvXvXrXrXrXrXeXeXeX,X/ `.-X] ] _ ~ G ~ 9.E q.0.u.u.9.9.B e.w.w.b *.u 7.%.B V 7.*.&.%.m Q V %.%.%.*.m B b 9 9 0 9 9 ",
"6X6X6X6X6X6X6X6X6X6X9X6X6X9X9X9X9X9X9X9X9X9X9X9X7X6X6X6X6X6X6X6X6X6X6X7X7X9X9X9X9X9X7X7X9X9X9X9X9X9X9X7X7X9X9X9X9X9X9X9X9X9XrXwXwXvXvXvXvXvXbXvXvXbXbXbXbXbXbXbXbXBXW.8.=.C h h h h j j j j j j j j j j j 0 d j h g d d j j h h g 0 9 g g g : O * & & * * & ; ; - * * $ , w w 1 ; 1 w r r u M M B 0.4.0.0.w.r.r.w.r.a.0.8 r b M T T T V ; X O -.8.bXbXbXbXbXbXbXbXbXbXbXvXxXwXwXwX9X9XwX9XwXwXwXwXvXxXvXrXvXvXrXrXrXrXrXrXrXwXwX,X`.`.-X] ] i.~ G ~ 9.E q.0.u.u.6.0.B w.u.u.b 6.b 8.%.B V 7.*.m %.B Q V %.*.%.%.m V m m n g b q ",
"9X6X9X6X6X6X6X6X6X6X6X6X9X9X9X9X9X7X9X9X9X9X7X9X7X6X6X6X6X6X6X6X9X9X9X9X9X9X9X9X7X9X9X7X9X9X6X6X9X6X6X7X6X9X9X9X9X9X9X9X9X9X9XwXwXvXvXvXvXvXvXbXbXbXbXbXbXbXbXbXbX3X=.-.h g m C m h h h j j j j h h h h h j d 0 g C h j j h h h h g 0 9 g d a & * w w e y x e w * . X X , &.r X & ; w e r M M M B 7.6.0.0.w.r.w.r.r.a.B 0 : 8 r M M M r = & m x.=.bXbXbXbXbXbXbXbXbXbXbXvXvXwX9X9X9X9X9XwXwXwXxXvXvXvXvXrXrXvXrXvXvXrXvXvXrXwXwX:X/ `.-X] [ _ E G ~ 9.E 9.0.q.u.6.0.B w.u.u.b 8.B 7.%.V V 7.*.&.%.m *.V *.%.%.B %.b m m m m m g ",
"6X6X6X6X6X6X6X6X6X6X6X6X9X9X9X9X9X9X9X9X9X9X9X9X9X9X9X9X6X6X6X7X7X9X7X6X9X6X6X9X9X7X6X6X9X9X7X6X6X9X7X7X6X7X9X9X9X9X9X9X9X9X9XwXvXvXvXvXvXvXbXbXbXbXbXbXbXbXbXbXyX8.B.*.m C *.C m m h j j j f k k O.k k k h h h 9 a O.h j j h h h h h 0 0 s s 8 O e M N M M M 8 . X X X O &.b X + - ; e y M M M 4.0.6.0.0.w.w.r.Y.r.w.8 0 g 9 9 u u b g g O.$.j.;.eXbXbXbXbXbXbXbXbXbXbXvXvX9X9X9X9X9X9XwXwXwXxXvXvXxXvXrXvXvXrXvXvXrXvXrXrX9XwX:X/ _.$X] [ _ E G ~ ~ H 9.0.0.u.9.0.B u.u.u.b 8.w.*.%.n B *.%.%.%.m Q V %.%.%.*.6.*.*.&.&.&.h n ",
"6X6X6X6X6X6X6X6X6X9X9X9X9X9X9X9X9X9X9XwXwX9X9X9X9X9X9X9X6X6X6X6X6X6X6X6X6X6X6X6X7X7X6X6X9X7X6X7X9X6X6X7X7X9X9X9X9X9X9X9X9X9XwXwX9XwXvXvXvXvXvXvXvXbXbXbXbXbXMXBXoXB.-.C C C *.m g g j j f f f f f h k k k O.k h h m a O.h j j h f h h h 0 9 s 9 & ; T 4.T M y & X X X X X u u X . - ; y M M u V 4.6.7.0.0.w.r.Y.Y.Y.M : 0 9 d j h h O...#.#.j.j.k.*XbXbXbXbXbXbXbXbXbXbXvXxXwX9X9X9X9XwXwXxXxXxXvXvXvXvXvXvXrXrXvXrXrXrXrXrXwX9X:X/ `.-X' [ ~ E G ~ ^ H 9.0.9.w.9.0.T 9.Q w.l 8.w.6.*.V V *.%.%.%.m Q V %.*.*.%.*.%.*.%.*.&.&.&.",
"6X6X6X6X6X6X6X9X9X9X9X9X9X9X9X9X9X9X9X9X9X9X9X9X9X9X7X6X6X6X6X6X6X6X6X6X6X6X6X6X6X6X6X6X7X7X6X7X9X7X6X6X7X9X9X9X9X9X9X9X9XrXwXwX9X9XwXxXvXvXvXvXvXbXbXbXbXbXbXbX=.-.m C C C C g d g j j h h f k h f f f ..O.O.O.h O.b g O.O.h d j h k k h 0 a 9 : o l 6.B B r o X X X X X u u X . - < y E M M T 4.6.7.6.0.0.r.Y.Y.9.= : 0 0 d d f f ..X.#.#.h.h.k.=XnXbXbXbXbXbXbXbXbXbXvXxXwX9X9X9X9XwXwXwXxXxXvXvXvXvXvXrXrXvXvXvXrXrXrXrXeX7X:X/ _.-X_.[ R E x ! ~ H 9.0.9.0.q.0.T T N u.M w.0.6.%.n V 6.%.%.%.m Q V %.*.*.B *.m -.&.&.&.&.| ",
"9X9X6X6X6X6X6X9X9X9X9X9X6X6X9X9X9X9X9X9X9X9X9X9X7X6X6X6X6X6X6X6X6X7X6X6X9X9X7X9X6X7X6X6X6X6X6X7X9X9X7X7X9X9X7X9X9X9XrX9X9X9XwXwX9XwXvXvXvXvXvXvXbXbXbXbXbXbXbX*Xc.h h C C m m g d g j j h k h k k k O.f f f ..O.O.k O.b g @.@.h h j h O.O.h 0 a 0 & o e T N w X X X X X X u 5.  . * - y E E 6.6.6.6.7.7.w.w.Y.Y.w.; = : 0 0 d d } f ..X.#.o.#.#.j.Q.bXbXbXbXbXbXbXbXbXvXxXxXwXwX9X9XwXwXwXwXxXxXwXvXwXvXvXvXvXvXvXrXrXwXwX9X9X6X:X/ _.-X_.[ R E G ~ ~ H 9.9.9.q.w.9.Q q.T 0.T B b 6.%.V V *.%.m m B Q V %.%.B B *.m *.m m n m m ",
"6X6X6X5X5X5X5X6X6X6X9X6X6X9X9X9X6X9X9X9X9X9X9X9X9X9X6X6X6X6X6X6X6X6X6X9X9X9X7X9X9X6X6X6X6X6X6X6X6X6X9X7X9X7X9X9X9X9X9X9X9X9XrXvXwX9XvXvXvXvXvXvXbXbXbXbXbXbXbX~.-.C C C m h g g d g j j h k k k O.O.O.O.O.f ..O.O.O.O.-.m h @.@.O.h j f k k m 9 g 0 O X w y O X X X X X X y 5.* . . o , M T 9.9.6.6.6.w.w.Y.!.Y.r & = = 0 0 d d } f X...o.o.X.X.h.+.A.bXbXbXbXbXbXbXbXbXxXxXxXwX9X9XwXwXwXwXwXxXwXxXxXvXvXvXvXrXrXrXrXwX9X9X9X6X:X/ _.-X_.) R E G ~ ~ E 9.9.q.9.w.9.6.u.9.Q T r b 6.%.V B *.m m m m B V %.%.B B *.m *.m m n &.n ",
"6X6X8X5X5X5X5X5X6X6X6X6X6X6X9X6X6X9X9X9X9X9X6X6X9X9X9X9X7X7X6X7X6X6X6X6X6X6X7X6X6X6X6X7X7X6X6X6X6X6X9X9X6X6X9X9X9X9XwX9X9X9X9XvXwX9XvXvXvXvXvXvXvXbXbXbXbXbXyX8.h C C C m g g g j j j j h k k O.O.O.O...O.....O.O.O.O.O.@.9 k +.@.O.h d j h k h s a : O X X X X X X X X X w 5.1 . . . o * y N N N T 9.0.a.!.!.V 8 & : 0 0 0 q q f d ..} ..X...#.@.X.+.Z.bXbXbXbXbXbXbXbXxXxXwX9X9X9XwXwX9XwXwXwXxXvXvXxXvXvXvXrXrXrXrXrX9X9X9X7X>X/ _.-X_.] R E G _ p.H 9.9.q.9.0.q.9.w.q.T r b b 6.%.V V *.m m m B V B %.B B B *.m &.m n g n m ",
"6X6X6X5X5X5X5X5X6X5X6X6X6X6X6X6X6X6X9X9X9X6X6X6X9X7X6X6X6X6X6X6X6X6X6X6X6X6X7X7X6X6X6X7X7X7X7X6X6X6X6X9X6X9X9X9X9X9XxX9X9X9X9XxXvXvXvXvXvXvXvXvXbXbXbXbXbXbXJ.*.m m C m n g g g g j j j h O.k O.O.O.O...............O...O.O.9 O.@.@.@.O.d j k h h d 9 & .   X X X X X X X , E w . . X . + O O $ * * ; w y E T 9 : = = 9 d h q h f f j f ..X.o.j.k.....-.bXbXbXbXbXbXbXvXxXxXwXwX9X9X9XwX9XwXwXxXxXxXxXwXxXvXvXrXrXrXrXrX9X9X7X7X>X/ _.-X}.] R E G ~ ~ Y 9.9.u.9.q.q.Q u.q.T 9 T b 6.B V B *.m m m V B B %.%.m m =.t.B.n b g g g ",
"8X6X5X8X,X5X5X5X5X6X6X6X9X7X6X6X6X5X5X6X6X6X6X6X6X6X6X6X6X6X6X6X6X6X6X6X5X6X9X7X7X7X6X6X7X7X6X6X9X9X6X9X6X6X9X9X9X9X9XxX9XwXxXxXxXvXvXvXvXvXvXvXbXbXbXbXbXbXq.C m m m n g g g g j j j j j O.O.O.........O.O...X.@.......O.O.g g O.@.@.+.O.j j O.k h d : o X X X X X X X X * u y & O & * * O o + + # # # $ $ x 0 a = i 0 d f 0 O.@.} d f f ..h.j.j.o.$.B.bXbXbXbXbXbXvXvXxXxXwX9X9X9XwXwXwXxXxXxXxXxXvXxXxXxXxXwXrXwXwXrX9X7X7X6X>X/ `.-X}.] R E G ~ _ G 9.9.q.9.w.q.Q q.q.Q r w.B *.B V B 6.m m m B V m =.B.).).).).).n 0 0 9 9 ",
"8X6X6X8X,X5X5X5X5X5X6X6X6X6X6X6X6X5X6X6X6X6X6X6X5X6X6X6X6X6X6X6X6X6X6X6X6X6X9X9X6X9X6X6X6X6X6X6X9X9X7X7X6X6X9X9X9X9X9X9X9X9X9X9XvXvXvXvXvXvXvXvXbXbXbXbXbXbXC m m m m n g g g g j j h j d f h O.O.....O.@.O.@.@.............O.a h O.@.+.+.O.j d h h j g & X   X X X X X X O e g g b r y M x e * + + + + $ $ e : s 9 i i 0 d d f } @...X.X.#.#.o.o.j.k.R.bXbXbXbXbXbXbXbXxXxXwXwX9X9XwXwXwXxXxXxXxXxXvXxXvXxXxXrXrXwXwXwX7X6X6X2X>X/ `.-X}.] R E G _ _ G 9.9.q.Q w.0.6.q.9.6.N 8.*.%.B M B *.m m =.t.B.^.^.^.^.^.^.^.B.B.B.B.B.B.",
"8X8X6X6X5X5X5X5X5X5X5X5X5X6X6X6X6X6X6X5X6X6X6X6X5X6X6X6X6X6X7X6X6X6X6X6X6X6X9X9X9X9X7X6X6X6X6X6X6X9X6X6X6X6X9X9X9X9X9XwX9X9X9X9XxXxXvXvXvXvXvXvXvXbXbXbXbX2XC m h h m b a g g g g j j h j j h h O.O.O.O.O.O.@.@.@.............O.q h O.@.+.+.h b g h h j 9 O . X X X X X X o n j j O.&.%.B B T T E t < * # * : 0 0 j g 0 i i i 0 0 f X.o.o.X.X.....o.j.*XbXbXbXbXbXbXbXbXxXxXwX9X9X9X9X9XwXwXxXxXxXxXxXxXvXxXxXvXwXwXwX9X7X2X6X2X>X/ `.-X}.) R E G _ p.G 9.9.u.6.w.0.Q Q 9.Q Q w.0.B B M 6.!.).).).).).).).).).).^.^.^.^.^.^.^.^.",
"8X8X5X6X6X,X5X,X5X5X5X5X5X5X6X6X6X5X5X5X6X6X5X6X5X5X6X6X6X6X6X6X6X6X6X6X6X6X9X6X0X9X7X6X6X6X6X6X6X7X7X6X7X9X9X9X9X9X9X9X9X9X9X9XxXxXvXvXvXvXvXvXvXbXbXbXbX*XC m g g n b a a g d d j j h h h h f O.O.O.O.O.O.@.@.@.@.O.........O.h j O.@.+.+.@.m 9 9 j d d 8 . X X X X X X w -.j j O.O.-.=.*.4.9.9.9.9.9.p.x 9 0 0 0 q d j j j j j f ....X.X.} } ..#.#.@XbXbXbXbXbXbXbXvXxXwXwX9X9X9XwXwXxXxXwXwXwXxXvXxXxXxXxXvXvXrX9X9X7X5X5X2X>X/ `.-X}.] R E G _ p.G 9.9.9.9.q.0.6.9.9.Q V V 0.B B b B.).^.^.^.).).).).).).).).).).).).).).).",
"8X8X6X6X6X5X,X,X5X5X5X5X5X5X5X5X5X5X5X5X5X5X5X6X5X5X6X6X6X6X6X6X6X6X6X6X6X9X9X7X6X6X7X6X6X7X7X9X9X6X6X6X9X9X9X9X9X9X9X9X9X9XwXwXxXvXxXvXvXvXvXvXvXbXbXbXbX2XC m n g m g a a g g d d d j h k k O.k ..O.O.O.@.@.O.@.@.@.X.........O.0 f ..@.+.+.k m ; : a d a O X X X X X X C -.O.O.| @.-.-.-.-.7.9.9.0.u.Y.M a d d 0 0 0 0 0 0 0 d d f f } } } ..#.h.X.Q.nXnXbXbXbXbXvXxXxX9X9X9X9X9X9X9XwXxXwXwXxXxXwXwXxXxXxXrXrXwX9XwX7X2X5X6X>X/ `.-X}.[ R H G _ p.x 9.9.9.9.0.0.9.9.q.6.8 r 6.B B b t.^.^.^.^.^.^.^.^.^.^.^.^.^.^.^.^.^.^.^.",
"8X5X8X6X8X5X,X,X,X,X5X5X5X5X5X5X5X5X5X5X5X5X5X5X5X6X6X6X6X6X6X6X6X6X9X6X9X6X6X6X6X6X6X6X6X6X9X9X6X6X9X6X9X9X9X9X9X9X9X9X9X9XwXvXvXxXvXvXvXvXvXvXbXbXbXbXbX3Xm g b g m a 9 a a g j C j j d s j O.O.O.O.O.@...O.@.....X.X.X.........h j ..@.+.+.@.f h & o 8 a : X X       X C -.h h h O.@.-.;.;.;.;.8.0.w.w.= = 0 d d d d q q q q d } } } } ..X.#.#.o...@XbXbXbXbXbXbXvXxXxX9X9X9X9X9X9X9X9XwXwXwXxXxXxXxXxXxXxXwXwXwXwX9X7X2X5X2X>X/ `.-XXX[ R Y G _ _ H ~ 9.9.q.0.q.9.9.9.6.9 b B B B b t.^.^.^.^.^.^.^.^.^.^.^.^.^.^.^.^.^.^.^.",
"5X5X8X6X8X5X,X,X5X5X6X5X5X5X5X5X5X5X5X5X5X5X5X5X5X6X5X6X6X6X6X6X6X6X6X6X6X6X6X6X6X6X6X6X6X7X7X7X6X6X9X6X9X9X9X9X9X9X9X9X9X9XrXvXmXxXxXvXvXvXvXvXbXnXbXbXbXpXm b g a m a 9 9 s a h m j j j h h d j O.@.@.+.+.@.X...X.@...........f O.d f ..+.+.+.O.O.a : o & 8 O < .     o m h h q h | O.@.@.-.$.$.;.t.8.6.= : : 0 d f d f f f } ..X.....X.o.#.o.X...o.*XnXbXbXbXbXbXbXxXxXxX9X9X9X9X9XmX9XwXwXwXxXxXxXxXxXxXxXxXwXwXwXwX7X2X5X-X{./ `.>X>X[ R R G _ _ G Q 9.9.0.Q 6.9.9.9.6.V 6.B B B M B.^.^.^.^.^.^.^.^.^.^.^.^.^.^.^.^.^.d.d.",
"8X5X5X5X5X,X,X5X5X5X5X5X5X5X5X5X5X5X,X,X,X1X5X5X5X6X5X5X5X6X6X6X6X5X6X6X6X6X6X6X6X6X6X6X9X9X9X9X9X9X6X9X9X9X9X9X9X9X9X9XmXxXvXvX9XxXvXvXvXvXvXvXvXbXbXbXbX|.n g g g C a 9 a s s s d j j O.-.O.@.h d h h O.+.+.+.@...............f f a j ..X.+.+.+.O.h 0 & o O O < -   . b -.h j O.O.O.O.O.O.X.+.$.$.$.x.=.n 8 : 0 d d d f f f $.} ....o.o.X...} ..o.$.2XnXbXbXbXbXbXbXxXxXxX9X9XmX9X9X9XxXxXxXxXxXxXxXxXxXxXxXxXwXwXwX9X7X5X1X-X{./ `.>XXX[ R E G _ ~ H Q 9.9.0.T T 9.Q 9.Q Q e.B T V b B.^.^.^.^.^.^.^.^.^.^.^.^.^.^.^.^.^.^.^.",
"5X8X5X5X8X8X5X8X5X5X5X5X5X,X5X5X5X,X,X,X1X1X5X,X5X5X5X5X6X6X5X6X6X6X6X0X6X6X6X6X6X9X9X9X9X6X6X9X9X9X9X9X9X9X9X9X9X9X9X9X9XwXvXvXvXvXvXvXvXvXvXvXvXbXbXbXbXS.g g g m C a a a s s s d d j h O.+.+.@.O.h f j j O.+.+.+.X.............f a 0 f ..o.+.+.O.O.s 8 O o o o < - : O.O.O.f f } +.;.@.} ..X.+.j.j.x.+.x.-.g 0 d f f f f f $.$.} } X...} } ..o.#.k.%XbXbXbXbXbXbXbXxXxXxXmXmXxXxX9XxXxXxXxXxXxXxXwXxXxXwXwXwXwXwX9X9X6X5X-X-X{./ `.>XXX[ R R G _ ~ H Q Q 9.0.Q Q 9.Q Q ~ Y 6.9.B M b B.^.^.^.^.^.^.^.^.^.^.^.^.^.^.^.^.^.^.^.",
"8X8X5X8X8X8X8X5X5X5X,X,X,X,X5X5X,X,X,X5X,X5X5X5X5X5X5X5X6X6X5X6X6X6X6X6X6X6X6X9X9X9X9X9X9X9X9X9X9X9X9X9X9X9X9X9X9X9X9X9X9XwXvXvXvXvXvXvXvXvXvXvXbXbXbXbXbXS.m b m C C a 9 9 s s d d j j j f O.@.@.@.@.O.O.j j d ..+.f d f ........f 9 0 g O.X.@.+.@.-.j 0 = & O o 1 v 0 O.O.f O.@.O...@.$.$.X.X.o.h.l.$.j.$.x.x.0 f f f f f f f $.k.k.j.#.#.#.#.h.k.k.%XbXnXbXbXbXbXbXxXxXxXmXxXxXxXxXxXxXxXxXxXvXvXxXwXwX9X9X9X9X9X9X9X6X1X-X5X{./ `.>XXX[ R Y G _ ~ H ~ ~ 9.0.Q T 6.6.Q ~ e l 9.B M l B.^.^.^.^.^.^.^.^.^.^.^.^.^.^.^.^.^.^.^.",
"5X5X5X6X6X8X8X5X5X,X,X,X,X5X5X5X,X,X,X5X5X5X,X5X,X,X5X6X6X5X6X6X6X9X9X6X0X9X9X9X9X9X9X9X9X6X9X9X9X9X9X9X6X6X9X9X9X9X9X9X9XxX9XwXvXvXvXvXvXvXvXvXbXbXbXbXbX.Xn g m -.m a s s a a s d j j j f f f ..O.@.@.@.@.O.@.h f ....f f f f ..f d 0 0 f ..@.@.@.O.k 9 : : & O X 9 s h @.O...X.+.+.+.$.+.$.o.j.h.#.$.$.k.k.+.0 f f f f f f } } ..o.#.j.h.h.#.o.k.k.*XnXnXnXbXbXbXbXxXxXxXxXmXmXxXxXxXxXxXxXxXxXvX9X9X9X9X9X9X9X9X9X7X6X1X-X-X{./ `.>XXX[ R R G _ ~ G ~ ~ 9.0.6.T Q Q Q ~ 9 9 T T M l ^.^.^.^.^.^.^.^.^.^.^.^.^.^.^.^.^.^.^.^.",
",X5X5X5X6X8X5X5X5X,X,X,X,X,X5X5X,X,X,X,X,X5X5X,X,X5X6X6X6X6X6X6X6X6X6X6X6X9X9X6X6X9X9X6X6X9X9X9X9X9X9X9X6X6X9X9X9XmX9X9X9XvXxXxXvXvXvXvXvXvXvXvXvXbXbXbXbX2Xb g C C h a a a s a g g j h h k h h O.O.O.X.+.+.+.+.+.+.+.@.@.@.........f 9 = d O.O...O.O.O.g : : : & & a h h O.....X.X.o.o.h.j.#.o.o.h.j.j.h.h.k.g d ....} } } } } } } ..........X.X.#.x.tXbXbXbXbXbXbXbXxXxXxXxXmXmXmX9XmXxXxXxXxXxXxX9X9XwX9X9XwX9X9X9X7X6X5X1X-X{./ `.>XXX[ R R G ! ~ G ~ 9.9.9.6.Q T T Q ~ N b M B M l B.).).).^.^.^.^.^.^.^.^.^.^.^.^.^.^.d.d.",
"<X5X5X5X5X5X5X5X5X5X,X,X,X5X5X5X5X5X,X,X,X5X5X,X5X5X0X6X0X6X6X6X0X6X6X6X6X6X6X6X6X6X0X6X9X9X9X9X9X9X9X9X6X9X9X9X9X9X9XwX9XxXmXxXvXvXvXvXvXvXvXvXbXnXbXbXbX*Xb g -.C g a a a a g d j j j j f h O.O.O.....X.X.X.X.o.o.+.@.X.X.X.X.X.....O.h 8 h O.h f O.h O.0 : = & : g j d f O...+.o.o.o.h.h.h.j.l.l.l.l.l.z.@.9 0 f ..o.o.o.o.o.o.o.o.o.o.o.o.o.X.$.~.bXbXbXbXbXbXbXbXcXxXxXxXxXxXxXmX9X9XxXxXxXxXxX9X9XwX9X9X9X9X9X7X7X6X5X1X1X{./ `.>XXX[ R Y G ) ~ G Q 9.~ 9.9.6.B T T Q T 6.r T N l m &.%.=.=.t.t.t.B.^.^.^.^.^.^.^.^.^.^.^.",
"<X<X5X5X5X5X8X0X5X5X5X5X5X5X6X5X5X5X,X,X5X,X,X5X5X5X5X5X5X6X0X6X6X0X9X9X6X6X9X9X9X9X9X9X9X9X9X6X9X9X9X9X6X9X9X9X9X9X9XmXxXxXmXvXvXvXvXvXvXvXvXvXbXbXbXbXbX@Xb g *.m a 9 a a a g g j h h h k f k k O.O.O...@.o.o.+.+.+.+.X.X.X.....} f f ..k d h j j h d h h 0 : & = g s g h k f X.h.h.#.h.h.k.k.k.l.l.l.l.l.j.x.m q f } o.h.h.h.h.h.h.h.#.#.#.#.o.#.3XbXbXbXbXbXbXbXbXcXxXxXxXxXxXxXxXxXxXxXxXxXxXxX9X9X9X9X9X6X6X6X6X5X5X5X1X1X{./ `.>XXX[ R H G [ ~ G ~ 9.~ 9.9.9.T T T Q r e.M T T l B n n q b V M T B B B %.%.*.%.7.t.t.t.^.",
",X5X5X<X5X8X9X9X6X8X5X<X,X5X5X5X5X,X,X,X,X,X,X5X5X,X,X,X5X5X6X0X0X0X0X0X6X6X6X6X9X9X9X9X9X9X9X6X0X6X6X9X6X9X9X9X9X9X9XmXvXxXmXvXvXvXvXvXvXvXvXvXbXbXbXbXbX|.b g C n a a a a g g d j j h h O.O.O.O.O.O.@.+.+.+.o.+.+.+.@...X.....} f f f ..O.h s j j d j s -.0 8 = 9 9 i i i j f +.#.j.h.j.j.k.k.k.k.l.l.l.l.l.n.;.i q f f #.h.h.h.z.j.h.h.#.h.h.#.h.=XnXbXbXbXbXbXbXbXbXxXxXxXxXxXxXxXxXxXxXxXxXxXxX6X6X6X6X6X5X5X6X5X5X5X5X1X1X{./ `.>XXX[ R H H ) ~ G Q 9.Q ~ 9.9.B T T T 8 N Q B T y B n b 9 n V M Q Q B B B T V w b u r : 8 ",
"5X5X8X8X9X9X9X9X9X5X5X5X5X5X,X5X,X,X,X,X,X,X,X5X5X,X,X,X5X5X0X0X0X0X0X0X9X9X9X9X9X9X9X9X6X6X9X9X6X6X9X9X6X9X9X9X9X9X9XmXxXvXvXxXvXmXvXvXvXvXcXvXvXbXbXbXbXi.b b m b a a a a a g d j j j h h k k O.O.....+.@.+.X.o.+.X...........} f f f f f f 0 d j 0 j 0 k g 0 9 g h h h h ..@.o.X.$.j.j.k.k.j.k.k.k.l.l.l.v.n.O.d 0 0 f X.o.#.#.#.h.h.h.h.h.h.h.h.B.bXnXbXbXbXbXnXbXcXvXxXxXxXxXxXxXxXxXxXxXxXxX9X5X5X5X5X5X5X5X5X5X5X6X5X1X1X_./ `.>X>X[ R Y H ) ~ Y ~ 9.~ ~ q.q.N Q T T M r Q B N r V b b 0 9 B N Q Q Q B B T M e V u l ; 8 ",
"8X9X9X9X9X8X9X9X9X5X5X5X<X,X,X,X,X,X,X1X-X,X,X,X,X,X,X5X5X6X6X6X0X0X0X6X6X6X9X0X9X9X9X6X6X6X9X6X6X6X6X6X6X9X9X9X9X9XmXmXxXvXmXmXxXxXvXvXvXvXvXvXvXbXbXbXbXi.9 a a a l a a a g d d d j j j j f h k f k k ........X.X.......f f ..............f s 0 d 0 g 0 j h 0 0 0 d +.@...} } f } ....$.j.k.k.l.k.z.z.l.k.v.N.d 0 d 0 } X...X.o.o.#.#.h.#.#.o.#.h.j.*XbXbXbXnXbXbXbXvXcXxXxXxXxXmXxXxXxXxXxXxXxX9X5X5X5X5X5X5X5X5X5X5X6X5X,X,X_./ `.>X>X[ R Y H ! ~ H ~ 9.~ ~ q.q.N Q T Q Q N M B B r Q B B b b b M 6.Q 6.T B Q M r V u l w w ",
"8X5X5X9X8X8X8X8X0X5X5X5X,X,X5X,X,X,X,X1X1X,X,X,X,X,X,X5X5X5X5X6X0X6X0X6X6X6X6X0X6X9X9X0X6X9X6X6X6X6X6X6X6X6X9X9X9X9XmXmXmXxXmXxXmXxXvXvXvXvXvXvXvXbXbXbXnXF.8 9 l 9 a a a a a s d d d j d d j h k O.k f ..........f ......................f f s = 0 0 0 a 0 h 9 0 0 0 g ....+.X.....} f } o.h.z.l.l.h.h.k.z.z.x.j 0 0 d } ..X.X.X.o.#.#.#.#.#.o.o.#.j.Q.bXbXbXbXbXbXbXcXvXxXxXxXxXxXxXxXxXxXxXxXxX9X5X,X5X5X5X5X6X5X5X5X5X5X,X:X_.D `.>X>X[ R Y H R ! H Q 9.~ ~ p.p.T Q T Q 6.6.b T Q x w.B m m m B M 6.Q 6.T B 6.b r N l l e 8 ",
"5X<X5X8X8X8X8X9X5X5X5X5X,X,X,X5X,X,X,X,X,X,X,X,X,X5X5X5X5X5X5X6X0X6X0X6X6X6X6X6X6X9X0X6X9X6X9X6X6X6X6X9X6X6X9X9X9X9X9XmXmXmXmXmXxXvXvXvXvXvXvXvXvXvXbXbXnXZ.9 8 9 l 9 a a g g g j d d O.k h d j f k h f f f f ....X.+.+.@...............f f f 0 & : 0 i a = s g a h g 0 0 0 f O.#.o.X.} f } X.l.v.l.h.z.z.l.l.j.d j d 0 d f ..X.X.#.h.o.X.#.h.h.h.h.h.~.bXbXbXbXnXbXbXcXvXxXxXxXxXxXxXxXxXxXxXxXxX9X5X5X5X5X5X5X5X,X1X1X1X1X-X:X`.D `.>X>X[ I H H R ! H Q ~ 9.9.p.p.Q 9.T Q l Q V B T l w.B m m m Q M 6.Q 9.Q B 6.b r V b l r e ",
"<X5X5X8X8X8X8X8X5X5X5X5X,X,X,X5X,X,X,X,X,X:X,X,X,X5X5X5X5X5X5X6X8X6X0X6X9X9X9X9X9X6X6X0X6X0X6X6X6X6X6X6X9X9X9X9X9X9X9X9X9XmXmXvXxXvXvXvXvXvXvXvXvXbXbXbXbXZ.b 0 8 9 a a a a g g d j j O.O.O.h j d k O.O.....@.@.@.+.+.+.......O.....f f f f j : & & 0 i 0 : i a h k h 0 h d s 0 @.j.j.X...} } o.v.v.l.z.z.z.v.@.d f f f d d f X.o.#.h.h.o.#.#.#.#.h.j.!.bXbXbXbXnXbXbXvXxXxXxXxXxXxXxXxXxXxXxXxXxX6X5X,X,X,X,X1X1X-X-X1X1X1X-X-X`.D `.[.XX[ I Y G [ ! H Q ~ ~ q.N ~ ~ ~ T Q r l Q B B y q.Q V V V B M 6.6.9.Q B 6.b l V b l l y ",
",X5X5X5X8X0X8X5X5X5X5X5X,X,X;X;X:X,X;X:X,X:X,X,X,X,X5X5X5X5X5X6X6X6X6X6X6X6X9X6X9X6X0X6X6X0X6X0X6X9X9X9X6X6X9X9X9X9XmX9X9XmXmXvXvXmXxXvXvXvXvXcXvXvXbXbXbXK.m 9 i : 0 a a a a g g O.k h h h k h O.O.k f ..O.@.O...+.j.X.....@.@.@.@.@.O.....f 0 = & = i = : i 0 k @.k s h h j 9 0 f k.j.h.+...} o.l.v.v.z.z.v.h d f f } f f d f #.h.h.h.#.#.#.h.h.k.k.W.bXbXbXbXbXbXbXvXxX9XmXxXxXxXxXxXxXxXxXxXxX8X,X1X1X-X-X-X-X-X-X1X1X1X-X:X`.D _._.XX[ I Y G R ! H Q ~ 9.q.E T ~ 9.T R l b Q B M y 9.6.V n n B N Q 6.9.Q B 6.b l V M l l l ",
"<X5X5X5X8X8X8X5X5X5X5X5X<X<X;X;X;X:X,X:X:X:X,X;X,X,X,X,X5X6X6X5X8X8X0X6X6X6X9X0X0X9X6X6X9X9X9X0X9X6X9X9X9X9X6X9X9X9XmXmXmXmXmXvXvXxXvXvXvXvXvXvXvXnXnXbXbX*Xm l 0 : : 0 a a a g d j j h h h h h j f f h f k O.h ..+.+.X.+.+.+.@.@.@.@...X.....d 0 0 : : : 9 0 i s X...h s k h 9 0 d ..k.l.k.j.o...o.l.v.v.b.v.9 d f f f } } f f ..o.#.h.#.#.h.h.h.k.k.%XbXnXnXnXnXbXbXxXxXxXxXxXxXxXxXxXxXxXxXxXxX5X1X-X-X-X-X-X-X-X-X-X1X,X1X:X`.D _._.>X[ I R H R ! H ~ ~ 9.9.9.9.E 9.T Q N M T N M x 9.9.n n n V N Q 6.6.6.Q Q V l V V l l b ",
"<X5X5X5X5X5X8X5X5X5X5X5X<X,X5X;X;X-X:X:X:X:X,X:X;X:X,X,X5X5X6X6X8X8X6X6X9X6X9X9X0X9X6X6X9X9X9X6X9X9X9X9X9X6X6X9X9X9XmXmXmXmXmXmXmXvXvXvXvXvXvXvXvXbXnXbXbXbXQ 9 9 8 : 8 9 a a a d j j j j h h h j j f h h h h j +.j.X.+.+.+.+.@.O.@.O.........f s 0 : = 0 a 9 0 0 f o.O.g s b b h h f X.l.l.l.k.j...#.v.v.v.k.0 d f f f f } f ..o.o.#.#.#.h.h.h.k.k.j.4XbXnXnXnXnXbXbXbXcXcXxXxXxXxXxXxXxXxXxXxXxX5X1X-X-X-X-X-X-X-X-X-X1X,X-X:X`.D _._.>X[ I H H R ! H ~ ~ ~ 9.9.9.Y 9.T ! B N T N V l 9.9.V n n B N Q 9.6.Q Q B V l V V l l M ",
"<X<X5X9X9X9X5X8X8X5X5X<X,X<X,X;X;X:X:X;X,X;X:X:X:X;X,X,X,X5X6X6X8X8X8X8X9X8X8X9X6X6X6X6X6X9X9X6X9X9X9X9X9X6X6X9X9XmX9XmXmX9XmXmXmXvXvXvXvXvXvXvXvXvXbXbXbXnX|.r 9 r : : : a s a a j h j g j h g j j f h h f h h +.+.+.+.+.@.+...@.O.f ..X.X.....d 0 : & g s s a g 0 X.X.h a 0 h O.O.O.} h.l.l.l.l.o.h.z.v.v.+.d 0 f f f f f } ..o.#.#.h.h.h.z.z.k.j.x.bXnXnXnXnXnXbXbXvXxXxXxXxXxXxXxXxXxXxXxXxXxX5X1X1X-X-X-X-X-X-X-X1X1X1X-X:X`./ _._.XX[ I H G R ! H ! ~ 9.~ 9.~ E 9.Q ! N V T N B y Q 6.V n V V M Q 9.6.6.6.T V M V V l b M ",
"5X5X<X5X5X9X9X9X8X5X5X<X,X,X,X;X;X:X:X:X;X:X:X;X;X;X,X,X,X5X5X5X8X8X5X6X6X6X9X9X9X9X9X0X9X9X9X9X9X9X9X9X9X9X9X9X9X9X9X9X9XmXmXmXxXxXvXxXvXvXvXvXvXvXbXbXbXnXbXc 9 r 8 : : 8 a a a g h h n g g a g j j j j h h O.+.$.+.+.@.@.@.....f f X.X.X...f j : = O h g g h j a j o.k g 0 h O.O...X.#.h.z.l.l.l.h.z.v.v.j d q d ..f f f f ..o.#.#.h.z.z.k.k.j.j.B.bXnXbXnXnXnXbXcXvXcXxXxXxXxXxXxXxXxXxXxXxXxX5X1X-X-X-X-X-X-X-X-X1X,X-X-X:X`.D _._.>X[ I G G [ R G Q Q ~ Q 9.E E 9.T Y N V T B B y Q 6.n n b B Y 6.9.6.6.6.T B M V B l b V ",
"5X5X8X5X5X9X8X9X5X5X5X<X,X,X,X;X;X;X:X:X:X:X;X;X;X;X,X,X5X5X5X5X5X5X5X6X6X6X6X6X9X6X6X9X6X0X9X9X9XmX9X9X9X9X9X9X9X9X9X9XmX9XxXxXxXxXvXvXvXvXvXvXvXvXbXbXbXnXMX}.9 9 9 8 = : 0 a a g h m g g a a g d j j j k O.O.o.+.$.+.@.@.....f f ..o.o.X...f 0 = = : O.j h O.h g s o.j g g d O.O...o.o.#.#.h.z.b.b.l.b.+.d d d q f X.} } f f j.k.z.z.k.k.k.k.k.j.+XnXnXbXbXnXnXnXcXcXcXxXxXxXxXxXxXxXxXxXxXxXxX5X1X-X-X-X1X-X-X-X-X1X1X-X-X:X`./ _._.>X[ I G H R ! G ~ Q q.Q ! E N Q Q R B V B T N y Q 6.n n b B N Q 9.6.6.6.B T M V B l M V ",
"5X,X<X5X8X8X8X8X8X5X5X5X5X,X,X;X;X;X:X:X;X:X;X,X;X;X;X;X5X5X5X5X5X5X5X9X9X8X5X6X6X6X6X6X9X9X9X9X9X9X9X9X9X9X6X9X9X9X9X9XmXmXmXxXxXxXvXvXvXvXvXvXvXbXbXbXnXnXnX#X9 9 9 0 : : : 9 a g g m m g a a a g g j h O.O.O.@.+.+.@...O.....f f ..o.o.X.X.f i : 0 9 @.h O...k h s ..O.+.h s f @...o.o.#.h.h.h.z.l.v.v.d d d d d d ..X.} f f } h.k.k.l.k.j.h.j.j.3XnXnXnXnXnXnXcXcXcXcXcXxXxXxXxXxXxXxXxXxXxXxX,X1X-X-X-X1X-X-X-X-X-X-X-X-X:X`./ _._.>X[ I G G R ! G ! Q q.Q Y Y Y Y Q Y N b B B N x 6.Q n n b B M Q 9.6.6.Q V T M M Q r V V ",
"<X,X5X5X5X5X8X8X8X5X5X5X5X5X,X;X;X:X:X:X;X;X,X,X;X;X;X;X5X5X5X5X5X5X5X8X9X8X5X0X6X6X6X9X9X9X9X9X9X9X9X9X9X9X6X6X6X9X9X9XmXmXxXxXmXmXvXvXvXvXvXvXvXvXbXbXbXnXMX7Xl 9 9 9 0 : : : a a g h g g g a a a g g h k h O.+.$.+.f ..O.....f ..X.#.o.X.X.d a 8 0 j ..X...O.k k d j j.o.O.j d @.X.o.o.#.h.h.z.z.z.v.$.d d d d d d f X.X...} f } o.#.#.h.h.h.j.x.bXnXnXnXnXnXnXcXcXcXcXcXxXcXxXxXxXxXxXxXxXxX9X,X,X-X-X1X1X-X-X-X-X-X-X-X1X:X`./ _._.}.[ I G F R ! G Q ~ q.T Q Y E N Q Y N M N N N x Q Q b b b B N Q 9.Q Q Q B Q N M 6.8 V V ",
",X,X5X8X5X5X5X8X5X5X5X5X,X5X,X;X,X;X;X;X;X,X,X,X,X,X,X,X5X5X;X5X5X5X5X5X5X9X6X6X9X6X9X9X9X9X9X9X9X9X6X9X9X9X0X6X9X9X9X9XmXmXmXmXxXxXxXmXvXvXvXvXvXbXbXbXbXnXnXvXM a a 9 9 8 : : 0 a g g g g g a a a a j h h j O.+.+...f O.O...O.....+.h.#.X.d 0 h 0 9 j O...@.O.....h j h.h.X.f d ..o.o.o.#.h.h.h.h.h.v.O.d f f f f f f ..X...} } f } ..o.#.h.j.$.Q.nXnXbXnXnXnXnXcXcXxXcXxXxXxXxXxXxXxXxXxXxXxX9X,X1X-X-X-X-X-X-X-X-X-X1X1X1X:X`./ [._.>X[ I G F R R G ~ ~ q.E Q N R x Q Y T M N N N x Q Q b b b B c 6.9.Q 6.6.N Q T V Q 8 V V ",
"<X5X5X5X5X5X8X8X0X8X8X5X,X,X,X;X5X5X;X,X;X,X,X;X,X,X;X,X;X;X5X5X5X5X5X5X5X9X6X6X9X9X9X9X9X9X9X9X9X9X6X9X9X9X0X6X6X9X9X9XmXmXmXxXxXxXmXmXvXvXvXvXvXbXbXbXbXnXnXMXQ a a a r 9 : : : 9 g g g b g a a a a j h j j @.+.@.f O.@.O.f ....o.j.j.o.f i h d g s h @.f @.@.@.+.@.f +.k.o.f d j o.o.o.#.#.z.z.l.z.v.q 0 f f f f f f X.o.o.X...} } } ..o.#.j.B.bXnXbXnXnXnXnXnXcXcXxXxXxXxXxXxXxXxXxXxXxXcXxX9X,X-X-X-X-X-X-X-X-X-X-X1X1X1X:X`./ [._.>X] I G A R R G ! ! q.E ~ Y Q N Q Y N M N M N x Q Q n b b B M Q 9.6.6.6.B Q N V B ; V V ",
"5X5X5X5X5X5X8X8X0X0X8X8X5X5X5X;X;X;X;X;X:X:X:X;X,X,X,X:X,X5X5X5X,X<X<X5X5X5X6X6X9X9X9X9X9X9X9X9X9X9X9X6X0X6X6X6X9X9X9XmXmXmXxXxXxXxXvXxXvXvXvXvXvXvXbXbXbXnXnXMXi.9 a a a 9 9 : : : a g g m g a g a a g j g h +.@.O.f @.@.h h h O.h.k.+.d f : h s g h j +.f X.$.@.O.@.+.j.k.j...j d X.j.#.h.#.h.z.l.z.j.d 0 f f f f f f f X.X.o.#.o.X...} ..o.B.yXnXbXnXnXnXnXnXnXbXcXxXxXxXxXxXxXxXxXxXxXcXcXxX9X,X-X-X-X-X-X-X-X-X-X-X-X1X1X:X`.D [._.>X] I G F R R G ! Q ^ Y ~ Y Q Y T H M V M M M x Q 6.b b b B c Q 6.6.6.9.B 6.M V N 8 V V ",
"5X<X5X5X5X8X8X8X5X9X8X5X,X5X,X,X;X;X;X:X:X;X:X,X,X:X;X,X,X5X5X5X<X5X5X8X8X8X0X6X6X6X9X9X6X9X9X9X6X9X9X9X6X6X6X6X9X9XmXmXmXmXmXmXxXxXxXvXmXvXvXvXvXvXbXbXbXbXbXMX.Xa 9 9 a a 9 8 : : 8 a g b g a a a a g g g h @.f h O.+.@.h h h ..z.#.f f d 0 j j 0 g g j.O...j.+.O...$.j.X.k.X.f d f j.k.z.z.z.z.z.z.@.d 0 d ..f f } } f f ..o.#.$.#.o.X...@.3XnXnXbXbXnXnXnXnXnXbXcXvXxXxXxXxXxXxXxXxXxXcXcXxX9X,X-X-X-X-X-X-X-X-X-X-X-X1X1X:X`.D [._.XX[ I G F R R G Q Q ~ T ~ T E E T H r B M N N x Q Q b b b B x Q 6.Q T Q V Q M V V 8 V V ",
"5X,X5X5X5X5X8X5X5X9X8X5X5X,X,X,X;X:X:X:X:X:X;X,X,X:X;X,X,X,X5X,X<X,X<X5X5X5X8X8X6X8X9X9X6X9X9X9X9X9X9X9X9X9X9X9X9X9X9XmXxXmXmXmX9XmXmXmXmXmXvXvXvXvXvXbXbXbXbXMX2Xl 9 0 0 0 9 9 8 8 : 0 a b g a g a a g g g j O.h k @.+.@.k h j o.h.X.f } f 0 j ..j 0 g o.+...j.j.+...o.j.} #.h...j j h.k.z.h.h.h.z.l.j d d 0 X.} f } } } f } ..o.#.#.#.o.+.oXnXnXbXbXbXnXbXcXcXbXbXcXcXcXxXxXxXxXxXxXxXxXxXxXxX6X,X:X:X-X-X-X-X-X-X-X-X-X-X-X:X`.D _._.>X[ U F F R R G R Y ~ R ~ Q Y Y E G e N N N N x Q T b b b B l B Q Q B Q B Q l B b w V M ",
"5X,X,X5X5X5X5X5X5X8X8X8X8X5X,X;X;X:X:X;X:X:X;X,X,X,X,X,X,X5X5X5X<X,X,X5X5X5X0X0X8X6X9X9X9X9X9X9X9X9X9X9X9X9X0X9X9X9XmX9XmXmX9XmX9X9XmXmXmXmXvXvXvXvXbXbXbXbXbXMXeXb a 9 0 0 0 9 9 0 0 8 9 g a a g g a g g g j h h O.O.@.@.O.g j z.h.X.f @.f d j +.k j q ..j.X.j.k.k.o.+.k...} j.o.f j o.z.z.z.h.h.z.v.i d d q f o.} f f } } } ....X.o.o.o.B.bXnXnXbXbXbXbXbXcXcXnXcXcXcXcXcXxXxXxXxXxXcXxXxXxXxX6X,X,X:X-X-X-X-X-X-X-X-X-X-X-X>X`.D _.( }.[ I G G R R G E E ! Y ~ Q N T E c w T M N N t Q B b b b B l b B T Q B B Q l B b e V b ",
"5X5X,X<X5X,X5X5X5X0X8X8X0X0X0X5X,X:X:X:X:X;X,X,X,X,X,X:X,X5X5X,X,X,X,X5X8X5X5X0X8X9X9X9X9X9X9X9X9X9X9X9X9X0X6X6X6X9X9X9X9X9XmX9X9X9XmXmXmXmXmXvXvXvXbXbXbXbXnXnXbXN a 9 9 9 9 0 8 9 9 0 0 a g g g g g g g g j g h k O.O.@.k d ..z.h.X...O.k j h X...O.g d o.+.j.j.j.j.k.l.o.} X.h...j X.v.z.z.l.z.z.k.9 0 d d q +.X.} f } ..} ......X.o.x.uXnXnXnXnXnXnXnXcXcXcXcXcXcXcXcXxXxXcXxXxXxXcXcXxXxXxX8X,X-X-X-X-X-X-X-X-X-X-X-X-X-X>X`.D _.W _.] I G F R R x E E R ~ ~ ~ c Y Y x ; Y M N N e T B b b b T l N B T Q V T T y B b e M b ",
",X<X<X5X5X<X5X5X5X0X8X0X0X8X0X5X,X;X:X:X:X:X;X;X:X:X:X:X;X;X,X,X,X,X,X5X5X5X5X0X6X6X9X9X6X9X9X9X9X9X9X9X9X0X0X9X9X9X9X9X9X9X9XmX9X9X9XmXmXmXmXvXvXbXbXbXbXbXnXnXMX~ a 9 9 9 9 9 0 0 9 0 0 0 a g g g g g g g g j j h O.O.O.j g o.l.h.X.@.h O.g O...X...O.g f j.k.l.o.#.l.l.#...f #.o.f ..v.v.v.v.l.l.+.9 i q d d f o.X.} } } ......X.X.;.3XnXnXnXnXbXnXnXnXcXcXcXcXcXcXcXcXcXxXxXcXxXxXxXxXxXxXxX8X,X-X-X-X-X-X-X-X-X-X-X-X-X:X>X`.D _.[ _.[ I G F R R G R E R ~ c ~ Y ! Y x e N M M M e T B b b l T y N Q Q T T 6.Q r N V e b b ",
",X,X,X5X<X<X5X5X8X5X5X5X0X0X8X5X5X:X:X:X:X;X:X:X:X:X,X,X:X:X:X,X;X5X,X,X5X,X5X5X6X9X8X0X9X9X9X9X9X9X9X9X9X9X0X0X9X9X9X9XmX9X9X9X9X9X9X9X9XmXvXvXvXvXbXbXbXbXnXMXMX|.a 9 a 9 9 9 9 9 0 0 0 9 0 a g g g g g g g g g h O.O.O.s g +.l.h.@.O.O.O.g O.f #.f @.h d +.k.v.$.o.k.l.j.X.f ..h.} ..z.l.z.k.l.l.@.i a 0 d f d @.o.X.} } } } ..X.+.*XnXnXnXnXnXnXnXbXnXbXbXbXcXcXcXxXcXxXxXxXxXxXxXxXxXxXxXxX8X,X-X-X-X-X-X-X-X-X-X-X-X-X-X>X`.D _.[ '.[ [ G F R R G Y R R ~ c ! ! Q Y x M M M M M e B T b u l N v B l V Q T Q 6.r B b w b b ",
"<X<X,X5X<X5X5X5X5X5X5X5X5X5X0X5X5X;X:X:X:X:X;X:X;X:X;X:X:X:X:X;X;X,X,X,X,X,X5X5X5X5X8X5X8X8X9X9X9X9X9X9X9X6X6X9X9X9XmX9X9X9X9X9X9X9X9X9XmXmXvXvXvXvXbXbXbXbXnXnXMX2Xb a a 9 9 9 a 9 0 0 8 8 0 9 a g g g a g g g g h O.O.h s h O.l.h.@.j +.h @.@.j j...f @.h @.k.v.k.o.j.l.k.o.f f h...X.l.z.z.z.l.h o.0 q q 0 d f f o.X...} f } ..+.@XnXnXnXnXnXnXnXbXnXnXnXbXbXcXcXcXcXcXxXxXxXxXxXxXxXxXxXxXxX8X,X-X-X-X-X-X-X-X-X-X-X-X-X-X>X`./ _.[ '.[ I G F R R x Y E ~ Q Y Y E ~ Y x E l N M M t T T b u r N l b r Q 9.T Q Q r B l e b l ",
"<X<X,X5X<X<X8X8X8X5X8X8X5X0X0X0X5X,X;X;X:X:X;X:X;X,X:X,X:X:X:X;X,X,X,X,X5X5X,X5X5X5X5X5X5X0X0X9X9X9X9X9X9X9X9X9X9X9X9X9X9X9X9X9X9X9X9XmXmXvXvXvXvXbXbXbXbXnXbXMXMXbXb a a a a a a a 9 8 i : 0 0 a g g g g g g g g g O.O.j j h j k.#.@.h $.d +.k.f j.#.f h @.f l.v.l.j.#.l.l.#...f ..+.#.v.v.k.x.@.d +.@XY d d d d f ..@.@.@.} f @.+XnXnXnXnXnXnXnXnXnXnXnXnXbXcXcXcXcXcXcXcXxXxXxXxXxXxXxXxXxXxX5X,X-X:X-X-X-X-X-X-X-X-X-X-X-X>X`./ _.J '.) I G F R R G Y Y Y x Y Y Y ~ E x Y r N M M t T T b b r N v M Q q.6.B T T r B b e b l ",
"<X<X,X<X5X<X<X8X8X5X8X8X8X0X0X0X5X,X;X;X;X;X;X;X;X;X,X,X,X:X:X;X,X,X,X,X,X,X,X,X,X,X5X5X0X0X0X9X9X9X9X9X9X9X9X6X9X9X9X9X9X9X9X9X9X9X9XmXmXvXvXvXvXvXbXbXbXbXbXMXMXMX~ 9 a a a a a a 9 0 i 0 0 0 0 a g g g g g g g g h k g k h g $.k.@.j +.d @.l.o.#.h.@.d @.h l.v.l.j.h.k.k.h.X.f f ..o.z.z.k.@.q d #.*XBXL.n d d d f ..O.O...O.%XnXnXnXnXnXnXnXnXnXnXnXnXnXnXcXcXcXxXxXcXcXxXxXxXxXxXxXxXxXxXmX5X,X-X-X-X-X-X-X-X-X-X-X-X-X-X>X`./ >X_._.[ R H A R R x Y E R Y Y H G ~ Y x Y r N M M t N T b 9 r V e Q w.9.Q N T Q r N M e l l ",
"<X<X,X5X5X5X8X8X8X8X8X8X8X9X8X0X0X,X;X;X;X-X;X;X;X,X;X;X,X,X,X:X;X,X,X,X,X,X,X5X,X,X,X5X5X5X0X9X9X9X9X9XmX9X6X9X0X9X9X9X9X9X9X9X9X9X9XmXvXvXvXvXvXbXvXbXbXbXMXMXMXMX*Xa a a a g g a 9 9 0 0 0 8 8 8 a g g g g g g g j h h k h g ..k.} j k h } j.j...h.$.O.d O.j.v.v.k.h.j.k.h.o.f f f X.h.#.j.d d d $.w.BXBXvX#Xy.n g f f O.w.3XbXnXnXnXnXnXnXnXnXbXnXnXnXnXcXcXcXcXcXcXcXcXcXcXxXxXxXxXxXxXxXwX5X,X-X-X-X-X-X-X-X-X-X-X-X-X-X{.`.D >X_._.[ I G F H R z Y E R R Y c y ~ Y z Y l M x M t Y N b 9 b V N 9.6.Q Q V T T r V N e l l ",
"<X<X5X5X5X5X8X8X5X8X8X8X8X8X8X8X0X5X,X;X;X;X;X;X;X;X;X;X;X,X;X,X:X,X:X;X,X,X,X,X,X,X,X5X5X5X0X9X9X9X9X9X9X9X9X9X0X0X0X9X9X9X9X9X9X9X9X9XvXmXvXvXvXvXbXbXbXbXbXMXbXMXMXb a a a g g a a a a 0 8 8 8 = = g g g g g g g g j h h j g f j.d h g O.} O.x.O.h.j.@.h d +.l.v.l.h.h.k.z.h...f f X.o.z.j.9 d d #.@.3XnXnXnXnXbX2X#X*X3XbXnXnXnXnXnXnXnXnXnXnXbXnXbXnXnXcXcXbXcXcXcXcXcXcXcXxXxXxXxXxXxXxX9X5X,X,X-X-X-X-X-X-X-X-X-X-X-X-X{.`.D {._.'.[ U F A H Y z Y Y Y Y Y x l Q Y x E l M x l t N N b 9 l M x Q Q Q Q V T T r M N e l l ",
",X,X5X5X5X5X8X5X8X8X8X8X8X8X8X8X8X5X5X;X;X;X;X;X;X;X;X;X:X,X;X:X;X,X:X:X;X,X,X,X,X,X<X5X5X0X6X9X9X9X9X9X9X9X9X9X9X0X0X0X9X0X9X9X9X9XmX9XvXvXvXvXvXbXbXbXbXbXbXbXbXnXMXy.b a a a a g a a a 0 8 8 : o & 8 g g g g g g g j h h g a h @.g @.0 ..@.j x.O.X.k.o.@.j } h.b.l.j.z.k.l.z.X.} f h.z.z.h.0 d j #.$.Z.nXnXnXnXnXnXnXnXnXnXnXnXnXnXnXnXnXnXnXcXbXcXbXbXcXcXcXbXcXcXcXcXcXcXcXcXcXcXxXxXxXxX9X5X,X,X-X-X-X-X-X-X-X-X-X-X-X-X>X`.D >X_._.[ J F t H H z G G Y Y Y c x Y ! x E x x l r e N N r 9 r N x Q Q Q Q M T T r V Y e r l ",
"<X5X5X<X5X5X5X5X5X8X8X8X8X8X8X8X8X5X,X;X5X;X;X;X;X;X:X;X:X:X:X:X,X;X:X,X;X,X,X,X,X,X5X5X8X0X0X6X9X9X9X9X9X9X9X9X0X0X0X9X9X9X9X9X9XmXmXmXvXvXvXvXvXbXbXbXbXbXMXMXMXMXMX2Xa g a a a a a a a 9 0 0 & = : 8 0 g g g g g g g j h g a h h 0 +.d O.+.j +.-.O.j.j.+.} d #.z.l.h.h.z.z.l.#...} z.b.z.j.0 d d o.k.;.uXnXnXnXnXnXnXnXnXnXnXnXnXnXnXnXnXcXcXcXcXcXcXcXcXcXbXcXcXcXcXcXcXcXcXcXcXcXxXxXxXxX9X5X,X,X1X-X-X-X-X-X-X-X-X-X-X-X>X`.D >X_._.[ J t t H H t Y G Y Y Y c x Y ! x Y l l l l e N M 9 9 r M l T Q B Q M T T r V N e r b ",
"<X<X5X<X5X5X5X8X0X8X8X8X8X8X8X8X8X5X5X,X,X;X;X;X;X;X;X;X;X;X:X:X,X:X,X,X:X:X,X,X,X5X5X5X5X9X6X9X9X9X9X9X9X6X6X6X6X9X0X9X9X0X9X9X9XmXmXvXvXvXvXvXbXbXbXbXbXbXMXMXMXMXMXNXQ m a a a a a 9 0 9 a : : : 8 8 0 0 a g g g g g j j g a O...9 $.j ..+.h j +.+.+.k.o.+.f X.z.v.z.o.#.h.l.k.X...z.b.b.o.i d j X.v.k.!.nXnXnXnXnXnXnXnXnXnXnXnXnXnXnXnXcXcXnXnXnXnXcXcXcXcXcXcXcXcXcXcXcXcXcXcXxXxXxXxXxX9X5X,X1X1X-X-X-X-X-X-X-X-X-X-X-X>X`.D >X_._.[ J t t H H t Y G H G Y c x Y ! z c l x r r t N N r 9 r M x T T B Q M T Q l M N e l b ",
"5X<X<X5X5X5X5X5X8X8X8X8X8X8X8X8X8X5X5X5X;X;X;X;X;X;X;X,X;X:X:X;X;X:X:X,X,X,X,X,X;X5X5X5X5X9X6X9X9X9X9X9X9X9X9X9X9X0X9X9X0X9X9X9XmXmXmXmXmXvXvXvXbXbXbXbXbXbXMXMXMXMXMXMXK.a a a a a a a a a a = 8 : 8 0 8 8 0 a g g g g g h g a O.o.9 j.f f $.f d j.j.} x.+.o.} f h.v.v.#.o.o.h.v.#.#.z.b.b.$.i f j X.v.k.x.uXnXnXnXnXnXnXnXnXnXnXnXnXnXnXnXnXcXcXnXnXbXcXcXcXcXcXcXcXxXcXcXcXcXcXcXxXxXxXbXxX9X8X,X,X-X-X-X-X-X-X-X-X-X-X-X-X{.`.D [._.}.[ J t 4 H R t H x x x c c x R ~ x l x x l y t N N 9 9 9 M l B Q N T l N B r b N 8 l b ",
"5X<X<X<X5X5X5X5X5X0X8X8X8X8X0X8X8X5X5X5X,X,X;X;X;X;X;X;X;X;X;X;X:X:X:X:X,X,X,X,X,X,X5X5X5X5X6X6X9X9X9X9X9X9X9X9X0X0X0X0X0X0X9X9X9XmXmXmXmXvXvXvXbXbXbXbXbXMXMXMXMXMXMXBXE a a a a a a a g g 0 9 8 8 0 0 8 8 = : a g g g g j g a h +.0 +.j.f $.} j +.k.X.$.k.X...f #.b.v.k.$.....z.h.v.z.b.b.$.i d j ..v.k.l.!.nXnXnXnXnXnXnXnXnXnXnXnXnXnXnXnXcXcXcXbXcXcXcXcXcXcXcXcXcXcXcXcXcXcXcXxXxXxXcXxX9X5X1X-X>XXX'.' ` ] ] ] ' }.}.XX[.`.Z [._._.I F t t G H t G x x x x G c R ~ x r N x l l l M M 9 9 9 M x T T B N M N T l b N : l M ",
"<X<X5X5X5X5X5X5X8X5X8X8X8X8X8X8X0X8X5X5X5X;X;X;X;X:X;X;X;X;X;X;X;X:X;X:X,X,X,X,X,X,X,X0X5X0X0X0X6X9X9X9X9X9X9X6X0X6X0X0X0X9X9X9XmXmXmXmXmXvXvXvXbXbXbXbXMXbXMXMXMXMXMXqXa a a a a a g g g 9 8 a 0 9 0 0 8 8 = = : 0 a g d g g g j +.0 h x.+.+...f d k.k.} l.#.@.f @.v.v.z.l.X...o.z.v.z.z.b.$.i f f } v.z.k.x.eXnXnXnXnXnXnXnXnXnXnXnXnXnXnXnXnXcXcXbXcXbXbXcXcXcXcXcXcXcXcXcXcXbXcXxXxXvXcXvX7X-XXX}.' ` ` ` ` ` _ _ _ _ ` ` ' ' ] _._.' I F t 4 G G t G x x x e c c Y ~ z w Y l l x v M M 9 0 r x x T T N N N M : l b N : b M ",
"<X<X5X5X5X5X5X5X8X8X8X8X8X8X8X8X8X8X8X5X5X,X;X;X;X:X;X;X;X:X:X,X;X;X,X;X,X,X,X,X,X,X,X5X0X0X0X6X0X9X9X9X9X9X6X0X0X6X6X0X0X9X0X9XqXmXmXmXmXmXvXvXbXbXbXMXMXMXMXMXMXMXNXpXa a a a a a g g g 0 l 0 0 a 9 0 8 : = = 8 : 0 9 g g g g d @.0 j @.x.j.#...j ..v.o.+.l.@.f f k.v.z.l.o.o.h.b.b.b.b.b.$.i d f } b.z.z.l.&XnXnXnXnXnXnXnXnXnXnXnXnXnXnXnXnXnXnXbXcXbXcXbXnXcXcXcXcXcXcXcXvXcXxXxXwX6X-XXX}.i.' ` ` ` ` ` _ ` ` ` ` ` ` ` ` ` _ _ _ ` ' i.' _ ~ ! G G x x Y ; Y x Y ~ e e Y l x x y M l 9 0 e x l T T N N N M & l M N : M M ",
"<X5X5X5X5X5X8X5X8X8X8X8X8X8X8X8X8X5X5X5X5X5X,X;X;X;X;X;X,X;X;X:X;X,X,X,X,X,X,X,X,X,X,X5X5X0X0X6X9X9X9X9X9X9X6X0X0X0X0X0X0X0X0X0XqXqXmXmXmXmXvXvXbXbXbXMXMXMXMXMXMXMXMX|.9 9 9 9 9 g g g 0 9 a 0 0 g a 9 8 : = : 8 8 : : 9 g d j d O.d g h f j.l...h d l.l.} x.j...f o.v.l.l.o.h.v.b.b.b.b.b.@.i d } f b.b.z.l.B.bXnXnXnXnXnXnXnXnXnXnXnXnXnXnXnXnXcXnXcXbXnXbXbXcXcXcXcXcXxXxXwX6X-X}.' ' ` ` ` ` ` ` ` ` _ _ ` ` i.y.` ` ` ` ` ` ` ` ` ` ` y.y.y.i.i.i.i.y.~ ~ t H x Y ~ t x N c x x y M l 9 9 9 l x T T V N Q Q e l M N ; M b ",
"5X5X5X5X5X8X8X8X8X8X8X8X8X8X8X8X8X8X8X8X5X,X,X;X;X;X;X;X,X;X;X;X:X,X;X,X,X,X,X,X,X,X,X5X0X0X0X6X0X9X9X9X9X9X9X0X0X0X0X0X0X0X0X9X9XqXmXmXmXmXvXvXvXbXbXMXMXMXMXMXMXMXMX.X9 9 0 9 a g g a 0 g 0 0 g g g 9 8 = : 8 8 8 : : = 0 g g d j f g O.f ..l.#...d ..v.k.j v.o.O...v.v.v.$.v.v.v.v.v.b.z.O.0 d } f z.b.z.z.v.=XnXnXnXnXnXnXnXnXnXnXnXnXnXnXnXnXcXnXcXnXbXnXnXcXcXcXxX9X6X-X}.i.' ` ` ` ` ` ` ` ` _ ` ` ` ` ` y.i.y.` ` ` ` i.i.i.i.i.i.y.y.i.i.S.i.S.i.i.S.S.i.R t z G t Y y c x x v M l 9 9 9 l v N N M V B T N x M N ; l b ",
"5X5X5X8X;X5X5X8X8X5X8X8X8X8X8X8X8X8X8X5X5X5X,X;X;X;X;X;X,X,X;X:X,X,X,X,X,X:X,X,X,X,X5X5X8X0X0X0X0X6X9X9X9X9X9X0X0X9X9X9X9X9X0X0X0XqXqXqXmXmXvXvXvXbXbXMXMXMXMXMXMXMXMXqXa 9 a g g g g 0 9 9 = 9 g g g a 9 : 8 0 8 8 : : : : 0 d s d O.d O.O.f X.l.X.f d $.v.| +.k.@...k.v.l.$.v.b.v.b.v.b.z.h 0 f ..d z.b.z.z.l.!.nXnXnXnXnXnXnXnXnXnXnXnXnXnXnXnXnXnXnXnXcXcXcXvXxXxX-X}.i.i.y.` ` ` ` ` ` ` ` ` ` ` ` ` ` ` ` ` ` ` ` ` y.y.i.i.i.i.` y.i.S.D.S.i.i.i.y.i.y.R 4 6 6 < < 1 1 1 1 e t t x r 9 8 8 l r M N N N N N N x N N ; r b ",
"5X5X5X5X5X8X8X8X8X8X8X8X8X8X8X8X8X8X8X5X5X5X5X;X;X;X;X;X,X;X;X;X,X,X;X:X,X,X,X,X,X,X<X5X5X5X8X0X0X9X9X9X9X9X9X9X0X0X0X0X0X0X0X0X9X9XqXqXmXmXmXvXvXbXbXMXMXMXMXMXMXMXMXMXQ b b m g g a 9 a = 8 g g g g a 9 0 l a 8 : : : : 8 0 s g 9 h j O.@.h j j.j...f f k.j.f l.$.} k.v.$.#.v.v.v.v.v.b.z.j 0 d ..d z.v.z.z.l.x.uXnXnXnXnXnXnXnXnXnXnXnXnXnXnXnXbXnXcXcXcXxX9X5X-X.X|..X.X X|.J.S.y.` ` _ _ ` ` ` ` ` ` ` ` y.` ` y.i.` ` ` ` ` i.' _ _ D.S.S.S.S.i.y.` ! H 6 6 6 6 < < > > > > 6 6 6 < 1 1 1 ; e e N M V M N N N x M M 8 l b ",
"5X8X5X5X5X8X8X8X8X8X8X5X8X8X8X8X8X8X5X8X8X5X<X;X;X;X;X;X;X;X,X,X,X,X,X,X,X,X,X,X<X5X5X5X5X5X8X0X6X6X9X9X9X9X6X0X9X9X9X9X9X9X9X0XqX9XqXqXmXqXmXvXvXvXMXMXMXMXMXMXMXMXMXBXA.*.B g g g a 9 9 = a g j g g a 0 a b b 9 8 : : : 0 s h g 9 s h O.+.O.h f j.#...j } k.} @.l...z.v.X.#.v.v.v.v.v.v.z.j 0 f ..d #.v.l.z.k.x.&XbXnXnXnXnXbXnXnXnXnXnXbXnXcXcXvXcX9X5X-X$XXX|.|.J.L.L.S.D.|. X X X X|.S.i.y.` ` ` ` ` ` ` ` y.y.i.y.` ` _ ` y.y.H _ ) F ! i.i.` ! H t 6 6 6 6 6 < > $ 7 > < 6 6 6 6 6 < < > < 6 1 3 e r l N N M x M M 8 l b ",
";X<X5X5X5X8X5X8X5X8X5X5X8X8X8X8X8X8X8X5X8X5X5X;X;X;X;X;X;X5X;X;X,X,X,X,X,X,X,X,X<X<X5X5X5X5X8X0X9X9X9X9X9X9X9X9X9X0X0X9X9X0X0X9X9X9XqXqXqXmXmXvXvXvXMXMXMXMXMXMXMXMXNXNXoX*.C g g g a a : 0 g g j g g 9 0 g g m g 9 8 8 0 9 h h g 0 0 0 h @.@.O.j ..j.+.f f @.j.} k.#.z.j...o.b.v.v.v.v.v.b.h 0 f ..d #.v.l.z.z.l.B.bXnXnXnXnXnXnXnXnXnXnXcXcXxX5X-XXX|.|.L.L.L.L.L.L.S.y.y.L.S.L.L.L.L.S.L.J.J.J.J.i.S.S.i.y.` ` y.i.y.` ` ` ` ` H 4 * ) _ F A 4 6 6 6 6 6 6 6 6 > > > < 6 6 6 6 6 6 6 < > > < 6 6 6 < 6 1 1 1 3 e t l x 8 l b ",
"8X<X5X5X5X5X5X5X5X5X5X8X8X8X8X8X8X8X8X5X5X5X<X5X;X;X;X;X,X,X,X;X,X,X,X,X,X,X,X,X<X<X5X5X5X5X0X0X6X9X9X9X9X9X9X9X9X0X9X9X0X0X0XqXqX9XmXqXqXqXmXvXvXvXMXMXMXMXNXNXMXNXMXNX2XC g g g g a a = b g g j g a 0 a g h h m b 9 9 g h O.h a 0 9 0 0 d O.O.O.h ..j.@.} f j.$.o.k.l.....o.v.v.v.v.v.v.v.h 0 f ..d #.b.b.z.z.l.x.3XnXnXnXnXnXnXnXcXcXcX9X-XXX}.}.|.J.J.D.i.y.y.L. X X|. XJ.L.S.y.y.y.F. X X X XJ.J.J. X X X|.D.D.D.D.i.y.i.J.D.H 5 5 5 5 6 6 6 6 6 6 6 6 6 > < 6 6 6 6 6 6 6 6 > < 6 6 6 6 6 6 6 6 < < < < > > * * $ $ * 1 e ",
"<X,X<X5X5X5X5X5X8X8X5X8X8X8X8X8X8X8X8X5X5X<X<X;X,X,X;X,X<X<X;X;X,X,X,X,X,X,X,X,X<X,X,X5X5X5X8X0X6X9X9X9X9X9X9X9X0X0X0X0X0X9X0XqXqXqXqXmXmXrXvXvXvXvXMXMXMXNXNXNXNXNXNXNXfXm a g g a a 8 9 a g g j g 9 9 g j h m m b 9 d k +.@.j 9 g a 9 s 0 s j h O.j @.x.O.O.f x.j.j.+.} } o.l.v.v.v.v.v.b.d 0 f ..q o.b.v.z.z.k.l.!.bXnXnXcXcXcXxX9X5X-X.X|.}.D.D.S.S.i.y.S.i.L.J.L.S.S.S.S.i.S.J.J.J. XJ.i.i.S.i.J.oX X XJ.S.S.S.i.i.y.L.oXoXoX X_ 6 6 6 6 6 6 6 6 6 > 6 < 6 6 6 6 6 6 6 6 6 6 6 6 6 6 6 6 6 6 < 6 < 6 < 6 < < < < * $ # # # ",
",X,X<X;X5X5X5X5X8X8X5X8X8X8X8X8X8X8X8X5X5X5X5X<X,X,X,X;X,X,X;X;X,X,X,X,X,X,X,X,X<X5X,X5X5X5X8X9X9X9X9X9X9X9X9X9X9X0X0X0X0X9X9X0X0XqXmXmXmXqXqXvXvXvXMXMXMXMXMXNXNXNXNXNXNX~ a a g a a : a g g g g a a a g j h h m a s j @.j.@.j a h g g g q 0 0 0 a h f O.+.O.@.O.$.@.d } ..o.z.v.v.v.v.b.z.0 0 } ..q X.b.b.b.z.z.l.x.eXcXcX9X2X-X.X.X.X|.|.|.|.L.i.y.` i. X|.|.J.J.L.L.i.y.i.L. X|.J.J.L.S.F.L.J. X X X X|.J.L.y.` y.y.J.oXE.K.K.K. X|._ 4 6 6 6 6 6 6 6 6 6 6 6 6 6 6 6 6 > 6 6 6 6 6 6 6 6 6 6 < < 6 6 6 6 6 6 6 < < $ $ # # ",
",X,X5X,X5X5X5X8X8X8X5X5X8X8X8X8X8X8X8X5X5X5X5X<X<X,X;X;X<X;X,X;X,X,X,X,X,X,X5X5X,X5X5X5X5X5X8X9X9X9X9X9X9X9X9X9X9X0X0X0X9X9XqXqXqXmXqXmXvXqXqXvXvXvXMXMXMXMXMXMXNXNXNXNXNXp.a a a a 9 a a g g g g a a g g j h h n 9 s h $.j.@.d g k h h g g 9 0 9 g h h d d f ..O.d 0 j } ..o.z.v.v.v.v.b.h.0 0 } X.q X.b.v.b.z.z.k.l.W.}.) ) i.i.D.S.|.|. X|.|.|.|. X X XJ.S.i.i.i.i.L.J.K.K.J.L.L.S.i.S.L. X X XJ.J.J.J.S.i.y.y.` ~  XoXK.J.G.G.J.J.F.J.|.i.i._ I 4 6 6 6 6 6 6 6 6 6 6 6 6 6 6 6 6 6 6 6 6 6 6 6 6 6 6 6 6 6 < < < > $ $ # o ",
",X5X5X5X5X5X8X8X8X8X8X8X8X8X8X8X8X8X8X8X8X8X8X5X5X,X;X;X;X,X;X;X,X,X,X,X,X,X<X,X,X5X5X5X5X5X8X9X9X6X9X9X9X9X9X0X0X0X9X0X9X9XqXwXmXqXqXqXqXqXqXqXqXvXMXMXMXNXMXMXNXNXNXNXNXp.a a a a 0 a a a g g s a a g g h h h g 0 d O.j.h...h g O.h h g g g 9 g j h h j d f j.h 0 0 d f } X.z.v.v.v.v.v.k.0 0 } ..q X.b.v.b.z.z.z.l.x.R 4 F R R ) _ _ y.` i.J.J. X X X X X X X|. X X XJ.L.S.S.F.J. X X X X X XJ.L.S.y.i.i.` _ ~ J.oXoX X X X XG.F.y.S.K. X X X X X Xi._ R [ I A 6 < < 6 Z Z 6 6 Z 6 6 6 6 6 6 6 6 6 6 6 6 6 6 < > 7 $ # o . . ",
"5X,X,X5X5X8X8X8X0X8X8X8X8X8X8X8X8X8X8X8X5X5X5X<X5X;X;X;X;X;X;X<X,X,X,X,X,X,X,X,X,X,X,X5X5X8X8X9X9X9X9X9X9X9X9X9X0X0X9X0X0X0XqXqXqXqXmXmXqXqXqXqXqXfXMXMXMXMXNXNXNXNXNXNXNXp.a g a 9 9 g g g g a s g g g g h h h a 0 j +.h.o.f O.h +.O.k g g a g j h h j d j h h.O.q 0 d f } ..h.v.v.v.v.v.k.0 0 } ..d X.z.b.v.l.z.z.l.x.e.A A A J F J [ R J H ` i.i.S.J. X X X X X X XoX X XJ. XoXoXoXoXoX XJ.L.i.y.y.` ! ! Y i.#X@XOXoXoX X XJ.F.F.G. XoX X X XK.K.K.L. XoX X XoX|.` R F 6 < 6 6 6 6 6 6 6 6 6 6 6 6 6 6 6 < < > 7 $ + . O * 8 ",
"5X5X5X5X5X5X5X5X8X8X8X8X8X8X8X8X8X8X8X8X5X5X5X5X<X,X5X;X;X;X;X<X,X,X,X,X,X5X,X,X5X,X<X5X5X8X9X9X9X9X9X9X6X6X6X0X0X6X0X0X9X0X9X9XmXmXmXmXqXvXqXqXqXqXqXMXMXMXNXNXNXNXNXNXNXJ.a a a : a g g g a 9 g g g g g h h h 9 a h j.h.X.f O.h +.+.@.h h g h j h h j d h O.h.@.d 0 d f } ..h.v.v.v.v.v.h.0 q } X.d X.z.b.v.l.z.z.l.l.x.H A A A I [ [ [ [ I R R _ ` y.i.S.L.L.L.J.K. X X X X X X XP.K.G.F.S.i.` _ ! R _ S.oXoXJ.F.S.S.L.S.F.K.oXoXP.K.K.K.K.G.G.G.J.oXoX X X X X X X X X.XD.` R 5 < 6 6 6 6 6 6 6 6 6 < < > $ $ + # * w 9 8 8 ",
"5X5X5X8X,X,X5X8X8X8X8X8X8X8X8X0X8X8X8X0X5X8X8X5X<X5X5X;X5X;X;X;X,X,X,X,X,X,X,X,X5X5X5X5X8X8X9X9X9X9X9X9X9X0X9X9X0X0X9X0X9X9XqXqXqXqXqXqXqXqXqXqXqXfXfXMXMXMXNXNXNXNXNXNXNX*Xa a 8 0 a g g a 9 a g g g g h h j g 0 g O.j.j...f O.h j.+.@.O.O.h O.O.O.h j f f X.j.@.d q d f } ..h.v.v.v.v.v.h.0 q } ..d ..z.b.v.l.l.z.l.l.v.w.R R E G H I [ [ [ [ [ [ R I R ! _ y.y.y.i.S.L.J.G.J.J.G.L.i.i.y._ ~ ` ~ i.#X@XoX X XG.G.K.J.G.J.oXoXoXK.G.G.G.F.G.K. X X X X X XK.K.K.J.J. XoX X X X X|.i.I < < 6 6 6 < > < < > $ # + * e b 9 8 i 8 ",
"5X5X5X5X5X5X5X8X0X8X8X8X8X8X8X8X8XmX8X8X8X8X8X5X5X;X5X5X;X;X;X;X,X,X,X,X,X,X,X,X5X5X9X8X8X9X9X9X9X9X9X9X9X9X9X9X0X9X9X0X9X0X9XqXrXqXvXqXqXqXqXqXqXfXfXMXMXMXNXNXNXNXNXNXNXfX9 9 = 9 a a g a a g g g a g h j j g 0 j +.j.$.f f O.O.j.$.@.O.O.O.@.@.O.h f f } X.h.@.d q d f f ..#.v.v.v.v.v.h.0 q } X.d ..h.v.v.l.l.z.l.l.v.^.).).).).).s.u.E R R [ [ [ I I I I G R R ! ~ _ ` ` _ i.S.i.K.@X*X*X#X@XoXoXoX XK.G.F.S.oXOXoXoXoXoXoX XJ.L.F.F.K. XoX X X XK.K.J.L.G.J.J. X XoX X X XJ.J.J.|.|._ < < < > > 7 $ @ > l N T V r 8 r l r ",
",X,X5X5X5X5X8X5X8X8X8X0X0X0X0X8XmXmXmXmX8X8X8X5X5X5X5X<X;X;X,X,X<X<X<X<X,X,X,X,X,X5X5X5X8X9X9X9X6X9X9X9X9X9X9X9X0X9X9X9X9X9XwXqXqXqXqXqXvXqXqXqXfXfXfXMXfXfXNXNXNXNXNXNXNXfX9 8 8 9 a g a 9 g g a a g g g g g a a h #.j.@.f f h @.$.$.@.@.O.} +.@.O.h f } } X.h.X.d 0 d j f ..#.v.v.v.v.v.#.q d } X.d ..#.b.v.l.l.l.k.l.v.v.m.m./././././.).!.0.G J J J J J J J J F F F A 2 < G _ _ ! y.P.oXP. XP.oXoXoX X XK.K.K.oXoXoXoXK.K.J.F.L.K.oXoXoX X XK.K.K.J.F.F.K. X XP.K.K.K.J.G.F.G.F.S.S.i.` I @ @ @ @ @ 3 M T 7.6.r 8 = 8 b r 9 ",
"5X5X5X5X5X5X5X5X0X8X8X0X0X0X0X8X0X0XmX0X8X8X8X5X5X5X<X<X5X;X<X<X<X<X<X<X,X,X,X,X5X5X5X5X8X8X8X9X6X9X9X9X9XmX9X9X9X9X9X9X9X9XqXqXqXqXqXqXqXqXqXqXfXfXfXfXfXNXNXNXNXNXNXNXNX3X9 : 9 a a a a a g g a a g g j g g 0 j O.j.j...f j m $.j.j.X.@.@.@.+.@.O.f O.} } X.h.X.d q q j } ..#.v.b.v.v.v.o.q d } X.d ..#.b.v.v.l.l.l.k.v.v.n.m.m././././././.).).!.u.A A A Z Z Z Z Z A Z 4 2 R y.y.y.` ^ ! ^ F.P.K.G.G.G.F.G.K.oX X XK.K.K.G.F.K.oXoX X XK.K.K.K.G.J.G.G.P. X X X XK.K.G.L.F.S.i.y.` _ ! R G   + $ y T 6.*.*.V 8 : 8 r 9 g 9 b ",
",X5X5X8X5X5X8X8X0X8X0X0X0X0X0X0X0X0X0X0X0X8X8X5X<X<X;X;X5X5X5X5X5X<X<X<X<X<X5X5X<X5X<X5X5X8X8X0X9X6X9X9X9XmXmX9X9X9X9X9X9XqXwXrXqXqXqXqXqXqXfXfXfXfXfXfXfXfXNXNXNXNXNXNXNX3X0 = 9 b a a a a g a a g g g j n a 9 j +.j.+.f d -.h j.j.j.+.+...+.+.@...f O.} } X.h.X.d q s d f ..o.b.v.v.v.v.X.q d } X.d ..#.v.v.v.l.l.l.z.l.v.n./.m./.m.m.m.m.m././././.).!.a.9.G Z 6 < 6 H _ S.L.F.F.L.G.K.J.y.~ ~ ^ i.L.S.F.G.G.K. X X XK. XK.K.oXoXoXoX XK.K.G.G.K.oXoXoXoX X X XK.J.F.L.i.y.` _ ! R R G z t x N T 6.6.7.e = = : : 9 m n g 9 9 ",
",X5X5X5X8X8X8X8X0X0X0X0X9X0X0X0X0X0X0X0X0X8X8X5X<X<X;X;X;X5X5X<X5X<X<X<X<X<X5X5X<X<X<X5X5X8X9X9X9X9X9X9X9XmXmX9X9X9X9X9X9XwXqXmXqXqXqXqXfXfXfXfXfXfXfXfXfXfXNXNXNXNXNXNXNX3X0 : a b a a g a a a a a g g g n 9 9 h h.j...f f +.d j.k.k.#.j...$.+.@...O.O.f ..o.h.X.f q d d f ..X.z.v.v.v.v.o.q d } X.d } o.b.v.v.l.l.l.z.l.v.v.m././.m.m.m.2.m.m./././././.).).).B.0.p.i.L.F.F.V.i.y.y.i.i.S.L.J.L.i._ y.` i.P.P.P.P. X XoXoXoXoXoXoXoX X X XK.F. XoXoXoXoXoX X XJ.L.S.S.y._ ! ! R G z t x 6.e.6.7.7.%.V r = = = : i 9 m g 9 0 =.",
"5X5X5X5X5X0X0X0X0X0X0X0X0X0X0X0X0X0X0X0X0X8X8X5X<X<X;X;X;X;X;X<X<X<X<X<X<X5X<X<X<X<X<X5X5X5X8X9X9X9X9X9X9X9X9X9X9X9X9X9X9X9XmXrXrXqXqXqXfXfXfXfXfXfXfXfXfXfXfXfXfXfXfXfXfX&X0 8 b g a g a a a a a g g g j g 0 g ..z.o.f d ..$.j x.l.l.#.o...+.j.+.X.O...f ..o.h.X.f d q d f ..X.l.v.v.v.v.X.d d } X.d } X.b.v.v.l.l.l.l.l.v.v.n././././././.m.2.m.2.m.m.m.m./././.).).).!.!.!.!.!.u.^ ` y.S.L.J.J.L.S.L.J.F.S.J.P.oXoXOXoXoXoXoXoXOXoXoXoXoXoXoXoXoXoXoX X XJ.L.S.i.y.` _ R H H x x M B *.*.7.7.Q 8 e l e = = : : i 9 n g ;.)./.",
"5X5X5X5X5X0X5X0X0X0X0X0X0X0X0X0X0X0X0X0X0X8X8X5X<X<X5X<X;X;X;X<X5X<X<X<X5X8X5X5X<X<X5X<X5X8X8X8X9X9XmX9X9XmXmXmXmX9X9X9X9X9XqXqXrXqXqXfXfXfXfXfXfXfXfXfXfXfXfXfXgXgX).)./.m.q 9 n g b g a a a a a g g g g a 9 h #.h...f f o.j.j x.v.l.h.#...O.j.j.+.O.O...@.o.h.X.f d d d f ..X.l.v.v.v.v.#.f d f X.d } X.l.v.v.l.l.l.l.l.v.v.v.m./././././././././././.^.m.2.m.m././././.).).).).).).!.!.G.F.i.i.i.L.F.y.S.J.K.P. X XoXoXoXoXoX@XoXoXoX@X@X@X@XoXoX X XK.J.L.i.` _ ! R H z t x M T 6.%.%.*.V = O O e x e & = : = i 9 t.)./././.",
"5X5X5X5X5X0X5X0X0X0X0X9X9X9X0X0X0X0X0X0X0X0X0X8X5X5X5X5X,X,X<X<X<X5X8X8X8X8X5X5X5X5X5X5X5X8X9X9XmXmXmXmXmXxXvXvXmXmX9X9X9X9X9XqXqXqXqXfXfXfXfXfXfXfXfXfXfXgX).d.2.2.2.2.2.2.| 9 m g g a a a a a g g g g g 9 a h k.#.@.h f k.@.j l.v.l.z.h...O.h.j.+.+.O.O...o.j.X.f d d d f } o.z.b.v.v.v.h.} d f X.f } X.z.v.v.v.l.l.l.l.v.v.v.m.m././././././././.^.^.^.^.^.m.m.m.^.^././.m./././././.).).).!.y.y.y.y.L.J.J.K.K. XK. X XoXoXoX@X@X@X@XoX XoX@XoX@XoXoXK.J.i.` R R H z e e x Q 7.*.%.B r o o o o o * 3 ; & = = 8 t.)./././././.",
"5X5X5X5X5X0X5X0X0X0X0X9X9X9X9X9X0X0X0X0X0X0X8X8X<X5X5X<X5X5X<X<X<X<X5X5X8X8X5X5X5X5X5X5X5X8X9X9X9XmXmXxXvXxXxXvXmXmX9X9X9X9X9XqXqXqXfXfXfXfXfXfXfXfXgX!./.2.2.2.2.2.2.2.2.2.1.g m a a a a a a a g g g n g 9 j @.z.X.O.j @.l...j k.v.l.k.z.@.O.h.j.#.+.X.@...X.h.X.f d d d j f X.h.v.v.v.v.z...q f X.d } X.z.v.v.v.l.l.l.l.v.v.v.n.m././././.2./././.1.^.d.^.^././././././././.m.m.m.m.m.m.<.^.t.F.F.i.S.L.J.L.L.L.J.L.L.J. X XoXoXoXoXoX X X XoXoXoXoX XL.i._ R H z y l b B 6.7.*.V 8 o o o O o o O & = : : = = ;.(././././././.",
"5XpX5X5X5X5X0X0X0X9X9X9X0X0X0X9X9X0X0X0X0X0X8X5X5X8X5X5X5X<X;X<X<X<X5X5X<X<X8X5X5X5X<X5X8X5X9X9X9XmXxXxXvXxXxXxXmX9X9X9X9X9X9X9X9XqXqXs.gXfXgXgX)./.2.2.2.2.2.2.2.2.2.2.2.2.2.&.m 9 9 a a a a g m m g g a 0 h h.h.@.h j $.j.O.d h.l.v.l.k.@.O.j.h.h.#.$.+.+.o.h.X.f d d d d f X.h.v.v.v.v.v.@.d d ..f } X.h.v.v.v.l.l.l.l.b.v.v.n./././././././.^.n.n.n.^.^./././././././././.m.m.2.<.1.1.:.:.7.F.J.J.J. XK.K.K.L.i.i.L. X X X X XK. XJ.G.L.J.G.G.P.K.S.` ! R G y r V *.*.m %.m *.8 * & & O O * ; ; ; 8 8 8 8 8  .n././././././.",
"5X5X5X5X5X5X5X0X0X0X9X0X0X9X9X9X9XmXmX0X0X8X8X8X5X5X5X5X5X5X;X;X<X<X5X5X<X5X5X8X8X8X5X8X5X5X9X8XmXmXmXxXxXxXxXxXmX9X9X9X9X9X9X5X;XXXi.5.:.t.d.2.2.2.2.2.2.2.2.2.2.2.,.2.,.2.2.;.g 9 9 a a a g C h h g g 9 a O.h.o.@.j f j.j.f f #.v.v.l.k.O.} j.#.#.o.$.j.#.#.h.X.f j d d d f ..h.v.v.v.v.v.o.d d ..f } X.#.v.v.v.l.l.l.l.b.v.v.v.m./.^.^.^.^.^.^.m././././././././././././.m.m.2.1.1.1.:.7.u.G.F.L.L.J.|.K. X X XoXoXoXoX XK.K.J.L.L.S.i.y.` _ _ R R ! R H x l V 6.8.7.7.B *.8.6.r ; & & * ; w w e e w w w w 9 $.>.n./././.m.m.",
"5X5X5X5X5X5X5X0X0X0X9X9XqX9X9X9X9X9X9X9X0X0X0X8X8X8X5X5X<X;X;X<X<X<X<X<X8X8X5X8X8X<X<X8X8X8X8X8XmXmXmXmXxXxXxX9X9X6X6X8X5X-XXX}.}.D.S.i.a.t.3.>.,.,.2.2.2.2.2.2.2.2.2.2.2.2.2.;.a a a a g g m -.j g g g 9 g +.h.X.O.d } j.j.h f h.l.v.v.l.O.} j.#.j.$.j.o.#.h.#...} d d d d f ..j.v.v.v.v.v.z.j d ..f } X.#.b.v.v.l.l.l.l.l.l.v.v.n.m.^.^.^.^.n.n./././././././.m./.m.m.m.2.1.1.1.:.q q *.K.G.J.K.J.L.i.i.L. X X X X X X X XJ.F.S.S.i.y.` _ R R R H H H G x B %.7.8.*.%.7.w.B.r.V w O * ; ; 8 ; w e e e e r r b $.>.>.m././.m.m.",
"5X5X0X0X0X5X0X0X0X0X9XqXqXqX9X9X9X9X9XqX0X0X8X8X8X8X<X<X;X;X<X<X<X<X<X<X8X8X8X8X<X8X<X8X8X8X8X8X9XmXmXmXmXmX9X9X6X1X-XXXD.i.i.i.i.i.i.i.i.a.r.1.,.,.<.2.2.2.2.2.2.2.2.2.2.2.2.;.g a a g g k -.-.h m g 9 9 h $.+.O.h d O.k.+.h f h.l.v.v.k.O.f $.j.j.j.j.o.h.h.o.X...j j d d f ..j.v.v.v.v.v.b.f d ..f ..X.#.l.v.v.l.l.l.l.l.l.v.v.n.n.^.^.m./././././././.m./.m.m.2.<.1.1.3.:.:.&.0 r 9 :.u.L.L.L.J.|. X|. X X X X|.J. X XJ.L.S.i.' ) ! R I R F t - t M 9.8.0.8.V r 7.7.e.7.B 7.Q l 1 ; w w 1 1 w w e l b V B B &.>.>.>.m./.m.m.",
"5X5X0X0X0X0X0X0X0X0XqXqXqXmXmXmXqX9X9X9X9X0X8X8X8X5X<X<X<X;X;X<X<X5X5X8X8X8X8X8X<X<X<X<X5X5X8X8X8X9XmXmX8X5X-XXX}.i.' i.S.D.S.i.y.y.i.i.i.L.L.Y.r.d.1.,.<.2.,.2.2.2.2.2.2.,.2.;.g a g m k -.-.O.h g a a g O.$.@.O.j j +.k...j O.h.l.v.v.k.O.f +.j.j.k.j.#.j.h.o.X...f j d d j f $.v.v.v.v.b.b...d } d ..X.o.l.v.l.l.l.z.l.l.l.v.v.n.n.n.^.m./././././.m.m.m.m.<.1.1.3.:.:.:.| q u B %.m :.0.i.i.S.J.F.S.S.L.J.J.J.J.L.S.i.D.i._ ) ) R H G 1 z t x N T 7.8.w.B 8 = 8 7.%.*.%.*.6.w w w w e e e e e r b V B B V B V j >.3.3.m.m.m.",
"5X0X0X0X0X0X0X0XqX0XqXqXqXqXmXmXqXqX9X9X9X0X0X8X8X<X5X5X<X;X<X<X<X<X5X8X5X5X8X<X<X<X<X<X<X8X8X8X8X<X,X-XXX'.i.i.i.S.i.i.i.i.i.i.i._ ` i.S.S.L.L.G.H.a.a.t.1.>.,.,.<.2.2.,.,.,.;.g a n C O.C k C h g a 9 h @.@.O.O.d j +.k...d ..j.l.v.v.#.O.f +.j.j.k.k.z.h.#.X.X...f j d d j f +.l.v.v.b.b.v.X.d } d ..X.o.k.v.v.l.l.l.l.l.l.v.v.n.n.1.n.m././.m.m.m.m.2.2.1.1.:.:.:.:.u 0 r T 0.0.%.7.n 4.y.y.S.J.J.J.J.J.L.S.S.S.S.i.) ) ) I H G F e 1 1 3 x Q w.8.9.b : 8 b g b 6.%.m *.7.*.w w w e 8 e r r b V *.%.B *.6.6.b & | >. . .m.m.",
"0X0X0X0X0X0X0X0XqXqXqXqXqXqXqXqXqXqXqX9X9X0X0X8X8X5X5X<X,X;X;X;X,X<X<X5X<X<X<X<X<X<X<X<X<X,X,X:X>X}.'.i.i.i.i.' i.i.i.i.i.S.S.S.S.i.i.i.i.i.i.S.F.i.i.F.H.a.t.d.1.,.,.,.,.,.3.;.a a m C -.j -.h h a 9 g O.+.@.O.h d f k.j.} q @.h.v.v.v.$.O.f o.j.j.k.z.h.h.o.X.o...} h j d j f o.z.v.v.l.b.v.#.d } d } X.o.z.v.v.l.l.l.l.v.v.v.v.n.n.m.m.m.m./.m.2.<.<.1.:.:.:.:.&.q 9 M 6.w.8.7.%.7.%.u 4.u.L.L.L.L.J.L.L.S.S.i.i.` ) R G G z t t x x N T y z w.T r & = = 0 &.*.=.%.*.7.8.b *.w w 8 e r l b B *.B B 7.7.6.V 8 = & & | 3. . .>.",
"0X0X0X0X0X0XqX0X0X0XqXqXqXqXqXqXqXqXqX9X9X0X0X8X<X<X<X<X,X;X;X;X,X,X<X<X<X<X<X<X<X<X:X:X>XXX}.' ' i.i.i.i.i.i.` ` ` i.D.S.S.S.S.D.L.S.D.|.i.` y.i.i.J.|.T.K.T.!.!.s.d.>.,.3.:.&.g g m k j O.-.g g s 0 h O.+.O.O.j d o.k.$.f 0 +.z.l.v.v.+.@.f o.h.h.k.z.h.#.o.o.X...O.h g d d f o.z.v.v.k.z.b.#.d } d ..X.o.h.l.v.l.l.z.l.l.l.v.v.v.n./.m.m.m.m.1.<.1.:.:.:.&.n 8 r V 6.7.w.r.8.%.6.*.B n 9.9.S.S.S.S.S.i.i.i.i.' ) R R F t t x x M B 9.6.6.Y t e O & = = = 9 &.*.8.*.*.7.m 7.*.8 e r M M V Q B %.7.8.8.B 8 = : = O & =  . . . .",
"0X0X0X0X0X0X0X0XqXqXqXqXqXqXqXqXqXqXqXmX9X0X0X8X5X,X;X;X;X;X;X;X;X;X;X,X<X;X;X:X:X>X}.i.' ` ` ` ` ` y.i.i.i.S.i.` ` ` _ ` y.y.i.i.i.i.S.L.|.D.D.L.J.S.i.L.G.J.J.|.E.E.!.!.d.d.6.a j h h j -.h g s 0 s O.@.@.O.h d j j.l.X.j 0 j.l.v.v.l.+.@.f X.#.h.l.l.z.h.#.o.o.@.O.h j j f f o.l.v.v.k.#.b.h.d f d ..o.X.#.z.v.l.l.z.l.l.l.v.v.v.n.m./.m.<.1.3.1.:.:.&.u r N 9.6.6.0.0.8.*.%.B 6.%.B n 4.5._ y.i.i.i.i.` ` ! R R G z t x M B 9.w.6.8.0.Y * z 1 & = = = = 9 *.*.7.%.%.7.%.=.*.l b V B B B 6.8.w.w.B ; & = : : ; O & & =  . . .",
"0X0X0X0XqXqX0XqX0XqXqXqXqXqXqXqXqXqXqXmX9X0X0X5X5X;X;X;X;X;X;X;X;X;X:X:X:X>X>X_.' ' y.y.i.y.` ` ` ` i.i.i.D.S.i.S.D.D.S.y._ ` ` ` y.S.D.L.L.L.|.|.|. X|.i.i.L.J.K. XoXoXoXoXOXw.g g k j -.-.j g 0 0 h O.@.O.O.j d O.k.k...d 0 #.k.l.v.l.+.O.f X.h.k.l.l.k.h.#.o.X.@.O.h j j j f X.k.v.v.l.X.v.#.f d d } X.o.o.h.z.l.v.z.z.l.l.v.v.v.n.;.:.1.:.:.{ { | 9 M T w.w.8.w.w.T M n m %.B *.*.6.u T T ! ! _ ` ` ' _ ! R G x x x N 6.w.r.r.r.9.N O X X t 3 & & = = : 9 *.*.7.b %.n 7.8.7.6.e.7.*.*.8.w.w.T ; & O & = = : ; O O & O :  . .",
"0X0XqXqXqXqXqXqXqXqXqXqXqXqXqXqXqXqXqXqX0XqX0X5X,X;X:X:X:X;X;X;X:X-X>X}.' ` ' ' ` i.i.y.i.i.y._ ` y.i.i.y.i.i.i.i.i.i.S.D.S.` _ y.S.S.S.L.D.S.S.L.J.J. X Xi.J. X X X XJ.G.K.G.q.g h O.k -.h g a 0 h -.O.O.O.h q j +.k.z...d d o.h.l.v.k.@...f X.h.k.l.l.z.h.#.o.X.@.O.h h j j f ..h.v.v.l...b.h.} d d ..X.#.o.#.h.l.v.l.l.l.l.v.v.v.v.v.:.:.&.q q 9 :.6.w.w.w.w.9.N = & r B B 6.*.7.8.7.r M M Y ! ) _ ) ) ! R t x x M 6.w.8.8.r.9.e X X X X X 1 < O & & = = 9 *.=.8.8.8.7.8.=.8.7.*.*.8.8.w.T - O o O o & = = = = O O & & o = q ",
"qXqXqXqXqXqXqXqXqXqXqXqXqXqXqXqXqXqXqXqXqXqX0X5X,X,X:X:X:X:X:X>X[._.' ` ` ` ` ` y.i.i.i.i.D.D.i.S.S.i.y.y.y.y.y.y.y.i.S.D.D.D.L.D.S.i.` i.i.i.S.L.|. X X X X XJ.J.L.D.i.i.y.y.6.g C h -.-.g g 9 g -.f O.O.O.d d h j.l.z.} 0 f #.h.l.l.k.@...f o.j.k.l.z.h.h.#.o.X.@.O.h h h f h f o.v.v.v...v.z...d d ..o.#.o.#.h.z.l.l.l.l.l.v.v.v.v.x.&.r 8 r { 4.=.8.w.0.T r = : 8 r b 7.r.7.r.8.7.8.n u b t R ! R R ! G t x Y w.Y.r.8.r.6.w o X o X X X * 1 w : = & & = 9 &.=.8.7.8.8.8.7.%.7.8.8.w.T ; o O O O O O & & & = & O & & & o & 8 ",
"qXqXqXqXqXqXqXqXqXqXqXqXqXqXqXfXfXfXfXgX=X=X=XpX;X;X;X:X:X>X[._.] _ _ _ _ ` ` y.y.i.i.i.i.i.i.S.i.S.L.S.` ` ` ` y.S.D.D.D.D.D.D.L.J.|.L.` ` y.S.L.J.|.|.|.J.J.L.i.i.S.y._ ! E B h O.O.-.h g g 0 j -.O.O.O.h q d X.z.z.h.f 0 @.#.h.k.k.$.O...f o.j.k.l.z.h.h.o.o.X.@.@.h f h h h f ..v.v.v.O.v.b.X.d d ..o.o.o.#.h.z.l.l.l.z.l.v.v.v.v.v.-.V B 6.{ 7.B 7.M ; = = : i 9 %.%.8.7.7.*.*.*.=.u u b * z G R H G 1 y 9.w.Y.r.w.V ; ; * O & O o * 1 e 3 e r r e e e 9 n =.8.8.8.*.*.7.8.8.w.E - & ; ; - * & = = & & = & & & & & * O & : ",
"qXqXqXqXqXqXqXqXqXqXqXqXqXfX3XgX!.s.d.d.d.d.d.^.!.+X#X>X[._.] ) R ! ! ~ ~ _ _ ` ` ` ` p.y.i.i.S.i.S.L.L.S.~ _ y.y.y.i.i.S.S.S.D.D.J.|.|.D.` i.S.L.J.|.J.J.J.J.S.G.F.i.` ! F G N -.-.-.O.j g 9 g -.O.O.O.O.d d f o.z.l.o.d 0 $.#.k.k.k.+.O.....h.h.l.l.z.h.h.o.o.o.@.@.h j f h f f ..v.v.v.O.v.v.o.d d ..o.o.o.o.#.h.l.l.l.l.l.l.v.v.v.v.x.8.7.7.&.T w y * = : : i 8 9 m %.8.7.*.*.0.%.7.b b 9 * < z x Y 9.y.T.6.8.9.b ; ; w e 1 & O - w e e e e r r r r b V B 7.t.8.6.*.7.8.8.8.Y - - 3 t e 1 ; ; ; ; ; ; ; ; ; ; & & & = & & w ",
"qXqXqXqXqXqXqXqXqXqX3X3X&X!.d.d.1.1.1.1.1.1.<.2.d.d.d.!.u.) G H H Y Y R ! ! ~ ! ~ ~ ~ _ p.y.i.i.i.L.L.L.J.J.L.L.y.` y.y.i.i.S.D.|.J.|.|..X.X|. X XJ.J. XG.G.G.F.S.y._ I J I I T -.-.m m a 9 0 h -.f O.O.h 0 j ..j.z.z.X.d g #.k.j.$.k.@.O.....o.h.l.z.h.h.#.o.X.o.+.@.O.h h h f f ..v.v.v.| v.v.h.d d ..o.#.o.o.#.h.z.k.l.l.k.l.v.v.N.v.N.t.B r u r r B T = : : i i 9 m *.8.7.7.8.8.8.%.V n 9 = e M 9.w.Y.Y.6.B B 6.Q y l r ; O * ; e e e e w 3 y r b V %.*.7.7.*.6.r.8.8.7.7.m t z z t e 1 ; ; 8 w e r e e 9 8 : O & & = & = e ",
"qXqXqXqXqXqXqXfX3X#Xs.d.d.<.<.<.,.,.1.1.1.1.1.1.1.1.1.1.d.d.t.u y t y G Y R R R R ! _ ~ ~ _ p.y.y.i.L.L.L.J.J.J.|.S.` ` ` i.D.|..X|.L.J.|..X.X XK.K.K.P. Xy.i._ R U J J J J J T C n g g a 9 a -.O.h O.O.d d h +.l.b.z.X.0 O.#.k.j.j.$.O.......#.z.z.z.h.h.h.o.o.o.+.@.O.h h f f h @.v.v.v.@.v.v.z.f q } o.o.o.o.h.#.#.j.k.k.z.l.v.v.v.v.v.-.9 e 9 r : n e = : : i 8 r %.*.t.7.6.8.r.7.7.B &.q = 8 b 0.r.w.6.6.6.7.B.*.M w & ; w e w w w w e e 3 l M B *.*.7.6.*.w.Y.B.7.*.r.7.V v t z e 3 e e e e e e e e l l M y O & & * O ; r ",
"qXqXqXqXqX3X=X!.d.1.1.,.<.<.<.<.,.>.3.3.1.1.1.1.<.1.<.<.2.2.2.d.V ; w w x x G G Y ! ! ! ~ ~ _ ` y.i.S.L.L.J.J.|.|.|.L.i.S.J.J.|. X XJ.S.S.G.J.G. XK.K.V.y.) J J J J J J J J J E m a m a 9 0 C O.h k k h 0 k ..j.l.z.z.o.0 +.k.k.j.x.+...O...X.h.l.l.z.h.h.j.#.#.#.+.+.@.k h j f } +.v.v.v.+.v.b.z.f q } o.o.X.o.#.j.#.o.h.z.z.l.l.v.v.v.v.+.b = : w = &.= = = : i 8 9 *.*.8.8.6.6.*.8.6.V &.n & : b b V B 6.0.6.*.M : * ; w w w w w w 8 8 w y e M %.6.6.*.*.w.B.Y.r.6.*.e.6.m T v 1 1 e e e e e e e e r M T T M y O & & * O ; y ",
"3XfX3X#Xs.t.1.1.1.,.<.<.<.<.<.<.<.,.3.3.:.:.1.1.,.1.<.<.<.<.2.2.2.t.8 & - 1 t x G Y R ! ~ ~ _ _ y.i.i.S.L.J.L.J.J.|.|.|.|. X.X.X XJ.K.K.S.F.S.` ) R I J J J J J J J J J J J J Y m m m a 9 a O.O.h h h d h O.+.k.l.l.v.j.d o.#.k.k.j.@.O.....o.k.v.l.k.h.k.j.j.j.j.#.o.O.O.h j f O.j.v.v.v.o.b.b.z.f d ..o.X.X.o.o.k.h.o.#.h.k.l.l.v.v.v.v.N.c.8 = r = n & = = : : i 9 *.*.t.r.w.8.7.8.6.V u q & = 9 0 6.w.w.6.*.Y.e l y e w w w w w e y x r l z 0.7.*.6.8.w.Y.w.B 7.e.B 7.*.7.B w e e e e e e r e e l B Q N N Y e O & O * O ; l ",
"!.s.d.1.1.1.>.>.1.,.,.,.,.,.<.<.,.,.1.1.1.1.>.,.1.1.<.<.<.<.2.2.2.2.d.=.w O ; e t x E R ~ ~ R ~ _ y.i.i.i.S.F.L.L.J.D.D.J.J.J.J.L.G.J.L.i.R F J J J J J J J J J J J A A A A A Y C C g a 0 m -.O.h k j d @.O.$.z.v.v.v.j.h k.o.o.+.$.@.....X.X.k.v.l.+.o.l.k.j.j.j.j.o.@.O.h h f ..z.v.v.v.o.v.v.z.} d ..o.X.o.o.o.k.j.o.#.h.k.k.l.v.v.v.v.N.x.m i u 8 r : : : = = 8 9 *.=.t.r.7.8.r.7.7.4.i u & = 9 8 T 6.V 6.7.7.M r r e r r e r l l l B 6.T t M e.r.B.B.7.l & ; 6.*.%.7.*.*.B e e e r r e r w e N Q T Y Y R Y x & O & & O w c ",
"2.<.<.<.>.1.<.1.<.,.>.,.,.<.<.<.,.,.1.1.1.<.<.,.>.,.<.1.1.<.<.2.2.2.2.m./.7.V ; ; 1 x Y R R R ! _ ` y.y.i.i.i.S.S.S.S.i.i.i.S.S.S.i._ U J J J J J J J J J J J J J J J A Z A J E -.%.a 0 0 %.m &.h h q O...X.h.z.l.l.l...@.l.l.j.$.+.@.....o...X.l.l.o.o.k.k.k.j.j.$.o.O.O.f f f o.z.v.v.v.#.v.v.b...d ..o.X.X.X.o.k.h.o.o.#.k.z.l.v.v.v.v.N.N.-.r V r u 8 8 8 8 9 e r n m 8.7.r.r.r.r.7.B 0 n = 8 r V 6.7.9 V r.7.x r r r r r M N N B Q w.7.B N t w.Y.w.l = : 9 V 6.*.7.7.7.7.B e e e r e w r M T T Y Y Y Y Y Y t & & & * O z ~ ",
"2.<.<.<.<.>. .3.>.>.1.1.<.<.<.<.1.<.<.<.<.<.2.<.3.>.>.>.,.,.<.<.2.<.2.2.2.2./.d.7.b : y x x Y R ! ~ ` y.y.y.y.y.y.y.i.y.i.i.i._ I A J J J J J J J J J J J J J J J J / J J A A Y -.m q q g n d m m g j @...o.h.z.l.l.j.f +.k.l.k.j.j.j.@.@.o.X...j.j.X.X.j.l.k.k.j.o.X...h f f O.j.l.v.v.v.#.v.b.b...d ..X.X.X.X.X.j.#.o.X.h.h.h.k.l.v.v.v.N.N.x.l N r b w e r r l b V 6.r.8.r.r.r.B.r.*.n 9 n 9 9 B *.*.7.6.B r.6.l r r l M V B T w.w.6.B 6.w.0.u.Q l & = = : b %.*.7.*.*.7.*.B e e e e e l N T E E Y Y Y Y R R t & & & * & G y.",
"3.1.<.<.<.<.1.3.3.3.3.1.<.<.<.<.<.<.<.<.<.2.2.<.<.<.2.2.<.,.,.,.<.<.2.2.2.2.2.2.2./.^.7.w w y G Y R ! ~ _ ` y.y.y.y.y.i.` R F A A A A J A J J J J J J A A A A J J J J J J J I E -.m a m g s C h h q -.O.X.#.z.z.l.k.@.d j.l.v.l.j.j.j.j.+.o.h.#.j.o.X.o.k.k.k.k.j.$.X...f f f @.j.z.v.v.v.#.b.b.b.f d ..o.o.X...o.h.#.o.X.#.#.h.h.l.b.v.v.v.N.x.N w e B r r M M V V e.8.8.r.B.Y.r.8.8.b b 8 q V b b 6.6.%.6.V %.8.l r M B B Q 9.w.e.6.8.r.w.w.Y l O = = : : : b m *.6.e.6.*.*.B e e e l N Y E R Y Y Y R R R R R t & O O * & ! H.",
"3.1.1.1.1.1.1.1.<.<.1. .3.,.<.<.2.2.2.<.<.2.2.2.2.2.2.2.2.<.>.,.,.<.2.2.2.2.2.2.2.2.2.m.^.7.r e y x c R ! ~ ` y.i.i.y.! F A Z A Z A A A A A A A A J A Z Z A J J J J J J J J J G C n n 9 s d -.j j h O...@.h.z.l.l.j.} d j.v.v.l.k.k.j.k.j.j.j.j.o.o.X.$.k.l.k.j.j.j.o.O.f f ..o.k.z.v.v.v.h.b.b.z.d d X.o.X.X...X.#.o.o.o.#.#.#.h.z.z.l.v.v.N.x.e < < e r b V B V %.8.B.!.!.a.7.8.=.8.r & = q %.B B r.w.8.r.w.7.B.l V V 6.w.w.6.6.w.B.Y.Y.Q e $ X o = = = : = 9 m *.7.m 6.7.*.B r l M E Y Y Y Y Y Y Y R Y Y Y Y t & & & * - ^ R.",
"1.1.1.1.1.1.1.1.1.<.2.2.3. .>.,.<.<.<.2.<.<.<.2.2.2.2.2.2.2.,.>.<.2.2.2.2.2.2.2.2.2.2.2.2.2./.t.u w e x Y ! _ _ ! ! F 6 Z Z Z Z Z Z Z Z Z Z A A A A J J J J J J J J J J J J J H C g 0 0 d h O.j s O.O.....h.z.l.k...O.d k.v.v.l.x.x.x.o.j.j.j.#.#.#.o.k.x.x.k.j.j.j.+.O.f f O.+.j.b.v.v.v.h.b.b.h.d f X.o.X.X...X.o.o.o.#.#.#.#.h.z.z.z.v.v.N.*.> > > < 8 B *.%.=.r.!.!.a.B i n %.*.*.= & = q &.V 7.%.6.w.7.8.r.r.w.w.w.w.0.0.w.Y.Y.Y.9.3 X $ < . O = = = = = 9 m m 7.*.7.6.B b N Y Y Y Y Y Y H R H Y R R Y Y ~ G & & & ; 3 y.E.",
"1.1.1.1.:.3.1.1.1.<.2.2.2.1.1.,.,.,.,.<.<.<.<.<.<.2.2.2.2.2.2.2.2.2.2.2.2.2.2.2.2.2.2.<.<.<.,.1.&.1 R i. X#X#X#X Xi.H > < 6 6 6 6 6 Z Z Z Z Z A A J J J J J J J J A A A A J J R m a s 0 h -.-.g k O.O.f ..h.l.l.$...O.d l.l.l.l.l.x.+.$.j.j.#.$.j.j.j.k.x.l.k.k.j.j.j.@.h f @.$.l.b.v.v.l.h.b.b.#.d f o.o.o.o.X.X.X.o.o.o.o.o.o.h.z.b.b.v.v.c.- > > > > e *.8.B.B.Y.w.M i 0 8 8 r 7.*.; = = q &.B 8.8.4.6.r.B.B.r.w.w.7.w.!.!.Y.A.Q - o # O $ - O O & & & = = l B *.*.6.B b N T Y Y R Y Y Y R Y Y H Y Y R ^ y.V.Y & & & 1 t y.Q.",
"1.1.1.1.3. .3.1.1.<.1.<.<.2.2.2.2.2.<.>.,.,.,.,.<.<.<.<.<.2.<.<.<.2.<.<.2.2.2.<.<.,.,.,.3. .:.0.u.oXoXoXoXoXoXOX@X#X*X|.G < 6 6 6 6 Z Z Z Z Z Z Z A A A A A A J J J A A A A J R m g 9 d -.O.j g O.O.O.d X.z.l.k.X...O.j l.l.l.l.k.$.j.j.j.j.j.j.j.j.k.k.l.k.j.k.k.j.j.@.h ..+.o.l.v.b.v.l.z.b.z.X.d } o.o.o.o.o...X.o.X.o.#.#.h.l.z.b.b.v.l.a > * * > < w 6.r.Y.6.r i 0 i 0 0 0 9 *.7.; & = 0 n %.8.r.8.r.B.B.8.7.6.w.Y.!.!.Y.Q 1 < - - * * O 1 e e 1 ; & & = r V %.B B B T Y Y R R R Y Y Y R H H Y R y.C.R.I.E.Y & & & 3 t y.E.",
"1.1.1.1.3.3.:.:.:.1.1.1.1.<.<.<.2.2.2.2.>.>.,.,.<.<.<.,.<.<.<.<.<.<.<.,.<.<.<.,.,.3. .{ &.u.T. X X X X X X X XoX X XoX@X*X}.A 6 6 6 6 6 Z Z 6 A J A A A J A A A A J A Z Z A A G C h s m -.k d O.O.O.h d o.k.l.#...O.h +.l.k.l.l.v.$.j.$.#.j.k.k.k.k.k.k.k.k.k.k.k.k.j.+.O...X.$.l.b.b.v.z.z.b.z.X.f ..o.o.X.o.X...X.o.h.h.j.j.h.k.l.b.v.n.C * $ $ > > > < B T = i 0 0 0 0 9 9 9 u *.*.; o & = r V 8.r.Y.w.7.6.6.7.w.Y.!.Y.~ 4 t G H G e 1 e x l r e e e e e e r B B T T E Y Y Y R R R R R R R R R ^ C.E.R.R.E.Q.R & & & 3 t y.E.",
"1.1.<.<.1.:.:.| :.1.1.1.1.,.,.<.<.2.2.2.<.,.<.>.,.<.<.<.<.<.<.,.<.<.<.,.,.>.>. . .| %.a.T.J.J.J.J.J.J.J.L.F.L.L.L.L.S.F.K.oX#X' 5 6 A J A A J J J A A A A J J J J J J / J J J F m s g c.O.h O.O...h d j #.l.k.X...j -.j.k.k.l.l.l.j.$.o.#.j.k.k.k.k.k.k.k.k.k.l.k.k.j.j.+...X.j.l.b.b.b.z.z.b.b.#.} X.o.o.o.X.o.o.X.#.h.h.k.j.j.l.l.v.c.v $ 7 $ * > > > < 1 e = 8 0 0 0 0 9 9 0 r *.6.1 o & & e 4.w.T T T 6.6.w.r.Y.A.Y 3 4 G H G x t e v y w e r e e e e x N T T T T R R R R R R Y R R Y R R ~ C.R.R.R.R.R.R.E.Y & & & 3 z V.Q.",
"1.1.1.1.1.1.1.;.:.{ 3.>.>.,.,.<.2.2.2.2.2.<.<.2.<.<.<.<.,.<.<.,.,.,.3.3.3. . .:.0.a.K.L.F.F.F.F.L.J.G.L.i.y.y.` ~ i.K.oXoXOX@X#X#XD.R J Z A J J A A J J J J J J J J J J J J J G m h -.c.-.O.@.@...j d } #.l.#.@.f O.x.#.$.#.k.l.k.k.j.$.#.j.k.k.k.k.k.k.k.k.k.k.k.k.j.k.j.+.o.k.l.b.b.l.z.b.b.b.z.X.o.#.#.h.o.o.$.X.o.#.#.k.k.k.k.x.-.# $ $ $ > > > * > > 1 1 = 8 0 0 0 0 0 9 0 r *.6.x 3 * * r V M T T 9.Y.Y.!.Y.6.1 4 F H H G v e t l l x l v r r r l T T T B Y R R R R R R Y Y R R R R ! y.I.W.Q.Q.Q.E.Q.Q.E.R & & & 3 t V.+X",
"1.1.1.1.1.1.1.1.1.:.{ >.3.>.,.<.<.<.2.2.2.2.<.,.2.,.<.<.,.,.,.,.3. . . .1.:.r.a.F.S.i.i.y.y.y.i.i.i.i.i.y.~ R _ L.G.J.J.K.K. XoXOX@X#Xi.F F A A A J J J J A J J J J J J J J J G N k c.-.-.-...O.h d d ..j.j.X.f d x.j.o.j.k.k.l.k.k.x.x.j.j.j.k.k.k.j.k.k.k.k.k.k.k.k.j.j.j.k.l.l.l.l.l.z.b.b.v.b.h...#.#.h.o.o.$.o.h.#.o.j.j.x.x.B $ $ > > > > > $ > * * < < ; 8 8 i i 0 0 0 8 r %.*.T T 1 x E Q 6.9.w.Y.Y.B.w.8.9.z G G x v e e e v y y r y r l M T 9.6.T E Q ! R R R R R R R Y R R ~ y.H.E.E.Q.W.W.Q.W.Q.W.Q.Y & & * 3 t V.+X",
"1.1.1.1.1.1.<.<.<.1. .{  . .3.<.1.<.<.2.2.2.2.2.<.1.>.,.>.3.3.3.3.1.:.7.0.G.G.S.y.i.y.y.y.y.y.y.i.S.J. XL.i.L.i.y.i.F.L.G.J. X XoXOX#X%X*Xi.t 5 Z A A Z A Z A A A A A J J J J F B -.-.@.-...@.O.j d j @.j.o.X.j f k.j.o.#.h.k.k.j.k.x.x.k.j.j.j.j.j.j.j.j.j.j.k.j.k.j.h.h.j.k.z.z.z.l.z.#.b.v.v.v.z.X.o.h.#.#.#.o.o.j.h.+.-.*.V * $ $ $ > > > > * * > * > > < t M b r 9 9 8 8 i 9 %.7.6.r w : r l 9.Y.Y.r.w.w.w.w.Q G z e e e e e y l y y r r M B Q w.q.~ ! ! R R ! R R R R R R R ~ y.G.E.Q.Q.W.Q.Q.W.W.W.Q.Q.Q.H * & * 3 t F.+X",
"1.1.1.1.1.1.<.2.2.2.1.:.{ {  . .1.<.,.<.2.<.<.,.,.1. .3.3. .:.t.0.9.u.F.i.i.y.i.` _ _ ` y.` y.i.S.L.L.L.K. X XoXoXS.i.S.F.G.K. X X X XoXoX#X@X[ < 6 Z Z Z Z Z A A A A A A J A F Q O.O.h k ..@.| g j j @.j.$...O.f l.$.o.$.k.j.j.j.j.j.j.k.j.j.j.j.j.#.#.#.#.j.j.j.h.h.h.h.j.k.z.z.z.l.z.h.b.v.v.v.z.X.o.j.o.#.$.@.+.c.C 3 $ $ $ $ $ $ $ $ $ * > 7 $ > > > > * w M M V b M V B 6.6.w.B r e y N 9 r Q Y.w.B 6.w.w.w.e e e e e e y r y y y r l T 9.6.9.~ ~ ! ! ! ! R ! R R R R R ! y.H.H.W.Q.Q.R.E.Q.Q.Q.Q.W.Q.Q.+XG * * & 3 t G.Q.",
"1.1.1.1.1.<.2.2.,.,.2.2.<.1.:.:.,.>.>.>.,.<.<.1. .{  .:.t.0.u.i.i.y.` ` y.y.y.y.i.` ~ ^ ~ y.i.i.i.F.L.L.L.L.J.K. XoXL.y.i.F.G.J.J. X XoXoX@X#X*X.X_ > 6 6 Z Z Z Z Z Z A A A A A Q h C h f ..X.h d d j +.x.$.@.O...l.+.o.#.j.#.#.$.+.$.j.j.j.j.j.j.j.#.#.#.#.#.#.#.h.h.h.h.h.z.h.z.z.l.z.z.v.v.v.v.b.#.#.#.+.-.-.b w # # $ $ $ $ $ $ $ $ $ $ $ > 7 7 $ $ $ * > * x T B V B 6.7.7.B b b r N T 6.: r B 9.0.4.w.*.6.8.w e y y e e y y y y M N T Q Q ~ ! ! ! ! _ ! ! R R R R R R ^ G.E.E.E.Q.Q.Q.Q.E.Q.Q.Q.E.W.W.Q.+Xx * & * e t H.+X",
":.1.1.<.<.<.<.2.<.<.<.2.2.<.,.3.<.>.:.:. . .| &.%.7.r.u.y.p.i.i.i.i.y.y.i.i.i.i.i.y.~ ~ y.i.i.i.i.i.i.i.F.F.L.G.K.P.oXF.y.F.F.J.G.K.K. X XoX@X#X#X#X#Xi.F 6 6 6 Z 6 6 Z Z Z Z A 6.n d d j ..X.h d d j +.l.j.$.j +.k.$.j.$.k.j.o.X.X.o.#.#.h.j.j.j.j.h.#.h.h.h.#.h.h.h.h.h.j.k.h.h.k.l.h.v.v.v.v.v.v.j.j.;.b * # $ $ $ $ $ $ $ $ $ $ $ $ $ $ $ $ $ $ $ $ * * > * e B 6.0.7.6.V r r r V 8.w.w.7.8 y B 6.7.6.6.B.w.Q y e e y e e e r M M N T Q T ! ! ! ! ! ! ! ! ! ! ! ! ! ~ V.P.E.Q.Q.W.E.Q.R.E.Q.Q.E.E.Q.W.W.Q.+Xx * & * e e H.Q.",
":.1.1.<.<.2.2.2.<.<.,.,.<.3. . . .:.:.=.7.0.0.p.p.i.i.i.y.i.i.i.S.i.i.i.i.y.i.y.i.i.i.S.y.y.p.y.y.i.i.i.i.i.i.S.G.K. XoXoX XK.F.S.S.F.L.G.K. XoX#X#X#X#X*X XD.i._ ) I 6 6 6 Z Z Q g g d d f @.f q d h O.O.O.@.f o...} X.o.j.k.j.j.o.o.o.#.#.h.h.#.#.#.#.#.h.#.#.h.h.j.h.h.k.k.h.#.z.l.h.v.v.v.N.v.v.x.b $ # $ $ $ $ $ $ $ $ $ $ > > $ $ $ $ $ $ * $ $ > > > > < M 9.w.%.V b 9 l B 6.6.8.6.B V 8 b V w.7.w.e.6.*.6.r e e e e e l N N Q Q Q ~ ! ! R R R ! ! R ! ! ! ! ~ y.I.Q.Q.Q.+XW.W.Q.Q.R.R.Q.H.Q.Q.Q.W.W.W.+Xz * & * t e P.+X",
" . .3.1.1.<.<.<.<.<.,.3. . .q &.&.7.p.p.y.i.i.i.i.i.y.y.y.y.y.y.y.y.p.y.i.i.i.i.S.F.F.S.F.F.y.y.y.y.y.y.y.i.i.F.G.K.K. XK.K.J.J.L.y.y.y.y.F.J.oXOX@X#X@X@X#X#X#X#X#X@X#X}.A Z 6 l g g g 9 0 O.h q d h h q d ..o.$...} f } X.@.$.j.+.o.o.#.h.#.#.#.#.#.#.#.h.#.#.h.k.h.h.h.h.j.h.#.#.z.z.z.v.N.N.N.=.; $ $ $ $ $ $ $ $ $ $ $ $ 7 > 7 $ > $ $ $ $ > 7 7 > > > * Y u.6.V l e 8 M w.7.%.B b 9 b n r 9.6.8.6.B T b *.Q r e e e l N N Q Q ~ ! Y Y R ! ! ! ! R R ! R ! ~ y.G.Q.W.W.+X+X+XQ.W.+XW.W.+XW.E.Q.W.&XW.E.R.+Xt & & * e e E.+X",
"{ | :.1.1.1.1.3.3.3. . .{ V 9.p.y.y.y.i.y.y.y.i.y.y.i.i.i.` _ ~ ~ _ y.y.y.i.i.S.S.i.y.i.y.S.F.i.` y.y.i.S.S.F.F.F.L.G.J.K. X XP. X Xy.~ i.K.oXoXoX X XK.K. X XJ.J. X Xi.D.|.A A t e 8 i 0 0 q d 0 h @.h d d j $.h.$.+.@...} } f } ....X.o.j.j.$.o.o.o.#.h.#.#.X.j.j.h.h.#.j.j.k.v.z.v.l.z.v.N.x.B $ $ $ $ $ $ $ $ $ $ $ $ $ $ > > > $ $ $ $ $ $ > 7 7 > > * G a.!.u.M 8 8 u u u b 9 9 q q n B r Q B *.B B B V b T r r l N E Q 6.~ ! ! R ! ! ! Y H R ! ! ! ! ^ y.P.Q.W.Q.W.W.W.&X&XW.+XW.+X+X&X&X+XW.&X+X+XQ.E.Q.e * & & e e E.+X",
"y r q :.1.>.>.3. .:.{ %.9.p.y.y.y.y.y.y.i.y.i.i.i.i.i.i.i.y.! ! ` y.i.y.y.y.y.y.y.y.i.F.F.L.S.i.i._ y.i.i.i.i.i.S.F.L.G.J.K. X XK.oX XL.oX@XoX XK.K. XK.F.L.S.D.i.i.i._ R I 6 Z Z < 1 g h k @.O.s -.@.O.@.O.d $.l.j.h.h.#.o.o.+.@.@.O.j f ..X.+.X.......X.@.X...j.j.l.N.v.N.v.v.v.z.v.l.#.N.;.; # $ $ $ $ $ $ $ $ $ $ $ $ $ > > > > $ * $ $ $ $ > > 7 7 * y u.+X!.!.9.r 9 u r e r b u n %.=.8.e T T B T 6.6.7.B 6.l T q.Q T R R R R R R ! ! R R R R R Y ~ y.I.+XW.W.&X&X&XW.Q.+XQ.&X&X&X&X+XW.+X+XW.W.+X+X+XE.E.e * * * e e E.+X",
"6 6 1 8 { :. .:.&.4.9.^ _ _ _ ` ` y.y.y.y.y.y.y.i.i.i.i.i.i.y.i.i.y.y.y.y.p.y.i.i.i.i.S.S.i.i.F.F.L.L.y.y.y.i.S.F.F.L.L.G.K. X X X X X XoXoXoX#XOXoXF.F.L.L.L.i.y._ R H H 6 > @ 7 6 v m -.+.+.O.O.@.@.+.O.@.O.+.k.k.z.k.h.k.k.j.j.j.j.+.k.x.l.j.j.k.j.l.v.x.x.k.l.k.v.N.v.l.l.k.$.l.x.x.-.m O + # # # # # # # # @ $ $ $ $ $ $ $ > > > * > $ $ $ $ $ $ $ G T.+X&X&X!.a.M ; = & M r b B 7.%.&.7.w N B M B 6.B B %.Q ~ u.9.Q R R H R R R R R R R R R R ! y.I.R.Z.U.R.W.&X&X&X+X&X&X+XW.W.+XW.&X&X&X+XQ.Q.+XW.Q.Q.@Xe * & * e e E.@X",
"6 , 1 u &.&.q q E ! ~ ~ ~ ~ ~ _ _ y.y.y.y.i.i.i.y.i.i.S.y.i.i.S.S.S.i.` p.` y.y.y.i.S.G.G.J. XJ.L.L.J.G.S.y.y.i.S.S.F.F.F.K. XoXoXoXoX XG. X XK. XoXoX XJ.L.i.i.! H I U # . @ @ @ > r n O.+.c.@.@.@.O.O.O.@.O.O.l.l.l.z.l.k.l.l.l.l.l.$.l.N.l.l.v.x.j.l.N.N.N.v.l.l.l.v.v.l.x.j k -.e o . . % % + % # # # # # # $ $ @ $ $ $ $ $ $ $ > $ $ $ $ $ $ $ > E T.!.!.+X&X!.Y.0.= & & b 6.7.8.7.*.*.*.w N N T M N Q 6.6.q.p.~ R R R R H H R R H H Y Y R R ` J.E.R.Q.W.+X+XE.R.U.Q.&X&X&X&X&XW.+X&XW.&X&X+X&X+X&X+X+XQ.+X3 * * * e e E.+X",
"=.1.d.<.<.<.2.;.B N E R ! Q ~ ~ ~ ` y.y.i.i.i.i.i.y.i.i.i.i.i.i.i.S.S.S.~ _ ` y.i.F.S.S.F.L.K.K. X XK.K.K. XG.i.y.y.y.y.F.G.G.F.L.G. XoXK.G. XG.G.F.|.S.S.i.` R H H G e 3 X . $ @ * b n -.+.+.x.x.@.h h -.-.O.@.k.k.k.k.l.k.l.v.l.l.l.j.l.l.v.v.v.N.k.l.l.l.N.l.x.k.j.x.x.-.e + . . . . . % + + + # # # $ $ $ $ $ $ $ $ $ $ $ $ $ $ $ # $ $ $ $ $ 3 9.!.!.!.!.!.!.!.!.a.E & B 8.=.=.%.*.%.%.B e M N 6.6.6.T 9.q.! R R R R R R R H R H H H R R ~ y.G.E.E.+XQ.W.W.+X&X&X&XQ.R.H.R.&X&X&X+XW.Q.Q.&X&X+X&X+X+X+XQ.@X1 & * ; e w E.E.",
"<.,.,.,.,.<.2.2.m.t.M E E Y ! ! ~ ~ ` y.y.i.i.i.S.y.i.i.i.i.i.i.i.i.S.L.i.~ ` y.i.S.F.G.J. X XJ.K.K. X XoX XoXoXF.` p.y.i.G. XK. XK.G.G.K.G.L.G.S.J.S.S.` ! H H H ~ q.T e - - - < t N m m h -.c.x.;.l X O o : g O.O.O.j.x.k.l.k.N.v.j.k.x.k.l.v.l.l.x.x.l.j.x.x.C a 8 - O + < + . .   . . % + + + # # $ $ $ $ $ $ $ $ $ $ $ $ > $ # $ $ $ $ $ $ G u.!.!.!.!.!.!.!.!.!.Y.0.; B %.%.*.%.B V B B w N M 6.T Q 9.! R R R R R R R R R R R R H R ~ S.I.H.E.R.Q.Q.E.Q.Q.W.+X&X+X+X&X&X+XE.H.H.Q.&X&X&X&X&X+X+XQ.Q.+X+XQ.; * * - 3 3 oXQ.",
",.,.,.,.,.,.<.2.2.2.d.V M Y E Y R Q ~ ` y.y.y.y.i.S.i.F.i.i.i.F.F.L.L.L.J.J.G.i.i.y.i.i.i.i.i.y.y.y.y.i.y.y.^ ` F. XoX XK.G.K.K.K. XK.L.G.S.y.S.i.i.y.! H G G G Y 6.e.w.T ~ G Q q.0.w.e.w . X o O . X X X     . .   o = g h C O.-.x.-.;.x.x.@.j.x.x.c.-.C C l $ + + @ @ @ $ < .   X   . . % + . . % % # # # @ $ $ $ $ $ $ $ $ $ > # + + + # w 9.a.!.!.!.!.!.!.!.!.!.!.!.a.y V m m B B 4.b V V * e E 9.p.~ R R R R ! R R R R R R R R R ` F.P.P.Q.E.E.R.Q.Q.+XQ.Q.W.W.W.&XQ.+X+X&X&X&X&XH.C.H.E.&X&X&X&X&X+XQ.+X+X; = * ; 3 3 +X+X",
",.,.,.,.,.,.,.<.<.<.2.d.t.M M E E R ! ~ ^ y.y.y.y.y.i.i.i.F.F.S.F.F.F.F.F.L.J.J. XS.y.` ` ` ` p.y.F.K.K.K.G.F.~ ~ y.F.y.y.G.K.G.i.i.F.S.S.S.y.` ` ! R H G z x x E B w.A.l w e 9.w.r.w.w.w .   X X     X X         . + + # $ $ $ $ $ # # # # + + O + o # # $ $ @ $ $ $ $ $ $ .     X     . . . . . . . + # # @ # $ $ $ $ $ $ $ $ * $ + # e T u.a.Y.!.!.!.!.!.!.!.!.!.!.s.a.T b n n B %.b V B M - z ^ ! R R R R R R ! R R R R R R R ! S.K.oXQ.E.E.E.R.Q.Q.Q.Q.R.E.Q.W.W.W.+XQ.Q.Q.+X+XQ.Q.&X&XE.C.H.H.+X&X&X&X&X&X; * = ; 3 e &X+X",
">.>.>.>.,.,.,.,.,.,.<.2.2.d.7.M N E E ! ~ ~ ^ ^ ` y.y.i.i.S.i.F.S.S.F.S.L.L.L.L.J.K.F._ ^ ^ y.F.K.K. X XoX X XG.~ ~ y.K.F.~ ` P. Xi.y.y.y.` _ ! R H H G x x x T w.Y.Y.Y.M w l q.Y.w.6.B y +             X       . % % + # # $ $ $ $ $ $ $ $ $ $ $ $ $ 7 $ $ * $ > $ $ $ $ $ .   X X               . . + # # # # $ $ $ $ $ $ $ $ * < E 9.u.u.a.u.a.!.!.!.!.!.!.!.!.!.!.!.s.u.b n b n V V M V l 1 z H R R R R R R R ! R R R R R ! y.K.E.E.E.Q.Q.Q.Q.Q.Q.Q.W.+XQ.+XW.W.+XQ.Q.Q.Q.E.Q.E.+X+X+X+X+X+X+X+XH.H.H.+X&X&X- * * ; 3 e &X+X",
"3.>.>.>.,.,.,.,.,.,.,.<.2.2.2.d.7.M Y Y Y R ! ! ^ ` y.y.y.i.y.y.y.i.i.i.F.S.S.F.F.J.K.F.i.S.J.K.K.K. X XoXoXoXoXK.^ ~ y. XK.p.y.S.J.y.` _ ! H G G G G x x Q A.!.!.!.Y.Y.V ; x M Q B Q B x +   X X     X X     . . . % + # @ $ $ $ $ $ $ $ $ $ $ 7 7 7 7 7 $ * $ $ $ $ $ * $ # . X                 . . + + # # # $ $ $ # $ $ $ * y u.a.u.u.u.u.a.u.a.a.!.!.!.!.!.!.!.!.!.!.a.T V B %.B B T T E H R R R R R R H R R R R R R ! ~ y.G.E.OXOX+X+X+X+X&X+X+X+XQ.&X+XQ.W.W.Q.Q.E.R.E.E.E.E.E.Q.+XQ.+X+X+X+X+X&X+XE.H.H.* * = ; 3 e %X+X",
"3.>.>.>.>.,.>.,.,.,.,.,.<.2.2.2.2.1.B M Y E R ~ ^ ^ _ ` _ y.y.y.y.y.i.S.L.L.G.K.J.K.K.K. X X X XoXK.K.J.K.K. X X XoXJ.` G. XP.S.y._ ` ! R H G G G G E q.Y.!.!.!.!.Y.7.B B & e e M 6.6.6.t .     X X X   X     . .   . + # # $ $ $ $ $ $ $ $ $ $ > 7 > > > 7 > > 7 $ $ * $ & & O .               X   . % + + + + + # $ # $ $ * y u.a.a.u.u.u.0.0.u.u.a.s.s.a.!.!.!.!.!.!.!.s.0.M V V B T T Y Y I H I R R R R R R R R R R ! ` y.S.J.E.+X+XE.Q.+X+X+X+X+X&X&X+XQ.Q.R.E.Q.R.E.Q.E.+XE.E.E.R.Q.E.R.E.E.E.Q.+X+X&X&XQ.& = = ; 3 e &X&X",
"3.,.,.,.,.,.,.,.,.,.,.,.<.<.<.2.2.2.<.=.b Y E R ! ~ ~ ^ ~ _ ` y.y.y.y.i.L.L.F.G.F.F.G.K.K. X X XK.K.F.G.F.F.G.K.P.J.K.F.` i.y.` ! H H G G G x c E u.!.!.!.!.!.w.B b B V V & w x B 6.6.7.v + .       X X   X . . . . % % + + # $ $ $ $ $ $ $ $ 7 > 7 > > > > > > 7 7 7 $ o & * * O                   . . % . . + + # $ $ $ $ x u.a.a.a.u.u.u.u.0.u.u.a.a.s.s.!.!.!.!.!.!.!.!.u.T b V B Y Y R R R R R R R R R R R R R ! _ y.S.G.E.Q.+X+X+X+XQ.+X+X&X+X+XW.+XW.E.Q.Q.E.Q.Q.E.E.E.E.E.E.Q.+XE.E.Q.+X+XQ.Q.E.E.E.+XQ.* - = ; 3 e G.E.",
"3. .3.>.,.,.,.,.,.,.,.,.<.<.<.<.2.2.2.m.t.V N E Y Y R ~ ! ~ ` y.y.y.i.F.F.S.F.F.F.F.G.J.J.K.K.K.G.G.F.S.L.S.i.i.i.S.y.i.~ R R G G G z t z Y 9.u.!.!.!.!.!.0.n q 9 b n b V = e r T %.7.6.y $ % . X   X   .   . . . . % % + + # $ $ $ $ $ $ $ $ 7 > 7 > > > > > > * > * $ & * ; ; & o     X X X X       . . . . . + # $ $ * G u.u.u.u.u.u.u.u.u.0.0.u.a.a.a.!.!.!.!.!.!.!.!.!.a.9.M Y R R R Y R R R R R R R R R R ! ` y.i.J.E.OXW.W.Q.Q.Q.+X+X+X+X+X+XQ.Q.Q.Q.Q.Q.E.Q.E.E.E.R.R.E.E.E.+XE.E.+X+XE.+XE.Q.E.E.E.+XK.& = = - 3 x +XH.",
",.<.,. .3.>.>.>.,.,.,.<.<.,.,.,.<.<.<.2.2.^.%.l N Y E R ~ ~ _ y.y.S.F.F.L.F.F.L.G.G.G.G.G.G.G.G.G.G.K.S.S.y.` ~ ! ! R Y H G G F t z x R p.Y.!.!.!.!.!.9.b q q q 9 9 B w.0.8 M B 6.7.*.Y N $ % .   .   . .     . . . % % + # @ $ $ $ $ $ $ $ 7 7 > 7 > > > > > > > * * - 8 ; ; ; ; * . X             . .     . . + $ # < T 0.u.u.u.u.u.u.u.u.0.0.0.0.w.a.a.a.s.!.!.!.!.!.!.!.!.u.T R ! R R R R R R R R H R R ! ` y.i.F.P.Q.+X+X+X+X+X+XW.+X+X+X+X+XE.+XQ.E.Q.+XE.E.Q.Q.E.+XE.E.E.R.E.E.E.E.E.E.E.E.Q.Q.E.E.E.oXE.& & * ; 3 x &X+X",
">.,.<.,. .3.>.3.>.,.,.,.,.,.<.<.<.<.<.2.2.2./.t.r x Y ! ~ ~ ~ y.y.y.i.i.i.F.S.F.L.L.L.L.L.S.L.L.L.i.i.F.y.y.! R H G G G z t t x x Q u.!.!.!.!.!.Y.6.q q q q 9 u V w.A.Y.9.9 b B B 7.V N E * % . . .   .   . . . . . % % + + @ $ $ $ $ $ $ 7 7 > > > > > > > > * * > * w e e e w 8 1 * .         .   .   .   . . + $ e 9.0.0.u.u.u.u.u.u.0.0.0.0.0.0.0.a.a.a.a.s.!.!.!.!.!.!.!.s.9.Y R R R R R R H R R R R ! ` i.G.P.Q.+X+X+X+X+XQ.+XQ.+X+XQ.+X+X+X+XQ.Q.+XW.Q.Q.+XE.E.E.E.+XE.+XOXE.Q.E.E.+X+XE.H.E.E.E.Q.E.oXK.& & * ; 3 x P.H.",
">.,.,.<.,. .3.3.>.,.>.,.,.,.,.<.<.<.2.2.2.2.2./.d.n b E E ! ~ ~ ^ p.y.i.i.S.F.J.G.L.L.S.i.i.y.y.y.y._ ^ _ ! R G G z t t t G Y 9.Y.!.!.!.!.!.w.7.b b q q 0 b V 6.w.w.w.w.0.r l V %.B 6.B E * + % . .   . . .     . . % % + # $ $ $ $ $ $ 7 7 > > > > > > > > > > * * * r r r b b l M y - o           X   . . . o * x T 9.9.9.9.0.0.u.u.0.9.5.9.9.6.0.0.0.u.w.a.a.Y.!.!.!.!.!.!.!.9.! H R R R R H H R R ! ^ y.i.J.E.Q.+X+XW.W.Q.Q.Q.W.E.Q.E.Q.+XQ.+X+X+XQ.+X+XQ.W.Q.+XQ.E.Q.Q.Q.+XQ.Q.E.Q.+X+X@XE.E.E.E.E.E.E.E.K.& & * - 1 z E.+X",
">.,.,.<.<. .3.3.3.,.,.,.,.<.<.<.<.<.2.2.2.2.2.2.m./.=.r x E E R ~ ^ p.y.y.i.i.i.i.i.i.i.p.` _ ! R ! ! H G F F z t x G N Y 0.Y.Y.Y.!.!.Y.T : B 4.q q b n 6.0.T M N N B 0.7.l b V B B 7.T 9.- # % . . . .   . . . . . . % + # $ $ $ $ $ $ $ $ > > > > > > > > > $ $ $ * r b b b n n V B 9.Y #         X X . o O 8 x M M 4.6.9.0.9.9.0.0.9.9.9.9.5.5.5.5.0.0.0.a.a.a.s.!.!.!.!.!.!.u.~ Y H Y H H H H R ! ^ V.G.E.W.Q.Q.W.+X+XW.Q.Q.Q.Q.W.Q.Q.+X+XQ.+XE.Q.Q.Q.Q.Q.Q.Q.+X+XE.Q.+X+X+X+X+X+X+XQ.+X+X+XQ.+XQ.E.E.E.oXG.= * * - 1 H +X+X",
",.,.,.,.,.1.<.,.,.>.>.,.,.,.,.<.<.<.<.<.2.2.2.2.2.2.m.^.t.B y M Y ! ~ _ _ y.y.i.y.p._ ! ! R H H G z F F t t t y x E 9.u.Y.Y.Y.!.!.9.t & = = V n q m 7.w.T N 6.7.7.7.6.N w.b b M B M 6.T B e + % . . . . .       . % . % % + # $ $ $ $ $ 7 7 $ > > > > > > > > > $ $ - r b n V B 6.7.7.6.M 1 o   X X X X o = 8 r M M r N 4.5.9.9.9.9.9.9.0.9.9.9.9.9.9.9.0.0.w.a.a.s.!.!.!.!.!.!.Y.9.E G Y H H R ! ^ y.C.R.E.W.W.W.+XW.Q.W.&X+XW.&XW.&XQ.+X+XQ.+XE.+XQ.+XQ.+XQ.E.+XQ.E.+XQ.E.Q.E.+XQ.+X+XQ.+XE.E.E.+XQ.E.E.E.+XK.& * * - 1 R +X+X",
",.,.,.,.>.>.>.,.,.<.,.>.,.,.>.,.,.,.<.<.<.<.2.2.2.2.2.2.m./.^.B r Y Y R _ i.y.` ~ ! R G G F z F t 4 3 e t x M 9.0.Y.Y.Y.Y.Y.Y.Q ; & & = = 8 b n 6.8.8.B e.7.6.7.V e.e.T w.b b V 4.9.B T T e + % % % . . .   . . . . . % % + # $ $ $ $ $ > > > > > > > > > > > > > * 1 b b B 6.0.7.%.b u r r w X X X X O : 8 8 r r r r r M T 5.9.9.9.9.5.9.5.5.9.5.9.9.9.0.0.0.w.a.a.a.!.!.!.!.!.Y.u.Q G R R ! ^ y.C.H.E.W.W.W.W.W.W.W.W.W.W.Q.Q.E.Q.Q.W.Q.Q.+X&XH.+X+X+XQ.+X+XQ.+X+XE.Q.E.E.Q.E.Q.+XQ.Q.E.Q.E.Q.Q.+X+X+X+X+X+XK.& & & - 1 R +X+X",
">.>.>.>.,.,.,.,.,.,.,.>.3.3.>.>.,.,.<.<.<.<.<.<.2.2.2.2.2.m././.t.M x Y R z z H G G z z z t 3 1 e t x x T q.!.!.Y.Y.Y.!.q.x o o & & & = = r q n *.7.B 6.B M N B B 8.7.T w.V r N 6.w.w.w.9.H + . . . . . . . . . . . . . + # @ # $ $ $ $ 7 > > > > > > > > > > > > * ; V 7.7.7.6.b b b %.6.9 b 8 O * : 8 8 8 l l r r r r r M 5.9.5.9.9.5.T 4.5.5.5.4.5.5.5.6.0.0.w.a.a.a.Y.!.!.!.!.a.9.G ~ p.y.y.H.R.Q.W.W.W.W.R.R.R.R.R.E.E.W.W.Q.Q.E.&XW.Q.%X&X&X&XQ.&X+XE.+XE.Q.+X+X+XE.+XQ.E.Q.+X+X+XQ.Q.Q.+X+X+XQ.+X+X+X@Xy.& & * - 1 R +X+X",
">.>.3.>.>.>.>.,.,.,.,.,.3. .3.>.,.,.,.,.,.,.<.<.<.2.<.<.<.2.2.2./.^.%.w 1 < 5 t t t t 3 1 e x x c x Q u.!.Y.Y.Y.Y.T.9.e X X X o & & & = = 9 q b *.V T B T T N N B 7.7.9.w.B r B 6.w.8.7.w.x % % % % % . . . . . . . . % + # $ $ $ $ > 7 7 > > > > > > > > > > > * * w 6.7.B b 9 b %.7.8.7.V r 8 8 8 8 8 r B 6.T N e e r r u V 4.4.4.5.4.T T 4.5.4.4.4.4.6.6.0.0.0.w.a.a.a.!.!.!.!.Y.u.T R C.H.E.Q.Q.W.W.W.W.Q.W.Q.E.E.R.W.E.W.R.Q.Q.E.E.E.Q.+XQ.+X+XQ.+X+X+X+X+XE.Q.+XE.+XE.+X+XQ.+X+XQ.+XQ.+X+X+X+X+X+X+XK.G.F.& = - - 1 ! +X+X",
"3.3.3.3.3.3.3.,.,.,.,.,.<.<.<.,.,.,.,.,.,.,.,.<.<.<.<.,.,.<.1.1.1.1.1.*.* < 1 3 3 1 3 t x x x N u.Y.Y.Y.Y.Y.Y.u.E * X X X X X X & & & = = 9 9 g %.m V *.B 6.M b V B 6.w.w.T r V B 6.6.8.w.Y + % % % . . . . . . . . % % + + $ $ $ 7 > 7 7 > > > > > > > > > > * * * 1 n q q n 6.7.7.7.w.V 0 0 8 8 8 r V B %.B %.B ; ; 8 r r u N T T T T T T T 4.4.4.4.4.5.5.0.0.0.0.w.a.a.a.Y.!.!.!.s.0.E H.Q.W.W.W.W.W.W.W.W.W.W.R.R.R.R.R.R.Q.E.Q.E.R.R.H.R.E.E.Q.E.E.+X+X&X+XE.Q.+X+XE.+X+XQ.+X+XQ.+X+X+XoX+X@X&X&X+XC.E.@XF.= = - - 1 ! +X+X",
"3.3.3.3.3.3.,.1.,.,.,.,.,.,.,.,.,.,.,.>.,.>.,.,.,.,.,.,.,.>.>.3.3. .3.:.< * < 3 e t x x l E 9.Y.u.w.Y.Y.T.p.x X X X X X X X X X & & = = = 9 9 g %.%.B *.B 8.T 6.w.B 7.w.A.T e M 6.w.r.w.w.Q # % % % . . . . . . % . % % + + @ $ $ $ 7 7 7 7 > > > > > > > > > > * * - r B 6.8.8.7.6.N * 8 0 0 8 b B B %.*.%.%.B M ; * * 8 r r r M V M M V B T T 4.4.T 4.4.4.6.9.0.0.0.w.a.a.a.!.!.!.!.u.9.q.&XW.W.W.W.W.W.W.W.Q.W.W.R.R.R.R.R.R.R.R.Q.U.E.H.R.E.E.E.R.E.R.+XQ.W.Q.R.E.+X+XE.E.E.E.+X+XQ.+X+X+X&X&X+XH.H.+X+X@XF.= = = ; 1 ! OX+X",
" . . . .3.>.>.>.,.,.>.>.>.>.,.,.,.,.,.>.>.>.>.>.>.>.3.3.3. . . . . .:.n e t t t t l x Q u.u.u.u.u.Y.u.Q < X X X X X X X X X X X & & & = = 8 9 9 %.*.*.B T 8.w.9.T 7.w.w.w.T r l w.r.Y.w.7.~ # + . % . . . . . . . . % % % + $ $ $ $ $ > $ > > > > > > > > > > * * * 1 9.8.8.8.6.N * O o : 9 V 4.%.B *.6.B n b b l ; * * * ; 8 r r u M M M M M T T T 4.5.5.5.5.4.6.0.0.0.w.0.a.a.s.s.!.a.9.Y T.W.W.W.W.W.&XW.W.Q.Q.W.R.W.W.R.R.H.U.R.U.R.R.R.R.E.R.H.H.H.E.R.H.E.E.R.E.R.+XQ.+XE.+X+X+XQ.E.E.&X@X+XC.+X+X+X+X@XG.= = = - 1 ~ OX@X",
" . . .3.3.3.3.>.3.3.3.3.>.>.>.>.>.>.,.>.3.3.3.3.3.3. . . . . . .:.&.n b T E l M T q.u.0.w.u.u.Z.q.H o o X X X o o o o X X X X X O & & = = 8 9 q m %.*.7.0.7.B 6.w.w.w.w.0.T M y 6.6.6.w.!.u.$ + . % . . . . . . . . . % % + $ $ $ $ $ 7 > > > > > > > > > > > > > * < 6.w.6.8 O O & & & & 6.7.%.%.%.%.V b b b b l * * * - ; ; e 8 e r r M M M M B T T 4.4.5.5.5.6.0.6.0.0.0.r.a.a.a.Y.s.u.4.~ W.W.W.W.W.&XW.E.W.W.W.Q.R.R.R.R.H.U.Z.H.E.U.R.R.R.R.H.H.E.E.E.H.R.R.E.E.E.+XQ.Q.Q.+X+X&X+X+X+XE.F.H.+X+X+X+X+X@XF.= * * - 1 ~ @X%X",
" . . . .3.3.3.3.3.3.3.3.>.3.3.3.3.3.>.3.3. . . . .{ { { { :.:.{ 9 r r r B w.A.u.w.w.w.w.u.A.~ e X o o X X X o o o o o X X X X o o & & & = 8 9 9 m %.V V B 7.w.w.w.w.9.9.9.T E N 4.0.!.Y.Y.9.$ + % % % . . . . . . . . % % + # $ $ $ $ 7 > > > 7 > > > > > > > > > > * x y o O O O O & & & B 6.b b V b b b r 9 r r * * ; ; 1 w e y y w r u M M E V T T T 4.5.5.5.4.5.7.0.0.0.w.a.a.a.s.s.w.9.4.u.&XW.W.W.W.W.W.W.W.W.R.Q.R.R.R.R.R.Z.H.H.R.R.E.E.E.E.R.H.R.I.H.U.H.E.E.R.Q.E.R.Q.+X+X+X+XE.E.y.+X+X+X+X+X+XOX+XS.= * * * 1 ^ %X%X",
" . .3. .3.3. .3.3.3.3.3.3.3.3.3.3.3.3.3. . . .{ {  .:.:.&.u 8 e r M e.Y.!.w.7.w.w.u.Y.u.Y * o o X X X o o o o o o o o o o o o o O O & & & : 9 b n *.*.7.e.w.r.w.w.w.6.T N N 4.w.7.6.Y.w.7.l # + % .   . . . . . . . % % % + # $ $ $ $ $ $ $ $ > > > > > > > > > > * > $ o o O O O o o O * V *.b r l b b 9 9 b b l ; w w 1 e t x x t w w r M M M M M V T 4.5.5.4.5.4.6.6.7.0.0.a.a.a.s.s.a.0.6.T W.&XW.W.&XW.W.W.W.Q.W.W.R.R.R.Z.H.U.H.Z.U.R.E.E.I.H.R.H.Z.Z.Z.Z.H.Z.H.C.H.E.R.E.E.+XQ.+XF.C.E.+X+X+X+X+X+X+X+XS.= * * - ; ~ +XOX",
"3. . . . .3.3. . . .3.3.3. . . . . . . . .{ { :.:.{  .&.w r r T Y.!.Y.w.6.9.w.w.u.9.l & O o X X o O o o o o o o o o O * * & * & & & O O & = 9 r b *.*.r.r.w.w.0.6.V V V 6.8.r.r.%.%.7.w.6.N * + % % . . . . . . . . . % % + @ $ $ $ $ 7 > $ $ > > > > > > > > > > > * * o O O O O o o O * r %.b r 9 M r 9 9 M b r r w 1 e z z x x x t w 8 y r M M M E T T 4.4.4.5.4.4.6.6.0.0.0.w.a.a.a.a.0.9.9.9.A.Z.W.&X&XW.W.W.W.W.W.W.R.W.W.W.R.Z.Z.R.H.R.E.R.R.R.H.R.Z.Z.Z.H.H.H.H.H.R.Z.R.R.R.H.q.H.H.E.E.E.+X@X&X+X@X@Xy.= * * - ; ` @X+X",
">.1.1.1. . . . . . . . . . . .{  .{ { {  .:.&.q i 8 q &.V 0.!.!.B.6.6.w.w.w.0.T ; = * O o o & * * * & O O O O O * ; ; ; ; 1 3 w w w 1 ; ; ; 9 r B 8.r.w.w.w.6.V b B 0.r.r.r.=.m %.7.w.w.6.T * . . . . . . . . . . . . % % # # $ $ $ $ 7 7 $ $ > > > > > > > > * > > * $ o O O O O o o O * b m b r r 9 9 r l r r r e t x x z G z z x x e w e r r u M M T T 4.4.4.4.4.4.4.4.4.5.6.0.0.a.a.a.0.9.0.9.&X&XR.Z.R.W.&X&XW.W.W.W.W.Q.W.Q.E.R.R.R.Z.R.R.R.R.R.E.E.R.R.R.H.Z.H.Z.U.R.H.R.R.q.y.H.H.Z.H.E.E.E.@X+X+X@X%Xi.= * * - ; ` +XP.",
"3.3.3.3.>.>. . . . . . . . .{ { { { :.:.q 8 8 8 i 8 &.{ t.B.8.6.9.0.w.w.9.E e ; * o O < w w 3 ; * * & & O O - 1 1 w w w e w e y y y l x x y B 0.w.w.w.0.T B V T w.r.B.r.6.%.&.m n 4.6.B %.N ; % . . . . . . . . . . . % % + @ $ $ $ $ $ $ 7 7 > > > > > > > > * * * $ o o # O O O O O & * b V M b r r l r r r r y G G G x x x z x x G x z w 8 r r M M V T 4.4.4.4.4.4.4.4.4.4.5.0.0.0.u.u.0.9.0.4.W.&X&X&XW.Z.A.R.&X&X&X&X+XW.W.E.Q.Q.E.R.R.R.R.R.R.E.W.Q.Q.E.R.H.H.H.Z.Z.H.Z.V.q.Z.H.Z.Z.C.Z.H.H.E.E.+X+X+X+Xy.= * * * * y.@X@X",
"3.>. .3.3.3.3. . . . . .{ { { { :.{ q 0 r r 8 b 6.r.t.:.:.4.9.0.0.w.9.M x t ; o - t G G x t e w 3 3 ; * ; 3 3 e e e e e y y l l y M N M r M w.w.w.6.B B 6.6.w.B.Y.8.%.n n %.m n u V *.B B M ; + . . . . . . . . . . . . % + # @ $ $ $ $ 7 > > > > > > > > < * $ $ $ O * * * * & O O O & & 9 b b b l l r r e t x G G G x G G z z G x x x x y ; w r y M M V T 4.4.4.4.4.4.4.4.4.4.4.6.0.0.0.0.9.0.T E.W.W.&X&X&X&XR.A.Z.&X&X&X&X+X&XQ.W.&XR.Q.E.R.Q.Q.W.Q.Q.+X+XE.R.R.H.H.Z.Z.^ y.H.C.Z.H.Z.Z.Z.H.Z.H.H.E.E.+XQ.y.* & * * O y.%XOX",
"3.>.3. . . . . . . .{ { { :.:.q i 0 0 9 r 4.r.B.t.7.q  .:.7.9.9.T b M x 1 * 3 G H x x t t t t e ; ; ; ; 3 e t y e v l l x x x N ~ 9.6.N Q 9.w.6.B T 6.w.Y.B.B.7.B n q b b b b n V B B B B M ; % % % % % . . . . . . . . . + + @ $ $ $ 7 7 > > > > > > > > < < - * & * * * * * * * * * O & 8 r r r r r r t G G G G G G G G G z G x G x x x x y 8 r r u M M B 4.4.4.4.4.4.4.4.4.4.4.4.6.0.9.9.5.9.T H.W.W.W.&XW.W.W.&XQ.Z.C.H.Q.W.+X&X&XW.W.R.R.U.R.Q.Q.Q.Q.W.E.R.Q.Q.R.U.y.^ Z.H.H.Z.Z.C.C.Z.C.C.C.C.C.Z.H.H.T.^ & & * * O y.@X+X",
"3.3.>. . . . .{ { { | :.&.q i 9 9 9 u 6.B.B.t.*.%.%.q &.:.4.M y x t ; - z H H G x x e t t e 1 ; 1 w w w e t y l l x x x x E ~ 9.0.9.Q Q 9.T B B 6.w.r.B.r.B 8 i g g 9 q n B B n V B B n V M ; % % . . % % . . . . . % % % % + @ $ $ $ $ > > > > > > 2 1 < < - - - - - - - - - ; - ; ; ; * w r r y y e x G G G G G G G G G x z x x x x x x H Y c 8 r r M M N T 4.4.4.4.4.4.4.4.%.4.4.4.4.4.4.4.5.T Q.W.W.Q.Q.W.R.W.Q.+X&X&XE.C.y.U.Q.W.W.W.E.H.Z.H.R.R.R.I.R.W.Q.E.R.R.q.V.R.R.H.Z.Z.Z.H.Z.V.y.C.C.C.C.C.C.C.F.! * & & & O y.oXOX",
"3. .3.3. . . .{ { q q i 8 8 0 9 V 8.!.B.=.m m *.6.%.q &.&.n e 1 $ 3 x G G x x e e t t w ; 1 w e w e e t t y t y y y x E ~ 9.9.9.9.6.9.T B T 7.8.r.r.8.T = = = i q b V B B V V V V V B n n b * % % . .     . . . . . . . . + + $ $ $ > 7 > > > > 3 ~ u.t < - * - - - - ; ; ; ; ; - ; 1 ; y r r r x G G G G G G G G G G G G G G G G G G H Y ^ C.G.x w r u M V B T 4.4.4.4.5.5.4.4.4.4.T T B B T 4.T W.W.Q.Q.W.W.R.R.R.Q.Q.E.&XW.Q.U.y.q.Z.W.Q.R.H.H.H.Z.Z.R.R.R.R.R.q.^ H.R.R.Z.H.U.R.H.H.C.A.C.C.C.C.C.C.C.C.C.! = & * * O ^ H.H.",
" . . . . .{  .:.q 8 8 9 0 9 4.r.B.t.=.%.%.%.*.6.6.V 9 q 9 9 * t G x x x y t e w e 1 ; ; w w e w w e t r y y y e M E ~ 9.9.Q 9.0.9.T B B 6.r.r.r.7.l & = = = = : b %.V B V n V B b b n n n b w + % . . . %     . . . . % % + # $ $ > > > > > 1 p.!.Y.u.e - - * * * - ; ; < ; ; * - 3 e r r r l x G G G G G G G G G G x z x x x x G H Y ^ y.Z.E.E.p.w w r u M V B T 4.4.4.4.6.9.6.4.4.4.4.T T T T 9.W.W.Q.W.&XW.W.E.R.R.H.R.E.Q.Q.Q.Q.&XZ.V.C.R.Q.R.H.H.Z.Z.Z.E.U.^ Z.W.R.E.R.U.Q.R.H.H.R.Z.Z.C.C.C.C.C.C.V.C.Z.! = & * * O ^ H.C.",
" .{ { {  .:.q i 8 8 8 M 0.B.r.8.*.%.*.*.7.*.B M l y = q q u t t t e 3 1 e w ; ; ; ; w w w w t t t t t y y y N T Q T 9.Q ~ 9.9.Q B T 0.Y.r.t.6.; X O & = = = = = V B V n n n V V b b b b b b e # . . . .     . . . . . . % + + $ $ $ > * y p.+X+X!.Y.u.t ; * - ; ; ; - - ; ; 1 w w t y e v x G G G G G G G G G G G x x x x z F G R ^ y.G.E.E.Q.+XE.y 8 r r u V V B T 4.4.4.6.9.0.9.9.9.6.4.T N T R.W.W.W.R.Q.W.W.W.Q.R.R.Z.U.R.U.E.W.&X&XQ.R.V.q.V.R.R.R.Z.H.q.^ E.W.W.R.W.W.Q.R.R.R.R.Z.C.H.C.y.C.C.y.C.y.H.C.! = & = - * ^ H.C.",
" . . .| q = i i 9 %.r.B.B.-.&.*.6.*.7.*.B l r e - # * q { u 1 - ; ; ; 1 1 ; ; ; ; ; 1 w w e t t y y t y N T Q Q T T Q 9.9.T T e.w.Y.r.r.T * X X X O & = = = = = b b n b b n n V V b b b b l w # . .       . . . . . . . + + + $ * G 9.T.&X&X&X!.!.a.u.w ; ; ; ; ; 1 ; ; 1 e r l l y x G G G G G G G G G G G G G x G G G x Y ! y.G.H.E.E.+X+XW.Q.q.x : w r u M V B T %.4.4.4.4.4.6.9.9.6.B B V 9.W.&X&XW.W.Q.W.W.Q.Q.R.Z.Z.C.H.U.R.W.+X+XQ.Q.W.Q.H.q.q.V.V.^ Z.R.Q.Q.W.W.Q.+XW.W.E.T.E.R.E.H.C.C.y.y.C.C.C.Z.C.Y = = - - * ^ C.Z.",
"| q i i : 8 b 7.B.B.t.*.%.*.*.7.7.%.n g l ; O O * < ; i { u * * * * & = ; 1 1 ; ; ; 1 w w e t t w t Y T T T T T 9.9.Q T B 9.Y.B.B.w.M O X X X X X O & & = = = = r b n n b b b V b 9 b u b B T * . .   .       .   . o # 1 G ~ p.T.+X+X!.&X+X!.!.!.s.u.e ; ; 1 ; ; ; 1 w r x N x G H G G G G G G G G x z x G z z x z G H ~ y.C.I.E.Q.E.Q.E.Q.E.Z.M M w 8 r u u M V B B 4.B 4.4.T 4.4.T B B N N R.W.&XW.W.W.W.W.W.W.R.R.H.Z.C.C.C.H.R.Q.W.W.Q.W.W.R.R.R.^ N q.R.E.R.R.W.W.W.W.Q.W.E.E.R.H.E.H.H.C.C.C.C.C.C.C.H.Y * - - - * ^ C.C.",
"= : 8 i V t.B.t.=.m m %.*.7.6.m b b n V l & - - * & & = { u * & & * ; ; ; 1 w 1 1 1 w w e w w t G ~ Q T T T 6.9.Q B 9.0.r.B.Y.e.r X X X o o X X X O & & = = = = r V B b b n b r 9 9 b B 6.*.l * # # # + # < t x H ~ ~ 9.0.a.Y.!.!.!.!.!.!.!.!.!.!.s.u.e ; ; ; ; 1 w e l M M Y Y Y G G G G G G x x G z x G G z z z G ! y.C.H.I.E.R.R.W.Q.+XQ.R.N M M y 8 8 r r M B V B B B 4.4.T T T N V N M 9.&XW.Q.W.W.W.W.W.E.E.E.R.R.Z.C.G.C.C.H.R.Q.Q.Q.W.W.E.R.^ y.E.H.q.q.A.R.E.W.W.W.W.R.R.E.R.Z.Z.Z.H.Z.C.C.C.C.C.Z.H.! - - - - * q.C.C.",
"8 r 6.B.B.=.&.n m m %.*.*.b q n n n b n l & O & & O O & q &.1 - ; 1 ; ; ; 1 1 1 1 w w w w x Y E T T T Q 9.9.B N 6.w.r.B.r.Q 1 X X X X o o o X X X O & & & = = = 9 V *.b b b 9 9 8 V 6.%.n 9 r e 3 t G E ! p.p.p.p.p.9.9.0.a.u.!.!.!.!.!.!.!.!.!.!.Y.u.w ; ; 1 w w r b M Y R R R Y Y G G G G G z G G G G x x z G R _ S.G.R.E.R.R.Q.R.E.E.Q.W.9.N M r y 8 8 r r u M V B B T T T B B B M M M B Q.+X+X&X&XW.W.W.Q.W.Q.Q.Q.R.R.Z.Z.C.Z.Z.U.R.W.Q.+XW.C.y.+XW.Q.E.E.R.V.q.y.R.Q.Q.R.R.H.R.H.H.H.Z.H.Z.C.y.C.C.Z.Z.H.Y - - - * * y.H.V.",
"8.B.B.=.h m m m m m m q q b m n n b b b : O O O O O O O q &.; ; ; ; ; 1 1 3 1 w w w e x Y R T T T ~ 9.9.B V Q w.Y.r.w.T - X X o o o o o X X X X X O & & & & = = 9 B 4.b b 9 0 8 r V b 9 9 b N G A A A R ~ p.p.p.9.9.5.9.0.0.u.!.!.!.!.!.!.!.!.!.!.s.u.e ; e e e y M E Y Y R R R R Y Y H H G G G G G x G G x Y ^ V.H.E.Q.W.W.R.R.H.E.E.E.Q.u.T N u r y w 8 8 r u M M V V B B B V B V M b M H.+X+X&X&XW.W.W.W.Q.W.W.R.E.E.R.Z.Z.C.H.H.H.Z.H.H.Z.q.R.+XQ.+XQ.E.E.Z.R.R.Z.q.q.A.R.R.H.H.Z.Z.Z.Z.C.C.C.C.C.H.H.F.G.Y - - * * * y.H.^ ",
"t.&.m m &.&.%.m q 0 0 n n m g n b m %.m = O O & & & * * i { w ; ; 1 3 w w 3 1 w r M Y E E E T ~ 9.Q M y r w.w.Y.0.l o X X X o o o o o X X X X o & & & & & & = = 8 B Q b 9 8 e N 6.M r V V B T x A A A G ! ~ ~ 5.p.9.5.5.0.u.a.s.s.!.!.!.!.!.!.!.!.!.a.y w e y l G Y Y Y Y Y R R R Y Y H H G G G G G G G R ^ V.Z.R.Q.Q.Q.W.R.E.R.R.E.Q.Q.E.B B M r r r r r 8 r u M M V V B B B B M M b l q.+X+X+XW.W.Q.W.W.W.W.W.E.W.W.R.H.R.U.H.H.H.Z.C.C.y.q.R.Q.Q.R.E.E.W.W.R.R.Z.H.H.H.C.q.q.y.C.H.Z.Z.C.H.H.C.H.H.H.G.H.G.Y - - * * * V.C.z ",
"n m &.%.%.b q q g n g g q g n m %.%.&.m : & O & * * * * = { u ; 1 w w w 3 1 y N E E T E T 9.9.T B B T r * B T e X X o o o o o o o X o o o & * * & O O O & & & & : V M 9 b T 6.6.B e l b V V M 1 y A A E E ~ ~ 5.9.9.T 5.9.u.a.s.!.!.!.!.!.!.!.!.!.!.a.y y y x Y Y Y Y Y Y Y Y R Y R R H H G G G G G R ^ C.U.R.W.Q.Q.Q.W.R.Q.W.Q.Q.Q.Q.E.T B M M b r r r r r r r M M M V V V V M M b l N E.+X+X+XQ.W.W.W.W.Q.E.E.R.E.R.E.E.R.Z.U.R.H.H.V.q.Z.R.R.R.E.R.Z.E.Q.Q.R.E.R.H.H.Z.C.H.H.C.q.q.C.C.H.H.H.Z.C.C.C.C.H.J.Y - - * * * ^ c ; ",
"m %.m b q q q g g g q g n &.&.%.&.m *.%.w & * ; ; ; * * = { &.w 1 3 3 1 e H E E T T Q 9.9.T N T 0.0.0.w o X X X o O & O o o o o o o O 1 3 3 ; ; ; - * * O & & & & M N 6.w.9.6.M r N M b l ; = , y y A G E ~ 5.p.p.9.5.5.9.0.a.a.a.!.s.!.!.!.!.!.!.!.s.G x H G G H H Y Y H Y Y R R R R Y Y H H H R _ y.P.E.E.E.Q.E.R.R.R.R.R.R.W.W.Q.E.q.V V b b u r r r r r r u M M V V V V M M M b M H.+XQ.+X+XW.+XW.W.W.R.R.E.R.R.R.E.E.E.R.R.Q.R.q.y.R.U.U.H.U.R.R.H.U.R.E.R.H.R.C.C.C.C.C.Z.C.H.A.y.q.q.C.R.R.H.C.C.V.H.F.Y = * * * - e v < ",
"n q q q g q q q q g m m m &.&.*.&.%.%.%.y - ; ; ; ; ; ; ; { :.w 1 1 w t x T T Y ~ 9.9.T T 4.w.w.w.6.v O + O o o & & & O o o O O 1 t z t e e e 3 3 3 1 * w y y x E 9.w.w.9.B l V 6.0.N & & ; = = y y y G E E 5.5.9.9.5.5.9.0.a.a.a.!.!.!.!.!.!.!.!.!.Y.E G x G G H H G Y Y Y Y Y Y Y Y Y Y R R ~ y.H.E.E.R.R.R.R.R.R.R.R.R.R.W.W.E.W.OXN V M u u r r r r r r r M M M N B B V N N M M 9.+X+XQ.+X&X&XW.+XW.R.R.E.R.E.R.R.R.Q.R.R.H.A.q.H.E.E.R.H.H.Z.C.H.H.E.R.H.H.H.H.H.C.Z.C.Z.H.C.C.H.H.H.C.q.^ y.C.G.G.C.H.C.G = & * * * v e t ",
"q q q g g q q g m %.m m m &.&.&.*.*.*.m l ; ; ; ; ; ; ; ; q :.y t y y x Y E Q 9.Q T B Q 0.w.w.Q l O * - * & O O & O o o * * ; x t t e 3 ; ; ; 3 e 3 - w x x ~ u.w.u.w.6.B B T 6.7.e.M O & * & ; w y y G E ~ 5.~ 9.9.9.5.5.0.u.w.a.s.s.!.!.!.!.!.!.!.a.E e x G G G H H H H Y Y Y Y Y Y Y Y ~ y.F.E.Q.E.Q.W.R.R.R.R.E.Q.R.R.W.W.Q.Q.+Xp.b M M b r r r u r r u u M M V V V V V N N M E E.W.+X+X+X+XW.Q.W.Q.Q.W.E.W.E.R.E.+XW.E.H.q.V.R.R.E.R.R.R.H.H.C.H.Z.H.E.C.C.Z.H.H.C.C.Z.C.C.C.C.C.C.Z.H.H.H.^ Y ^ C.H.G.G.H & & * O & c 3 ! ",
"g q q q q n n m n m m g m &.&.*.*.*.*.%.b ; ; ; ; ; ; ; ; 0 :.B M M l M Q 9.6.T T 6.w.w.w.T w O - e y e ; & O o o $ * - ; 1 x e e ; ; ; 1 w e e - ; e v Q w.w.u.u.9.6.6.w.6.6.6.*.b 9 O O 8 r b w e y G E ~ ~ ~ 5.9.p.9.9.0.0.u.a.s.s.!.!.!.!.!.!.!.s.E x e t x H Y H G H Y Y Y Y H R ! ^ C.I.Q.+XW.W.E.W.R.W.E.E.Q.W.R.E.W.W.Q.+XE.N b b b u r r M M u u M M V V N V V V V N M l H.&XW.Q.Q.Q.W.W.E.W.+XW.+XQ.Q.Q.W.Q.+XE.C.q.R.Q.E.Q.E.R.H.R.R.Z.H.H.H.C.H.Z.H.C.C.V.C.C.H.C.C.C.Z.C.H.Z.C.H.H.H.G.H.y.q.q.C.x * * * O o 3 < D.",
"g q q g g m n m %.m m %.&.&.&.*.&.%.%.%.b ; - = ; ; ; 1 w 8 &.&.E E T Q B V B 0.e.w.w.Y ; O * e c Y M r & o X - - ; 1 e e l w ; 1 ; w e 1 ; ; * 1 x Q u.u.Y.u.6.6.0.w.w.6.*.n b r M y ; l b b r w e y y E E ~ 5.5.9.0.0.9.9.0.u.s.s.s.!.!.!.!.!.!.!.Y.Q x x x z t G H Y H H Y H R ! ` y.C.H.Q.W.W.W.Q.W.W.+XQ.Q.W.Q.R.R.W.W.+XQ.Q.u.M b u b u u u M M M M M B N B V V V M b b M E Q.W.W.W.E.Q.Q.W.+X+X&X&X&XR.E.Q.R.E.H.q.Z.E.W.W.R.E.U.R.R.E.H.H.H.H.H.H.H.C.R.Z.C.C.C.Z.Z.C.C.C.C.C.H.C.H.Z.H.H.G.H.H.H.G.^ 3 & & & o o - 3 |.",
"0 0 q n n g n %.&.&.m n m n &.&.&.&.%.m V ; * * & = ; e y r q { 4.T N N 9.0.w.w.w.N * * 1 x Y R T b e * o * ; 1 e t t e w ; ; 1 w e e ; = ; 3 y T w.u.Y.u.6.6.w.9.w.6.B V 9 8 l N l r 9 V n 9 M w w y y G E ~ 5.9.9.9.9.9.0.0.u.a.s.s.!.!.!.!.!.!.!.a.Q x x x G x x z G Y Y Y ! ^ y.H.W.E.W.W.W.W.W.W.W.W.W.W.W.W.W.Q.W.W.W.Q.W.Q.T b u u u u b b b M M M N B B N N N M M b b l C.Q.E.E.Q.R.W.W.Q.&X+X+XW.W.W.+XQ.W.V.q.E.W.W.E.Q.E.R.H.Z.H.R.H.T.H.H.H.Z.H.H.H.C.C.H.Z.Z.C.C.Z.C.C.C.C.C.C.C.C.H.H.G.H.H.H.G.x & & & + o 1 H }.",
"0 0 g m g n g m m m n m m &.&.&.&.%.%.m V ; ; ; ; w w r b M n { &.B 9.w.8.8.0.M ; * 1 x R Q Q E y & O - ; ; w e e 1 ; ; ; 1 e t w ; * 1 e N 9.w.w.w.w.6.6.8.w.9.6.B n r r M N N B M N b *.b 8 e w w y y G E E 5.5.9.9.5.0.0.0.0.a.s.s.!.!.!.!.!.!.Y.a.Q x x x x x G G x z Y ^ y.H.Q.Q.W.Q.&XW.W.W.W.W.W.Q.&XW.W.W.W.Q.W.W.+XQ.Q.Z.l r r u u u b b M M M M N B B B N V M V M b N Q.Q.W.Q.E.Q.W.Q.Q.+X+X+XQ.W.W.W.Z.q.H.W.Q.R.R.E.E.R.R.R.H.H.H.R.H.E.H.H.E.E.Z.C.H.H.H.H.C.C.C.C.C.C.H.H.H.C.Z.H.H.C.G.G.C.C.G.z * & & + * 1 ` ` ",
"0 9 q m m &.m m m m %.%.&.&.&.&.m %.*.*.V e e l N N E T T T u { :.r.w.w.B e = * 3 x E T Q E t & * ; w 1 3 e e ; ; = ; 1 e e e ; ; ; e E 9.0.w.r.w.6.6.w.r.r.w.7.V 9 9 l V B T B N T T r B b r : ; w w y A E E 5.5.9.5.0.0.0.0.0.w.a.a.s.!.!.!.!.s.a.a.E x x G G x G H Y ~ ^ ^ C.W.&X&X&XW.+XW.W.W.&X&X&XW.&XW.&X&X&X+XW.+XW.+XW.~ r r r r r r u u M M M M N B B N N M M V b r V.+XQ.+XQ.Q.Q.W.Q.R.Q.W.W.W.W.R.V.q.E.Q.E.R.Q.R.R.H.R.I.E.E.H.T.H.Z.H.H.H.E.E.H.C.C.C.H.G.H.C.F.H.H.H.H.G.H.E.H.H.C.H.H.C.C.C.G.t * * & o < 1 }.I ",
"0 9 q %.m n n m n m n m %.m m m %.*.*.*.V V Q Q 9.6.T M r r V :.:.7.B 8 & * 1 y N Q T M 3 o * 1 w ; 1 t w w ; = = ; e e w ; - 1 e Y q.9.w.w.w.6.6.8.8.8.w.8.6.b b B T 9 V V V V 6.6.N r b n r e 8 w w e y E E E T 9.9.0.9.9.0.0.a.a.s.s.s.!.!.!.s.a.s.E x x G x x R ^ V.H.E.Q.R.y.Z.+XW.&XW.+X&X&X&X&X+X+XW.+X&X&XW.+X+X+X&X&XW.N r r r r r r u b M M M M B B N V M V M b l N E.Q.E.E.R.Q.W.W.W.W.W.E.E.W.H.q.Z.E.R.U.Q.E.R.E.H.I.R.E.U.Q.R.R.T.Z.H.R.H.T.R.E.C.C.H.E.H.G.H.H.G.H.F.H.C.H.H.H.H.C.G.H.G.C.C.G.! 1 O * $ 1 G }.F ",
"i 0 9 &.m g n m m n b n m %.n n %.%.*.*.6.6.6.9.Q M r B 6.B %.:.{ &.& ; e x N N x r ; X & ; ; ; ; ; 1 1 ; = = ; w w w ; ; ; e Y 9.9.w.w.w.6.*.7.8.8.r.8.B b b B T 6.B r V B V B 6.B N 9 9 r r w 8 1 w w y A E E 5.5.9.9.0.0.0.0.u.a.s.s.s.!.!.!.Y.s.u.E x x x c ! y.H.E.W.Q.W.W.&XR.C.C.W.&X&X+X&X&X&XW.&X&X&XW.&X&XW.&X&X&X&XT.r r r r r r r b b M M N B B B N V M M b y l y.E.W.Q.W.E.R.W.R.W.Q.&XE.Q.y.q.R.E.E.E.E.E.E.E.H.C.H.R.E.H.R.R.R.T.E.R.E.H.H.E.E.E.E.H.E.E.H.G.H.E.H.H.G.C.C.H.H.H.H.C.C.C.C.C.G.E.K.y.H < 3 _ D.< ",
"i 9 9 m m m n %.n V n m n m m %.%.*.*.*.%.6.6.V b B 0.0.9.M 8 q q B w l Y N l w & o * - ; e e ; ; * * & * ; ; ; ; ; = ; r V 6.9.7.w.7.%.6.8.8.r.8.8.*.r V 6.B 6.B 6.B B B T B B 6.B N 8 9 r r r 8 1 1 w y y E E 5.5.5.9.0.9.9.9.0.a.a.s.!.!.!.!.s.a.u.E x x Y ^ C.H.W.W.E.W.W.W.W.&X&XQ.C.C.&X&X&X&X&XW.+X&X&X&X&X&X&X&X+X&X&Xu.r r r r r r u b b M N N B B T B M M b b r N W.Q.W.Q.Q.W.R.E.Q.Q.W.E.Z.q.Z.E.E.H.R.E.E.Q.E.E.H.H.Z.T.Q.E.R.E.R.E.H.R.H.R.H.H.R.+XE.H.H.E.E.H.K.H.E.H.Z.C.G.F.G.F.C.C.H.C.V.F.P.G.C.F.P.S.; D._ 4 ",
"0 9 0 m %.m m m V n b m m %.*.*.%.*.*.*.%.b b 4.6.7.7.T w & * 8 u u V b x w O . * * 1 1 e ; - - * * * ; ; ; ; ; & = r N T *.6.9.6.B 6.8.w.8.8.7.B w & & M B 6.B B B B V B B B V B 6.l 8 9 r r r w , 1 w e y G E T 5.4.9.9.6.5.5.0.a.a.s.!.!.!.!.s.a.u.E x ! p.H.E.Q.W.Q.R.R.W.W.W.+X+X&X+XR.A.Z.Q.&X&X&X&X&X&X&XW.W.W.&X&X%X+XT r r r 9 r r u b M M B V B B B V M M b l l y.W.+XQ.W.W.W.+X&XW.Q.E.y.C.E.Q.E.R.Q.E.E.H.R.R.E.Q.R.H.H.R.E.R.E.E.E.E.R.R.E.H.T.E.Q.E.H.E.E.H.H.H.E.H.G.C.C.C.C.C.G.P.C.C.y.V.V.V.y.C.G.F.` t D.! G ",
"0 0 9 n &.m m m q b n m m *.*.*.*.%.B b V %.7.e.9.E 1 & * 1 e r n u V w o o O * ; w w 1 ; - - - ; ; ; ; ; ; * ; r N Q *.6.6.B B %.7.8.8.8.8.B 8 = = = = V 6.*.6.6.V B V r b b l V V b 8 9 r 8 8 e 1 1 1 w y y E E T 4.0.5.4.4.5.0.0.w.s.!.!.!.!.s.a.u.E ~ y.Z.R.Q.R.E.R.R.W.Q.W.W.W.Q.+XW.&X&XW.C.Z.W.+X&X&X&X&X&X+X&X&X&X&XE.l r r r 9 r r b M M V V B B B B V M b l r M Q.Q.W.W.W.Q.W.Q.E.Q.H.y.E.Q.R.E.Q.E.E.E.E.H.H.R.H.E.I.I.H.R.E.H.R.E.E.H.T.H.H.H.E.OXE.Q.E.E.H.H.G.K.G.H.E.H.G.F.C.G.G.H.H.H.G.y.V.y.C.C.V.F.H ! D._ ~ ",
"0 0 9 m m m m m b m m m m %.B *.n n %.7.6.7.6.l * # - w t y v r q 0 &.O * * ; 1 3 1 ; ; 1 ; ; 1 1 1 1 ; * ; l B Q 6.6.*.m m %.7.7.7.7.7.N = & = = = 8 r b m *.*.V V M M V b l l M l M 8 8 8 w y y 1 1 1 w e y E E T 5.5.5.4.4.5.5.9.r.a.s.!.!.!.s.a.u.~ C.H.Z.R.R.R.W.R.E.E.E.W.+XW.Q.W.W.W.+X&X&XQ.V.C.W.&X&XW.&X&X&X&X+X+Xu.9 9 r r r r r u b V M M B T B B M b l r r y.Q.Q.R.W.W.W.Q.W.Q.V.C.Q.+X+XR.R.Z.E.E.E.E.E.Q.Q.R.E.E.E.E.E.E.E.H.H.E.H.H.H.H.E.H.H.E.H.E.+XE.H.H.K.C.H.G.H.F.H.H.C.C.H.G.G.G.G.y.C.F.G.H.G.3 y.` _ ` ",
"i 0 9 g n n n %.m n n n n V b q %.7.7.7.4.r & & 1 e x x x y ; O q i &.; - 1 3 ; ; 1 w e 3 3 3 w ; 1 ; ; x T 6.6.6.B V n m *.7.7.7.6.V & X O & & = = 8 b V m *.*.V n N r M r b l r M M : 8 e e w w w 1 w 1 w y y E T 5.4.4.4.5.5.5.5.w.a.a.!.s.s.a.a.w.q.H.H.Z.Z.R.R.Z.R.Z.R.W.Q.W.W.W.R.R.W.W.W.&X&X&XW.Z.A.W.W.&X&X&X&X&X+X9.9 9 9 9 r r u u u M V B B B N N M b l r T Q.Q.Q.R.W.W.W.Q.H.y.R.W.+XQ.+XQ.E.E.Q.E.E.E.E.E.E.R.Q.E.H.R.H.E.E.E.E.E.R.R.C.H.H.H.H.E.H.Q.E.E.E.H.P.G.G.G.G.G.G.G.H.H.H.G.F.y.G.F.F.C.H.G.y.3 D.` ^ ^ ",
"= 0 9 q n n n V b b n n q b %.6.*.7.%.b O * ; t x x x l 1 o X O q 9 | M e 1 3 e e e e e w w w w 1 ; x Q 9.9.4.B b g V *.*.*.*.6.l O X X X o & & = : : b V m 7.*.*.b N b B r b r r M V 8 ; y w e x t 1 1 w w e y M T 4.4.4.4.4.5.4.5.0.r.a.s.!.s.a.a.0.q.R.Z.Z.R.R.Z.R.R.R.R.R.Z.W.E.W.W.W.W.W.W.&X&XW.&X+XW.H.A.W.&X&X&X+X&XQ r 9 9 9 9 r r u r M V V B N N M M l r r C.W.+XW.R.Q.Q.E.y.Z.W.Q.+XQ.Q.E.+XE.E.E.E.E.E.E.R.H.H.R.E.H.H.E.E.R.R.H.E.Q.E.E.E.R.R.R.E.P.E.E.E.E.H.P.G.H.K.K.F.G.C.V.C.G.F.C.F.G.C.F.C.C.V.! H D.y.y.^ ",
"= : 0 g n n V n n b q V %.*.*.*.m q q 9 e t l G c e - X o * & $ q n { &.e t y t e w w e e w w 1 x Q 6.6.6.b b b V %.%.*.*.*.l O X X o o X o & = = = = b b B *.V *.V N r V V r y M l l e ; 3 z z x t 1 1 w w e y M E T 4.4.4.4.4.4.6.0.r.a.s.s.s.a.u.0.u.Z.Z.R.Z.R.R.Z.R.R.R.R.Q.R.W.E.W.W.W.W.W.W.W.W.W.W.&X+X+XZ.Z.Q.W.+X+XM 9 8 9 9 r r u u b V M V B V M M b b r ~ Q.W.Q.Q.Q.E.Z.q.T.+X&X&X+XQ.+XE.E.E.E.E.H.E.T.E.E.E.E.E.E.E.E.E.R.R.&XE.E.E.R.H.E.R.H.E.E.E.H.E.H.P.P.H.H.P.K.E.E.F.H.G.G.C.V.G.C.F.C.C.G.C.C.x _ ` V.y.^ ",
"8 9 b b n m B b b m *.=.*.*.n 0 0 9 q 9 x x x t * X o * * ; ; 1 q u u n t t t e w 3 1 ; ; 1 Y Q 6.6.T B V n V %.%.m %.B r O X o o O o o o o & & = = = b b n *.B B B T M l r b b b M x e t t z z z e 1 1 w w w e y M T T B B T 4.4.4.5.0.a.a.s.!.s.a.0.Z.R.R.R.R.R.R.R.R.R.R.R.Q.R.R.E.Q.W.Q.W.W.W.+X+XW.W.+XW.+X+XW.Z.C.H.+XM 8 8 0 9 r r u b b M M N V M b b b y b E.Q.Q.Q.Q.E.y.C.T.E.E.E.Q.Q.Q.Q.E.H.H.R.E.E.H.H.E.H.E.H.y.H.H.R.E.H.H.H.H.R.H.H.H.E.E.Z.R.H.E.K.H.E.P.E.H.G.H.K.E.E.K.H.G.C.F.C.G.C.C.C.F.G.H.C.e D.` C.V.y.",
"9 b b n m b b %.=.=.=.%.g 9 9 9 9 0 0 r x e * X O * * ; 3 w e w r e e y e e w 1 ; < ; w x Q 0.6.6.V b V B 6.m m m m r O X o * * * O o o O o & & & = = 9 n m m %.n b y y V N r M N l x t z z z z G t 1 w w w w w y u E V V B B 4.4.4.6.0.w.a.a.s.a.u.0.Z.R.R.R.R.Z.R.Z.Z.R.R.R.R.R.W.W.R.W.Q.W.E.E.W.W.+XQ.W.W.W.E.W.W.+XG.9.r 8 8 0 r r u u u V M M M M b u b b r C.+X+XW.Q.C.u.Q.W.E.Q.W.Q.E.W.E.E.E.E.E.E.E.E.H.H.T.E.R.E.E.E.E.E.Z.Z.H.C.H.E.E.E.R.E.E.H.H.E.E.H.E.E.P.E.H.G.F.G.E.OXE.K.H.H.G.H.V.F.V.V.C.V.G.y.G D.` C.V.y.",
"b V b b m *.=.=.7.%.u 0 9 q 9 9 9 u b r # X O * * 1 3 1 3 e e e t w w w e w 1 1 1 e E Q 9.0.9.T V V %.6.6.m m m l O X o O * - * * & O & * & & & & & = 9 b n %.*.*.Q B b r r M N Y G x z z z x z z t 1 w w w w w e y r u B V 4.4.4.4.6.6.0.a.a.a.a.0.9.Z.R.R.Q.R.R.R.R.R.R.H.R.R.R.R.R.R.R.R.R.E.Q.R.W.Q.W.W.Q.W.Q.W.E.E.E.i.r 8 8 0 r r u u b V V M M M u u b y E +X+X+XR.q.Z.E.Q.Q.E.E.Q.W.Q.Q.E.H.E.+XE.E.H.H.H.R.H.H.T.T.E.R.E.R.H.E.E.H.R.R.H.E.H.H.E.E.E.+XE.H.E.E.H.E.oXK.G.G.K.K.E.oXK.P.G.G.G.F.C.C.C.H.G.Y ! ' S.G.C.G.",
"B b B 7.7.7.=.%.q 0 q 9 9 q q u n q g l & * * ; e w 1 3 w e e e e w w w w w w y E 9.9.9.9.6.V V 6.6.6.%.B B r & X . O * * * * * * & & & & & & & & & & 8 b q %.6.*.V l l Y E N Y G G G z z G G x G x w w w w w w w w y M M B 4.4.4.4.5.0.w.w.r.a.w.0.9.R.R.R.R.R.R.H.R.R.R.R.R.Z.H.Z.Z.Z.R.R.W.E.W.E.W.E.W.+XW.W.Q.+XR.+X+Xy.r 9 9 9 r r r u b b b M b b r M M r Z.Q.W.q.q.E.W.W.W.W.Q.Q.W.W.Q.E.E.H.E.E.R.H.H.H.H.H.E.H.H.E.R.H.E.H.E.E.T.E.H.H.H.E.E.E.E.H.H.K.P.E.E.E.E.P.P.P.P.F.K.H.P.E.P.P.E.E.P.F.C.y.V.V.C.G ` ` S.F.F.C.",
"B *.7.7.7.V = i q 0 q q q n b q q 9 g M ; : ; 1 w 1 w w e e e e e w w e w y T 9.9.0.9.Q B B 6.7.6.B m B l O o O & * * * * * & & * & & * * * & & & & & 8 9 b *.*.V y T ~ Y G x G G G G G G G G G G x w w w w w w w y y M E T T 4.4.4.5.9.w.a.a.w.0.0.9.H.Q.R.R.R.R.Z.R.R.R.R.Z.Z.Z.Z.Z.Z.Z.Z.R.R.R.W.W.R.W.W.Q.Q.Q.Q.Q.+XQ.p.r 9 9 r 9 r r u b u u M M u b M M p.Q.R.q.R.W.W.Q.E.W.&XQ.E.E.E.R.R.H.T.H.H.H.E.H.Z.R.H.H.H.E.H.C.H.H.T.T.E.E.E.E.H.E.E.E.E.E.E.H.H.E.E.E.G.K.P.E.P.oXK.K.E.E.E.P.E.E.OXE.G.F.F.C.F.y.G y._ S.F.y.G.",
"8.8.6.l & O o i q q q q g b b q q b 9 b e 8 w 1 ; w 1 w e e e e w e w l T 9.0.0.7.6.B T 9.0.6.*.%.B v O o O * - - ; ; - * & O O & & = ; ; ; = = & & & : 9 9 b b Q 9.E x G G z x G x H G G G G G H z w w w w w w w y y u M B 4.4.4.5.5.0.0.w.r.w.0.0.q.R.Q.R.R.R.R.Z.H.E.R.R.Z.Z.R.Z.Z.Z.Z.Z.H.R.R.E.W.W.Q.W.Q.E.Q.Q.+X+X&XY r 9 9 9 r r r u b b u b u b b M T +Xy.H.+XW.Q.W.W.E.Q.R.T.E.Q.R.T.E.T.H.R.E.T.E.H.H.H.H.E.R.E.R.H.E.T.E.E.H.F.H.H.E.E.E.+XE.E.H.G.H.E.+XE.P.P.E.E.OXoXK.P.K.OXoXP.E.P.E.I.P.G.C.F.H.^ R y.` V.G.G.F.",
"6.e o O o O O i q g g b q q 9 9 V m q b y w w 1 w w w w w w w w w l T 9.9.9.9.T B 6.w.w.6.6.*.V w O O $ - ; - - - - ; - - & & ; ; ; ; ; ; ; ; ; ; w y r b 6.9.e.Q Y x G G G G G G G G H H H H G H z w w w w w w w r y u M B T 4.5.0.9.9.9.0.0.0.0.9.u.Q.Q.Q.W.Q.E.Z.R.Z.Z.Z.Z.Z.Z.R.R.Z.Z.R.H.H.R.R.Q.R.E.Q.E.R.R.R.+XE.E.l 8 8 9 9 r r u u u b b b b b b l ~ y.&X&XW.Q.Q.Q.W.W.R.H.R.R.R.H.R.R.T.R.R.H.E.E.E.H.H.H.H.H.E.E.Q.E.E.E.E.+XE.E.H.H.E.E.E.+XE.E.E.E.E.E.E.H.H.G.P.E.P.P.P.P.P.oXOXoXoXP.Q.E.H.G.P.K.Y _ ` S.G.F.y.^ ",
"X o o o O o O 0 g g g q 9 9 u n V b 0 u r w w 1 1 w 1 1 1 ; w M T 6.6.6.6.6.B %.7.0.e.7.e.N w * * - 1 3 3 ; - - - - ; ; * ; ; ; ; ; ; ; ; ; ; ; e l V Q w.w.q.Q E Y H G G G G G G H G H H H H H Y G w w w w w w w r y u M M T 0.0.0.0.0.9.0.0.0.0.0.u.E.W.W.R.R.R.R.Z.Z.Z.Z.Z.Z.Z.R.Z.Z.Z.R.H.C.H.R.R.Q.W.E.Q.Q.R.E.+X+XZ.r 8 8 9 r r r u r r b b b b b b M H.&X&X&X+XW.W.W.W.W.R.H.E.R.Z.R.E.R.E.H.E.E.E.E.H.H.H.H.H.E.H.H.H.H.E.E.+XE.E.OXE.E.E.E.H.+XK.E.E.E.E.+XP.H.G.G.K.P.E.P.H.H.H.E.E.E.E.OXOXP.H.K.P.F.Y ` ` P.G.G.y.~ ",
"o o o O O o o 8 g n g 9 9 u 0 q 9 0 0 r l ; w ; ; ; 1 ; w x T 6.6.6.6.B B B 9.7.7.6.6.B 1 O * 1 5 5 3 ; ; ; ; * * * - ; ; ; ; ; ; ; ; ; ; ; ; w M V 9.0.9.T Y Y R Y G G G G G G G G G H H H H R Y G w w 1 1 w w w y y M u u T 5.0.w.0.0.6.6.7.7.6.9.Z.W.W.Q.R.E.R.R.Z.Z.Z.Z.R.Z.Z.A.Z.R.R.R.R.R.R.Q.Q.E.W.R.+XE.E.Q.Q.Q.~ r 8 r r r r u u r r b b b u l b +X&X&X&X&X&X&XW.Q.E.R.W.Q.R.R.R.R.R.R.E.H.T.R.E.E.H.T.E.Z.Z.H.H.H.H.E.E.E.E.P.E.+XoXE.E.E.E.+XE.oXE.E.K.P.P.H.G.H.G.G.E.OXE.G.H.oXoXE.E.OXOXE.H.G.E.y.R ` ` I.G.F.V.i.",
"& O o o o o o = n g g 9 9 q q 0 0 q g r w w 8 ; ; ; e N T T 6.6.6.V n 6.6.6.6.%.B r * * * 1 3 2 t 3 3 1 1 - * & & * = ; - * = ; : ; ; ; ; 8 ; = N 6.9.Q T ! R Y G G G G G H G G G G G G H G H H Y R e 1 1 1 1 w e r y y u M 4.0.w.a.0.6.6.7.7.6.9.0.T.Q.Q.W.W.E.R.R.R.Z.Z.Z.C.Z.Z.Z.Z.R.H.R.R.R.R.E.Q.Q.W.Q.Q.E.E.E.Q.E.N 9 9 r r r r u u r u b b b r r q.y.C.W.&X&X&XW.Q.W.Q.E.W.E.R.E.Z.R.R.T.R.E.R.R.R.E.E.R.H.R.H.H.H.R.R.H.H.E.E.E.E.E.E.E.E.E.E.E.E.E.E.E.P.P.E.OXoXP.P.H.H.oXOXK.H.H.oXoXoXP.OXP.P.H.P.^ ! ` V.G.F.S.F.S.",
": O o o o o o & n b u 9 9 9 9 9 b g b b r e w 8 r x T T 6.9.T V n B 6.6.6.B N e * * * 1 t z 4 1 * ; 1 - - * * * = * & = - ; ; ; ; ; = w r e , l 6.Q Y Y R Y Y Y G G G G G G G G G G G G G H H ! _ ` e w 1 1 1 1 w y y y M T 5.0.a.a.a.0.0.0.6.6.9.q.R.W.W.R.R.Z.R.R.H.Z.Z.Z.R.Z.Z.H.Z.R.Z.R.R.R.Q.E.R.Q.Q.W.W.+X+XE.E.C.r 9 r r 9 r b b u r b b b r b T +X&X+Xy.V.W.&X&X&X&XQ.E.R.E.E.R.H.R.E.Q.E.E.R.R.R.R.R.H.H.R.E.H.H.E.H.Z.K.H.H.H.E.oXE.E.E.E.E.E.K.E.E.E.E.H.H.OXoXOXE.OXG.K.E.P.G.G.E.P.P.E.E.P.H.P.H.Y _ ` F.F.F.S.F.F.",
"u o o o o o o o n u 9 9 0 9 q b b q b V M w l T Q T 9.9.6.V b B 7.7.6.6.B e & $ * 1 t t t 3 1 3 ; * & & & = * & * * = = ; ; ; ; ; w r r r : Y Q N Y R R Y Y H H H H G G G G G G G G H H H ! ` V.G.~ w 1 1 1 1 1 w y y y M 5.0.0.a.a.a.a.w.0.6.9.9.A.R.W.W.Q.W.E.R.R.R.Z.Z.R.R.R.R.R.H.H.H.H.H.R.R.E.E.Q.Q.W.W.W.Q.Q.E.~ r r r r r r b b u b b b b b b H.+X+XW.W.W.q.y.E.+X&X&X+XQ.R.R.R.E.W.Q.E.Q.E.H.E.H.R.E.T.E.E.H.H.H.E.T.E.H.H.G.H.K.H.E.E.E.E.OXE.H.E.E.E.E.P.H.H.P.P.P.E.P.H.P.P.F.G.P.E.E.K.P.K.P.K.V.Y ` ` H.C.G.F.F.F.",
"u = o o o o o o b 9 9 9 9 n n g b q B B B 6.6.6.6.9.B 9 b 6.e.e.6.6.B r O O $ < 3 3 1 1 1 3 1 * O & & * & * * & * = * * - = ; ; 8 9 r r M T N Y R R R Y H Y H G H G G G H G G G H H H R ^ y.C.P.K.Y 1 1 1 1 1 1 w w y M E 5.5.0.a.a.a.a.a.0.6.9.9.Q.+XW.W.R.W.R.Z.Z.R.R.Z.R.R.R.Z.Z.R.Z.H.R.E.R.H.E.R.R.Q.Q.R.E.OXQ.E.l 9 r r r u u u u u b b M M M Q W.Q.Q.W.+X&X+XW.V.q.T.Q.Q.+X+XW.R.R.R.E.Q.E.E.E.E.E.E.Q.T.E.E.R.T.T.E.H.E.H.E.E.E.E.H.E.+X+XE.E.E.E.E.E.E.E.OXK.P.P.H.E.OXP.K.H.F.F.G.C.G.P.P.H.K.H.P.y.R ` V.E.J.G.K.G.V.",
"i q O o o o o o 8 9 b 9 b u q q n q b 4.6.9.6.6.B b b B 7.6.7.6.Q y O O $ - 1 1 ; ; ; ; ; * & & * * * = * * * & & & & ; ; ; ; 8 e 9 N T Y N Y G H H H Y Y Y Y Y Y Y G G G G G G G Y ! y.F.H.E.E.F.e 1 1 1 w 1 1 w w y M E 5.5.5.0.a.a.a.u.0.6.9.9.+XW.W.W.R.R.Q.R.R.R.R.R.H.Z.R.E.R.R.A.Z.Z.R.R.H.E.Q.R.H.R.R.T.E.E.C.r 9 r r u u b u r b b M V M b E.+XW.Q.W.Q.W.W.Q.E.R.y.q.R.E.Q.W.Q.W.Q.H.H.Q.Q.Q.E.E.E.T.E.E.E.E.E.E.E.H.H.E.H.H.E.H.H.H.H.E.E.H.G.E.E.E.E.E.E.OXK.G.E.E.P.P.P.C.G.G.F.G.G.G.K.H.K.H.K.! ! ^ V.Q.G.G.J.F.F.",
"i { 9 O o o o O 8 9 b b b b 9 b B 6.7.e.0.9.B b V T 6.0.B B *.l O o $ * - ; - - - - * * & & & * & * * * = & & & & & & * ; ; = = x T Y Y Y Y H G H Y H H Y Y H G Y H G x x G G H ! ` V.H.E.E.+XE.p.e w , , 1 w w w r y M E T 4.5.0.0.0.0.0.9.9.6.Z.&XW.W.W.W.R.R.Q.W.Z.R.R.R.Z.Z.H.H.H.Z.A.Z.Z.R.R.R.R.T.E.Q.T.E.Q.E.Q r 0 9 r u b b u b b b M V b Q +X+X+X+X+X+XW.R.W.E.W.Q.E.V.q.R.H.H.E.R.R.W.+XQ.Q.Q.Q.E.R.H.H.E.Q.E.R.R.H.H.E.H.K.E.E.E.H.E.E.E.H.H.K.E.H.E.OXE.E.oXH.K.P.E.E.P.K.K.K.K.G.G.F.G.P.K.H.F.Y _ ^ G.H.P.G.F.G.F.",
"& { &.; & o O o 8 u u u u q B 6.6.7.7.6.%.V B %.6.6.6.B V w O o O * - - - * - * * & & & & & & & & * * & * * & & & * = * * & ; Y Y Y G c H H H G H H G G G H Y G H Y G G G G R p.y.H.E.E.E.E.E.K.x w w ; 1 1 w w 1 r M M M T T 5.9.0.0.9.6.6.6.6.Q.W.+XW.W.W.W.E.R.R.R.W.R.R.R.Z.Z.R.H.R.R.Z.Z.R.Z.H.R.E.E.Q.Q.Q.+XE.b 9 8 9 r r u b b V b b V V b Z.+XW.W.+X+XW.+XQ.W.R.E.Q.+XW.E.y.y.Z.R.R.Q.E.Q.+XQ.W.E.E.E.E.H.H.T.H.E.E.H.H.E.E.E.K.E.E.E.E.G.K.H.H.E.E.H.G.K.P.oXP.E.OXOXoXoXoXE.G.H.I.V.F.G.P.I.G.S.y.R _ ` H.P.E.K.G.S.V.",
"& i 0 = & & O o e V u r V 6.7.6.6.6.B n B 6.7.9.7.6.V w O o o * - - * * * * & O o O & & * * & * * * * & * & * = = & * * 3 y x x x x z c x G G G x G Y H G Y R Y H H G H ! ~ y.F.H.R.E.E.Q.Q.H.y.w w w ; 1 w w w 1 e y M E T T T 0.0.0.4.4.4.Q q.W.W.+XW.W.E.W.W.R.R.E.Q.H.R.Z.H.Z.Z.R.H.Z.Z.R.R.R.R.R.E.E.E.Q.Q.Q.H.r 0 9 9 r u u b V b b b M b B Q.W.&XW.E.+XW.W.Q.Q.R.E.E.W.W.Q.Q.R.V.q.Z.E.Q.E.+X+XQ.R.E.E.E.E.E.E.E.E.H.H.E.E.E.K.H.H.E.H.H.H.H.H.H.H.H.K.H.K.E.E.E.P.P.+XOXOX@XOXoXG.H.G.F.G.K.E.K.G.~ R ~ F.P.P.P.G.F.G.F.",
"; = : : ; - & & : 9 V 6.6.7.7.6.%.n m *.8.w.*.6.B 9 9 ; + $ * * * & & * & & O O O & & * * & * * * * * * = ; ; ; ; ; w y x 3 x v x x x x x x x Y H H Y Y G G H Y H Y R ! y.C.Z.H.R.R.E.R.H.Q.K.R w w w 1 w w e w 1 w y M T T T T 9.0.9.4.T 4.T T.W.Q.Q.E.E.R.Q.Q.E.Q.R.E.R.E.H.W.W.Q.Z.R.R.R.H.R.H.Z.H.E.E.Q.Q.Q.E.~ 9 9 r 9 r b b b b V V V V V u.W.&XW.+X+XW.Q.W.W.Q.Q.W.E.R.R.R.E.E.E.E.C.q.C.R.Q.Q.R.R.E.E.E.E.E.E.E.E.K.E.E.E.H.E.H.H.H.H.C.C.H.H.H.H.G.E.K.K.G.P.P.H.P.P.oXoXOXOXE.oXP.P.G.F.G.OXK.G.R ! ! P.I.P.K.K.F.G.S.",
"8 ; 8 8 8 ; ; r B 6.6.6.7.8.*.m *.7.7.8.7.%.m 9 8 u b v * * * * & & & & & O O * * * * * & * * * * * * & * ; ; ; ; e e 3 1 z z t x x x c x z x c Y x x H H Y Y Y R ^ y.C.Z.Z.R.W.R.R.R.R.R.R.F.t w w w 1 1 w w w 1 , w y M M B T 5.5.4.T T T 9.R.Q.Q.E.R.R.R.W.Q.E.R.E.R.E.R.R.R.R.R.R.E.E.E.R.R.Z.R.E.R.E.T.Q.E.R.l 9 9 9 9 r u b b n V V V V B W.W.&XW.W.W.W.W.R.Q.R.E.E.R.R.Z.R.R.R.R.R.R.H.y.q.C.E.E.R.R.H.H.E.H.E.E.E.H.E.K.E.E.E.E.oXG.H.K.H.H.H.H.E.K.H.oXP.E.K.K.oXP.C.K.H.P.E.P.E.E.P.G.V.K.K.H.i.Y ` ` I.H.H.P.K.F.F.V.",
"8 w 8 8 w r B 9.6.7.7.7.B B 6.7.7.8.*.*.n 9 0 9 0 b b r & & & & & & & & & & & & * * * * * * * & * - & & w e ; 1 x x x x x 1 t x x x x x x x x x c x G Y R ! ~ ` y.C.H.H.R.Z.R.R.R.R.R.Q.Q.H.p.w w w 1 1 1 w w w w , w y M M M M T T T T N V Z.W.Q.+XW.W.W.Q.Q.E.W.R.E.R.Q.E.R.H.H.R.Z.R.Q.H.R.H.H.R.H.R.E.E.E.E.A.9 9 9 9 r u u b V V V V V B q.Q.W.&XW.W.E.Q.Q.R.W.R.R.E.R.E.E.W.+XW.Q.R.Z.H.H.E.y.q.C.H.H.T.R.H.H.E.E.H.H.K.H.H.H.H.E.K.E.H.E.H.K.H.H.H.E.E.E.P.K.K.P.P.P.E.H.K.K.K.H.E.OXoXE.C.V.G.G.` ! _ S.K.P.K.K.oXK.G.G.",
"w e e l T 6.0.7.0.6.%.B 6.8.8.6.7.*.V q 9 0 i 0 r q b w & & & & * * & O & & & * * * * * * * * * * * & ; 8 r t x x x x z G G t e z x l x x t t z x x H Y ~ y.C.C.H.R.R.R.R.R.R.R.R.E.R.R.Q.H.Y w w 1 1 1 w w w w w ; w r u M M M T T T N N T E.W.+X&XW.+X+XW.E.E.R.E.R.R.Q.R.H.Z.H.R.H.Z.Z.R.W.R.W.R.R.R.Q.T.E.Q.0.9 9 9 r r u V V V n V B B B R.W.Q.Q.E.Q.Q.Q.Q.W.Q.W.Q.R.R.R.R.R.E.Q.E.R.R.R.E.E.R.E.y.y.q.R.E.E.E.E.E.E.E.E.E.H.H.H.H.H.E.E.E.G.H.H.K.E.K.H.G.H.oXP.H.K.P.H.K.P.H.P.P.P.E.P.K.C.V.G.G.~ ~ ~ K.E.K.P.P.OX XK.F.",
"8 y T 9.0.8.7.w.B V %.w.w.*.7.7.B u u 9 9 9 i i b B V e & & * * & O O & & & & & * * * * * - * * * * * ; e x G x x x x x x x x x e z x x x z x z x c Y ~ y.C.H.R.R.R.R.R.R.R.Z.Z.T.R.H.R.R.C.y 1 1 1 1 1 w w w w w w 8 r r M M M T T N N M A.W.+XW.W.&XW.W.&XW.W.W.R.R.Q.R.Q.R.Z.Z.R.R.Z.H.W.E.Q.E.H.E.R.H.E.E.C.M 9 9 9 r u b b V V V B V B 9.W.Q.Q.E.Q.Q.R.R.E.E.W.Q.W.R.W.H.R.R.R.R.R.E.E.R.E.H.H.C.R.H.V.~ y.E.E.E.E.K.E.E.E.E.E.E.E.E.H.H.E.E.H.H.E.E.K.E.E.E.E.oXK.P.P.P.H.K.G.oXG.E.P.P.P.F.V.S.S.~ _ ^ P.H.K.P.P.P.oXK.G.",
"Q e.0.w.e.B V B %.6.8.7.=.*.m 9 b b 0 0 9 V b B B V B l * & & O O & * * & & & & * * * ; ; ; ; ; ; 1 e x x x x x x x c x x x x x x t t x x x x x c Y ~ y.Z.R.R.R.R.R.R.R.Z.R.Z.R.Z.H.E.E.R.y.w w 1 1 1 w w w w w w 8 8 w r r u M N N N N N Q.+XW.&XQ.Q.W.Q.W.+XW.W.Q.R.R.R.R.R.H.Z.Z.Z.H.R.R.E.E.R.R.R.R.H.Z.~ 9.b r r 9 9 u b b V V V V V V R.+X&XQ.Q.Q.R.R.W.E.R.R.E.R.R.W.R.H.R.R.E.T.E.E.Q.E.Z.H.H.H.H.H.H.C.^ y.K.R.E.E.E.E.E.E.E.H.E.H.E.E.E.E.K.K.E.OXP.P.K.K.oXK.E.E.oXE.P.E.P.P.K.P.P.K.K.V.i.` ^ _ y.oXP.P.OXoXP.oXoX X",
"7.0.6.B B %.B 6.7.7.7.*.m 0 0 9 9 9 9 0 V 6.V n %.n V b & O O & & & * * * * * * * * - - * 1 ; 3 l x x x x x x G x x x x G x x x x x z 3 z x c E ~ q.C.C.R.R.T.Y.R.Z.Z.R.H.Z.Z.H.R.H.R.R.R.q.1 w 1 1 1 w w w w e w w 8 w r r u N B N T M Q +XW.+X&X&X+XW.W.Q.Q.+X&X+X+XQ.Q.Q.R.R.R.H.R.H.R.E.R.R.R.E.H.Q.y.Q Z.Q b r r r r u u n V V V B B B R.W.Q.Q.E.E.E.W.E.E.R.R.Z.Z.R.R.E.R.R.R.R.T.E.T.E.R.H.H.H.H.R.R.E.E.E.C.^ y.K.E.E.+X@XE.E.H.H.E.oXE.E.E.P.K.G.E.G.H.OXoXP.P.K.P.oX@XE.E.J.P.P.E.P.P.K.y.R 3 H ! S.P.E.oXOXOXoX XoX X",
"6.6.V B 6.6.7.7.*.*.V 9 0 9 i 8 9 u V *.*.B B n n V B b & & * & * * & & & & * * * * * & 1 w t x x x x x z x x G G G G G G x x x x x x x t z ~ y.A.Z.Z.R.R.R.T.~.R.R.R.R.R.R.R.R.R.R.H.R.T.Q 1 1 1 1 1 w w w y y w w w w r r M N T N M M y.&XW.W.+X+X+XW.Q.W.+X&X&XW.&X&XW.W.W.Q.R.R.H.R.R.R.R.T.H.E.E.q.y.H.R.V r 9 r u u b b V V V B B B T W.W.W.W.R.Q.E.Q.E.W.R.R.R.R.R.R.R.R.H.H.R.E.E.T.T.R.H.H.E.H.Z.C.E.E.E.H.E.C.q.y.E.E.@X+XE.E.E.K.P.P.P.P.P.G.K.G.P.P.E.E.P.E.K.K.K.E.E.P.K.K.K.P.E.K.G.y.x t $ # t J.K.oXoX XoX XoX X",
"m B *.6.6.6.7.*.V b 0 9 9 q 9 0 n 6.*.*.%.m B %.m n C V & * * & * & & & & * * * * * ; 1 x x x x x x x x z x x x x G G G G c x x x x Y Y ^ ~ N A.Z.~.R.Z.R.R.R.R.R.Z.Q.R.R.R.R.R.R.R.R.R.Z.N ; w ; ; 8 w w w y y w r w w r r M N N N M y u.E.Q.+X+XW.&XW.W.&XW.R.W.W.&XW.Q.Q.W.R.E.R.R.R.R.R.R.H.E.C.q.R.E.R.9.V r 8 9 u u b n B B B B B B B W.W.W.E.W.R.R.E.E.Q.E.R.R.Z.R.R.E.R.R.R.E.E.E.E.R.H.H.H.H.E.E.H.E.E.E.E.E.H.E.G.^ y.F.E.@XE.E.oXE.P.K.P.P.E.oXE.P.P.E.E.E.P.K.P.P.oXP.P.P.K.P.P.G.E.P.K.` 1 $ $ 5 ` F.G.F.F.S.F.G.G.",
"7.6.6.6.6.*.b : r r 9 9 9 9 B 7.*.%.*.*.m B %.%.*.b n V = * & & & & & * * * & * 1 t t x x x x G z x x x z x x x G G G x G G c x c Y ~ q.q.Z.Z.~ q.~.T.R.R.Z.R.R.R.R.R.R.R.H.R.R.R.R.R.R.Z.c ; ; ; ; 8 w w e y y y r r r r u M N M N N M H.+XR.W.W.W.Q.W.+XW.+X+X&XW.Q.+XW.W.+XW.R.H.R.H.Z.Z.H.R.^ Z.Q.E.R.T.V M r 9 r r b V B %.%.B B B %.B W.W.+XW.Q.R.W.Q.R.W.W.R.E.Q.E.R.R.E.R.E.R.H.E.E.R.T.H.Z.H.H.E.E.H.E.E.E.+XH.E.E.G.G.~ y.G.E.E.E.E.K.K.G.P.E.E.E.P.G.E.H.H.E.P.P.oXOXOXoXP.H.G.P.E.K.P.E.oXL._ ) _ i.S.F.K. X XG.G.K.",
"7.7.7.B l & o & b b 9 9 n *.*.*.*.*.n *.*.7.6.V B m B V ; * & & & * & & & ; e x x x x x x x x x z z x x x x x x G G G G c H c Y Q ^ q.Z.~.R.T.T.A.Q Z.Z.T.~.~.~.R.R.W.W.R.R.E.R.Q.Q.E.R.Z.x ; 1 1 1 8 w e r y r y u r r r b M M N N N M H.+XW.W.W.Q.W.W.W.Q.Q.W.Q.W.+X&XW.Q.W.E.Q.R.R.Z.Z.A.y.q.R.E.R.T.Q.A.V M u r r b V B 4.4.6.B B B 4.6.7.T.W.Q.W.W.R.R.Q.W.R.R.R.Z.E.W.E.R.E.W.E.E.E.E.R.H.+XU.R.H.R.T.E.E.E.+XE.K.E.E.T.K.G.F.y.y.H.I.P.E.P.oXOXE.P.oXE.P.E.P.K.P.K.E.P.P.oXP.K.K.K.P.OXP. XP.OXoXG.S.S.S.F.y.S.S.K.oXoXoX",
"e.6.M & & & & & r g m *.*.m n =.*.*.*.m *.*.6.%.V m B V ; & * * * * O ; z x t x G x x x x x x z x x x x x x x z G x G G x Y Q q.V.Z.Z.R.R.R.Y.R.R.R.Q q.T.~.~.~.R.R.R.W.R.R.R.Q.R.E.R.R.Z.l w 1 1 1 8 w w e r M M M r r r u M T T N M E T.Q.Q.E.R.Q.Q.+X+XW.E.Q.W.W.E.R.Q.W.+X+XQ.R.R.R.C.Q V.U.R.R.R.R.R.6.V M b b b V B %.4.6.6.%.%.%.6.6.7.7.0.u.^ y.H.W.W.Q.W.R.Q.R.W.R.W.R.Q.R.R.Q.T.E.E.R.E.E.E.T.R.E.H.G.H.E.E.E.E.E.E.E.E.oXH.G.q.^ y.G.P.E.P.P.E.E.K.K.P.E.H.K.P.G.P.G.E.P.OXP.P.K.K.OXK.P.K.P.K.G.J.F.K. XF.F.G.F.G.K.",
"v O O & & & = r 9 n *.=.%.7.m 8.*.=.m *.*.m m %.%.B m V ; - & & * 3 x c t e t x x z x z x x z x t t z x x x G x G G G Y ! ^ y.A.Z.Z.U.~.~.R.R.Q.Y.Z.T.w.T Z.Q.R.Q.Q.Q.R.R.R.R.W.Q.W.R.R.Z.x w 1 1 ; w w w w r M M r M M M M B N N N N E H.Q.&XQ.W.E.E.R.R.Q.Q.E.W.Q.R.E.R.W.E.Q.Q.E.E.V.q.Z.R.R.Z.R.R.T.A.V V M b b b V B 4.6.9.6.6.4.6.7.7.*.7.7.7.E o O Y H.E.+X+XW.W.R.R.E.W.R.R.E.E.Q.E.E.H.H.E.E.T.E.E.E.E.H.E.+XE.H.H.E.@XK.E.E.P.K.H.^ ! y.K.P.P.oXP.P.oXoXE.K.P.K.P.K.P.K.P.E.OXE.oXK.K.oXoXK.G.oX XJ.S.K. XP.K.K.F.F.S.",
"X X o O & & = 9 9 n &.*.m *.%.8.*.*.6.*.m B V n b n B M = * = w Y Y x t x x z x z z z z x x x x x x x z x x x x G G Y ~ y.A.H.R.~.Z.~.R.R.R.R.R.R.R.R.Y.A.^ A.R.Q.Q.W.W.E.Z.Z.R.R.Q.E.E.H.N w 1 1 1 8 w 8 8 r b u r M M M M N N N N N Y Q.Q.W.W.Q.R.E.R.E.W.W.W.W.E.W.R.W.+XQ.W.Q.E.q.C.R.T.R.R.R.R.R.R.9.B V V b b b M V B 4.6.6.6.6.7.7.7.7.7.0.7.7.T e G x Y Q.W.+XW.W.W.Q.R.W.R.Q.W.W.W.E.C.E.E.R.E.E.E.E.E.E.+X+X+XE.E.E.E.K.E.E.P.K.E.K.V.^ Y y.K.P.E.E.E.oXOXE.OXE.E.K.H.G.E.P.G.P.K.J.K.K.oXP.K.oXP.P.G.G.G.K.OX XoX XG.",
"X X o O & & & 9 9 g %.7.%.*.*.*.6.%.*.B 6.B B b b V V b e e Y Q x x x t t x x x t z x x x G G x z x z z z x z x H ! q.V.Z.R.Z.Z.~.Z.Z.T.R.R.R.T.Z.Q.R.~.R.R.u.9.R.R.Q.Q.E.E.R.R.E.R.Q.E.R.x w w 1 8 8 w w w r r r M M M M M N N N N M E E.Q.E.Q.E.W.E.Q.E.R.W.+XQ.+XQ.+XW.R.R.W.C.u.Q.W.E.E.R.R.R.W.R.Z.T V B B M b b V V B 4.6.6.6.6.6.7.7.7.7.7.8.8.7.6.A.Q.G.1 ~ W.W.W.W.W.W.&X&X+XW.+XR.E.E.E.Q.E.W.Q.E.+X+XE.E.E.E.E.E.E.E.E.E.E.P.E.E.P.E.H.G.y.^ G.G.oXOXOXE.E.E.E.OXoXoXK.E.H.P.K.P.K.oXK.oXP.OXP.P.oXK.G.G.G. X XoXoXoX",
"o o o O & O & 9 g g *.*.*.6.6.%.*.n %.m m B B b V b l M Q ~ Y x x x x z z z x t x x x z z x G z x x z x G G H R ~ y.Z.Z.Z.Z.H.Z.~.Z.~.~.R.R.R.Q.Z.R.Q.Q.R.Q.R.R.Q A.Q.E.R.R.R.U.E.R.E.R.R.Y w w w 8 w w w w 9 e r M M M M M N N N N N Q E.W.Q.Q.+XQ.W.E.W.W.W.W.W.R.Q.W.E.E.H.^ Z.E.Q.W.+XW.R.R.R.R.H.q.B V B B M b M V B B B 6.6.7.6.6.7.7.7.7.7.7.8.8.7.*.6.N x 1 e C.W.&X+XW.W.W.W.+XQ.Q.E.E.Q.E.E.+XE.+X&XQ.E.+XE.E.+XE.E.E.E.E.K.E.E.oXH.E.P.E.OXG.^ ^ V.K.P.P.oX@XoX@XOXE.H.P.E.P.E.P.oXoXP.P.P.OXoXoXOXoX XG.P.P.P.OX@XoX",
"o o X o & & & 9 g 9 m 7.7.V 6.%.B *.7.n V B Q V M M ~ p.Y x x c G x x x x t x x x x z x x x x x x x x x z Y ~ y.C.H.U.R.Z.Z.Z.Z.R.R.R.R.R.R.R.R.R.Q.Q.R.Y.Q.R.Q.R.^ q.R.E.R.R.H.R.E.R.R.R.E e w ; 8 w 8 8 w e e r M b u M M N N M M N C.E.Q.Q.+XW.+XW.Q.W.E.E.W.W.Q.E.R.R.y.p.E.W.W.R.R.Q.E.E.R.R.R.C.e B B B B B V M V T 4.B B 6.6.6.6.7.7.7.7.7.7.7.0.7.*.*.6.N 1 < ; 9.!.Q.W.W.W.E.W.Q.Q.+X+X&X+XQ.+XQ.Q.E.E.E.+X+X+X+XE.+XE.E.E.oXE.E.oXoXE.oXoXE.OXE.G.y.Q y.P.P.@XOX+XOXOXOXK.K.oXP.oXP.P.E.P.oX XoXoXoXoXP. XK.P. XoXoX X",
"o o o o O O & 0 9 b m 7.*.*.m B 7.=.*.B B V B T ~ y.^ x x Y H H H G x x G G x x G x x x x G G G G x G Y ~ y.C.H.H.H.Z.Z.Z.Z.Z.R.Z.R.R.R.R.Q.~.R.R.R.R.R.~.R.R.Q.R.Q.H.~ Z.Q.R.E.R.E.E.E.Q.! w ; ; ; w w 8 w e r r u u M M M M M b b Y E.W.E.Q.W.W.Q.W.W.Q.Q.Q.W.E.Q.E.Z.9.C.E.E.E.E.E.R.R.W.E.H.Z.T.q.; V B T T T B B B B B B B B 4.6.6.7.7.7.7.7.7.7.7.7.6.7.6.6.M * - 1 9.Y.!.W.W.Q.W.W.R.E.+X&X+X+XQ.Q.+XE.+XQ.+X+X&X+XE.+X+X+XoXE.+XoX+XOXE.E.E.P.oXOXoXE.OXy.^ G.E.oX%XOXE.OXoXoXOXoXP.P.P.E. XP.oXOXoXOX XK. XoXP. XoXOX X",
"& O O o O O O i 9 b m 7.*.6.6.7.B m *.B Q 9.q.y.^ Y c Y x H G G G G x G x G G G G Y H x G G G G H R ~ p.C.C.Z.Z.R.R.Z.H.R.R.R.Z.R.R.R.R.R.Q.R.R.R.Q.R.R.R.Q.R.W.R.W.W.Q.y.^ Z.R.R.H.R.E.Q.^ ; ; ; w w w 8 w e 8 r r u b M N M M M M ~ Q.W.Q.+XQ.+XQ.W.Q.W.Q.E.W.E.E.y.q.T.R.E.R.E.W.R.R.R.W.Q.H.Z.Z.! - V B T T T T T T B B B B B %.6.9.0.0.0.7.6.6.7.6.%.B B N M Y 3 * < 1 6.w.Y.W.W.W.Q.Q.+X+X+X+XE.E.Q.+XE.OXH.+X+XE.oX@X+X&X&X+XoXOXE.OXOXOX+XOXE.oX+X%X+XE.E.E.V.^ G.oXE.oXE.OXP.OXOXP.OXK.P.oXP.P.oXoXoXoXoXOXOXP.P.K.oXoX",
"& & & O O o & : l 9 g %.*.7.B V B B 6.0.p.y.p.Y x N x c Y G x G Y H G x x x G G G H Y H G G H Y ~ y.V.A.H.R.R.Z.Z.R.H.R.R.R.R.Z.R.R.Q.R.R.R.W.E.R.R.R.Q.Q.Q.Q.Q.E.R.W.Q.E.H.^ C.R.W.Q.Q.Q.C.1 ; ; 8 w 8 8 w w 9 r r r b M N M M r M y.+XW.Q.E.E.E.W.W.W.E.R.R.E.H.Q C.E.T.T.R.R.R.E.Z.R.E.R.R.H.Z.A.Y < l T 6.6.4.T T T B T T 4.4.4.T 6.9.9.0.0.6.4.B l ; * & * * * - - - - w 7.w.w.w.E.+XW.Q.+XQ.Q.E.Q.E.+XE.E.+X+XE.E.+XE.E.Q.+X@X@XE.+XOXoXE.OXE.E.oXE.E.E.E.+XOXOXP.y.y.G.oXOXOXE.+XoXP.OXoXOXOXoXOXoXoXOXoXoX@XOXOXK.K.K.K.",
"* & & & & O & = 9 q g *.m C b T 9.q.q.u.q.Q Y Y Y Y c x c G G H H H G H H H G G H Y H Y Y Y ~ y.C.C.H.R.H.H.H.Z.R.R.H.R.R.R.R.H.R.W.R.R.W.Q.E.W.Q.Q.R.Q.R.R.R.W.W.R.R.W.H.E.E.y.q.E.E.+XE.E.y ; ; w w 8 8 w 8 r r r u b M M M M l N E.Q.+X+XE.+XQ.W.Q.H.R.R.R.q.y.H.Q.Q.Q.E.E.R.E.E.Z.Z.H.R.R.Z.Z.V.c 1 ; T 6.9.9.6.4.T T T T 6.6.9.6.6.6.6.6.Q M ; * $ $ * - - - - ; ; - < - r *.8.0.9.y.+XR.E.Q.Q.Q.W.+X@X+XoXOX+X+X+X+X+X&XOXE.@X%X+X@XOXE.+X%XoXOXOX@XE.OXOX+XOX@XOX+XP.C.^ F.OX@X+X@X+XOXOXoXOXOXOXoXoXoXoXP.@XoXoXOX X XoX",
"- & & & & & O & 9 9 b m V B 0.u.q.u.y.Q E Y Y Y Y Y c c Y G Y Y Y R Y Y Y R G H Y Y H R ~ y.y.Z.Z.Z.R.H.Z.H.R.U.R.R.R.R.Q.Q.E.H.R.R.E.Q.E.Q.W.W.R.W.R.W.W.Q.R.W.W.+XW.Q.E.E.E.E.E.^ G.E.+X+XR ; ; w 8 w 8 8 w r r r b b b M M x M 9.+X+X+XQ.+XQ.+XQ.Q.E.W.Z.^ H.E.Q.E.E.E.E.H.Z.Z.C.Z.R.Z.R.H.H.E.U.! - $ w T 9.w.0.6.T T 6.Q 6.Q T T T M l 1 * & $ $ $ $ $ - 3 x T T E e - O - b 7.r.w.~ ^ Q.W.&X&X&XQ.+X+X+XE.E.E.E.+X+XE.E.E.+XOX@X+X+XE.OX+X%X@XoX+XoXOX+X%X+XOXOXOXoX+X@XE.y.p.G.+X%X%XOX%X%X@X%X@X&X%X@X%X@XoX@XOX@X#X#XoX",
"; ; ; ; ; = - & 8 9 g V 6.q.w.y.C.~ Q ! ! Y Y Y Y Y c G G Y H H Y R R Y R Y H R Y Y ! ^ y.C.H.Z.H.H.Z.R.R.R.R.H.Z.H.H.E.U.R.E.R.Q.W.R.E.Q.W.Q.R.W.R.W.R.W.W.W.W.W.Q.W.W.W.E.E.I.E.E.y.q.+X+X~ w w 8 w w 8 8 8 e r r b M M M M x M G.+X+X+X&X&X&X+X&XW.+Xy.C.+X+XQ.E.R.R.E.H.C.H.H.Z.R.R.Z.R.Z.R.E.R.y.3 $ O ; T 9.9.9.9.9.Q N x l 1 * O o o # # $ O O # < x Q 9.9.6.9.9.4.N 1 $ b *.7.8.!.9.! Q.R.Q.+X+XOX@X+X+XE.E.+X+X+XOX+X@XE.E.oX%X%XOX+X+X+XE.+X+X+X@X+XOXOXOX+X+XoXE.OXOX+XOXC.y.y.OX%X&X%X&X%X%X=X%X%X@X%X%X=X%X=X=X@X@X",
"1 ; ; ; w r e ; ; r Q w.q.q.q.^ Q Q Q R Y Y Y Y Y Y Y Y Y Y Y Y Y R Y Y Y Y Y Y ! ~ y.y.C.R.R.R.R.R.H.Z.E.R.T.R.R.H.H.E.E.E.E.E.Q.W.Q.E.E.W.W.R.Q.Q.W.W.R.Q.Q.W.+X+XW.+XQ.Q.E.E.OXG.OXK.~ J.y.w w w w w 8 w w r r r u M M M N M E +X+X&X&X&X+X+XQ.+XT.q.Q.+XE.E.Q.E.E.H.R.P.E.W.R.R.R.Q.R.W.Q.Q.E.H.H.y.z O O O * ; 8 ; ; * o o o o . . . . o o o - t R 9.9.9.9.9.7.0.0.7.6.T - w 8.7.8.8.w.x y.W.E.E.+XE.E.Q.Q.E.E.oX@X+X+X+X+XoX&X+X@X@XOXOX+XE.%XOX+XOX%X+X+X+XOXE.@X+XE.+XOX+X@X+XOXy.^ y.K.OX%X&X%X&X%X=X=X@X%X=X%X%X%XOXOX",
"; ; w e w ; ; ; x 9.A.q.q.~ ~ ^ ^ Q ! R ~ Y Y Y Y H Y Y Y Y H H Y Y Y Y R ! ! ~ y.y.F.C.H.H.H.E.H.E.R.Z.H.H.H.H.H.R.R.H.R.H.H.E.E.W.Q.Q.Q.Q.W.W.W.W.W.+XQ.W.Q.W.W.+XQ.Q.W.E.+X+X@XoX+XE.@Xy.Y w w w w w 8 e 8 r r r b M M N N M p.&X+X&X+X+X+XE.+XC.y.+X+XE.Q.R.R.E.H.E.E.Q.E.E.W.W.W.W.W.+XW.R.W.I.R.H.y.~ G 1 * O O O O O + + o + o o o o o . . # 3 E Q 9.9.9.6.0.w.w.0.0.6.6.M %.4.7.r.!.R G I.+X+X+XQ.+X+X@XE.E.E.+X@X@XE.oX+X+X+X@X@XOX@X+XOX%X+XOXOXOX+X@X+X@XOX@X%XOX+XoXOXOXOXOX@X%XG.~ y.@X%X%X=X&X@X%X#X%X%X=X%X%X@Xy.",
"w e ; ; ; e r N y.y.q.Q T ~ ~ ~ ~ ~ ~ Q ~ Q ! Y Y R Y Y Y H c Y Y H R Y ! q.y.C.H.R.H.H.R.R.U.R.C.Z.H.H.R.H.H.H.H.R.R.E.E.H.C.Q.W.E.Q.Q.+X+XW.W.&XW.Q.W.+XR.W.Q.Q.W.Q.R.W.+XE.+XE.@X+X+X@XoXi.e w w w 8 8 8 8 r r r M M M N M x K.OX&XQ.Q.R.E.H.q.H.OXE.+X+X+XQ.W.Q.R.E.R.W.E.E.&XQ.Q.Q.R.Q.W.W.&X+XR.R.H.V.S.y.~ Y z t t 3 4 3 < * $ # o o o o o o . * x T 9.0.6.4.6.w.w.0.B m %.7.7.8.r.Y.Y G ~ E.E.+X+X+X+X+X@X+X+XE.E.E.OX@X@X+X%X@XoXOX@X%X+X%X@X@XOX@X+XE.P.+X+X+X%XoX+XE.oXE.P.E.@X+X@XOXF.~ y.K.OX@X%X%X%X%X%X%X%XOX` ^ ",
"1 ; * * w Y y.y.q.^ ~ ~ ~ ~ ! ~ ~ ~ ~ ~ Q Y R ! R R Y G x z Y Y Y R ~ ^ y.Z.H.R.R.H.H.H.R.R.R.U.A.H.Z.Z.H.H.H.Z.R.R.E.T.R.E.E.R.H.E.&X+XQ.Q.+X+XW.W.W.+XR.Q.W.Q.E.E.W.Q.Q.E.E.+XE.E.@X@XoXoXoXy w w w 8 w 8 8 r r u M M M M x E E.+X+X+X+XQ.q.y.E.E.Q.E.Q.+XW.W.W.+XQ.Q.Q.R.R.W.W.W.E.+XW.Q.W.W.Q.+XR.H.R.C.V.G.y.V.y.y.^ ! H H H H H G z 2 2 * + . o o o e T 9.0.9.6.9.w.0.6.6.%.7.7.a.s.!.q.x x H.E.OXE.E.+X@X+X+X@X+XOXOX+X@X@X@X@X@X+XOXE.OXE.@XE.E.OX%X%X+XP.@X@XOX+X+X+X+X+X@X+XOXE.oXOX+X+XP.K.~ p.oX%X=X%X+X@XoXP.~ y.oX",
"- * * y q.y.y.p.^ ~ ^ ~ ~ ~ ! ~ ! ~ Q Q Q Y ! ! ! R Y G H c Y Y Y ^ y.V.Z.H.R.E.E.R.R.H.H.Z.Z.R.U.H.H.y.H.H.C.H.E.E.H.T.R.E.E.R.&XQ.E.E.Q.E.+XE.Q.R.W.&X+XQ.+XQ.R.Q.W.+X+XOXE.E.H.+X&X+X@X@XoXY w w w 8 8 8 8 r r b M M M M M p.oX@XQ.E.C.y.E.E.T.E.+XE.E.Q.Q.W.+XW.W.R.Q.E.Q.E.E.Q.W.W.W.W.W.W.W.W.Z.E.U.R.C.H.C.y.V.y.V.y.y.^ ! R H R H H R H F 5 $ . + o & x Q 9.6.T T 6.9.9.7.0.0.r.a.!.9.x x C.G.E.OX+XE.+XOXoXoXE.oX+X+X+X+X+XoXoXoXoXG.E.OXOXoX+X+XOXoX@X+X+XOX@X+X@X@X+XOX+X%X@X+X+X@X%X%X+X@X%XP.y.^ oX@XOXE. X! S.%X=X",
"* w E y.y.y.~ ~ ~ ~ Q Q ~ ~ ~ ~ ~ ! ~ ! ! ~ Q Y ! ! Y Y ! Y Q ~ q.y.y.R.R.R.R.R.E.Z.Z.H.U.Z.H.Z.E.E.Z.H.R.H.C.E.E.T.E.H.E.E.H.E.H.E.E.T.E.E.Q.Q.+XQ.+XQ.Q.Q.+XE.Q.Q.Q.+X+X+XE.E.+X%X+X@X@X@X@X~ e 8 w w 8 8 r r r M M M M N N oXE.OXE.^ C.Q.E.E.E.+X+XE.+X+XQ.Q.+XW.Q.W.Q.Q.W.E.R.Q.W.W.W.W.W.Q.W.E.H.E.R.R.y.y.C.C.C.V.V.C.C.y.y.y.~ ! ! ! ! ! R H F t < # # O - t x y ; ; y T 9.0.r.a.a.s.E x G y.G.G.H.K.E.E.E.E.E.E.E.E.K.E.oXoXE.+X@XOX@XE.oXoXOX@XoXoXE.OXOXE.OXOXoX@X%X+XOX%X%X%X%X%XOXOX+X@XOXoXoXP. X^ ! G.y.Y K.%X%X=X",
"Y q.^ ~ q.~ ~ ~ ! ~ ~ Q Q ~ Q ~ ~ ! ~ R ! ! ! Y R R ! ! ~ ^ q.^ C.C.Z.R.R.R.R.E.R.R.H.R.H.H.H.R.R.R.Z.H.R.C.C.E.H.H.R.R.H.E.E.E.E.H.R.T.Q.E.+XE.Q.Q.+XQ.&X&X+X+XQ.E.R.+XQ.E.@X+X+XE.@X@X+X%X@Xy.w 8 w e e r 8 8 r u M M N N 9.+XOXC.y.oXE.Q.E.T.E.E.E.E.E.R.Z.E.Q.W.Q.Q.Q.W.W.+XE.Q.W.W.R.W.W.W.&XQ.E.E.H.R.E.H.C.y.y.y.V.V.C.y.C.V.y.y.~ ~ ! ~ ! ~ ! R H G 5 * $ $ $ $ # # o - E 9.9.9.E y - t H y.C.H.F.H.C.G.H.F.K.H.G.E.E.E.+XE.E.E.oXE.oXoXP.E.E.OXOXE.E.P.+XoXOX+XOXoX+X%X%X@X+X@X@X@X%XOXoXE.OXE.oXP.oXoXG.Y e y.@X%X@X%X",
"q.^ Q ~ ! ~ ~ ~ ~ ! ^ Q Q ! ~ ! ^ ! ! R R ! ! ~ ~ ! ! ^ y.y.Z.R.R.Z.E.R.R.R.Z.R.Z.Z.H.R.U.A.Z.R.H.A.Z.Z.R.Z.H.H.H.H.R.H.H.R.R.R.C.H.E.R.E.E.+X+X+XQ.Q.+X+XQ.&X+X+X+XT.Q.E.E.E.^ H.oX@X+XE.@X@XF.e 8 e w e r r r r M M N N E H.OX^ K.+XoXOXE.H.H.E.E.T.E.E.Q.Q.+XW.R.Q.R.R.W.W.W.Q.Q.E.R.W.R.Q.W.W.Q.R.E.Q.R.R.H.C.C.C.C.y.y.C.y.C.C.y.V.V.y.^ ~ ~ ^ ` ~ _ _ _ R G 4 < * $ $ $ $ # * & O O # - x ! y.V.H.G.C.F.E.H.F.J.G.H.H.H.F.H.E.K.E.E.OXOXOXE.oXOXE.P.@X+X+XE.E.oXE.OXE.E.+XoXOX@XOX@XOX@XOXoXE.OXoXoXE.OXOXF.c y.y.~ P.OX%X",
"~ ~ ~ ~ ! ~ ~ ! ! Q ~ ~ ~ ! ^ ! ! ! Y ! ! ! Y Y ! ^ ` V.U.R.R.W.R.Z.Z.R.H.Z.R.Z.A.Z.H.H.A.H.R.V.Z.R.Z.R.R.H.Z.H.H.H.R.H.H.H.E.E.E.H.E.E.+XE.R.E.+XR.E.+X&X+X&X%X+X+XQ.OXE.oXP.@X@X@XOX@X+X@X@XoXy w w w e r r r r M N T N T y.^ oX@X@X@X@X+X+XE.E.E.E.E.E.E.E.E.E.R.R.Q.E.R.R.R.W.R.Q.R.R.Z.R.Q.E.R.E.R.H.H.E.H.H.C.u.y.V.y.y.V.V.V.V.F.y.S.F.V.i.y.` _ _ ` ` ~ ! ! ! R H G t 4 1 1 - < 1 t H ! y.F.V.C.G.G.H.K.G.C.F.F.F.F.H.F.F.F.G.H.K.H.P.K.K.oXoXOXOXOXoXP.+XE.+XOXE.E.E.OX@XOXOX@XOXOX@XOXP.E.oXOXOXoXoXF.Y K.+X@XJ.! Y y.",
"~ ~ R ~ ~ ! Q ! ! ~ ! ! ^ ^ ! ^ ! ! ! ! ~ R R ~ y.^ p.C.Q.E.H.R.R.R.Z.Z.R.R.H.Z.R.Z.U.C.A.V.C.Z.H.H.V.Z.R.H.H.R.H.H.H.E.H.E.E.E.T.E.E.E.H.E.E.E.E.H.E.E.+X+XQ.@XE.E.+XE.E.+X@XoXOXoXOX@X@X@X#XoXx w w e r r r r u M B T N M K.%X@XoXoX@X+XOXOXOXE.K.H.H.Z.H.H.H.E.R.R.R.R.R.R.H.W.R.E.R.R.R.R.W.W.E.E.E.R.R.E.E.R.C.y.C.V.y.V.y.y.y.V.C.V.y.y.V.F.F.S.i.y.p.` ~ ^ _ ^ _ _ _ _ ~ ! _ ! ! ! ~ _ y.F.G.V.C.F.F.G.G.G.C.y.G.F.H.V.F.F.F.C.V.C.V.F.F.C.F.P.P.E.OXP.OXOXP.OXOXE.+XE.E.E.OX+XOXOX@XoXOXoXOXOXOXOXE.G.Y P.OX+X%XOX@XoX! ",
"Y Y Y ! ! Q ! ! ! Y ! ! Q ! ! ~ ! ~ R ~ ~ ~ ~ y.^ ~ y.H.R.R.R.H.R.H.R.R.H.Z.R.Z.Z.Z.H.H.C.C.R.H.E.H.C.Z.Z.Q.E.E.R.H.T.H.H.H.+XE.T.E.E.E.E.E.+XE.E.E.E.E.Q.+XE.+XE.E.E.+X+X+X+X%XE.E.G.K.oX@X@X%XR e w w r r r r u V T T T E G.@X@XoXE.oXoX+XE.E.E.E.H.H.E.H.C.C.Z.R.R.H.R.H.Z.R.R.H.E.R.R.Q.E.W.W.T.H.R.R.R.H.E.R.H.C.V.V.V.V.V.V.C.C.y.y.y.y.y.V.V.F.F.F.G.G.V.^ ^ ~ ^ ` y.y.y.y.y.y.y.y.y.S.G.K.G.H.G.G.C.G.F.G.G.C.F.F.G.V.F.F.F.F.F.y.V.V.V.G.C.G.G.F.K.H.E.E.E.V.C.OXoXP.oXE.%X+XoXE.oXoXOXOXoXOX+X+XK.Y E.OX+X%X%X@X%X%X@X",
"E Y Y ! ! ! Q ! Q R Q ~ Y Y ! ~ ! R Y ! ^ y.C.G.C.H.V.y.V.H.R.R.R.Z.R.H.H.Z.Z.Z.Z.Z.Z.Z.H.R.H.H.Z.H.H.H.E.H.H.T.H.H.E.H.H.E.+XE.H.E.@XK.+XE.E.E.oXE.E.E.E.K.E.E.+X@XoXOXOX%XE.+XE.K.E.P.OXoX#X@X^ e w w r r r r M V T T T x @X@X@X@XoXK.E.E.+XE.H.E.E.E.E.T.T.R.R.E.E.E.Z.R.H.R.R.R.R.Z.A.Z.R.R.R.R.E.U.R.H.E.E.E.E.H.G.C.y.F.F.J.F.V.y.V.V.y.y.F.V.F.H.P.P.E.P.P.F.V.y.y.y.C.y.S.G.S.L.G.F.J.F.F.K.K.G.G.G.F.G.F.F.G.J.G.G.G.F.V.F.F.F.y.F.G.G.G.G.C.G.G.G.G.G.K.K.+XE.OXP.OX@X@X+X+XoXoXP.E.OXoX@X@X+XK.! %X%X@X%X%X%X%XoX@X@X",
"Y Y Y Y Y Y ! ~ ~ ! Y ! ~ ~ ! ! Q R ~ q.y.C.Z.R.R.H.G.H.H.R.R.R.R.R.R.Z.R.R.Z.R.R.Z.Z.H.Z.Z.H.C.C.H.Z.H.E.R.E.E.H.Z.R.E.E.E.H.E.E.E.E.E.E.E.E.E.oXE.E.H.H.E.+XOXE.+X@X@X@X@X+X@X@XE.E.OX@X@X@XoXF.y r r r r r u M B T T 9.F.` %X%X%X%X%X+X+XE.E.E.E.H.Q.T.Z.Z.Z.Z.Z.E.R.H.R.R.R.H.Z.E.R.R.R.R.R.R.H.E.E.R.H.H.E.E.R.E.G.C.C.G.F.G.G.C.C.V.V.i.y.y.y.y.y.G.E.P.P.P.E.P.G.G.G.G.G.K.F.G.K.K.G.J.K.K.K.K.G.G.G.F.G.G.G.K.K.G.F.G.F.C.F.F.F.F.G.F.G.K.G.G.G.G.C.G.G.F.K.P.F.K.P.E.oX+X+X+X@X%X@XOXOXOXE.OXV.! OX=X%X%X%XOXOX@X%XOXOX",
"Y Y Y Y Y ! ! ! Y Q ! Q ! Y ! Q Q p.y.C.E.U.R.Q.Q.R.R.R.R.W.H.Q.W.R.H.R.H.Z.R.R.Q.Z.Z.Z.R.R.E.H.&X&XR.E.H.R.E.R.R.H.E.E.E.oXoX+XT.H.H.OXE.OXE.E.E.E.K.E.E.E.K.E.E.+X+X@X+X+X+XE.oXE.oXOXoXOXE.oXE.N r r r r r u M T T T q.OX+X` F.@X+X&X%X+X+XOX+X+XE.H.H.u.Z.R.Z.H.R.Z.R.R.R.R.R.Q.W.R.Q.Q.W.R.R.H.Z.E.H.H.Z.E.E.Q.+XI.G.G.F.S.V.V.y.y.V.y.y.y.y.y.y.F.F.G.P.P.E.OXOXoXOXE.E.oXP.P.P.K.K.G.G.G.G.G.G.F.C.G.G.G.G.V.F.G.G.F.V.G.F.G.J.F.F.F.C.y.G.K.F.K.G.y.K.K.F.G.K.P.F.G.P.OXOXOXoX@X%X@XOX@X+XK.y.Y oX@X@XOXOX@X@X@XOXOXOXOX",
"Y Y Y Y Y Y ! Y Y ! Y Y Y ! ~ ^ q.C.Z.R.R.R.R.H.U.R.R.E.R.R.R.R.R.Z.R.W.W.C.H.Z.Z.R.Z.Z.H.R.R.H.R.H.H.E.R.E.H.E.E.E.E.R.OXE.@XQ.E.H.E.+XE.E.E.E.E.E.E.E.K.E.oXE.T.+X+X+X&XE.+X+X+XOXoXOX+X+X+X@XoXM y r r r r u V T 4.T 9.E.@X@Xy.~ oX&X@X@X+X+XE.E.E.H.Z.Z.H.H.Z.E.Q.Q.Q.R.R.Q.E.Q.R.R.R.W.Q.R.Q.E.E.R.E.E.E.oXH.E.OXOXP.G.V.F.G.G.V.V.y.F.F.V.F.V.y.F.V.F.G.E.E.E.E.E.E.OXOX@XE.E.P.P.G.K.J.G.K.G.F.G.F.G.K.F.C.V.G.K.F.V.F.V.y.F.F.F.F.G.F.G.J.K.K.K.K.G.P.G.G.J.K.P.J. XP.P.P.P.F.G.K.P.OXoXoXy.c P.@XOX@X%X@XoX@XOXoXOX@XoX",
"Y Y Y Y Y Y c Y Y Y Y ! Y ~ ^ q.A.Z.Z.R.R.R.R.E.R.R.R.R.R.W.R.Z.R.R.R.Z.Z.Z.R.H.R.C.C.A.R.R.Z.H.H.H.E.E.T.H.R.R.R.R.+XQ.E.E.E.+X+XE.E.E.H.oXH.E.E.E.E.H.E.+X+XE.E.E.+XOX+X+XE.+X+XoX+X@X+X@X%XoXJ.y r e r r r M B 4.4.T 9.&X%X+XoXJ.~ F.P.E.E.E.E.E.E.Q.E.Q.E.+XR.Q.Q.E.E.Q.R.E.H.R.Q.E.R.Q.Q.R.H.H.C.y.C.T.E.oXE.E.E.H.P.H.y.V.y.F.F.C.G.K.F.y.y.V.y.V.F.F.G.G.G.H.+X+X+X+X+XOX%X%XE.oXJ.F.K.F.G.C.G.G.G.G.F.V.V.F.G.F.F.F.F.F.F.C.y.F.G.G.G.G.G.G.G.K.G.G.G.K.P.oXP.K.K.oX XK.G.K.K.P.G.oXH.C.q.~ @X@X@X@X%X@XOXP.OXoXOXOXOXoX",
"H Y Y H Y Y Y ! Y Y ! ~ q.y.V.Z.H.Z.R.A.~.Z.R.R.R.R.R.R.R.R.E.R.R.E.H.Z.H.R.R.R.H.H.H.R.R.R.Z.Z.R.E.E.E.E.H.H.H.Q.E.E.E.E.E.E.Q.+X@X+XE.E.+XOXE.E.E.+XE.E.E.E.E.+XE.E.+XQ.@XoX@X@XOXP.E.OXoX@XOXy.y r e r r r M 4.4.6.6.9.&X+X%X+X@X@Xy.^ +X@XE.E.E.OX+X+XQ.E.E.Q.E.Q.Q.Q.W.E.Q.H.R.Q.E.+XR.H.E.E.E.E.E.G.H.+XE.oXE.E.P.K.F.F.V.y.V.F.F.J.F.F.F.y.F.F.G.G.F.K.H.H.E.@X@X+X+XoXOX+X+X+X@X@XK.oXP.K.K.G.G.J.F.F.F.G.K.F.G.F.C.F.K.K.G.F.F.F.F.G.C.K.K.F.G.G.F.K.P.oXoXP.K.K.K. XK.K.P.K.K.G.F.y.Y Y oXoX@X%X@XOX@XOXOX@X@X@XoXOXE.",
"Y Y Y Y Y Y Y Y Y Q ~ q.A.Z.Z.R.R.R.Q.R.~.~.Z.R.R.R.R.R.Z.R.W.W.R.R.C.R.Z.Z.R.R.Z.R.Z.R.Z.Z.Z.U.H.H.+XE.E.H.H.R.R.E.+XE.E.E.oX+XE.OXOX+XE.H.E.E.E.E.E.E.+XE.E.oXE.+XE.E.E.@X@X+X@X+XE.+X+XE.@XoXE y e e r r r u B 4.6.6.6.E.%X+X@X@X@XE.G.Y F.K.E.+X+X+X&X+XQ.&XE.E.+X+XE.W.W.+X+XE.H.E.H.R.E.H.H.E.E.F.G.E.E.oXE.@XOXE.H.F.J.G.F.V.F.K.F.G.G.J.C.F.F.F.K.G.J.G.F.G.K.oX@XOX+XOX+X%X@X+X@XE.oXOXE.K.G.G.F.G.P.F.F.V.S.F.F.F.G.K.F.F.K.K.F.G.F.G.F.P.G.C.V.F.G.P.P.oX XK.J. XG. XF.L.K.G.F.F.~ ~ V.K.oXOXoXoXOXOXOXOX@XOX@XOXOXP.",
"Y Y H H H Y Y Q ~ q.y.Z.R.R.R.~.R.T.R.R.Q.R.Z.R.R.H.Z.R.R.W.R.R.R.R.Z.E.R.R.Z.H.R.R.R.R.U.R.Z.C.H.E.R.H.H.H.E.R.E.R.E.E.E.E.E.E.E.+X+X+XE.E.+XE.H.H.E.E.E.+XE.E.+XE.Q.T.E.OXE.@XOX+X+X%X%XE.K.y.M y w w w r r b B 4.4.4.T Z.=X+X+X+X+X+X+XE.y.Q K.OXQ.&X&X+X&X+XW.+X+X+XQ.W.E.Q.W.Q.T.+XE.H.E.H.R.H.E.E.E.E.K.K.H.E.K.E.+XK.P.G.K.G.P.K.G.F.F.G.K.G.F.V.K.G.G.F.F.G.F.K.G.E.+X%X+XOXOX+X&X@X@X@X%X@XP.K.P.G.K.F.F.F.y.F.F.F.F.V.G.C.G.G.G.F.K.F.G.K.F.V.V.i.y.G.P.K.F.F.G.G.G.S.G.S.F.L.i.^ ~ F.F.F.oX XoXoXP.oXoXoXoXOX XOXoXoX",
"Y Y G z H ! ~ q.y.A.A.~.R.R.Z.Z.Z.R.Z.Z.~.~.Z.Z.Z.Z.R.R.Z.R.Z.E.Z.E.Q.E.Z.~.Z.R.E.E.R.Q.R.A.Z.R.R.R.C.H.H.E.R.R.Q.E.E.E.E.E.E.H.E.@XoXE.E.E.E.E.E.E.oXE.E.E.E.E.+XR.E.OX+XK.oXoXOXOXOXOXOXF.F.F.l y e w w r r u V 4.6.4.4.A.&X&X&X+X+XE.+X&X@XH.Y H.&X+X&X+X&X&X&X&X&X&XE.Q.E.+XQ.E.E.Q.E.Q.E.E.T.H.K.H.K.E.E.oXE.@XoXoXE.K.E.OXK.G.K.G.J.G.G.F.G.K.K.F.K.G.F.F.F.K.K.H.G.K.K.+X+XOX@X+X@X%X@X@X&X%X@XOXoXP.G.G.G.G.F.G.F.F.C.F.G.F.F.G.F.V.F.V.F.G.F.F.S.F.G.G.G.G.G.K.F.S.F.L.F.S.S.S.~ ^ F.S. XK.G.K.K.K.G.G.K.oXP.K.P.P.P.@X",
"H H Y Y ! q.V.Z.Z.R.R.R.R.~.Z.Z.Z.R.Z.R.R.Z.Z.Z.R.R.R.R.R.R.R.R.R.H.Z.V.Q y.R.E.E.R.R.R.R.Z.C.H.R.H.R.R.U.H.H.R.E.E.E.E.Q.E.Q.+XE.oXE.+XE.E.E.E.E.H.E.E.E.E.E.E.OXE.E.E.oXoXE.oX+XOXoXP.y.OX+XK.y y r w w r r u N 4.6.6.6.u.&X&X+X&X&X&X&X+X&X+XH.^ q.E.Q.E.&X&X&X+X&X&X+X&XQ.Q.Q.Q.Q.E.R.E.Q.OXE.E.E.E.G.E.@XoXoXE.E.E.P.P.E.P.P.K.G.P.P.F.K.K.G.F.G.G.C.P.F.G.G.K.K.G.H.E.P.OX%X%X@X+XOX+X@X@X%X@X%X+XoXoXK.K.K.G.J.K.F.J.K.G.K.G.F.F.F.F.F.F.F.S.F.F.F.F.F.F.F.i.F.G.G.S.S.S.S.S.S.! ^ S.F.F.F.J.F.L.F.L.L.G.F.K.P.F.G.J.K.G.",
"H c R ^ y.V.A.~.R.W.R.~.~.A.Z.Z.Z.I.R.R.Z.Z.~.~.R.R.R.H.Q.R.Z.A.V.C.C.q.Q C.R.Z.R.R.E.R.R.R.R.U.C.R.R.R.R.R.H.H.H.H.H.E.E.H.H.H.H.E.E.E.E.E.E.E.E.H.E.OXE.+XE.E.oXE.+XoXE.E.oXE.E.P.y.G.+X@XOX+Xx y r r r r r u T 6.6.4.4.A.&X&X+X+XQ.&XQ.+XW.&X+XE.y.R H.oX+X&X&X&X&X+X&X+XQ.Q.Q.Q.Q.E.Q.E.E.OXOXoXoXF.C.E.K.K.F.oXoXoXoXoXoXoXoXoXP.K.P.F.K.G.G.G.V.V.V.G.K.S.K.G.P.E.H.G.G.K.+X@X@X%X+XOXOXOX@XOX@X%XoXoXP.E.oXP.P.K.J.G.S.G.F.F.F.F.G.S.G.F.F.F.F.F.F.F.F.F.F.S.S.S.i.S.S.i.S.i.~ _ S.` G.S.J.S.S.S.S.F.F.S.i.F.F.S.F.S.G.K.",
"Y Y ^ y.Z.Z.Z.R.Z.R.~.~.I.Z.R.Z.Z.R.R.R.T.R.Q.R.R.R.Z.R.R.H.q.Z.H.y.A.y.u.R.R.R.H.R.R.R.E.R.H.R.H.H.R.R.H.R.U.Z.R.C.H.H.Z.Z.y.y.H.H.E.E.E.E.E.E.E.E.E.E.E.oXK.H.E.E.K.E.E.E.E.oXV.F.oXoXE.OXoXK.E r y r r r r M T 7.6.6.6.Q.&X+X+X+X+X+X+X+X&X&X&XQ.E.y.Y y.+X&X&X+X+X+X%X+X+X+XE.E.+X+XE.E.E.E.oXOXE.H.E.E.E.@XE.E.E.E.P. XE.E.oXK.G.H.G.F.F.F.G.G.F.G.F.V.G.G.P.E.F.K.G.oXG.K.K.oXOX@X+XoX@XOXOXoXOXOXoXE.P.P.oXP.P.oXK.K.K.F.F.G.G.F.K.G.G.J.J.S.F.F.G.G.G.F.i.i.i.S.y.S.i.i.y.R ! y.S.S.L.L.S.S.i.F.J.G.F.L.S.F.y.L.L.S.S.K.",
"^ q.V.Z.R.R.Q.R.W.R.Z.R.R.Z.~.Z.Z.A.Z.Z.~.R.Z.Z.R.R.R.Q.Z.y.Z.C.V.H.H.H.H.E.Z.Z.Z.A.H.R.R.R.R.R.Q.R.E.E.H.R.E.H.H.H.C.C.y.q.H.R.E.H.K.E.E.H.H.E.E.E.E.E.E.H.R.E.E.E.H.E.K.H.G.y.V.@XOXi.G 3 * * M r r r r r r M 4.0.0.6.6.W.+X+X+X&X+XE.+X&X+X&X&XQ.E.E.E.y.~ E.E.+XQ.E.+X+X&XQ.Q.+X&X%X+XE.E.E.oXoXH.E.E.oX@XoXE.E.E.@XOXOXE.OXOXE.E.E.H.H.K.F.K.K.F.G.V.V.G.G.K.P.P.K.J.OXK.K.G.F.P.OXOX@X@XoXP.@XOX@X%XOXoXoXOXOXoXK.P.K.G.F.G.K.K.K.K.K.G.S.G.F.G.K.G.F.S.F.S.i.i.y.` y.y.y.R ` i.i.S.D.L.G.S.S.L.L.F.K.J.L.S.G.S.S.L.i.i.S.",
"q.A.Z.~.R.R.R.R.R.Z.Z.~.R.Z.T.Z.Z.Z.~.~.Z.~.Z.R.R.R.Z.A.Z.Z.Z.Z.E.E.E.H.E.R.E.R.E.W.E.R.U.H.E.E.W.R.H.E.Q.E.Q.E.H.H.H.H.H.H.H.H.E.H.H.K.E.T.E.E.E.+XE.H.E.E.H.OXE.OXH.H.G.y.y.E.E.oX! $ & * * c N M y r r r u M 6.0.0.9.9.&X&X+X+X+X&XW.&X&X+X&X&XW.W.W.W.+XQ.^ y.Q.+X+XOX+X&XQ.Q.+X+XE.+X+X+XOXE.E.E.E.K.E.oXE.oXoXoXoXOXoXOXE.oXP.OXOXoXK.F.F.K.K.G.F.K.G.K.G.G.G.G.K.F.K.P.K.G.J.G.oXoXE.OX@XE.+X@X+XoXOXOXoXoXoXP.OXOXP.P.K.oXoXP.K.K.F.G.G.F.V.V.i.G.F.S.G.S.y.i.y.` ` ` Y ^ S.S.S.J.S.S.J.D.S.S.S.D.J.G.J.J.F.F.F.F.S.G.S.",
"T.~.~.Z.R.R.Z.Z.R.R.~.~.Q.Z.A.Z.~.~.T.Z.Z.R.R.Z.Z.Z.A.Z.R.R.R.R.R.R.R.R.E.Q.E.E.Q.R.E.E.U.U.R.R.E.R.R.E.Q.Q.Q.Q.E.E.E.H.H.H.R.H.T.H.E.E.E.E.E.E.E.E.E.E.E.E.E.@XoXE.E.H.^ C.E.E.P.y.& * * * * Q T T T M M r u V 4.0.0.7.0.&X&X&XW.+X&X+X+X+X&X+X&X=X&X+XE.Q.+X+Xy.Y E.Q.%X&X&X&X&X&X%X@XOX@X+X+XoXG.K.G.K.E.OXE.oXoXoXP.P.oXOXE.@XE.oXoXK.G.J.G.J.F.G.F.K.y.F.K.G.F.G.C.F.G.F.P.P.K.G.oXoXP.OX@X@X@XOXoXOXOX@XoXOX@XE.E.E.P. XoXOXoXP.oXoXG.P. XG.K.G.K.G.H. XS.F.S.S.y._ ~ H ~ y.S.i.S.S.S.S.i.S.D.S.S.S.i.i.J.J.S.F.F.G.L.J.L.",
"Z.~.Z.~.T.R.Z.R.~.Z.~.Z.Z.Z.Z.Z.R.~.~.T.T.R.Z.Z.R.R.Z.Z.R.R.Z.Z.H.R.R.H.E.R.R.W.Q.W.Q.R.E.R.E.E.E.E.V.E.Q.+XQ.Q.E.Q.E.R.R.E.R.H.H.K.H.E.T.R.H.+XE.H.E.E.E.E.E.K.H.G.y.y.H.H.C.C.F.Y 1 < 1 1 y 9.T T B M B V M V %.7.0.6.u.&X&X&X&X+XQ.&X&X&X+XQ.&X&X&X&X+X&X&X+X+XOX! C.Q.&X&X%X@X+X%X+XE.H.oXoXE.E.oXE.H.E.E.oXoXoXoXOXoXK.P.OXE.OXoX@XOXK.F.G.G.J.y.V.K.G.G.G.F.G.V.K.G.F.K.G.K.G.K.K.K.G.K.P.%X@X@XoXOXOXoXoXOXOXP.E.oXoXoX@X@XP.oXoXoXOXK.oXOX XG.J. XoXK.S.G.S.i.i.` G _ i.i.S.S.S.S.S.S.S.D.J.J.J.J.D.D.G.L. XG.J.J. X Xi.",
"Z.Z.Z.Z.T.T.Z.~.Z.Z.Z.R.~.~.Z.Z.Z.A.Z.T.R.Z.A.T.R.R.R.A.E.Z.Z.R.Z.R.W.R.R.R.E.W.Q.E.E.Q.E.E.E.E.Q.H.Z.E.R.E.R.Q.E.E.E.Q.Q.T.H.Z.E.E.E.E.Q.Q.E.+XE.H.G.F.C.H.Z.C.y.~ C.H.Z.C.G.H.C.x - - 1 1 M 6.4.T B V B 4.B %.4.6.7.6.u.&X&X&X+XQ.+X&X&X+XQ.Q.&X&X&X&X+X&X&X&X&X&X+Xy.^ oX@X@X%X%X@X@X+X+XOXoXE.K.E.E.H.E.E.K.oXE.K.E.oXP.K.@XP.oXoX@X@X@XK.P.K.K.F.V.V.K.G.F.G.G.F.F.G.P.G.J.G.K.G.G.F.G.G.G.P.oXP.P.H.P.oX%X+X%X@XP.P.OXoXP.OXoXoXoXoXOXOX@XOXOXP. XK.G.G.K.G.F.S.` H ` S.S.S.S.J.S.i.S.J.L.J.J.J.S.L.|.J.J.F.J.J.L.J. XJ.S.",
"A.Z.A.Z.Z.~.Z.Q.Z.Z.R.Z.Z.A.A.Z.Z.Z.R.Z.~.Z.Z.A.Z.R.Z.Z.W.R.E.R.A.Z.H.E.H.R.H.H.R.R.Z.R.Q.E.H.Z.C.C.H.H.R.E.R.R.R.R.E.E.H.T.H.H.R.H.E.E.H.T.E.H.T.H.H.H.H.G.C.q.q.H.H.C.Z.C.C.C.C.t ; ; 1 1 T T 4.B B B B 4.4.4.7.0.0.6.Y.&X+X+XW.Q.+XW.&X&X&X&X+X%X+X&X+X+X&X%X+X&X+X@XK.! F.oX@X&X&X+X+X%XOX+XE.oXK.K.K.E.E.K.E.K.E.E.E.oXoXOXoXoX%XOX%X@XP.K.J.K.K.K.F.S.F.G.G.F.K.K.K.F.J.F.G.G.G.G.G.G.F.F.G.K.P.oXK.P.oX@X+X+X@XoXoX%X@X@X@X@X@X@X@XOX%X#X%X%XOXP. X XoX XL.S.` H y.S.S.S.L.S.S.J.L.J.J.J.J.D.S.L.D.J.J.D.J.S.J.J.D.S.S.S.",
"A.A.A.A.Y.~.Q.~.~.Z.Z.A.I.Z.Z.Z.Z.Z.Z.A.Z.Z.~.~.Z.H.R.Z.R.R.E.R.Z.Z.V.Z.Z.Z.R.H.Z.R.R.R.R.E.H.Z.H.H.H.H.H.R.E.E.R.E.H.H.H.H.H.H.H.H.E.E.H.H.R.R.E.E.Q.E.H.y.^ C.T.H.Z.Z.C.H.V.C.C.t - 1 1 t T B B V 4.4.B 4.7.7.7.0.7.6.Y.&X+X+X&X&X&X&X&X&X&X+XE.OX+XE.@X@X+X@X=X+X&X+X@XoX_ ~ oX+X+X@X&X%X+X%X@XoXoXK.E.E.oXE.oXE.G.K.P.oXE.P.oX@X@XP.oXOXOXoXoXK. XK.P.F.y.S.F.G.K.G.V.G.K.K.F.F.G.G.K.G.y.F.J.F.G.oXOXE.oXOXOXOXOXOX@X%X@X@X@X#X@X%X#X%X=X%X=X%XOXoXoXoX XK.L.^ ! L.J.D.S.J.J.J.S.L.J.J.J.S.S.L.S.J.S.L.J.L.J.D.J.D.S.S.S.S.",
"~.Y.~.Z.Z.A.Z.Z.A.Z.A.Z.Z.A.Z.Z.Z.Z.Z.A.A.A.Z.Z.Z.A.Z.A.Z.R.R.Z.Z.H.R.R.R.E.R.R.R.R.E.I.R.E.R.H.R.H.R.H.Z.E.R.E.H.H.C.H.H.H.Z.H.H.H.E.H.H.R.H.H.H.H.H.H.q.y.T.E.R.R.H.H.R.T.Z.C.C.t 1 1 1 e T B B B 4.%.B 4.7.7.0.0.7.7.u.W.&X+X&X&X+X&X+X&X&XQ.OX+X+X+X%X@X&X&X&X+X%X@XoX+X@XG.R C.OX+X@X@X@X+X%X@XoXE.E.E.OXoXE.E.K.K.K.oXoXP.oXOXoXOX@X@XoXOXK.P.G.V.G.K.G.G.F.K.J.G.F.G.G.G.oXK.F.G.V.K.C.C.y.F.G.P.oXoXOXoXOX@X@X+X@XP.@XOX%X%X=X%X%X%X%X@X@XOXOX@XOXoXoXJ.S.R S.J.|.J. XJ.J.S.S.J.S.S.S.J.J.S.i.S.J.J.J.S.J.S.S.S.J.L.S.J.",
"Y.Z.~.A.A.A.A.Y.Z.~.Y.Z.A.A.Z.Z.Z.A.Z.Z.Z.Z.Z.Z.Z.Z.Z.A.Z.Z.Z.H.Z.Z.Z.E.E.R.Z.Z.R.R.E.R.R.R.H.Z.R.E.R.C.Z.R.Q.R.H.H.Z.C.Z.H.H.T.C.T.H.H.E.E.H.R.H.H.C.~ H.T.E.Q.E.Q.H.H.R.R.Z.C.y.z 1 t t M T B B %.4.4.B 4.7.0.8.0.7.7.Y.Q.W.&X&X&X&XW.W.E.&X&X+XE.OX+X&X+X&X+X%X+XE.@XE.+XoXE.K._ ~ E.oX+X%X@X@XoXE.E.E.E.K.E.K.E.E.+XG.@XoXoXOXoXoXoXoX@X@X@XK.oXJ.G.G.G. XE.G.K.K.K.P.K.P.G.K.K.K.G.K.V.C.F.i.V.F.F.G.P.E.oXOXOXoXOX%XoXoX%X%X@X%X%X@X@X@X#X@X@X%X@X X X@Xi.! J. XJ. X X XL. XS.S.S.S.S.S.J.S.S.y.S.L.J.J.J.J.L.S.S.D.D.J.L.",
"Y.Y.Z.Y.A.Y.Z.~.Z.~.A.Z.Z.A.A.A.A.q.A.Z.A.Z.A.A.Z.A.V.q.Z.Z.Z.H.R.R.R.W.R.R.H.H.R.R.H.H.H.Z.H.H.Z.Z.E.R.R.R.Z.H.R.R.R.R.E.H.H.H.H.H.H.E.H.E.H.H.Z.q.q.Z.Z.C.E.R.E.T.E.R.H.H.C.y.y.t 1 3 3 M T B B 4.%.7.4.4.7.0.w.0.7.6.w.Q.W.W.W.&X+X&X&X+XW.+X&X+X+X+X&X+X+X+X+X@X+X@XE.+XE.+X+XoXF.R V.OX@XoXoXoXoXE.E.E.E.K.@XoXG.P.oXP.K.oXK.oXOXoXP.OX@X@XoXoXK.K.G.y.G.K.K.K.P.K.K.P.J.K.P.OXoXK.J.K.V.i.y.G.G.F.G.oXoXK.K.oXoXOXOX#X%X=X=X@X@X@X%X%X@X@XOXOX%XOX@XoXy.!  X X@X X XK.J.J.|.J.L.J.J.J.D.J.S.S.i.S.J.S.J.L.S.S.J.J.J.J.J.J.",
"Z.A.Y.Y.Y.Z.A.A.Z.A.A.A.Z.Z.A.A.A.V.A.Z.A.A.Z.T.Z.A.Z.C.A.Z.Z.Z.Z.Z.Z.R.R.H.Z.H.Z.R.H.R.Q.C.H.H.R.E.Z.H.R.Z.R.H.H.E.E.E.E.E.R.H.H.E.E.H.H.T.H.y.^ V.H.H.R.H.H.T.T.E.E.R.H.Z.Z.q.^ t 3 t 1 T T B B 4.%.7.4.7.7.0.r.0.6.6.w.Z.W.+X&X&XW.+X&XQ.Q.E.&X+X+X%X@X&X%X&XE.@XOXoXE.OXE.E.E.E.OXoX^ ~ oX+XE.E.oXE.E.oXoXK.E.+XK.OXoXK.G.K.P.oXoXoXoXoXOXP.P.oXK.K.K.F.G.F.K.K.K.G.K.K. XK.P.K.K.G.F.V.V.F.V.F.F.F.K.G.G.E.P.oXoXK.@X%X=X=X%X@X@X@XOXoXoXOXK. XoXOXP.y.! J.K. X X XP.J.J.J.J. XJ.S.S.S.J.D.S.S.S.S.i.D.J.D.i.i.J.J.J.J.J.J.",
"Z.Y.~.A.A.A.~.~.Z.A.Z.Z.A.Z.w.A.A.A.A.Z.Z.Z.Z.A.A.Z.A.Z.A.A.Z.Z.Z.R.Z.R.H.R.R.H.R.R.H.Z.H.U.Z.H.H.H.H.H.R.E.E.H.E.E.E.+XR.E.H.H.H.E.H.H.H.C.9.y.R.H.T.Z.H.R.T.H.E.E.E.R.Z.Z.C.y.y.z 1 - ; T V B B 4.4.4.4.7.7.0.w.0.7.6.u.R.Z.R.&XW.&X+X+XQ.Q.OX+X+X+XoX@X+X+X&XE.oXE.oXOXE.E.oXE.E.oXE.oXy.R F.oX@XoXoXE.E.K.E.G.oXK.E.K.oXE.H.P.OXP.oXE.oXOXoXoXG.F.K.K.K.F.P.G.G.G.K.G.F.K.oXK.G.P.K.G.F.F.F.G.F.F.F.G.J.K.K.P.K.@X@X@X@X=X%X@X@XOXoXoX@X XP.P.oXP.OXS.~ oX X XJ. X XP.P.J. XJ.J.S.D.J.J.i.S.J.S.S.J.J.S.D.J.D.S.S.S.J.J.J.L.",
"A.A.A.Z.Y.~.Z.Z.A.Z.T.Z.A.Z.A.A.A.A.Z.Z.e.q.A.A.A.Z.Z.Z.Z.Z.Z.Z.Z.R.Z.C.Z.A.Z.H.R.R.H.C.C.H.H.C.C.H.H.Z.E.H.H.E.Q.+XE.H.H.E.H.R.H.H.C.H.y.^ C.H.H.H.Z.H.R.E.T.R.E.R.H.H.Z.V.C.y.^ 3 O O y B V B B 4.4.7.7.7.7.0.r.8.0.7.9.C.Z.C.Z.R.W.W.W.+XR.+X+X+X@XE.+X@X+X+XE.+X@XE.@XG.E.oXH.E.@XE.K.K.G.Q y.E.oXoXK.K.K.K.E.C.H.E.K.P.P.E.OXoXK.K.P.@XOXOXoXoXoXG.G.K.F.K.K.G.F.G.G.K.F.P.K.J.G.P.P.K.K.G.F.G.G.F.G.G.G.P.OXP.@X@XOX@X%X@XOXoXP.K. XK.K.F.P. XK.S.` P.oX X X X.X XJ.J.|.J. X.X XJ.S.J.J.S.i.J. X|.J.J.J.i.S.S.S.S.J.J. X X",
"Y.Z.A.A.Z.A.A.A.V.A.Z.Z.A.A.A.V.A.V.V.e.q.A.Z.A.A.Z.Z.C.A.~.R.Z.Z.Z.R.H.Z.C.A.R.Z.I.H.H.R.T.Z.C.Z.R.E.H.E.H.H.E.R.E.E.E.R.R.R.H.H.H.C.9.y.H.H.Z.Z.H.H.T.E.R.R.R.T.R.R.H.Z.Z.Z.q.^ 3 + O - e l T %.4.4.6.6.7.7.7.0.8.7.6.M ~ V.H.H.H.R.W.Q.Q.+XQ.Q.+X+XE.OX&X&X+X+X@X&X@X@XE.oX%XoXOXOXE.OXoXE.OXy.Y G.oXE.E.E.E.K.F.K.oXE.P.G.oXoXOXoXJ.G.P.oXoXOXOXK.G.J.K.J.G.F.y.F.G.y.K.K.oX XG.F.J.G.K.K.K.G.G.K.G.F. XoXP.oXP.P.oXoX@X%X@XoX XP.G.K.oXP.G.G.P.` ! J.G.K. X@X X X X XJ.J..X XJ.|. XJ.J.S.J.S.S.D.J.J.J.J.J.J..XJ.S.S.D.S.S.",
"Y.Y.Z.Z.Y.Z.Z.Z.A.A.q.e.e.Q Q Q Q 9.q.V.A.A.Z.Z.Z.Z.Z.R.Z.R.Z.H.Z.H.Z.Z.Z.Z.Z.H.H.H.H.H.C.C.H.Z.Z.E.H.H.Z.H.H.E.E.E.E.R.H.H.H.H.H.u.9.y.H.Z.H.H.H.T.R.H.T.H.R.E.R.E.R.Z.U.A.V.q.y.5 O G O $ * l V 4.%.7.7.7.6.%.0.r.6.B ; p.V.C.Z.C.H.H.Q.Q.Q.Q.+X+XoXE.E.+X@X+X+X+X%X%X+X@X@X+XOX@X%XE.+XoXE.OXoXG.Y ` J.E.E.OXoXE.E.OXOX@XE.OXoXK.oXK.oXE.P.OXoXoXP.P.K.K.G.F.J.F.F.G.V.G.P.K.P. XG.J.F.G.G.J.G.G.J. XK.P.oX XK.J.P.oXOXOX@XoXoX XK.K.P.oXP.J.J.y.^  X XK.@XoX@XoXoX X XP.P..XJ.J.J.J.|.J.|.J.J.J.D.J.D.J.J.|.J.J.L.S.J.D.S.D.",
"A.A.Y.A.A.Z.Y.A.e.V.V.e.e.q.e.Q Q Q A.A.V.A.Z.Z.Z.Z.C.Z.Z.~.Z.R.R.H.R.Z.Z.A.H.H.H.H.H.T.R.H.H.H.H.Z.C.Z.H.H.E.E.E.E.E.E.E.H.H.Z.q.C.H.R.H.H.H.H.Z.H.E.R.E.E.R.E.R.Z.H.Z.Z.V.C.y.y.3 < ` R H 5 * ; T %.0.%.7.7.7.8.r.7.r ; q.V.Z.C.C.C.C.H.R.+XE.OXK.oX+X@X+XE.+X&X&X%X%X+X+XOX&X@X@X+X@XOXOXOX+XoXE.J.y.R G.K.OXoXK.H.K.E.E.oXoXoXoXK.oXoX+XOX@X#XOXOXK.K.G.F.G.G.G.J.P.G.y.F.K.K.J.F.K.G.K.F.J.oXK. XoXG.G.F. X XK.F.G.P.oX XP.P.oXoXoX X X XS.y.`  XoXK. XoXOX@X@X X XP. XJ.J.J.J.J.J.J.S.J. XJ.J. X.XJ.J.J.J.D.J.J.J.L.D.S.D.",
"A.A.Y.Z.A.A.A.A.V.A.A.Q e.Q Q Q Q Q w.A.Z.Z.Z.A.Z.R.Z.Z.R.H.Z.Z.R.R.H.R.R.R.H.C.H.H.Z.E.R.H.H.H.C.C.C.H.T.T.E.E.E.E.E.H.R.C.y.y.E.E.E.H.E.Z.C.H.q.u.H.E.R.E.T.E.R.H.R.A.Z.V.y.y.q.3 o O 2 ) |.! < - l r.%.0.0.6.0.r.N * < y.Z.C.C.H.Z.C.C.C.E.E.@X@X@XE.K.OXE.E.E.E.+XE.+XE.+X%X+X+X%X@XOX+XOXOXE.OXE.oXF.~ ^ E.oXE.K.E.K.K.E.P.K.OXOXoX@XOXoX@X@X@X@XoXK.K.G.K.F.G.J.K.V.G.K.K.K.F.K.K.P.G.K.K.K.P.P. XK. X XK.P.G.F.P.K.G.G.J.J. XP. X XJ.F.^ ! K.@X@X XoXoXoX@XoX.XoX X X X@XJ..X XJ.J.S.J. XJ.J.J.J.L.L.D.J.J.S.J.i.L.J.|.J.",
"Z.Z.Z.Z.A.A.Y.A.A.A.A.Q Q q.Q ^ 9.q.V.Z.Z.Z.Z.Z.Z.Z.R.R.R.H.R.R.R.Z.Z.R.Z.H.T.H.C.H.Z.H.R.Z.C.Z.H.C.C.H.E.R.E.E.E.E.+XE.C.q.Z.H.E.E.E.E.H.H.R.E.H.R.R.R.R.E.E.E.T.R.R.Z.C.y.y.u.q.3 O 3 1 * - 5 - - * r B 0.0.7.0.w.1 * - ~ C.A.V.C.H.H.y.C.H.E.E.E.K.E.oXoXOXoX+XOX@X+XE.E.E.oXE.E.@X@X%X%XE.@XG.K.F.G.J.G.~ R C.OXE.@X@XoXoXE.K.oXOX@X@X+XoXOX@X@X%XoXOXG.K.G.G.F.G.V.G.G.G.G.P.G.K.G.P.P.G.F.F.J. XK.G. X XK. XG.F.F.J.F.F.G.G.K.oXP.J.F.^ ` K.oXP.oX@X@X@XoX XJ.@XoXoXJ. X.X X.XJ.J.J.J. X X X XJ.J.D.L.J.|.D.D.D.S.L.S.D.L.",
"Y.Y.A.Z.Y.Z.A.A.Z.A.A.e.A.Z.A.A.Z.A.A.Z.H.Z.A.H.R.Z.Z.R.Z.Z.H.H.H.Z.Z.H.Z.Z.H.H.H.E.R.H.H.V.C.H.R.H.H.H.E.E.E.E.E.H.H.V.y.E.T.E.Q.R.E.E.E.+XQ.E.R.H.R.H.E.H.H.H.T.C.C.R.Z.C.u.y.y.1 - M e 3 1 * < - - - w 0.8.7.7.N * * < Q V.C.V.C.C.C.C.C.C.G.K.E.K.E.E.oXoXH.+X+XE.E.E.G.H.E.Q.OX%X+X+X%X@X@XE.E.oXoXE.F.F.~ Y y.OXE.oXE.oXoXoXE.P.oXK.oXOX@XoXoX@XoXoXoXK.J.K.K.F.F.G.F.J.F.G. XK.J.S.K.G.K.G.J.G.G.K. X XK.K.G.F.S.L.F.F.S.F.G.i.P.G.` y. XoXoXK.@X@XoX X X XoX X X X XP. X XS. X.X.X|.|. X.XJ.|.L.J.J.S.J.J.|.J.D.|.D.D.J.",
"Z.~.A.A.A.A.Z.A.A.A.Z.A.Z.Z.Z.Z.Z.A.Z.Z.Z.Z.Z.H.A.Z.H.R.H.Z.H.H.H.R.V.Z.H.H.H.E.E.E.E.R.Z.H.H.H.H.C.H.R.E.E.R.H.E.H.9.H.oX+X+XE.H.+X&X+XQ.+XE.H.T.H.E.E.R.R.R.H.H.H.Z.Z.H.H.y.q.^ * y T N T y 1 < - - - - w 9.6.T * * < 3 y.C.C.C.Z.u.u.p.y.i.F.F.F.E.OXE.oXOXOXE.E.@XE.OXE.E.@X+X@XOX+X+X%X+X+X+XoXE.E.K.E.K.F.y.Y ~ H.K.oXoXoXoXoXOXP.P.E.P.@X#X@X%XOXOXOXoXK.K.G.G.G.G.J. XoXF.G.K.K.G.P.K.K.P.G.F.J.K. XJ.J.J.L.J.L.L.S.i.S.G.S.G.G.^ i.P. X@XoXoX@XoX X X XoX X X@X XoX@X X X.X.X|. X X X XoXJ.S.D.J. XJ.L.L.J.J.L.D.D.L.D.",
"Y.~.Y.~.T.Z.A.A.A.A.Z.R.R.H.Z.Z.C.R.Z.Z.U.A.R.H.Z.Z.Z.Z.Z.H.R.H.R.R.Q.R.H.E.E.E.R.E.R.E.H.H.Z.Z.E.E.T.R.E.E.E.E.y.C.+X+X@X+X+X+XE.+X+X&X+XQ.E.E.E.R.Z.T.R.R.H.Z.Z.Z.H.C.Z.H.C.y.^ O M 6.6.0.T y 3 < - - < 1 e T r $ * 2 E w.C.C.C.Z.C.C.y.y.F.C.C.y.C.C.H.E.oXE.E.OXoXE.E.oXE.E.E.+XoXOX+XOX%X@X+X+XE.K.E.E.K.K.F.y.p.Y C.E.@XOX@XOXP.oXoXOXP.%X%X@XP.OXOX@XE.P.K.F.G.F.K.F.G.K.K.G.G.K.J.G.G.K.G.F.L.L.J.J.J.J.J.i.F.L.F.J.L.S.i.F.y.~ y.oXOX@X#XoX@XoX XoX X@X@XoXoXJ. X X.X.X X X X X XJ.oX|. X XJ.J.|.J.J.L.L.J. X XJ.L.J.J.",
"~.~.R.~.Z.A.V.A.A.Z.~.R.R.R.C.Z.A.Z.R.Z.Z.Z.q.u.Z.Z.Z.Z.Z.R.A.Z.R.R.E.Z.R.E.R.R.C.H.E.E.E.E.R.E.E.E.E.E.H.E.F.y.H.oX@X&X&XQ.+X+X@X@X+XQ.Q.+X+X+XH.Z.Z.T.Z.Z.Z.H.R.Z.C.Z.H.H.y.y.! * T 7.0.0.6.6.M e t < - 3 3 3 * $ < t w.w.u.C.C.H.C.y.C.C.F.F.F.i.y.H.E.E.OXoXQ.E.E.Q.E.E.+X+XE.+XOX+X+XE.E.E.E.E.OXE.H.E.P.E.K.G.P.K.~ ~ G.E.E.oXOXoXE.E.OX%X@XOXOXoXoXP.oX@XP.K.P.G.K.F.F.P.P. XK.K.K.G.K.F.L.L.F.L.F.J.J.J.J.S.i.y.S.F.L.L.L.S.~ i. X X@X@XoX X XK.K.#X#X@X@X X XoXoX X@X.X XJ. X.X.X X X.XJ. XoX.XJ.J.L.S.S.|.|.J.D.J.i.S.",
"Y.~.T.Y.T.A.Z.Z.Z.Z.A.Z.Z.Z.C.A.H.Z.R.R.Z.C.H.Z.Z.Z.Z.R.C.V.Z.H.Z.R.R.R.Q.Q.E.E.E.R.E.E.E.H.R.E.Q.E.K.E.E.y.C.H.+X+X&X%X+X&X+X+X+X+X+XQ.Q.E.E.E.E.E.H.R.E.R.R.H.R.H.C.T.H.H.C.q.Y * 6.7.7.0.6.6.T T E t - 1 5 < $ $ < 9.r.w.u.Z.Z.Z.C.y.F.H.F.C.F.i.F.F.F.E.E.E.Q.E.H.E.E.K.G.K.E.+X@XOX+XOXK.G.G.E.E.K.K.oXE.E.K.E.E.E.H.y.Y y.E.OX@XoXE.H.E.@X@XoXOX@X@X@X@XoXK.K.K. XJ.K.K.F.oXK. XG.F.J.G.S.F.F.L.S.L.S.L.L.G.S.i.L.L.L.S.y.y.! y.P.G. X XoX X X@XoXK.oX XoXoX X@XoXoX X@XoX.X@X X X.X X XoX|.@X XJ.i..X|.S.D.J.|. XJ.J.J.J.",
"T.~.T.Y.Z.Z.Z.Z.A.~.R.R.R.Z.R.H.R.Z.R.Z.Z.Z.T.R.Z.Z.H.R.H.Z.Z.R.H.U.Z.H.E.E.E.+X+XE.E.+X+X+X+XE.C.H.C.C.y.E.E.E.oXE.%X+X+X&X&X+X@X+X+X+XQ.Q.E.R.Q.H.R.R.R.Q.H.H.E.H.H.Z.H.C.C.q.Y 1 4.*.7.8.w.6.4.6.0.G t < 2 5 $ $ M r.a.w.u.H.C.C.F.C.C.K.F.G.C.G.F.G.K.F.F.E.E.+XR.E.G.G.G.K.K.OX+XoX+XE.oXE.E.E.H.K.E.E.E.E.E.E.E.E.P.G.y.Y ~ oXoXoXP.P.E.oXoXOX@X@XOX@X@X%XOXoXoXP.G.G.K.S.G.K.G.S.J.G.L.L.i.L.L.F.L.F.F.L.L.L.D.D.J.S.S.y.! ` S. X XoX XoXG.K.K.@X XoXK.K.@XoXJ.@XoX@XJ. X.X@X XoXoX X.X X|. XJ..XL.J.|.L.|.|.L.|.|.|.D.S.",
"Z.Z.R.~.A.A.A.Z.T.W.R.Z.Z.R.Z.R.R.Z.A.Z.Z.R.R.R.Z.R.R.R.H.R.Z.Z.H.E.R.E.E.+XQ.+X+XE.E.Q.Q.+XQ.H.K.C.q.q.E.E.E.E.E.E.+X+X+X+X+X&X+X+X+X+XR.Q.E.+XE.Q.R.R.H.R.E.R.T.T.H.C.C.C.y.q.Y w B %.%.8.0.7.6.7.0.9.E t * 5 < * 4.r.a.a.u.Z.C.Z.H.C.C.G.F.F.C.y.C.F.F.F.G.K.H.E.E.E.G.E.E.H.E.E.E.E.E.E.T.H.E.E.E.oXoXK.E.H.K.G.E.E.E.G.G.G.y.Y S.oXoXoXOXoXP.OXOX@X%X@X@XOXOXOXOXK.oXK.oXJ.S.P.L.L.L.F.G.L.S.F.L.S.S.L.L.L.L.L.S.J.D.J.J._ ` |.|. X XoXoXK.G. XK. X@X@XoX X X XJ.oXoX.X XJ. X#X#X X X X XJ. X X X X X|. X|. XL.|.J.|..X|. X",
"Z.Z.~.Z.Z.A.Z.A.Z.Z.R.R.Z.Z.Z.Z.R.R.R.Z.Z.R.R.R.H.H.Z.Z.H.R.R.C.R.Z.E.R.Q.Q.E.E.E.E.Q.+XR.+XE.R.C.C.H.E.E.E.E.E.H.E.+XE.+X+X+X+X&X&XE.+XH.H.E.E.Q.H.R.Z.A.R.R.E.Q.H.E.Z.H.C.C.^ H 1 N B 7.B.7.4.6.7.w.0.9.T 1 < < w 6.a.Y.a.u.C.H.C.C.C.F.C.F.C.G.C.C.F.y.F.V.y.E.G.E.R.E.P.H.E.E.H.E.R.E.T.E.K.G.K.K.K.K.H.E.H.F.G.K.H.K.K.K.oXK.K.! i.K.K.G.P.oXOXOXK.@XOXOXOX@XoXoXoX XoXP.oXF.K.F.F.F.G.J.L.F.F.S.F.J.L.L.D.D.L.i.J.|.D.! S.L.|.J.L.|.G.K.J. XoX X X XoX X X XJ. XoXJ.J.|.J. X#X@X X X@X@X.XJ. X.X X X X.X.X|. X.X|.D.|.J.|.",
"T q.Z.A.A.R.Z.Z.R.R.R.Z.H.Z.H.R.H.R.R.R.R.C.Z.Z.H.R.H.R.R.R.H.U.E.H.R.Z.R.E.E.H.E.E.Q.E.E.oXoXy.H.G.E.E.E.OX+XE.oX%X&X@X&X+X&X%X+X+XE.E.T.E.H.H.R.H.&XQ.E.R.R.E.H.Z.R.T.H.H.y.q.G 1 e M 7.Y.0.m %.6.0.w.w.0.x < < l 4.r.a.r.A.Z.H.Z.H.C.C.H.F.G.F.K.G.F.C.F.F.C.F.J.K.H.P.K.E.E.OXE.@XE.H.H.E.K.E.E.F.H.G.C.E.E.K.E.E.E.oXG.K.E.E.E.K.^ Y F.K.P.OX@XOXE.OXP.OX@X%X@XoX@X@XoXG.P.K.G.F.S.F.J.L.i.F.F.F.S.S.L.L.S.S.D.L.D.L.~ y.i.D.J.D.L.|. XG.J.oXoXP. XoX@XoXoX XJ. X X.XJ.#X XJ.@X XoX@X#X.X.XJ..X.X.XJ. X@X X.X.X.XJ.|..XJ.D.",
"e y.Z.~.A.R.Z.R.R.R.Q.R.R.R.R.E.R.R.E.R.R.H.Q.W.H.R.Z.H.H.R.H.H.H.E.E.E.Q.E.H.T.E.+XH.H.H.C.H.E.E.E.E.+XE.@X+X+X+X%X&X+X&X@X%X+XG.E.H.E.E.H.E.+XQ.E.E.H.Q.R.T.H.E.E.T.E.H.H.y.y.c 1 O r 7.r.w.B B %.%.7.0.w.T e * l B r.r.w.w.Z.H.C.H.u.C.y.G.K.G.K.F.F.G.F.V.G.G.G.K.G.E.E.G.E.P.E.E.E.E.E.E.E.K.G.F.K.E.H.OXoXoXE.E.E.K.G.E.oXoXE.OXE.G.~ ~ G.OXE.OXOX@XOXoX%X%XOX#X@X@XoXoXoXK.G.F.G.S.G.G.S.i.S.F.S.S.F.S.i.i.L.S.i.! y.L.L.D.D.D. XJ.L.K.G.oXoXJ..X XoXoXJ.@X X XJ.L.@X.X.X X.X.X#X X.XJ..X.X@X#X X XJ. X XJ.L.#X.X|..X.X|.",
"^ v y.Z.Z.Z.R.R.E.W.Q.H.R.Q.R.E.E.R.E.R.R.R.R.R.R.R.R.R.E.H.T.H.E.H.I.H.R.E.+XQ.E.H.E.H.q.C.E.E.E.E.oX+XE.+X+XOX+X+X+X&X+X+X&XoXE.E.E.H.E.E.E.E.+XQ.E.Q.+XR.H.R.H.H.E.H.F.H.C.y.H 3 # ; 4.r.r.%.%.B n %.%.6.6.M * r %.8.7.6.N H.Z.C.C.G.C.C.F.G.G.i.C.G.G.G.F.K.G.G.F.K.P.P.K.P.E.H.P.P.E.H.G.K.K.H.y.C.E.oXE.oXOX@XE.H.E.E.+X+XoX@X@X+XOXP.y.~ G.OX+XE.@X%X@X%X%XOX@X@XOXoX@XK.J.F.F.G.i.S.J.F.S.L.i.S.S.i.S.L.D.J.y.~ y.L. XJ.D.L.J.L.L.J. XJ.oXJ.|. X X XoXJ.J.oX X@X X.X X X|. X X.X XoXJ..X X@X X X XoXJ. X X.X X X X@X.X X",
"A.c l y.Z.Q.R.R.R.R.R.Z.W.W.R.R.R.R.H.R.R.R.H.R.W.Q.Z.Z.R.R.R.H.Z.C.E.H.E.H.H.R.E.H.y.F.oXE.+X+X+XE.@XE.+X+XE.E.+X+X+X+X+XoX@X@XE.E.+XE.@X@XE.Q.E.R.E.E.Q.E.H.H.E.E.R.R.H.y.V.y.H t - O N 7.7.%.7.6.n %.n b B T $ e %.8.6.T x H.C.Z.y.y.C.i.y.G.E.G.G.F.F.F.C.G.F.F.V.F.K.K.P.K.@XE.OXP.P.OXG.K.H.H.K.G.P.E.oXK.G.E.@X@X+X+X+X@XoXK.oXoXE.P.K.G.! y.oXOX@XE. X@X@X%XoX@X@XOXOXK.J.G.K.F.G.F.S.L.L.S.i.i.S.S.S.S.i.y.! S.L.|.J.D.|.J.J.L.S.J.J.J. X XJ. XJ. X@X XJ. X X@X.X X.X X.X|. X|..XoX.XJ. X.X X.X@XoX.XoX X X|.|..X.X@X.X",
"y.y.Q x A.~.Z.R.W.W.R.W.W.W.R.W.R.R.R.W.R.R.E.R.H.Z.R.R.R.R.E.R.H.Z.H.H.E.H.Z.H.u.q.K.+XOX+XE.+X+X+XE.+XE.+XE.E.+X@XE.&X+XQ.E.+X+XE.E.E.E.E.C.E.R.T.E.E.E.+XE.Z.H.H.E.E.H.C.C.y.Y t 1 O y T B 6.r.w.%.7.%.B 6.0.o N 6.8.8.7.T C.H.E.H.C.y.G.G.F.F.y.i.G.F.K.G.G.G.F.F.F.F.K.J.K.E.oXOXoX+X@XE.E.H.H.H.H.E.E.H.K.G.K.OX@XOXE.+XOXE.K.P.oXoXE.P.OXP.y.^ P.@XoXoX@X@X@X@XP.%X@X@XoX XP.K.K.K. XJ.L.i.S.F.i.J.J. XS.y.! L.L.J.L.D.|.L.D..X XL.D.L. XJ.J. X XJ. XoX X X X#X@X.X X X.XJ.J..X.X XJ. X.X XoX X X X|..X.X X@X#X@X|. X#X#X",
"Z.Z.Z.Y N Z.Z.Q.W.R.E.E.W.H.H.R.E.H.+XR.R.R.Z.R.R.R.R.R.Z.R.R.E.U.Z.Z.H.H.R.V.~ y.R.E.E.oXE.+X+X&XE.+X+X+X+XE.oX+XE.E.&X+XOX+X+XE.+XE.E.E.oX+XQ.E.E.+XQ.E.E.E.H.R.T.E.E.E.H.C.y.R t 5 * # e b 7.r.8.%.8.7.%.0.0.e 0.4.7.r.r.0.q.C.H.y.K.H.G.C.G.y.J.F.G.G.G.J.G.F.F.C.C.F.F.J.K.K.oXOXE.+X+XOXG.K.K.F.C.H.H.H.E.K.E.oX@XE.E.+XOX+XE.oXoXP.OXOXOXP.P.F.! V.oXP.OX%X%X%XOX%X@X@X@X X X XG.G. XJ.L.J.J.L.L.D.D.J.` ! L.|.D.J.|.|. X XJ.|.oXJ.L. X X|. X.X X X X X|. X#X.X.X X@X@X.X X X XJ.J.J. X X.X XoX XoX X@XoX X X#X*X.X.X@X X",
"Z.Z.A.A.x x V.R.Q.Z.R.H.R.W.Q.V.E.C.Q.R.H.E.E.R.E.H.R.E.E.E.R.Q.R.C.E.Z.C.y.^ H.E.+XE.E.oXE.+X+X+XE.+XE.OXE.E.E.+XOXE.+X+XOXE.OXE.E.E.E.H.oX+XQ.E.E.+X+XE.+X&X+XQ.Q.R.R.E.H.C.F.~ t t - # o T w.Y.%.7.r.8.*.8.0.5.r.6.7.8.w.w.Q H.C.C.H.E.G.y.G.G.F.K.K.G.C.G.F.F.F.y.C.V.F.F.F.K.K.K.OX+X@XP.oXP.oXH.K.H.H.H.E.E.E.K.K.E.E.+XOXoXE.P.K.P.P.oXoXoXoXoXK.y.^ F.E.@X%X%X@X#X@XOX@XoXoX XK.K.K.J.J. X XJ.L.D.S.^ ~ i.D.|.L.|. X.X XJ.J. X X X|.D.G. X|. X@XoX#X@X@X.X#XoX.X@X@X@X X X X XJ. X@X.X X.X X X XoX X.X.XoX@X@X#X*X#X@X#X",
"R.R.U.R.A.x Q Z.W.W.R.W.R.E.T.y.E.H.E.W.W.R.E.R.R.Z.R.H.R.W.E.H.E.R.E.C.y.C.H.E.E.E.+XE.E.E.E.E.+XOXH.E.+XE.H.E.H.+X+XE.+X+XE.H.E.H.+X+X+X+X+XoX+X+XE.E.E.Q.+XE.E.+XQ.H.H.Z.C.C.^ z t 1 $ + T a.!.4.r.r.7.8.r.7.0.r.r.!.!.r.r.9.H.C.F.F.H.G.E.E.G.G.G.F.F.K.G.C.V.V.J.K.V.y.i.y.F.i.K.P.OX+XoXP.E.P.P.P.H.E.E.oXE.K.E.E.E.E.OXE.E.G.G.oXE.G.oXoXOXP.OXOX@XK.~ y.OX@X%X@X@X@XoX@X XoXP.K. XK. XK.L.J.J.L.i.~ ~ J.J. X|.D.|.J.|..XD.J. X|..X|.i.S.J. XJ..XoXoX.XJ.J..XoXJ. X@XoXoX#X X.X|. X XJ. X|. X#X X X|. X@X*X.X@X#X*X*X#XoX",
"R.R.W.R.R.A.l T Z.W.Q.W.E.Z.H.E.E.H.R.R.R.R.R.Z.R.H.R.Z.R.Q.E.H.E.H.q.q.R.E.+X+X+X&X+X+X+X@XoXE.+X+XE.E.+XE.E.E.E.E.+XOXE.+XE.E.+XE.+XE.E.+X+X+XE.@X@X+XQ.+XE.+XQ.E.Q.H.I.Z.H.V.V.! - 4 2 - 1 9.0.0.!.+X7.r.r.w.4.r.!.!.!.!.s.Q C.C.C.F.F.G.K.E.F.G.G.V.F.G.G.F.F.F.F.G.F.G.F.F.K.i.G.K.oXOXK.E.oXoXH.H.H.E.H.E.G.E.E.E.E.H.H.Q.E.@XE.P.oXP.@XP.+XoXOX@XOXoXoXy.^ oX XoXoXoXoX@X XK. X X XK.J.K.|.S.J.L.! ! S.|.L.S..X|. X X|.@X|. X.X.X@X@X XJ.D.J.J.|. X X.X|.L..X@X.X@XoX X.X X XoX XoX@XoX@X X X X|..X.X@X@X|. X@X@X#X#X@XoX",
"R.R.R.R.Q.A.q.v ^ W.W.R.R.R.E.Q.R.E.H.R.E.E.R.R.R.R.Z.R.Z.H.R.E.y.q.C.Q.+X&X+XQ.+XQ.OX+X+X+XE.E.E.E.E.E.E.E.K.E.oXH.+XH.K.@XE.E.OXoXE.E.+X&X+X&XE.+X+XoX+XE.@XE.E.+XE.E.E.C.C.C.C.~ t - 5 3 * O * 5.s.s.a.!.&Xa.V 0.!.!.&X&X!.Q H.T.G.G.G.G.K.E.F.F.G.F.G.G.G.F.F.G.F.F.F.G.F.F.F.F.S.F.oX@XoXoXK.P.G.P.K.G.G.E.K.K.E.oXE.E.H.E.oXoXE.G.K.oXoXK.oXoXoXOXOX@X%X@XF.Y ` OXoXoXOXoXoXoX XoX X XG. X X XJ.~ _ D. X X X X|.|.|..X.X|.J..X.X.X XJ..XJ..XJ.J.|.|.J.@X.XoX.XoX X X X X X X X X#X|. X X XoX.X.X.X.X@X.X.X X@X.X@X.X.X.XoX"
};
