/* XPM */
static char *e965178529ea4a48f8beebdca33f45c8akRRMqnq57lXLI7x[] = {
/* columns rows colors chars-per-pixel */
"256 455 256 2 ",
"   c #09060A",
".  c #0C090C",
"X  c #080506",
"o  c #120C0D",
"O  c #170B05",
"+  c #1A120C",
"@  c #120E11",
"#  c #190F13",
"$  c #151213",
"%  c #1E1A1C",
"&  c #1B1616",
"*  c #0E0C10",
"=  c #25160B",
"-  c #241A13",
";  c #261C17",
":  c #321B0D",
">  c #28231C",
",  c #36261B",
"<  c #39270E",
"1  c #221C22",
"2  c #2B2A25",
"3  c #2C2D2A",
"4  c #272524",
"5  c #372A24",
"6  c #2E312D",
"7  c #33322D",
"8  c #3B3427",
"9  c #373733",
"0  c #2F2B35",
"q  c #1E1C22",
"w  c #573909",
"e  c #472B19",
"r  c #4B3417",
"t  c #563917",
"y  c #4A2C0C",
"u  c #663913",
"i  c #452D24",
"p  c #473629",
"a  c #573927",
"s  c #473C34",
"d  c #553A33",
"f  c #653D28",
"g  c #441C0E",
"h  c #3A413E",
"j  c #5C4316",
"k  c #5D430B",
"l  c #684808",
"z  c #795708",
"x  c #654916",
"c  c #775916",
"v  c #6F4F0F",
"b  c #7C6515",
"n  c #4C4338",
"m  c #564739",
"M  c #574731",
"N  c #67462A",
"B  c #78552A",
"V  c #684936",
"C  c #734D38",
"Z  c #6B533B",
"A  c #785639",
"S  c #724E28",
"D  c #7C632A",
"F  c #5F6016",
"G  c #3A3647",
"H  c #353F60",
"J  c #453D4B",
"K  c #3D4C4B",
"L  c #3B4546",
"P  c #3E4352",
"I  c #3B4767",
"U  c #424E4C",
"Y  c #494745",
"T  c #574B44",
"R  c #44524D",
"E  c #49524D",
"W  c #5C5348",
"Q  c #455351",
"!  c #4B5653",
"~  c #585957",
"^  c #4C4A55",
"/  c #665749",
"(  c #785A45",
")  c #665B55",
"_  c #6D524A",
"`  c #7A634A",
"'  c #6B6357",
"]  c #776957",
"[  c #7D725B",
"{  c #6C624D",
"}  c #515569",
"|  c #5C6566",
" . c #686866",
".. c #766D64",
"X. c #7C7368",
"o. c #777877",
"O. c #6C7174",
"+. c #5F5F60",
"@. c #903715",
"#. c #855A0B",
"$. c #B35317",
"%. c #88650A",
"&. c #9B7508",
"*. c #876716",
"=. c #997516",
"-. c #926D0D",
";. c #A37C09",
":. c #A47A15",
">. c #845C38",
",. c #8B552B",
"<. c #B25826",
"1. c #88643A",
"2. c #936C30",
"3. c #A87637",
"4. c #AF752F",
"5. c #CC641D",
"6. c #C96727",
"7. c #D46C27",
"8. c #D57532",
"9. c #CC621D",
"0. c #845C47",
"q. c #895E4F",
"w. c #886648",
"e. c #936B48",
"r. c #98744A",
"t. c #886855",
"y. c #956B57",
"u. c #85775C",
"i. c #987557",
"p. c #8C724C",
"a. c #A87A4D",
"s. c #8B7D64",
"d. c #8B7D6B",
"f. c #847867",
"g. c #977964",
"h. c #8A7E72",
"j. c #847C74",
"k. c #907166",
"l. c #A67A69",
"z. c #B27C6F",
"x. c #C77A47",
"c. c #78827C",
"v. c #AA830C",
"b. c #AA8415",
"n. c #B48B16",
"m. c #BC9316",
"M. c #B68C0B",
"N. c #B6882F",
"B. c #968228",
"V. c #CE8E37",
"C. c #E9A636",
"Z. c #CE9623",
"A. c #B2854B",
"S. c #8E816D",
"D. c #8C8265",
"F. c #938365",
"G. c #94846C",
"H. c #9A8A6D",
"J. c #98876B",
"K. c #8D8274",
"L. c #8B857B",
"P. c #938573",
"I. c #968974",
"U. c #9C8C73",
"Y. c #958A7C",
"T. c #9B8D7A",
"R. c #938678",
"E. c #9E917D",
"W. c #9D9274",
"Q. c #939275",
"!. c #A18F74",
"~. c #A68977",
"^. c #A29175",
"/. c #A3937B",
"(. c #A9987C",
"). c #AB886F",
"_. c #94835D",
"`. c #C48747",
"'. c #D39247",
"]. c #E1A24C",
"[. c #72778C",
"{. c #57668B",
"}. c #827E85",
"|. c #7B8686",
" X c #7280A3",
".X c #888986",
"XX c #968D82",
"oX c #9A9487",
"OX c #9A9799",
"+X c #889090",
"@X c #A39582",
"#X c #A79A86",
"$X c #A39C98",
"%X c #B4938A",
"&X c #99A598",
"*X c #A9A499",
"=X c #B4AB96",
"-X c #9595AB",
";X c #9C9CAD",
":X c #9797A8",
">X c #9C9CB1",
",X c #969AB1",
"<X c #8C91A4",
"1X c #A49BA9",
"2X c #A29DB2",
"3X c #B29AAA",
"4X c #9FA0AC",
"5X c #9EA4A5",
"6X c #9FA1B3",
"7X c #9EB1A1",
"8X c #A4A2A5",
"9X c #A4A4AC",
"0X c #ABAAAD",
"qX c #AAA6A7",
"wX c #B2ADAD",
"eX c #B4ACA4",
"rX c #B9B3AC",
"tX c #A3A4B4",
"yX c #ABABB3",
"uX c #A5A9BC",
"iX c #ABACBB",
"pX c #A6A6B7",
"aX c #B3ACB3",
"sX c #B7B5B5",
"dX c #ACB1B9",
"fX c #C8B596",
"gX c #C5BBAB",
"hX c #C3BDB5",
"jX c #C5ABB4",
"kX c #CB9695",
"lX c #CCC2AB",
"zX c #D5C7AC",
"xX c #CAC4B8",
"cX c #D5CBB8",
"vX c #DBD2BA",
"bX c #D4D1B1",
"nX c #E6D7BA",
"mX c #E7D5B3",
"MX c #EEDFBA",
"NX c #A9AEC2",
"BX c #ABB1C5",
"VX c #B5B3C3",
"CX c #B4AEC3",
"ZX c #DCD3C3",
"AX c #D3CDC4",
"SX c #E6DBC6",
"DX c #E8DFD1",
"FX c #EDE2C9",
"GX c #F5E7C9",
"HX c #FCF5D9",
"JX c #F5EAD3",
"KX c #FCF9E7",
"LX c #FDFBFC",
"PX c #FCFBF4",
"IX c #EFEBE6",
"UX c #BCBCB7",
/* pixels */
"4 > 9 Y 7 3 2 3 2 4 4 4 > 4 > & > % 4 2 > 4 3 2 > 4 3 2 2 2 6 3 4 4 2 2 4 & $ $ & $ @ $ $ $ % & & > 7 2 2 2 s s 8 n s s 9 5 7 > & - & + + + & - - > - 2 2 2 7 2 > 2 8 8 5 5 8 s 8 8 m n m m m n n 8 s 8 p p 8 8 p p p 8 8 , > , 8 , 8 5 8 n M M M M m m m m Z m / { ] { { ] P.G.D.D.D.D.D.D.D.D.f.u.u.f.f.[ [ [ f.f.D.f.[ u.f.f.f.d.f.d.u.] ] { [ [ [ u.[ u.u.u.u.[ [ [ [ [ [ [ u.[ [ [ ] { / m n n W / / T T / T ) ] X.j.o.X.X. .~ Y Y Y Y T T T T T Y Y Y Y Y Y Y W ~ ) ) ) ) ) ' ' ' ' ' '  . . .'  . . . . . .) ) T T W ~ ~ ",
"> 4 2 9 9 4 2 2 4 > % > % 4 4 & % 4 2 3 2 2 2 7 2 3 3 2 2 6 3 2 4 4 4 4 > % & $ . $ $ & & $ $ & & > 7 2 9 7 7 8 9 8 s n 8 4 & & & & $ & & & & & & & > > > > , 7 > 2 , , s 8 8 n n n m n m m m s s 7 5 7 s 8 8 8 8 8 8 8 5 , , 5 8 8 n n n M m m M M M Z M M / m M M , , 8 , p n M [ G.D.D.D.D.D.D.f.f.D.d.s.f.s.f.f.d.D.d.f.[ f.[ ] [ f.f.[ [ [ u.f.u.f.d.f.s.d.u.u.[ [ ] ] [ [ [ [ [ ] ] { { { / W { W W / / { / W / m / ' X.j.j.j.X. .) W T T ^ ^ T T ^ T T Y Y Y Y s Y T ~ ) ) ) ) ) ' ' ' ' ' ' ) '  . . . .) ~ W ~ ) ' ' ) ",
"4 4 4 6 9 4 2 4 4 > & % & & 4 % % 2 3 3 6 7 3 2 3 2 2 2 3 3 3 7 7 3 4 2 4 4 & $ @ $ $ $ % & ; % ; 7 7 > 9 7 7 9 5 3 2 > > 4 % & & & $ $ % + & & & ; - > > 2 2 9 3 7 7 s s n n s m n n n n n p 7 8 8 5 8 5 8 , , > 8 8 5 , , 8 , 8 p n n n M Z Z M m n M m Z m , , > > 8 , , , , , 8 r n ] { I.G.D.P.P.D.D.D.f.u.f.f.u.f.d.f.f.d.[ f.[ [ ] D.u.f.f.f.f.u.u.f.] u.f.f.[ [ [ [ ] { ] ] [ [ [ ] { ] ] { { { { { { { { ] W m W m n n ' X.j.K.j.j.X. .~ T Y Y T T ^ ^ T T T Y Y J s Y T ' ' ' ' ' ' ' ) ) ) ) ) ~ W W ~ ) ' ' ' ' ) ) ",
"2 4 2 7 9 2 4 4 4 4 % 4 2 4 > % % & % 4 3 3 2 2 3 3 3 2 3 3 7 7 3 7 3 2 2 4 % $ @ @ $ $ % % > % % 7 7 3 7 9 8 2 > 2 4 ; & & & $ $ & $ & > & & & % 4 - 2 8 7 5 s 9 8 8 n m n s n n n 8 s > - 2 , , 8 , 8 8 > , , , 8 8 5 8 8 8 p p n n m m M m m Z M m m M p , , , > 5 8 , , , 8 8 8 p p n p ] I.D.I.I.S.D.D.D.s.D.f.u.[ f.f.f.f.f.u.u.[ [ u.u.u.[ ] f.f.[ [ { ] [ u.[ ] { { { { ] ] ] [ [ s.f.f.f.[ ] ] [ ] ] [ { / ] { T W W m { W T ' ..j.h.j.j.X. .~ T Y T ^ T ^ T T T T Y Y s W ' ' '  . .' ' ) ) ~ ~ ) ' ' ) ' ' ' ' ' ' ' ",
"2 4 2 4 9 2 3 3 3 4 4 2 4 3 3 2 4 & & % 4 % % 4 4 4 4 4 2 2 3 7 7 7 7 3 3 4 % $ $ $ $ & % 4 > 4 > 7 2 2 2 7 2 > 2 > 2 > & & $ $ $ & & & & & & & % > - 2 8 9 s s s s n n s n n 9 s > & - + - > > 2 2 2 8 8 > 2 p 8 , 8 5 8 n n n n W n m Z M Z M n n n p , > > , > > p 8 8 8 8 8 p p p n n n Z Z m ] d.S.d.f.d.f.f.D.D.d.d.f.d.[ f.d.[ u.[ [ u.f.[ f.u.u.u.[ f.f.[ [ [ / { ] ] { ] { ] ] [ f.f.s.f.u.f.s.u.u.[ ] { { { W / { W ) / { T ' T m T ] ..j.j.f.X...) W T T ^ T T T W W ~  .'  ..... . ... .'  .' ' ' ' ' ' ' ' ' ' ' ) ",
"3 7 7 3 2 9 3 3 3 4 2 3 3 2 2 3 3 4 2 4 4 4 % 4 4 4 4 > 4 4 4 3 3 6 7 3 3 3 2 & % & & $ & > > & % 2 3 9 2 7 > 2 2 2 > > & $ $ @ & & & $ $ $ & % & > & 8 8 8 9 n n s n n n s 8 & & - & - & & + > 2 2 , 8 5 > 8 s s s 8 n n n n m p n n n m M M 5 5 , 5 , > > > 5 , p p 8 8 , 8 8 n p n n n m m m M Z m { f.] D.G.f.d.d.D.s.s.D.d.D.D.d.u.[ [ f.u.[ [ [ d.[ u.u.u.[ [ u.] ] ] [ { [ ] u.u.u.u.f.[ [ f.{ [ s.s.[ [ [ [ { [ f.] [ [ [ ] ] ] W W { { / T ) ..X.j.j.j.X. .~ T T T T W ) .......... . . ... . . .' ' ' ' ) ) ~ ~ ) ) ' ",
"7 9 9 9 2 7 7 3 3 7 3 4 3 2 3 7 3 3 6 3 2 2 4 4 4 2 4 4 > 2 > 2 4 4 3 3 2 7 9 4 4 4 % & % > % & > 2 2 2 2 7 7 3 7 7 4 > & & $ @ $ & & @ % & & > % - > 9 8 9 s 9 n n s s n 2 & & & & & & & & % > > > , 9 8 8 s s n n n n n n n m p n n m n , , > > , , 5 2 2 8 p 8 8 8 p 8 8 8 n n n n m m W m Z Z / Z n p 8 p { / f.I.D.d.D.D.s.d.d.s.d.f.u.u.u.[ [ u.[ u.[ u.u.u.u.s.f.[ ] [ [ [ [ [ [ [ [ ] [ ] [ ] ] [ u.f.f.s.s.f.[ f.s.s.s.[ [ [ [ ] ] { / { / { { / ) ] ..j.j.j.X...) W W ) W W W W W ~ ) ) ) ) ) ~ ~ ~ ~ ~ ) ' ) ) ~ ~ ) ",
"7 3 3 7 > 3 3 3 3 7 3 3 3 3 3 6 3 6 3 9 7 9 9 2 3 4 2 3 % 4 > 4 2 4 4 2 4 2 2 4 4 3 > % % 4 4 2 2 2 3 7 7 7 3 2 2 2 2 4 & $ $ @ . ; > $ & & & 4 > > 7 8 8 9 9 8 9 9 2 > > & $ & & & & & - - > - - > 8 5 s 8 n n n n m p 8 m n m n p 5 , , > , > , > , 5 8 , s n 8 8 p p n n m m m n m m m Z M M p 8 , , 8 8 8 8 8 8 M [ G.G.D.s.d.d.D.s.f.f.u.u.f.f.d.u.u.f.s.s.u.u.D.D.s.u.[ ] [ [ ] ] ] { ] ] ] { [ [ [ u.u.[ [ u.f.[ u.u.u.X.f.u.[ X.[ ] { { ] ] { ' ' ] ' W / W ..X.j.j.X.X.X.X.X.X..... .' ) ) ) ) ) ' ' ' ~ W W ~ ~ T ~ ~ ",
"7 3 6 7 4 7 3 6 3 7 6 2 7 7 7 3 3 3 3 7 3 6 3 3 3 7 2 3 4 > 2 4 2 7 4 4 4 4 4 % 4 4 2 2 4 2 2 2 2 4 6 7 2 2 2 2 4 2 2 4 > $ $ $ . % % & & % 4 2 2 3 5 2 7 2 3 3 > & $ & & $ $ & + & > > - - > & - 7 s 8 s s n n m n m T s n m n , 5 > > > > 7 > > > 8 , 8 > 8 p 8 n n m m m m n M m m M m M n 8 8 8 , 8 8 8 8 8 8 8 8 p Z u.G.G.P.D.G.D.D.D.d.u.s.u.u.u.[ D.u.u.u.u.u.u.D.s.u.u.u.u.u.] { { [ [ ] [ [ [ u.[ [ u.[ [ [ u.u.] u.[ u.f.f.u.f.s.f.] [ ] [ ] / ] { { ' ' W W / ) ' X.j.X.X.X.X.X....... .' ' ~ W T W T ~ W W W W W ~ ",
"7 9 9 7 4 4 7 6 3 3 3 3 7 7 7 7 9 3 2 3 7 6 6 3 2 9 9 9 7 4 2 6 3 3 3 3 2 3 4 % 4 4 2 2 > 4 4 2 4 2 3 7 3 3 3 3 4 2 3 2 2 $ @ $ $ % 4 % & > > 2 3 2 > > 7 2 2 4 & & & $ & $ $ $ > > 4 > > > > & > 2 2 n m s n n n n s n 8 > , 8 > > > , > 8 8 + > 5 s 8 8 8 n M n m m M m m m m m m n 8 8 , 8 8 8 , , 8 8 8 8 8 8 , 8 n n M ] [ D.u.D.D.D.G.G.D.u.u.u.u.[ u.u.u.u.u.u.u.u.u.u.D.d.u.D.u.u.f.d.s.u.u.f.f.u.u.u.u.u.[ u.u.f.u.f.f.D.d.s.[ D.f.[ f.[ ] [ ] [ [ ] ] ] ] ] ' { T W m m ) ] ..X...] ' ) W n n T T Y T W ~ W W T W W ~ ",
"2 7 9 7 4 4 3 3 3 7 6 6 6 7 7 7 9 3 3 3 3 9 7 7 3 7 7 9 7 3 6 7 9 9 6 4 3 2 2 3 2 2 4 4 4 4 > 4 2 4 2 2 2 3 2 3 4 2 2 2 2 % % % % & % & & > > > 2 2 3 7 7 2 4 4 % @ & $ % & $ $ > > > > > > & - > 8 > T n s p n s n 8 2 > > > 7 , > > > 7 7 2 > > > s 8 n m m n M m m M M m m m n 5 8 > 8 5 p 8 , p 8 p 8 , 8 p m p p m n M Z m Z / { D.G.u.s.D.D.s.u.[ [ u.u.u.[ [ u.u.s.f.u.u.d.D.s.f.d.d.D.u.u.u.u.d.u.f.u.u.f.u.u.f.[ u.[ [ d.s.d.d.s.[ [ f.[ [ [ [ ] [ [ ] ] X.{ ] { { { { W ' ) s m n 9 n Y n n Y Y Y Y Y W T W W T T W W ",
"4 2 3 7 7 4 3 3 7 3 6 7 6 7 6 3 3 3 3 3 7 9 6 3 7 3 2 2 7 2 3 3 4 3 9 6 3 9 3 4 2 3 2 2 4 4 4 4 3 2 2 3 2 4 4 3 2 4 2 2 2 3 4 4 4 % > % > > 4 2 2 3 7 3 3 3 2 > ; $ $ & & & $ & % % > % > $ - > 8 n n n p 9 9 8 5 2 2 > > > > 7 > 2 > 7 7 , 2 5 2 7 m n W T W m m m m m m s 8 , > , 5 > 8 8 8 5 8 8 8 p 8 n p n n n m M m m Z Z / m m m s.D.G.u.u.D.D.d.u.u.[ u.u.u.u.u.u.[ [ u.[ u.[ [ f.[ [ [ [ [ ` u.s.s.u.s.u.u.s.f.u.d.d.u.[ f.f.D.D.u.s.u.[ [ [ [ s.f.d.[ ] ] ] ] { ] ] { ] ] ] { W W Y T Y Y Y Y n Y n Y T Y Y T Y Y E T ",
"3 3 7 7 9 % 6 6 6 3 3 3 2 7 9 3 6 6 6 3 9 7 6 3 6 9 9 7 7 3 3 9 9 3 7 7 3 9 7 3 3 3 3 3 3 2 2 4 2 3 2 4 4 2 4 4 2 4 4 > 2 2 4 4 4 4 4 4 2 2 7 7 2 2 7 7 7 7 2 4 % & $ & % & & & > > > % % % 2 n n s 5 9 8 3 2 2 2 2 > > > > > 2 > 7 > 2 9 8 8 n n n m m m T T n n m 8 8 8 5 > , , 5 5 , 5 p 8 p 8 p p p 8 m p n M M n m m n m Z m n 8 , , p M ] ] D.G.D.D.D.D.s.D.D.s.u.f.[ [ ] [ [ [ [ [ [ ] [ [ [ [ [ u.u.u.u.s.d.f.s.u.f.u.u.u.f.f.u.u.D.u.u.u.[ [ [ f.f.[ [ [ [ ] [ ] [ [ ] ] ] { ] / { W ' ' ) Y n n Y Y Y Y Y Y W Y Y Y Y ",
"9 3 3 7 7 > 9 9 6 3 3 9 7 6 9 6 3 6 6 6 7 7 3 3 3 6 9 3 7 7 2 9 6 3 9 9 6 6 6 6 6 6 3 6 3 3 7 3 3 2 2 3 2 2 4 > 2 2 4 > 2 4 4 4 > % % 2 2 > 2 7 7 7 9 3 7 7 2 4 % > & & % % > % > > % > 4 > > 8 n 8 2 2 > - 2 > > > & - 7 > 2 > > > , 7 8 n s n n n n m m m n W 8 8 7 8 2 3 > , , 8 5 , 5 n 8 n n p p n n m m m m M m m m n p n 8 8 , 8 8 , p , 8 p M n M Z Z Z Z / [ [ f.D.D.f.u.u.f.[ [ [ X.[ [ u.u.u.u.u.u.s.u.f.[ u.[ f.u.u.u.f.f.s.u.D.s.D.s.s.u.[ u.f.[ [ [ [ [ [ [ ] [ [ [ ] ] [ ] ] ] ] ] ' ' W s T Y 9 n Y Y T Y Y n Y ",
"6 7 2 7 3 % 6 3 7 2 3 9 9 6 3 3 6 7 7 2 3 6 7 3 3 9 7 7 7 3 3 3 6 6 6 6 6 6 3 9 9 9 7 3 6 6 9 9 6 3 3 3 7 3 3 3 3 3 2 2 7 6 4 2 4 > % 4 > 4 2 4 3 3 3 2 2 3 2 7 3 4 & & & % > > > % ; 4 2 2 8 9 m > 8 3 > - > > & ; > - 3 > > > 2 3 8 s 8 n n s m n 8 T m 5 2 8 8 8 7 , 2 8 , , , 8 , 8 8 , 8 8 n p n m m n Z m M m n 8 8 8 5 8 5 p 8 8 8 8 8 8 8 n p p M M m m m m Z Z Z { X.D.J.D.D.s.[ [ X.[ u.u.f.u.u.s.d.u.f.u.u.u.u.f.u.[ [ u.[ [ u.u.u.s.D.D.D.d.d.D.u.f.u.[ u.u.[ [ f.f.[ [ [ ] [ [ ] ..X.{ ] ] { T ' W Y n n n T Y n Y ",
"3 3 2 2 2 % 6 3 7 3 3 6 6 3 3 3 3 9 6 2 3 9 9 6 3 9 6 7 9 7 3 3 6 6 6 6 7 7 6 7 9 6 3 6 7 2 6 7 7 9 7 7 6 7 6 9 6 6 3 3 6 7 3 7 7 2 2 > > > 4 4 4 > ; 4 3 > > 3 6 4 % % > % & > > > 2 7 2 2 9 7 9 3 8 7 > > % - & & > > > 2 3 > 7 s 8 n s s n n n s , > > > > > 8 5 , > > 2 2 7 5 8 8 p 5 p 5 8 m n m m W m W W Z 8 8 8 8 8 p , 5 p 8 , 8 p 8 n p n M m m m m m Z Z Z Z m 8 8 p [ s.H.D.D.D.[ u.u.D.D.d.f.f.s.s.s.D.s.s.s.s.u.] u.u.[ [ [ u.[ [ f.D.u.s.s.D.D.s.u.f.f.[ u.f.f.f.D.X.[ [ [ ] ] [ [ [ [ ' { ] ] ' ' ) W 9 s n n W ",
"9 6 3 3 4 % 6 3 6 6 6 3 6 2 3 3 3 3 3 6 6 6 6 6 9 7 6 7 7 6 2 3 3 3 6 3 9 7 6 7 6 6 3 6 6 6 6 6 6 7 7 3 7 7 9 9 7 3 3 3 6 6 6 9 9 7 9 2 6 6 7 4 > 4 > % & & % > 4 2 > 4 > ; > > 2 3 3 9 3 2 7 7 s 7 7 8 4 > & % % % > > 2 2 3 > s s n s s n n n 2 > > > ; > > - > 7 > > > p 8 8 s 8 8 s 7 n m n m m m m W m n 8 , p 8 8 8 8 n , 8 p 8 8 m n M M M M Z Z m m M m M M p p n 8 p p p 8 M ] u.D.f.D.D.J.D.D.D.P.G.P.G.D.s.D.D.D.D.u.D.f.[ [ u.u.D.s.u.u.f.f.u.u.s.s.D.f.f.u.s.D.D.f.d.[ [ [ s.[ [ X.] ] [ ] ] ] ] ] ] ' { W ' m n n ",
"U U U L 9 9 9 6 4 3 3 4 3 2 3 3 3 3 2 3 3 3 3 2 3 7 7 6 3 6 9 7 6 3 6 4 9 9 7 7 6 6 4 6 9 6 9 7 7 7 9 3 9 9 9 7 6 6 6 6 6 6 9 9 9 7 7 7 9 9 9 9 7 7 3 2 % % ; & % & > > % 4 2 3 > 7 3 7 7 2 9 7 8 9 8 8 2 % & % > > > > 7 7 8 2 7 s 9 s s s 8 ; - 3 > > > & > > 7 9 7 2 8 9 7 9 7 9 s n 8 n m m n n n 8 5 , , 5 5 p 5 8 8 s 8 p p m n n m m Z m M M m n n p 8 , 8 8 8 8 p 8 p p n p M n p { m Z [ D.I.I.D.D.G.D.u.s.s.D.D.u.D.D.F.D.s.u.f.[ u.s.f.D.s.d.s.u.s.D.s.D.s.f.f.s.s.s.d.d.s.s.[ f.[ f.[ [ [ X.[ ] ] ] ] ] { ' ] / ' ' ",
"U U U K K U U U U L G 9 6 6 3 3 2 4 2 3 2 2 2 4 3 6 6 2 3 7 6 7 9 6 6 4 3 6 9 6 6 6 9 9 3 6 9 6 6 7 6 3 7 9 9 3 2 3 7 7 7 7 9 6 9 7 7 9 9 9 9 9 9 7 7 2 3 3 7 7 4 > % % @ & 4 2 4 7 3 7 7 7 7 3 9 9 7 9 7 > 4 > > 3 3 2 > 3 3 3 2 9 7 9 7 8 - & - 3 > ; > > 7 > 2 9 s 2 8 m 8 n 8 n 9 9 n n p 8 > > > 5 2 > > 7 8 5 8 8 8 8 8 m m m m m Z m M m Z n n p 8 , 8 , p 8 p 8 p 8 n p M M M m n M m Z m Z / [ d.G.U.J.G.D.F.s.D.u.u.] F.F.u.u.[ [ u.s.f.f.s.f.u.u.s.s.D.s.s.f.D.s.s.D.G.D.d.d.f.f.u.d.u.u.[ f.[ [ [ [ ] ] [ [ ] [ X.] ",
"U U U K U U U U U U U K K U K L 9 9 7 3 2 2 3 2 3 2 3 4 3 6 6 3 3 6 3 2 3 3 7 6 6 6 9 9 3 6 7 2 7 6 7 3 3 3 7 7 9 9 9 9 6 7 7 6 7 9 6 9 9 7 7 9 9 7 2 2 3 2 7 2 4 2 2 2 3 2 2 4 % > > 2 7 7 2 7 n 8 8 9 2 > 4 > 3 8 3 > > 9 s 9 9 8 8 8 7 2 % % > 3 > > > 2 > 2 2 9 9 7 s s n n n n 8 7 > > > > > > > 7 7 2 > 5 2 , p n p n m m m m m m T n p 8 8 , 5 8 8 , s 8 8 8 p 8 p 8 n m M m m m m m m Z m p , , 5 m / { ] D.D.D.P.u.u.] u.D.D.s.u.[ [ u.] s.[ [ u.[ [ u.D.s.s.D.D.s.d.s.D.D.D.D.D.D.D.s.u.u.[ f.u.f.f.f.f.f.X.X.X.f.X.X.",
"K K U U U U U U U U K K K K U U U U U U L 9 9 6 6 3 2 2 2 7 4 4 2 2 2 3 3 6 6 3 2 6 7 9 2 9 6 9 7 7 9 7 3 7 9 9 6 9 9 7 3 7 3 9 7 9 9 9 9 9 7 9 9 9 3 4 7 9 9 3 7 7 6 7 7 7 9 7 2 7 > 2 > 2 2 7 9 2 7 7 4 2 4 4 7 2 3 9 9 7 9 9 9 9 8 8 7 2 % ; 7 4 > 2 > 9 3 3 8 9 9 7 s 9 n 8 3 > > > > > > > > > 3 7 > 9 2 7 7 8 s n s n n n n n p 8 8 , , > > > , 8 8 8 p , p 8 8 n m m M m m m m m m n p 8 8 , p 8 r r p p 8 r { D.G.D.D.D.D.D.u.D.u.s.[ [ [ [ [ [ [ [ u.u.f.[ u.[ u.f.u.[ u.s.D.D.D.D.D.s.s.u.u.s.D.s.s.D.d.D.d.d.s.d.f.[ ",
"K K K K U K K K K K K K K K K K K K K K K K K K K L L 9 9 6 4 4 2 4 2 2 2 3 3 3 4 3 3 3 2 6 6 3 9 9 6 7 7 7 6 6 3 6 3 6 6 6 9 9 9 9 9 7 9 9 9 9 7 9 3 4 3 9 7 3 9 7 6 3 7 7 7 7 6 7 7 2 2 2 2 2 7 2 2 8 > > 7 7 7 2 2 7 9 7 9 9 9 9 9 9 7 4 & % 7 2 4 2 2 2 3 3 7 9 8 8 7 4 4 > - - 2 > - > > > 2 2 2 8 8 s s 8 9 p p n n n s s > > > , 2 > > > 9 > p 8 8 n n p n n n M m m n m m n p , n 8 8 8 8 , p , 8 p n n p M M M { u.H.F.D.D.D.F.D.D.[ [ [ u.u.u.[ u.s.s.u.u.] [ [ d.f.u.s.u.[ s.u.D.D.D.D.D.u.u.D.f.s.f.s.d.f.d.f.D.D.d.",
"K K K K K K K K K K K K K K K K K K K K K K K K K K U U U U K L L 9 6 3 3 3 3 2 2 2 6 3 3 3 7 9 7 6 3 6 9 3 3 3 6 9 3 7 6 3 6 7 9 9 9 9 9 9 9 9 7 7 7 7 9 9 7 7 9 9 9 7 7 6 7 9 9 3 9 9 9 9 9 9 7 7 9 7 7 7 > 4 7 2 7 7 2 2 7 9 9 7 8 7 7 4 4 > 2 2 2 2 3 7 7 3 7 7 7 > & ; > & ; 4 4 4 > > > > > 8 7 8 s 9 9 9 9 n 8 p p 7 > 7 > > 2 , 7 2 5 , 8 8 p s s n m m n m M W m M n p p 8 , 8 p , p 8 , 8 , p m n n M n M M Z Z Z Z ` u.D.J.J.D.G.s.s.s.s.u.u.u.D.s.s.f.u.u.u.u.u.u.s.D.D.D.s.d.D.D.u.u.D.D.f.s.[ u.u.u.[ f.f.u.s.D.D.",
"K K K K K K K K K K K K K K K K K K K K K K K K K K K K K K K K K K U U K L 9 9 9 3 3 3 3 3 6 6 6 3 3 6 6 6 3 7 9 6 4 6 7 9 9 9 3 9 9 9 9 6 9 9 7 7 7 9 7 9 9 7 3 7 9 9 9 9 2 7 9 7 9 7 9 9 n 9 8 7 9 7 7 7 7 7 7 3 9 7 3 4 2 7 2 7 2 9 9 7 3 > 2 2 > 2 7 7 7 7 7 5 7 2 & & & & & 4 4 > ; > > 3 > 7 8 2 9 8 8 8 s 5 > 2 > > > > 3 > > 5 9 3 > 2 8 s s n n m m n n n n p , p > 8 8 8 > 8 n 8 8 8 8 n n n M m M n M Z m m M M p p p p { J.F.D.D.D.D.D.G.D.G.G.G.u.[ [ [ u.u.u.u.D.s.d.s.u.u.s.s.[ u.u.u.u.u.u.u.[ [ u.[ u.u.[ u.s.",
"K K K K K K K K K K K K K K K K K K K K K K K K K K K K K K K K K K U Q U U Q U R U Y L 9 9 7 7 3 4 4 6 2 6 7 7 7 3 4 6 3 9 9 9 9 9 9 9 9 9 9 9 7 7 7 3 7 9 7 7 7 7 9 9 9 9 7 9 7 9 9 7 7 9 7 7 7 n 9 7 9 9 2 9 9 9 7 9 9 7 2 9 7 4 > 3 4 2 2 2 3 3 2 2 3 4 7 7 7 7 7 2 ; & & & & 4 4 3 > ; 4 4 > > 2 2 9 8 > > > ; > > 8 > > > 2 > > 2 s 7 8 n n n n n n n n 5 , 8 , 8 8 8 , 5 8 s 8 8 n n n m n m m n M M m n m n n p p 8 p p p p n n ] [ D.{ { / { s.J.G.J.D.D.d.s.D.D.D.u.D.D.u.D.D.D.u.D.D.D.u.D.u.u.u.u.u.u.u.u.f.u.u.s.s.",
"K K K K K K K K K K K K K K K K K K K K K K K K K K K K K K K K K K Q K R U U Q Q Q R U K U U U L h 9 9 2 4 3 7 6 3 3 2 3 9 3 9 9 9 9 6 9 9 9 9 7 7 9 3 3 9 9 9 9 7 9 9 3 9 9 9 7 7 9 7 9 9 7 9 7 9 n 7 7 7 9 9 7 n 9 n 9 9 9 n 9 7 8 7 2 2 7 2 2 7 3 2 3 3 2 9 7 7 3 3 2 ; & & % 2 ; > 4 2 2 2 2 3 > 7 9 & 4 & & % 4 7 2 > > 2 > > 8 7 s s s n s p n p 7 > > > > 8 5 5 8 2 8 5 8 s 8 s n n M m n n m n n n n s , , n p , p n p p n n p n M M M Z Z m Z Z ] ] u.G.H.G.G.G.F.D.D.D.D.D.D.G.D.D.D.D.s.D.D.D.D.s.u.[ u.[ u.[ u.u.u.",
"K U K K K K K K K K K K K K K K K K K K K K K K K K K K K K K K K K U K K K K U K K R Q Q Q K Q R K U U U Y L h 9 3 4 7 6 3 3 9 3 2 3 6 6 9 9 9 9 9 7 3 7 9 7 9 9 9 7 7 9 9 9 9 2 7 7 7 9 7 9 9 6 n 9 9 9 9 9 9 9 9 9 s s 7 9 9 9 9 8 9 9 7 7 7 7 3 7 2 2 4 > 4 2 3 3 3 2 2 > & 4 4 > % ; > > 3 2 2 > 3 3 & > ; & % & 4 > 4 > > 9 7 7 7 s 8 s 9 7 2 8 > > > > > , 8 s 5 8 8 8 n m n m m n m n m n p p 8 5 8 p 8 , p n p 8 n p p n M p M M m W m m Z Z Z / W M n M n / / s.F.G.D.D.D.D.D.u.u.s.u.u.u.[ u.u.[ u.u.u.u.u.u.u.[ u.] ",
"K K K K K K K K K K K K K K K K K K K K K K K K K K K K K K K K K K K K K K Q K K K K K K K K Q Q R Q Q Q Q Q Q R U U Y L 9 9 6 2 2 3 9 6 3 6 7 7 7 7 9 9 7 7 7 7 6 9 9 9 7 7 7 7 7 7 9 9 9 9 9 7 9 9 7 9 9 9 s 9 s 9 7 9 9 9 7 9 9 9 9 7 9 9 9 7 8 7 2 2 4 > 4 4 > > > > 4 > ; 4 2 4 > 2 4 2 3 2 2 4 2 > > & % > > % 7 ; 2 3 3 2 9 3 3 7 3 3 > > > > > > > > > 5 8 8 7 p 8 n n m m m n 8 p 8 , 8 5 > > > s s 8 5 n 8 p n n n n M m m M m m m m n m n n n n p n p n p M M Z ] s.D.G.H.u.s.u.[ u.u.u.[ u.] [ ] [ u.u.u.u.u.u.[ [ ",
"K K K K K K K K K K K K K K K K K K K K K K K K K K K K K K K K K K K K K K K K K K K K K U K Q K Q Q U U K Q Q K R Q R U U U U U L L 9 6 3 3 3 7 3 7 9 9 9 9 7 3 6 9 9 9 9 9 9 9 9 7 9 9 9 9 9 9 9 9 9 9 7 9 9 9 n 9 9 9 9 7 9 9 9 9 9 8 7 9 7 7 8 2 3 9 3 3 3 4 2 4 4 > > > > > > > 4 3 3 7 3 2 3 3 4 ; % & & % % 4 4 ; 4 2 2 2 4 > > % % 4 > % % 4 > > > 7 3 3 8 8 n n n m n n n p > 8 > 8 8 5 , 2 7 n 8 , , 8 n p n m n n M m m m Z m n n p 8 8 8 p p n n n n n M m n n m n n m u.D.u.[ u.u.u.u.] ] [ ] ] u.u.u.u.u.u.s.u.[ ",
"K K K K K K K K K K K K K K K K K K K K K K K K K K K K K K K K K K K K K K K K K K K K K K Q K K K Q K U Q Q Q R Q R K K K K K U Q K U U U L L h 9 6 9 3 3 6 6 6 3 6 7 7 9 9 9 9 9 9 9 9 n 9 9 9 9 9 9 9 7 9 9 s 9 9 9 7 9 9 s 9 9 7 n 9 9 9 7 9 7 7 2 7 7 7 7 6 6 3 2 3 4 2 4 2 3 2 4 4 4 > 4 4 6 3 > > % % & % % > 4 > 4 4 2 2 > % % ; & & > > & 4 > > > 3 3 3 8 9 s s n n 9 5 7 > , 8 > 5 s 2 8 8 2 p n 5 n n n m m n n n m n n n 8 , p p p p s s s p n n n n n n n s 9 2 & + + , { [ u.D.D.F.F.u.D.u.u.[ u.u.u.u.u.u.u.s.s.",
"K K K K K K K K K K K K K K K K K K K K K K K K K K K K K K K K K K K K K K K K K K K K K K K K K K K K K K Q U R K K K K K K K R R R R R R U R R U U Y h 9 9 9 9 7 6 3 3 7 7 7 9 9 9 9 h 9 9 n 9 9 n 9 9 9 9 s 9 9 9 9 9 9 9 9 9 7 9 9 9 9 9 2 7 9 2 2 7 7 7 9 3 7 7 7 7 7 3 2 2 3 2 2 2 4 ; ; ; ; > ; 4 > 4 > 4 4 2 4 2 2 4 4 4 2 > & % % & % > > 2 > > > 2 3 3 2 9 8 2 2 - > > 8 2 > 8 2 5 8 5 8 8 8 n n n n m n n m n n p 5 8 8 8 8 8 s n s n n s s p p s s 8 5 > - & & & & $ - 5 p n n M Z { F.F.D.D.u.u.u.u.u.u.D.u.u.u.u.",
"K K K K K K K K K K K K K K K K K K K K K K K K K K K K K K K K K K K K K K K K K K K K K K K K K K K K K K Q K K R U K K K K R R U R R K R K U U U R U U U R U U Y L h 9 9 9 7 9 9 9 9 9 9 9 9 9 9 9 9 9 9 s n 7 n 9 9 9 9 9 9 9 9 9 7 9 9 9 7 3 7 7 7 7 2 7 7 7 3 3 3 7 7 3 3 3 3 3 3 3 3 3 4 2 4 4 ; > 4 4 > > 4 2 4 3 6 3 3 2 3 4 > & > > ; 4 > > & 2 4 4 > 4 2 2 % > > - & 5 9 > 3 2 2 > 8 n s n m 9 n s 7 s 8 5 5 8 2 8 5 8 8 s 8 s s s s s s 8 8 8 8 > > ; ; - - - & & & + 3 8 n m m n n n { H.F.G.D.D.D.u.u.D.u.u.[ ] u.",
"K K K K K K K K K K K K K K L K K K K K K K K K K K K K K K K K K K K K K K K K K K K K K K K K K K K K K K K K K K R R R K K R K R R R R R U U U R K K U K R R Q Q U U U U U Y Y 9 9 9 9 9 9 9 7 9 9 9 9 9 9 9 9 n 9 9 9 9 7 7 9 9 9 7 7 9 9 7 7 7 9 9 9 9 9 7 3 2 7 9 3 3 3 3 3 7 2 7 7 2 2 3 3 3 2 > 4 3 4 % 4 4 4 4 2 2 4 2 2 6 3 4 4 > 4 4 4 4 4 > 3 2 2 > > 4 4 % ; > % & 7 7 4 3 2 > 2 n n n s n s 9 2 - > 8 3 , 7 2 8 7 9 9 9 8 s s p 8 8 2 > ; ; ; - - - ; ; - % & & & $ > 8 n m m m n n n n s.[ D.D.u.D.F.H.s.D.u.u.[ ",
"K K K K K K K K K K K K K K L L K K K K K K K K K K K K K K K K K K K K K K K K K K K K K K K K K K K K K K K K K K R K K K K K K R R K K K K K R R K K K R R Q Q Q U R U U Q R R R R E Y L 9 9 9 7 9 9 9 7 7 7 9 9 9 7 9 9 9 7 9 9 9 7 7 7 9 9 9 9 9 7 7 7 9 7 6 7 7 3 7 3 7 2 2 7 7 7 7 3 2 3 3 3 3 4 4 2 2 4 2 4 4 4 4 > > 2 4 4 4 2 2 2 3 2 4 3 2 2 2 4 4 ; % ; % ; > % & > 2 7 4 + 3 2 n m 9 8 2 > - 2 > - 9 2 8 2 8 7 8 7 8 9 8 8 5 3 > ; > ; & - > - > - - - - & & & $ o o + , n m m m m m n p s s D.s.> o ] D.D.G.D.D.D.",
"! L L L L K K K K K K K L K L L L L K K K K K K K K K K K K K K K K K K K K K K K K K K K K K K K K K K K K K K K U K K K K K K K K K K K K K K K U K K K R Q Q Q R Q Q U R Q Q Q Q Q Q Q Q Q Q R U Y Y h 9 2 2 7 9 9 7 7 7 7 9 7 2 9 9 9 7 7 7 7 7 7 7 7 7 7 7 7 7 7 2 7 3 3 3 3 7 7 7 3 3 3 7 7 3 3 3 4 2 3 2 2 2 2 2 4 2 2 2 2 4 > 4 4 4 4 4 2 2 3 2 4 3 4 4 % ; % & > & % % - - - - > 9 n > & 2 ; > > > > > 8 2 8 8 9 8 8 8 7 7 4 2 ; - - ; ; ; > > ; > ; - & & & & $ $ o o . - 8 m m m m m m n 8 , + / n X X X $ 2 s u.F.D.",
"*X&X+X.Xo.| ! L L L L L L L L L L L L K K K L L L K K K K K K K K K K K K K K K K K K K K K K K K K K K K K K K K U K K K K K K K K K K K K K K K K K K K K R R K U K Q Q Q Q Q Q Q Q Q R Q Q Q Q R Q Q ! ! E Y Y h 9 9 7 7 3 3 7 7 9 9 7 9 9 9 9 9 9 9 7 7 7 7 3 9 9 7 7 7 3 7 7 7 7 3 3 2 7 7 3 3 3 3 4 3 3 3 2 3 7 3 2 4 4 2 2 2 2 2 4 4 % > > > 4 4 2 4 2 4 % % % & ; % 4 % > 4 > > > n s & & ; ; > > 2 > > 3 3 7 3 7 3 2 > ; > ; > ; > > > ; > > > ; & & & & $ $ $ o o . . . & n m m m W m m n 8 2 o   X X X X X X X > [ J.",
"*X*X*X*X&X&X&X&X+X|.o.O.+.R h h L L L L L L L L L L K K K K K K K K K K K K K K K K K K K K K K K K K K K K K K K K K K K K K K K K K K K K K K K K K K K K R K K Q U Q Q Q Q Q Q Q Q Q Q Q Q Q Q Q Q ! Q Q Q R R ! E E U Y n 9 9 7 9 9 3 6 9 9 9 3 9 9 9 9 7 9 7 9 2 7 7 7 7 7 9 7 7 7 7 2 3 3 3 3 3 3 4 3 3 3 2 2 3 3 2 2 2 2 2 2 3 2 3 2 4 4 4 4 % 4 4 4 4 4 % % % % > 4 4 4 > 4 > > - n 7 & % > % > 4 > > > > 4 > > & & & % ; ; > > > > > > ; - ; ; & + o o o o o . . . . . . & n m n W W m m n 8 > & o . X X X X X X X X p ",
"*X*X*X&X&X&X&X&X&X&X&XOXOX&X&X+Xc.O. .| Q K L L L L L K K K K K K K K K K K K K K K K K K K K K K K K K K K K K K K K K K K K K K K K K K K K K K K K K K K K K K R U K R R R R R Q Q Q Q Q Q Q R Q Q Q Q Q Q Q Q Q Q Q Q ! ! ! E E E Y h 9 9 9 9 3 7 7 7 9 7 7 7 7 2 7 7 7 9 9 9 9 7 7 7 3 3 3 2 3 3 7 4 7 6 3 7 3 2 7 3 3 3 3 2 3 3 3 2 3 2 3 2 4 > % 4 % % 4 % % > > > ; > 4 % ; > ; ; 9 > % ; ; ; % > ; % ; & & & & & & & ; ; ; ; > ; ; ; & & & & $ $ o o o o o o o o o . . . $ 8 n m / W W m n s > $ $ & @ .   X X X X X X ",
"7X7X*X&X&X&X&X&X&X&X&XOX&X&X&X+X+X+X+X+X+X+X+X|.o.O.| ! K K K K K K K K K K K K K K K K K K K K K K K K K K K K K K K K K K K K K K K K K K K K K K K K K K K K K K K K K K K R Q R U U Q U Q Q Q Q Q Q Q Q Q Q Q Q Q Q Q ! ! E ! ! ! ! ! E E U Y h 9 9 7 7 6 7 6 6 7 7 3 3 9 9 7 9 2 7 7 7 7 3 3 3 7 3 4 7 3 3 3 3 2 2 3 2 2 3 3 3 3 3 3 3 3 2 4 4 2 4 4 4 4 4 4 4 4 > 4 4 > > > > > > > 7 % % ; % % & & & & - & & & & - & ; ; % % & % ; & & $ $ o o o o o o o o o o o o . . . . & n m W / / W n m 9 > % & & $ @ o . .   X X X ",
"7X7XqX7X&X&X&X&X&X&X&X&X&X&X&X+X+X+X+X+X+X+X+X+X+X+X+X+X+X|.|.o.O.| ! K L L L L L K K K K K K K K K K K K K K K K K K K K K K K K K K K K K K K K K K K K K K K K K K K K K K K R U U U Q U Q Q Q Q Q Q Q R R Q Q Q Q ! ! ! R R ! ! ! ! ! ! ! ! ! ! ! E E E Y 9 9 9 6 6 6 3 7 7 7 3 2 7 3 7 7 7 9 7 7 3 2 7 7 7 2 3 3 3 3 3 7 3 2 3 2 2 2 7 3 2 4 4 4 4 2 2 4 4 4 4 4 4 4 4 > 4 > > > & % 9 4 ; ; ; ; % % % - - & & & & & & & & % & $ $ $ o o o @ $ @ o $ $ o o o o o . .   X X X o s m / / / W m n s 2 > % > > $ $ @ o .   X   ",
"7X7X*X&X&X&X&X&X&X&X&X&X&XOX+X+X+X+X+X+X+X+X+X+X+X+X+X+X+X|.|.|.|.|.|.|.|.o.O.| | ! K L L L L K K K K K K K K K K K K K K K K K K K K K K K K K K K K K K K K K K K K K K U R Q R U U R Q Q Q Q Q Q Q Q R R R R R Q ! ! ! ! ! E ! ! E ! ! ! ! ! ! ! ! ! ! ! ! ! ! E E Y h 9 3 3 9 3 3 7 7 3 3 3 7 3 7 3 2 6 7 9 7 3 3 3 3 3 7 3 2 2 3 3 3 3 3 2 3 4 4 2 4 4 4 4 4 4 4 4 4 4 4 4 4 > > % > 7 % > % % ; ; & % - & & & & & & + $ $ & $ @ o o $ $ $ @ @ o o @ o o o o o .     X X X X X 2 m m W W W T n 9 4 > > > > $ $ $ o . . .   ",
"7X7X&X&X&X&X&X&X&X&X&X&X+X+X+X+X+X+X+X+X+X+X+X+X+X.X+X+X.X|.|.|.|.|.|.|.|.|.|.|.|.|.|.|.O.O.| ! U K L K K K K K K K K K K K K K K K K K K K K K K K K K K K K K K K K K U U K Q R U U U U Q Q Q Q Q Q Q Q Q Q Q Q Q Q Q ! ! ! ! ! ! ! ! ! ! ! ! ! ! ! ! ! ! ! ! ! ! ! ! ! ! E E Y h 9 7 7 3 2 2 2 3 3 2 2 4 3 3 2 3 3 7 7 3 3 3 3 7 3 3 3 3 2 2 2 2 2 3 2 2 4 4 4 4 4 4 4 4 4 4 4 4 > % > 3 % & % % ; % & & % & & & & $ $ @ $ $ $ $ @ $ o $ o o o o o o o . X   X X X X X X X . .   & n m W W T m n 8 4 > > > & $ $ @ . . . . . ",
"&X&X&X&X&X&X&X&X&X+X+X+X+X+X+X+X+X+X+X+X+X+X+X+X.X.X.X.X|.|.|.|.|.|.|.|.|.|.|.|.|.|.|.|.|.|.|.|.|.|.o.O.| ~ Q K K K K L K K K K K K K K K K K K K K K K K K K K K K K K K K K R R U U U U R U Q Q Q Q Q Q Q Q Q Q Q Q Q ! ! ! ! ! ! ! ! ! ! ! ! ! ! ! ! ! ! ! ! ! ! ! ! ! ! ! ! Q Q Q ! ! U L 9 9 6 3 2 2 4 4 2 2 4 4 2 2 3 3 3 2 3 2 3 3 3 3 2 4 2 3 2 4 2 4 4 4 4 4 4 4 4 4 4 4 > 4 4 > 2 > % % % % % % & & & & & & $ $ $ $ $ $ $ o o o o o o o o . .   X X   . X X           . . o 8 m m m n n n 7 2 > > 4 & @ @ @ o . @ . . ",
"c..X+X+X+X+X+X+X+X+X+X+X+X+X+X+X+X+X+X+X+X+X+X.X.X|.|.|.|.|.|.|.|.|.|.|.|.|.|.|.|.|.|.|.|.|.|.|.|.|.|.|.|.|.|.|.o.O. .+.! K L L L L K L K K K K K K K K K K K K K K K K K K K K Q U U U U U U U Q Q Q Q Q Q Q Q Q Q Q Q Q ! ! ! ! ! ! ! ! ! ! ! ! ! ! ! ! ! ! ! ! ! ! ! ! Q ! Q Q Q Q Q Q ! ! Q E E U Y 9 9 6 2 2 2 4 4 4 3 3 3 4 4 2 2 2 4 4 2 4 2 3 2 2 2 4 4 4 2 4 2 4 4 4 4 4 4 4 > > 3 % % % % % % % % % & & + & $ $ @ @ @ @ o o o o o .           X   . . . .     . .       . . > n n n n n 9 6 2 4 > > & $ @ o . . o . . ",
"L 9 9 L ! +.| O.c.|.|.|.|.|.|.|.|.|.|.|.|.|.|.|.|.|.|.|.|.|.|.|.|.|.c.|.|.|.|.|.|.|.|.|.|.|.|.|.|.|.|.|.|.|.|.|.|.|.|.|.|.|.|.o.O.O.| ! R K K K L L K K K K K K K K K K K K K K K U U U U U U Q Q U Q Q Q Q Q Q Q Q Q ! ! ! ! ! ! ! ! ! ! ! ! ! ! ! ! ! ! ! ! ! ! ! ! ! ! Q Q Q Q Q Q Q Q Q Q Q E E Q R Q ! ! E U Y L 9 7 3 4 4 4 4 4 4 4 4 2 3 2 4 2 4 4 2 2 2 2 3 4 2 4 4 4 4 4 4 4 4 > 2 > ; ; % % % % % & & & & & $ $ @ o o . . @ @ . . . .     . . . . o o . . . . . . . .   . . o > 8 8 9 8 9 4 4 4 > & $ @ @ o . . . . . ",
".X.X|.o. .+.~ Y 9 3 9 L Q ~ | O.O.o.o.c.c.c.c.c.c.|.|.c.c.c.|.|.c.|.c.c.c.c.|.o.o.c.c.o.c.|.|.|.|.|.c.[.|.|.|.|.|.|.|.|.|.|.|.|.|.|.|..X|.|.c.o.O.| ~ R L L K K K K K K K K K U K U U U U U U Q Q Q Q Q Q Q Q R Q Q ! ! ! ! ! ! ! ! ! ! ! ! ! ! ! ! ! ! ! ! ! ! ! ! ! ! ! ! Q Q Q Q Q Q Q Q Q Q Q Q Q Q Q Q Q Q Q Q Q Q ! U L L 9 9 3 4 4 1 4 4 2 4 4 4 4 4 2 4 4 4 4 2 4 4 4 4 4 4 4 > > 3 > % % % ; % % % & & & & & $ $ @ @ @ . .   @ . . o o o @ . . o o o . . . . . . . . . . . .   o > 4 > 2 4 > > % & $ @ @ . . . . . . . ",
"oX+X.X.X.X.X|.c.c.o.o. .| ~ E h 2 3 9 L U ! ~ |  .O.O.O.O.O.o.o.o.o.o.o.o.o.o.o.o.o.o.o.o.o.o.o.o.o.o.o.o.o.o.o.|.c.c.c.c.c.|.|.|.|.|.|.|.|..X+X.X.X+X+XoX.Xc.o.O.+.E L L K U U K U U U U U U Q Q Q Q Q Q Q Q Q Q ! ! ! ! ! ! ! ! ! ! ! ~ ~ ~ ~ ! ~ ~ ! ! ! ! ! ! ! ! ! ! Q Q Q Q Q Q Q Q Q Q Q Q Q Q Q Q Q Q Q Q Q Q Q Q Q Q Q Q ! ! ! U L 9 6 2 4 4 4 4 4 4 4 4 4 4 4 4 4 4 2 2 4 > % > 2 % % % % % % % % % & & & $ $ $ $ @ $ @ @ . o @ @ @ @ @ @ $ o o o o . . . . . . . . . . .     X . $ % & % % % & @ $ . . .   . . . .   ",
"OXOXOX+X+X.X.X.X.X.X|.c.[.o.o.o.o.o.O. .+.! Y 9 4 4 6 L K ! ~ | |  .O.O.O.O.O.O.O.O.O.O.O.O.O.O.O.o.o.o.o.o.o.o.o.o.o.o.o.c.c.|.|.|.|.|.|.|.|..X.X.X.X.X+XoXoXoXOX&X&X&XoX.Xc.O.+.U K U U U U U U Q Q Q Q R Q Q Q ! ! ! ! ! ! ! ! ~ ~ ~ ~ ~ ~ ~ ~ ~ ~ ! ! ! ! ! ! ! ! ! ! Q Q Q Q Q Q Q Q Q Q Q Q Q Q Q Q Q Q Q ! Q Q Q Q Q Q Q Q Q Q Q Q Q Q ! E U U L 9 9 6 2 4 4 4 4 4 4 > 4 4 > > > ; 3 ; % % % % & & & & & & & $ $ $ $ @ $ @ $ @ @ @ @ @ @ o @ @ o o o o . . . . . . . . . .             $ $ & % & $ o . .               $ ",
"~ |  .O.o.c..X.X.X.X.X.X.X|.|.|.o.o.o.o.o.o.o.o.o.o. . .~ ^ L 3 q 3 9 L U ! ~ | | | | |  .O.O.O.O.O.O.O.O.O.O.O.o.o.o.o.o.o.o.o.c.c.|.c.c.|.|.|.|..X.X.X.X+XoXoXoXoX&X&X*X*X=X=XrXrX=X*XoXL.X.~ U U U Q Q Q Q Q Q ! ! ! ! ! ! ~ ~ ~ ~ +.+.+.| ~ ~ ~ ~ ~ ~ ! ! ! ! ! ! ! ! Q Q Q Q Q Q Q Q Q Q Q Q Q Q Q R R R Q Q Q R Q Q Q Q Q Q Q ! Q Q Q Q Q Q Q ! Q Q R Q R U U L 9 7 2 4 % > > ; > % 3 % % % % % % & & & & & & $ $ $ $ @ $ $ $ @ $ $ $ @ @ @ $ o o * o . o . . . . .   . . .                     X   .     X X $ 4 6 h U R ",
"} } ^ ^ ^ ^ U U ^ ~ |  .O.O.o.o.|.|.|.[.[.[.o.o.o.o.o.o.o.o.o.o.o.O. .~ ! L 9 4 q 6 9 L U ! ~ | | | | |  .O.O.O.O.O.O.O.O.O.o.o.o.o.o.c.c.c.|.|.|.|..X.X.X.X+X+XoXoXoX&X&X*X*X=XeXeXrXlXlXzXbXbXcXgX=X#XY.X.! E R Q ! ! ! ! ~ ~ ~ +.| | | | | | | | | | ~ ~ ~ ~ ! ! ! ! ! Q Q R Q Q Q Q Q Q Q Q Q Q R R R R R R R R R R R R R R R R R R R Q R R R R Q R R Q Q Q Q R E E ! R U Y Y 9 7 2 > 2 & & & % % % & & & & & $ $ $ $ $ $ @ $ $ $ @ $ $ $ $ $ $ o o * . . o o . . . . . . .   .             X X X X   % 3 9 h U R R ! R Q R ",
"! ^ } } } } } } } ^ ^ ^ ^ ^ P P P ^ ! ~ +. . .O.o.o.o.o.o.o.o.o.o.o.o.o.o.o.o.o.O. .~ ~ ^ G 2 q 4 6 9 L U ! +.| | |  . .O.O.O.O.O.O.O.o.o.o.c.c.c.c.c..X.X.X.X.X+XoXoX&X&X*X*X=X=XeXeXgXlXlXzXbXbXbXvXnXnXnXnXbXgX=XoXc.+.! ~ +.+.|  . . . . . . .| | | | | ~ ~ ! ! ! ! Q Q Q Q Q Q R R R R R R R R R R R R R R R R R R R R R R R R R R R R R R Q Q Q Q R R Q R R R R R R R Q Q R R E R E U L 9 7 2 % & & & & & & & $ $ $ $ $ $ $ $ $ $ $ $ $ $ $ @ o o * * * . . . . . . . . .   .       X X $ 4 9 h L E E R R R R Q R Q Q ! ! ",
"j.X. . .+.} ^ ^ ^ ^ } ^ } ^ ^ ^ ^ ^ ^ ^ U U P P G U ^ ! ~ +. .O.O.O.o.o.o.o.o.o.o.o.o.o.o.o.o.o.O. .~ E ~ ~ E L 9 9 L K Q ~ | |  .O.O.O.O.O.o.o.c.c.c.c.|..X.X.X+X+XoXoX&X#X*X*X=X=X=XrXgXlXzXbXzXbXvXnXnXnXnXnXnXnXnXnXnXvXzXlXrX*XoXo. . . . . . . . .| +.+.~ ~ ! ! ! ! Q Q Q Q R R Q Q R R R R R R R R R R R R R R R R R R Q Q R R R R R R R R Q Q R R R R R R R R R R R R R E R R R R R U R E E E U L 9 7 4 % & & $ $ & & $ $ & $ $ $ $ $ $ $ $ $ o $ @ * . . . . . . . .   .   $ 4 9 h U E R R R R R R R R R E E R ! ! ! ! ",
"*X#XoXoXY.L.K.o.O. . .+.~ ^ ^ ^ ^ ^ ^ ^ ^ ^ ^ ^ ^ ^ P P P P P G G P ^ ^ ~ ~ +. .O.O.o.o.o.o.o.o.o.o.o. .O.O.O.o.O.O. . .~ ! L 9 9 9 L R ~ |  .O.O.O.o.c.c.c.c..X.X.X.XoXoX&X&X*X*X=X=XeXrXlXlXlXzXbXbXvXnXnXnXMXMXnXnXnXnXnXMXJXKXPXPXKXHXFXcXrX*XY.X.' ' ' +.~ ! ! ! ! ! ! Q Q Q R R R R R R R R R R R K R R K R R R K K R R R R R R U R R R R R Q R R R U R R R R R R E E R E R R R R R R U R R R R R R E E E E Y h 9 7 > & $ & & & $ $ $ $ & $ $ $ $ @ . . . . . . . . & 4 6 h L R R R R R R R R R R R R R R R R Q Q ! E Q Q ",
"=X=X=X*X#X#X@XoXXXXXL.K.j.o.o.O. . .+.~ ^ ^ ^ U U U ^ ^ U P U P P P P P P P G G G L Y ^ ~ ~ +. .O.o.o.O.O.o.o.o.o.o.o.O.O.O.O.O.O.O. .~ ! U 9 9 9 L ! ~ | O.O.o.c.c..X.X+XoXoX&X*X*X=XeXrXrXlXlXzXzXbXbXvXnXnXnXMXMXnXnXMXFXGXHXLXLXLXLXKXKXHXJXGXSXvXbXrX*XoXL. .~ R R R R Q R R R R R R R R K R R R R K K K R R R R R R R R R U U R U U U U U U U U R U U U U Q U U U R R R R U U R Q R R R R R R R R Q E E R E E E E E E E Y h 9 3 % $ $ $ $ $ $ $ @ . . . * & 4 6 9 h L Y K R R R R R R R R R R R R R R R R R R Q R R ! ! Q ",
"gXfX=X=X=X=X*X#X#XoXoXoXXXXXL.L.j.j.o.o..... . .+.~ ~ ^ ^ U ^ P P P P P P P P P G P G G G G G G G L ^ ^ ! ~ +. .O.O.O.O.O.O.o.o.o.o.o.O.O.o.O.O.O. .| ~ E h 9 9 h E ~  .O.c.L..XoX&X&X*X=XeXrXlXlXbXbXbXvXnXnXnXMXMXMXFXFXGXHXKXLXLXLXLXLXLXKXHXJXGXFXnXbXbXlXgXgXrX7XoX.Xc. .! K K R R K K K K U R R R K U K R U U K K U K R U U U R U U U U U U U U U U U U R U U U U U U R R R R R Q R R Q R R Q Q R R E E R E E R R E R R E E E U U Y 9 9 3 4 & $ & 1 4 3 9 9 h L L L K K K R R R R R R R R R R R R R R R R R R R Q R Q Q R ",
"lXgXgXrX=X=X=X=X*X#X#X#XoXoXXXXX.X.XL.L.L.j.j.j.X.o.X... . . . .~ ~ ~ ^ ^ U P P P P G G P P P G P P P P G G G G G U ^ ! ~ +. . .O.O.O.o.o.o.o.o.o.o.o.o.o.o.O.o.O. .+.! Y h h Y ! | O.c..XoX&X*XeXgXlXbXbXvXvXnXFXFXFXFXGXHXKXPXLXLXLXLXLXPXKXKXHXJXJXFXSXvXbXlXgXrXrXeX7X7X7XqX7X+Xc.O. .| Q L L K K R R K K K K K K K K K K R U R R U U U U U U U U U U U U U U U U U U U R R Q Q Q Q R R R R R R Q R R R R E E E R R R E E R E R R R U U L L L 9 6 6 6 6 9 9 h h L L K K K K R R R R R R R R R R R R R R R R R Q R R Q Q ! ! ",
"lXlXgXgXfX=X=X=X*X*X*X#X#X#XoXoXXXXXXXXX.XL.L.L.L.j.j.j.j.o.X.X....... . . . .+.~ ~ ^ ^ ^ U U L L P P P P P P P P P P P P P U P U ^ ! ~ +. .O.O.o.o.o.c.o.o.o.o.o.o.o.o.o.o.o.o.O. .+.~ E E E ~  .c.Q.&X7XrXxXbXvXFXFXJXHXKXJXZXDXIXIXPXPXPXPXPXPXPXKXIXIXFXlXrXUXUXrX7X7X7X7X7X7X7X7X7X&X&X&X&X+X|.o.O.+.R K K K R U R R R R U U R R U R R U U U U U U U U U U U U U U R U U U U U R Q R R R R R R R R R R E E E E E E R R E R R R R R U U K K L L 6 6 6 9 9 9 h L L L K K K R R R R R R R R R R R R R R R R R R Q ! ! ! ! ! ! ",
"zXzXlXgXgXfXrX=X=X=X=X*X$X#X#X#XoXoXoXXXXXXX.X.XL.L.L.L.L.L.j.j.j.o.o.o.o.X........... . . .' ~ ~ ~ ^ ^ ^ U U L L L L P P P P U ^ ^ ^ ^ ^ ^ Q Q ! ~ ~ +. .O.o.L.L.L.L.L.L.L.L.L.L.L.L..X.X.XL.L.c.o...' ~ ~  .L.oXeXxXFXKXKXIXLXLXLXLXLXLXLXLXLXLXLXLXLXLXLXHXSXUXUXUXrXrX7X7X7X7X7X7X7X&X&X&X&X&XOX&X&X&X&X+X|.c.O.| ~ R K K K U U U U U U U U U U U U K U U U U U U U U R U U U U U U R R R R R R R R R R R E E E E E E E E E R Q R R R U K K L h 6 6 6 9 9 h h L L K K K K R R R R R R R R R R R R R R R R Q Q Q ! ! Q ! R ! ",
"bXzXzXlXlXgXfXrX=X=X=X*X*X*X$X#X#XoXoXoXXXXXXXXX.X.XL.L.L.L.L.L.j.j.j.j.j.o.o.o.o.o.o.o.o.......X..... . . . .) ~ ~ ~ ^ ^ ^ ^ U U U U ^ ^ ^ ^ ^ ! ~ ~ +.+.+. .'  . .O.X.o..XoXoXoXoXoXoXoXoXOX*X*X*XeXrXxXZXDXDXAXUXsX0X0XxXIXLXLXLXLXLXLXLXLXLXLXLXLXLXLXPXJXvXxXUXUXUXrX7X7X7X7X7X7X&X&X&X&X&X&X&X+X+X+X+X+X+X+X+X+X+X+X+X|.o.O.| ! R K K K K U U U U U K K K K U U U U U U U U U U U U R U R U R R R E R E E E E E ! ! ! ! ! ! ! Q Q R R K K K L 6 9 6 9 9 h L L L K K K R K R R R R R R R R R R R Q Q Q Q Q Q Q ! ! R Q ! ! ",
"vXbXzXlXlXgXgXgX=X=X=X=X*X*X*X#X#X#XoXoXoXXXXXXXXX.X.XL.L.L.L.L.L.L.L.j.j.j.j.j.o.o.o.o.o.o.o.o.o.o.o.o.o.X.X.X.X.X.X....... . . . .~ ~ ~ ^ ! ^ ^ ! ! ! ~ ~ +. . .O.o.L.XXXXXXXXY.Y.Y.Y.oX$X=X=XeXlXxXAXIXLXLXLXLXLXLXLXLXLXLXLXLXLXLXLXLXPXIXIXIXKXKXIXJXSXbXxXUXsX7X7X7X7X7X7X&X&X&X&X&X&X+X+X+X+X+X+X+X+X+X+X+X+X+X+X+X.X.X.X.X.X.X.X|.c.O.O.| ~ ! U L L L K K K K U K U U U U U U U R U R R U R R R R E E E E E E ! ! ! ! ! ! ! ! Q Q R U K K L 6 6 9 9 h L L K K K R K R E R R R R R R R R R R R Q Q Q Q R R Q Q R R E ~ ) ",
"nXvXbXzXlXlXgXgXfXrX=X=X=X=X*X*X*X#X#XoXoXoXXXXXXXXX.X.XL.L.L.L.L.L.L.L.L.j.j.j.j.o.o.o.o.o.o.o.o.o.o.j.o.o.o.o.j.j.o.o.o.o.o.j.X.X.X.X.X.X.X.X..... . .' +.+.+.~ +.'  . .X.o.L.oX*XrXgXlXgX=X*X*X#X#X*XeXxXZXDXIXIXPXLXLXLXLXLXLXLXLXLXLXPXKXJXSXzXfX#XW.I.L.c.c..X+X+X+X+X+X+X+X+X+X+X+X+X+X+X|.|.|.+X|.|.|.|.|.|.|.|.|.|.|.|.|.|.|.|.|.|.|.|.|..X.X.X|.c.o.O. .+.! R L K U L K K U U U U U U R E E E E E ! E E ! ! ! ! ~ ! ! ! ! ! ! Q Q Q K K L 9 9 9 h L L K K K K U R R R R R R R R R R R R R R Q R R R ! ~ +.' ] [ X.[ [ ",
"nXmXbXzXzXlXgXgXgXrX=X=X=X=X=X*X*X*X#X#XoXoXoXXXXXXXXXXX.X.XL.L.L.L.L.L.L.L.j.j.j.j.j.o.j.j.j.j.j.j.j.j.j.j.j.j.j.j.j.j.j.K.L.L.L.L.L.L.L.K.L.L.L.L.L.L.L.L.K.K.K.K.S.f.X.X.X.X.X.X.X.f.S.Q.oX*X=XeX=X=X$XoXY.Y.oX*XeXhXAXDXIXPXLXLXLXLXLXLXLXLXLXPXHXFXcXrX$XL.o. .~ U h L E ~ |  .O.O.O.o.c.c.c.c.c.c.c.c.|.c.c.c.c.c.o.o.o.o.o.o.o.c.c.c.c.c.c.|.|.|.|..X.X.X.X.X+X+X.XL.c.X. .~ Y L L U U R R E E E E ! ! ! ! ! ~ ~ ~ ~ ~ ~ ~ ~ ~ ! ! ! Q R K L 9 9 9 L L U U U R R E R R R R R R E E R R R E E ~ +.' [ X.X.f.f.u.u.u.[ [ [ ",
"nXnXvXbXzXlXlXgXgXgX=X=X=X=X=X*X*X*X*X#X#XoXoXoXoXXXXXXXXX.X.XL.L.L.L..XL.L.L.L.L.j.L.j.j.L.j.j.j.j.j.j.j.L.L.j.L.L.L.L.L.L.L.L.L.L.L.Y.Y.Y.Y.XXXXoXoXoXoXoX@X#X#X#X#X*X*X=X=X=X*X*X*X#X@XW.Q.I.K.K.K.K.K.K.K.K.K.K.o.j.j.P.lXPXLXLXLXLXLXLXLXPXIXIXDXDXDXZXcXrX=X*XOX+X.Xc.O. .~ ! L 9 9 L U Q ~ +.| |  . .O.O.O.O.O.O.O.O.O.O.O.o.O.O.O.O.o.o.o.o.c.c.c.c.c.L..X.X.X.X+XoXoX#X*X*X=X=X*X#XoXL.X.~ Y E E E ! ! ~ ~ ~ ~ +.| | | | | | ~ ~ ! ! Q K 9 9 9 L L U R E E R E E E R R R E E E ~ ' ] X.d.D.D.D.D.s.s.u.u.u.u.u.u.[ [ [ ",
"nXnXmXvXbXzXlXlXgXgXrX=X=X=X=X=X*X*X*X$X#X#XoXoXoXoXXXXXXXXX.X.X.X.X.XL.L.L.L.L.L.L.L.L.j.L.L.L.j.L.L.L.L.L.L.L.L.L.L.L.L.L.L.L.L.Y.XXXXXXXXXXoXoXoXoX#X#X#X*X*X=X=X=X=X=XfXgXlXlXzXzXzXmXmXbXbXvXbXbXzXlXrX=X*XoXY.K.o.X.#XKXLXLXLXLXLXLXLXLXLXLXLXPXIXDXxXgXeX*XoXXXXXoX+X+X.X.X|.c.o.o.O. .~ ! U L 9 9 h K R ! ~ +.| | | | |  .|  .O.O.O.O.O.O.O.o.o.o.c.c.c.c.L.L..X.X.XoXoXoX*X=X=X=XfXlXzXvXnXmXbXlXeX*XL...' ~ ' '  . . . .| | | ~ ~ ! Q K h 9 L U U E E E E E E U E ~ ' ..X.D.S.P.G.F.F.D.F.F.D.s.s.u.u.u.u.u.[ [ [ [ [ ",
"nXnXnXvXbXzXzXlXgXgXgXrXrX=X=X=X=X=X=X*X#X#X#XoXoXoXXXXXXXXXXX.X.X.XL.L.L.L.L.L.L.L.L.L.L.L.L.L.L.L.L.L.L.L.L.L.L.L.L.L.L.L.L.L.XXXXXXXXXXoXoXoXoX@X#X#X#X#X=X=X=X=XrXfXgXlXzXbXbXmXnXnXMXGXGXHXHXKXKXKXKXKXKXKXKXHXFXgX=XfXKXLXLXLXLXLXLXLXLXLXLXLXLXLXPXKXJXSXAXxXhXeXOX.XL.o.o.o.O.o.o.o.o.o.o.o.o.o.O.O.| ~ ! U L 9 9 9 U E ! ~ ~ +.+.| | |  . .O.O.O.o.o.o.c.c.c.L.L..XoXoXoX#X*X=X=XrXlXzXzXmXnXGXHXKXPXLXLXKXJXbXfX=XE.f.] ' ' ) +.~ ! Q R h L U E R R E ~ ] X.D.P.Q.W.H.H.J.F.F.F.F.F.F.F.D.D.D.u.u.u.u.u.u.[ [ [ [ [ [ ",
"nXnXnXnXvXbXzXlXgXgXfXrX=X=X=X=X=X=X=X*X#X#X#XoXoXoXoXXXXXXXXXXX.X.XL.L.L.L.L.L.L.L.L.L.L.L.L.L.L.L.L.L.L.L.L.L.L.L.L.L.L.L..XXXXXXXXXoXoXoXoXoX@X#X#X*X*X=X=X=X=XfXgXgXlXzXbXvXnXnXFXGXGXHXHXKXPXLXLXLXLXLXLXLXLXLXPXJXzXvXPXLXLXIXgXrXrXgXlXlXsXhXxXxXxXxXxXlXxXxXxXrXrXeX*XOXoXoX+X.Xo.O. . . . . . .O.o.o.o.o.o.o.o.O. . .~ ^ E Y 9 9 L U ! ! +.+. . . .O.O.o.o.c.c.L.L..XXXoX#X*X*X=X=XlXzXbXnXMXGXHXPXLXLXLXLXPXPXHXGXMXnXvXlX=X#XQ.X.' E Y E ~  .X.c.Q.Q.W.W.^.W.W.W.H.W.H.J.J.J.J.F.F.F.F.F.D.D.D.s.u.u.u.u.[ [ [ [ ] ] ",
"FXnXnXnXvXbXzXzXlXgXgXfXrX=X=X=X=X=X=X=X*X$X#X#XoXoXoXoXXXXXXXXXXX.X.XL.L.L.L.L.L.L.L.L.L.L.L.L.L.L.L.L.L.L.L.L.L.L.L.L.L.XXXXXXXXXXoXoXoXoXoX#X#X#X*X*X=X=X=X=XfXfXgXlXzXbXvXmXnXMXGXGXHXKXPXLXLXLXLXLXLXLXLXLXLXLXLXKXnXnXLXLXLXPXZXcXgX=X#X#XO.O. . . .O.O.o.o.[.[.|..X.X+X.X.X.X.X.X.X.X.XL.L.o.o.o.O. .+. . . .) +. .O.o.o.o.o.o.o.O. . .~ ! E Y Y Y Y E ~ +. . .O.o.o.c.L.Q.oXoX*X*X=XfXlXbXnXGXJXKXLXLXLXLXLXLXLXKXHXGXFXnXvXbXzXlXgXeX=X&XoXoXoXE.W.^.^.^.^.^.^.^.W.W.W.W.H.H.J.J.F.F.D.D.D.D.D.s.f.u.u.u.u.[ [ [ ] ] { ",
"FXnXnXnXmXvXzXzXlXlXgXgXfXrXrX=X=X=X=X=X=X$X#X#XoXoXoXoXoXXXXXXXXXXXXX.XL.L.L.L.L.L.L.L.L.L.L.L.L.L.L.L.L.L.L.L.L.L.L.L..XXXXXXXXXXXoXoXoXoX#X#X#X*X*X=X=X=X=XfXfXgXlXlXzXzXmXnXFXGXGXHXHXPXLXLXLXLXLXLXLXLXLXLXLXLXLXPXGXnXLXLXLXLXLXLXPXIXIXDXsXOX}.O. .| } } } } } ^ ^ ^ } } | | | O.O.O.o.o.o.o.o.o.o.o.o.o.o.o.o.o.O. . .+. .+.) )  . .O.X.o.o.o.o.o... .~ ~ W E E E W +. .X.c.L.XX#X*X=XlXbXnXFXHXPXLXLXLXLXLXLXLXPXKXKXHXJXFXSXvXbXlXgXrX=X*X#X#X#X(.(.(.(.(.(.(.^.^.^.W.W.H.J.J.F.F.D.D.D.D.s.u.u.[ [ u.` ` w.1.p.1.1.A ",
"FXSXSXnXnXvXvXzXzXlXgXgXgXgXrXrX=X=X=X=X*X*X$X$X#XoXoXoXoXoXXXXXXXXXXX.XL..X.XL.L..X.XL.L.L.L.L.L.L.L.L.L.L.L.L.L.L.L.L.XXY.XXXXoXoXoXoXoX@X#X#X*X*X=X=X=X=X=XfXgXgXlXzXzXmXnXnXGXGXHXHXKXPXLXLXLXLXLXLXLXLXLXLXLXLXLXLXKXHXLXLXLXLXLXLXLXLXLXLXLXLXLXLXIXDXAXsX8X.XO.} } } } } I I I I I I I } } } } | | O.O.O.O.O.O.O.O.O.o.O.o.o.o.o.O.O. .+.)  . . . . ...o.o.X.X.o.X.X...' ' ~ ) ) ' X.L.$XrXbXFXHXPXLXLXLXLXLXLXLXLXLXLXLXLXLXLXPXJXzXrXgXeX7X=X*X=X#X#X(.(.(.(.^.^.W.W.H.H.J.F.F.F.D.u.u.u.u.` ` A Z M 1.1.2.2.2.2.2.2.1.",
"GXFXSXnXSXnXvXvXcXcXlXlXgXgXgXgXeXeX=X=X=X*X*X$X$X#XoXoXoXoXoXoXXXXXXXXXXX.XL.L..X.X.XL.L.L.L.L.L.L.L.L.L.L.L.L.L.L.XXXXXXXXXXXXoXoXoXoX@X@X#X#X*X*X=X=X=X=XfXfXgXlXlXzXzXmXnXnXGXGXHXHXPXLXLXLXLXLXLXLXLXLXLXLXLXLXLXLXLXLXLXLXLXLXLXLXLXLXLXLXLXLXLXLXLXLXLXLXPXHXHXJXZXxXrX*X+X|.O.} I I I I I I I I I I I I } } } } | | O.O.O.O.O.O.O.o.o.o.o.o.o.o.o... . .'  .......X.K.XXXXXXoXoXoXoXoXoXoXoX*X=XxXDXIXLXLXLXLXLXLXLXLXLXLXLXLXLXKXnXbXUXrX7X=X*X#X#X(.(.(.^.W.W.W.H.J.F.F.D.u.p.p.p.w.1.2.1.1.2.1.A S 2.2.2.2.3.3.2.2.2.",
"GXFXSXSXSXnXvXcXcXcXxXlXlXgXgXgXrXrXrXeXeXeX*X*X*X*X$X$XOXoXoXoXoXoXXXXXXXXX.X.X.X.XL.L.L.L.L.L.L.L..X.XL.L..XL.L..X.XXXXXXXXXoXoXoXoXoX#X#X#X*X=X=X=X=X=X=XfXfXgXlXzXzXmXmXnXFXGXJXHXKXLXLXLXLXLXLXLXLXLXLXLXLXLXLXLXLXLXLXLXLXLXKXIXIXIXPXPXPXLXLXLXLXLXPXPXKXKXHXGXFXSXnXvXbXcXlXlXgXrXqXOX+X[.O.| } } I I I I I I I I I I ^ } } } | | O.O.O.O.O.O.o.o.o.o.j.L.L.L.L.L.L.L.K.K.Y.XXoXoXrXZXDXIXPXPXLXLXPXIXLXLXLXLXLXLXPXPXPXPXKXKXDXvXlXgXeX*X&X&X@XE.Q.Q.Q.H.H.H.F._.p.p.2.A >.2.3.3.2.2.2.3.1.3.3.a.1.B 3.2.2.3.3.3.3.2.2.",
"JXFXSXSXSXSXvXcXcXcXcXxXxXgXgXgXgXrXrXrXeXeXeX*XqX*X*X$X$X$XOXOXOXOXOXoXoXoXXXXXXX.X.X.X.X.X.X.XL.L..X.X.XL.L..XL.XXXXXXXXXXoXoXoXoXoX#X#X#X$X*X=X=X=X=X=XfXfXgXgXlXzXzXmXmXnXGXGXJXHXKXLXLXLXLXLXLXLXLXLXLXLXLXLXLXLXLXLXPXPXPXKXzXfXgXlXlXlXzXcXcXzXzXvXvXbXvXvXmXzXzXzXzXlXlXgXgXrX=X=X=X*X*X*X$XoXoXoX+X.X[.o.O.| } } } } } } } } } } } } } | |  .O.O.o.o.o.o.o.o.L.L.XXoXoX*XeXrXlXcXbXvXDXIXLXLXLXLXLXLXLXLXLXLXLXLXHXnXzXfX=X#XE.Q.Q.XXQ.Q.Q.S.S.S.D.u.[ w.1.1.2.2.2.2.4.2.=.N.4.N.:.4.3.3.3.3.N.A.a.>.4.3.3.3.4.N.3.3.2.",
"GXGXFXSXSXSXZXvXcXcXcXxXxXxXhXgXgXgXrXrXeXeXeXqXqXqX*X$X$X$X$XOXOXOXOXOXOXOXOXXXXXXXXXXX+X.X.X.X.X.X.XXX.XXX.XXXXXXXXXXXXXXXoXoXoXoX#X#X#X#X*X=X=X=X=X=X=XfXfXgXlXzXzXbXmXnXnXGXGXHXHXPXLXLXLXLXLXLXLXLXLXLXLXLXLXLXLXLXPXGXnXnXfXfX=X%X#X(.(./././.(.#X#X#X#X#X#X#X#X#X#X#X#X#X@X@X#X@X@X@X#XoXoXoXoXoXoXXXXXXXL.L.L.L..X[.[.o.O.O.O.| | | | } } | |  . .O.O.O.o.o.o.}..X.X.XXXXXoX*XrXlXSXIXPXLXLXLXLXLXLXLXLXLXLXLXLXLXPXKXJXnXzX=X#XI.f.] { ) W n M N a B ,.2.=.=.4.4.4.4.N.2.4.4.4.N.4.4.3.3.3.A.`.N.A.1.N.4.4.4.4.N.2.2.3.",
"JXGXFXSXSXSXZXvXvXcXcXxXxXxXhXhXhXgXrXrXrXeXeXqXqXqX*X*X*X$X$XOXOXOXOXOXOXOXOXOXOXXXXXXX+X+X+X+X+X+X+X+X+X+XXXXXXXXXoXoXoXoXoXoX#X#X#X#X$X$X*X=X=X=X=X=XfXfXgXgXlXzXzXzXmXnXFXGXGXHXHXPXLXLXLXLXLXLXLXLXLXLXLXLXLXLXLXLXPXnXmXmXzXfX=X%X(.(.^./.U.I.R.P.P.h.d.d.d.h.h.h.K.P.P.P.P.R.P.R.P.P.P.P.L.L.K.L.K.L.K.K.K.L.L.L.L.K.j.j.j.j.j.o.j.o.o.o.o.o.o.j.o.j.}.}.j.[.o.o.L.L..XXXXXXXoXoX#X=XgXZXIXLXLXLXLXLXLXLXLXLXLXLXLXLXIXSXvXlX=X@XT.T.R.P.d.[ a S >.B =.=.:.:.N.N.N.4.N.N.2.N.4.4.N.N.N.a.N.A.`.`.`.A.2.N.N.N.4.N.N.3.2.3.",
"JXFXFXSXSXSXSXvXvXcXcXcXxXxXxXhXhXhXrXrXrXrXwXeXqXqXqX8X8X1X$X$XOXOXOXOXOXOXOXOXOXOXOXOXOXOXOX+XOXOXOXOXOXOXOXOXOXoXOXOXoXOXOXOX$X$X$X$X*X*X*X*X=X=X=X=XfXgXgXgXzXzXbXvXmXnXFXGXJXHXKXPXLXLXLXLXLXLXLXLXLXLXLXLXLXLXLXLXLXMXmXJXPXKXKXKXJXFXSXzXfX#X/.I.G.h.h.h.h.h.j.j.j.j.j.j.j.f.X.X.X.X.j.j.j.j.j.d.h.h.h.j.j.h.j.j.j.j.j.j.j.j.j.j.j.h.K.h.h.K.L.L.L.XXXXXXoXoX#X#X#X#X$XOXoXoXXXY.Y.L.L.K.K.XXqXsXAXDXIXPXLXLXLXLXLXLXLXPXKXJXnXzXfX#XI.[ / / N ,.2.2.4.4.N.N.V.V.V.N.V.V.3.V.4.4.N.V.N.A.N.`.'.'.'.`.2.N.N.N.N.N.N.4.3.3.",
"JXFXFXSXSXSXSXvXvXcXcXcXxXxXxXhXhXhXrXrXrXrXwXeXqXqXqXqX8X8X$X$XOXOXOXOXOXOXOXOXOXOXOXOXOXOXOXOXOXOXOXOXOXOXOXOXOXOXOXOXOXOX$X$X$X*X*X*X*X*XeXeX=X=X=XrXgXgXgXlXlXzXbXnXnXnXFXGXHXHXKXPXLXLXLXLXLXLXLXLXLXLXLXLXLXLXLXLXLXGXmXJXLXLXLXLXLXLXPXPXKXHXGXnXlXgX=X#X@XE.R.K.h.j.j.j.f.f.X.X.X.X.X.X.X.X.X.X.....X.X.X.X.f.f.j.j.j.j.j.j.j.j.j.j.j.j.h.h.h.K.P.R.Y.T.E.@X#X#X=X=XgXlXzXmXnXnXnXvXAXxXrXqX$XOXXXR.R.R.Y.#X*X=XeXeXeX=X=X=X=X=X=X#X(.s.i e B 2.4.2.N.V.V.V.V.V.V.V.V.V.4.V.N.V.N.V.N.3.N.'.].'.'.'.3.V.V.N.N.N.N.N.3.4.",
"JXFXDXSXSXSXSXvXvXvXcXcXxXxXxXhXhXhXrXrXrXrXwXwXwXqXqXqX8X8X8X1X8X$X$XOXOXOXOXOXOXOXOXOXOXOXOXOXOXOXOXOXOXOXOXOXOXOXOXOXOX$X$X$X$X*X*X*X*XeXeXeXeXeXrXgXgXgXlXlXzXzXvXnXnXFXGXGXJXHXKXPXLXLXLXLXLXLXLXLXLXLXLXLXLXLXLXLXLXHXmXJXLXLXLXLXLXLXLXLXLXLXPXKXJXGXSXnXbXlXgX=X=X#X@XXXXXL.L.j.j.j.X.X.X.X.X.X.X.X.X.X.X.X.X.X.X.X.X.X.X.X.X.X.f.j.j.j.f.j.d.d.d.d.d.d.P.R.I.^.@X#X=XfXfXzXmXnXGXKXPXLXLXLXLXLXLXPXIXIXDXZXxXeXoXj.' / T / / d.R.@XzX#Xi a ,.4.N.3.V.V.V.V.C.C.].V.V.V.4.V.V.V.V.V.4.4.'.].].'.'.'.3.V.V.V.V.V.N.N.3.N.",
"JXFXFXSXSXSXSXZXvXvXcXcXxXxXxXxXxXhXrXrXrXrXrXwXwXqXqXqXqX8X8X8X8X1X$XOX:XOXOXOXOXOXOXOXOXOXOXOXOXOXOXOXOXOXOXOXOXOXOXOX$X$X$X$X*X8X*X*XeXeXeXeXrXrXrXgXgXgXlXlXzXcXvXnXnXFXGXGXJXHXKXPXLXLXLXLXLXLXLXLXLXLXLXLXLXLXLXLXLXKXnXJXLXLXLXLXLXLXLXLXLXLXLXLXKXHXJXGXFXnXvXbXlXgXfX=X=X=X#X#XoXXXXXXXXXL.L.h.j.j.j.j.X.X.X.X.X.X.X.X.X.X.X.X.X.X.X.X...X...X.f.f.f.d.d.d.G.P.P.U.U.U./.#X=XfXzXmXJXKXPXLXLXLXLXLXLXLXLXLXLXLXLXLXPXIXAXxXeXE.fXmXMX%Xa N 2.4.N.4.V.V.C.C.C.C.].V.V.C.4.V.C.V.V.V.`.V.].].].].'.V.3.V.V.V.V.'.V.N.3.N.",
"JXFXFXSXSXSXSXZXvXvXvXcXxXxXxXxXxXhXhXrXrXrXrXrXwXqXqXqXqX8X8X8X8X1X1X;X:X:XOXOXOXOXOXOXOXOXOXOXOXOXOXOXOXOXOXOXOXOXOX$X$X1X$X*X8X8XqXqXeXeXeXeXrXrXgXgXgXlXlXcXzXvXvXnXnXFXGXGXHXHXKXPXLXLXLXLXLXLXLXLXLXLXLXLXLXLXLXLXLXLXGXJXLXLXLXLXLXLXLXLXLXLXLXLXPXKXHXHXJXFXSXnXvXzXlXgXgXgX=X=X*X#X$X$X#X#XoXXXXXXXXXL.L.L.L.j.j.j.j.j.j.X.X.X.f.f.f.X.X.X.f.f.f.f.f.f.f.f.f.f.d.d.G.P.U.!./.#X%XfXfXfXzXSXJXIXPXLXLXLXLXLXLXLXLXLXLXLXLXLXPXKXJXMXGX(.a B 2.4.V.4.V.V.C.C.C.C.C.V.C.C.4.C.V.V.V.'.4.'.].].].].'.V.3.V.V.V.'.'.V.N.4.A.",
"JXFXFXSXSXSXSXZXZXvXvXcXxXxXxXxXxXhXhXrXrXrXrXrXwXwXqXqXqX8X8X8X8X1X1X1X;X:XOXOXOXOXOXOXOXOXOXOXOXOXOXOXOXOXOXOXOXOXOX$X$X8X8X8X8XqXqXeXeXeXeXrXrXrXgXgXgXlXlXcXcXcXnXnXSXFXGXGXHXHXKXPXLXLXLXLXLXLXLXLXLXLXLXLXLXLXLXLXLXLXJXIXLXLXLXLXLXLXLXLXLXLXLXLXLXPXKXHXJXGXFXSXnXvXzXzXlXgXgX=X=X=X*X*X*X*X$X#XoXoXoXXXXXXXXX.XL.L.L.L.L.L.h.h.h.L.h.h.h.h.j.j.j.j.d.j.f.f.f.f.f.d.d.d.d.d.G.P.J.!.^.(.=XfXfXfXzXmXSXJXJXIXIXIXKXKXKXKXKXKXHXGXMXmXMX=Xt >.4.V.V.4.V.C.C.C.C.C.C.Z.C.C.N.C.C.C.C.V.N.'.].].'.].'.V.3.V.V.V.V.'.V.V.4.A.",
"JXFXFXSXSXSXZXZXZXZXvXcXcXxXxXxXhXxXhXrXrXsXrXrXrXwXqXqXqXqX8X8X8X8X1X1X1X;XOXOXOXOXOXOXOXOX:XOXOXOXOXOXOX:XOXOXOXOXOX$X$X8X8X*XqXqXeXeXeXeXeXrXrXrXrXrXgXgXxXcXcXvXnXnXSXFXGXJXHXHXKXPXLXLXLXLXLXLXLXLXLXLXLXLXLXLXLXLXLXLXHXIXLXLXLXLXLXLXLXLXLXLXLXLXLXPXKXHXHXJXJXFXnXvXvXcXcXlXgXrX=X=X=X=X=X=X*X$X#XoXoXoXoXXXXXXXXXXXXXXXXXXXR.R.Y.Y.XXXXXXY.Y.Y.XXXXXXoX@X/.T.Y.I.Y.T.I.I.U.U.U.U.U.U.!.^.(.(.(.(.(.(.(.%XfXfXfXfXfXfXfXfXfXfXfXfXfXMX!.f ,.4.V.V.4.C.C.C.C.C.C.C.C.C.C.N.V.C.].C.V.N.].].].].].V.V.4.V.V.V.V.'.V.V.4.N.",
"JXFXFXSXSXSXSXZXZXvXvXcXcXxXxXxXxXxXhXhXrXrXsXrXrXwXqXqXqXqX8XqX8X8X8X8X1X1X;XOXOXOXOXOXOXOXOXOXOXOXOXOX:XOX:XOXOXOXOX1X1X8X8X8XqXqXqXeXeXeXeXrXrXrXrXrXrXgXlXcXcXvXnXnXSXSXGXJXHXHXKXKXLXLXLXLXLXLXLXLXLXLXLXLXLXLXLXLXLXLXKXIXLXLXLXLXLXLXLXLXLXLXLXLXLXPXKXHXHXJXJXFXSXnXvXvXcXxXgXgXrXeXrXrX=X=X=X*X$X$X$X#XoXoXXXXXXXXXXXXXXXXXXXXXXXXXoX@X@X@X@X@X#X#X#X#X=X=X=X=X=XfXfXfXgXzXzXmXmXmXzXzXlXgXfXfXfX=X%X(.(.(.(.(.^.).).).).).).J._.(.GX(.a ,.4.V.V.4.C.C.C.C.C.C.C.C.C.C.N.C.C.C.C.C.N.].C.].].].].V.4.V.V.V.V.V.V.V.3.V.",
"GXFXFXSXSXSXSXZXZXAXvXvXcXxXxXxXxXxXxXhXrXrXsXrXrXrXwXqXqXqXqXqX8X8X8X8X1X;X;XOX;XOXOXOXOXOXOXOXOXOXOXOX:X;XOXOXOX1X1X1X1X8X8XqXqXqXqXeXeXeXrXrXrXrXrXrXrXrXgXxXcXvXnXSXSXSXGXJXJXHXHXKXPXLXLXLXLXLXLXLXLXLXLXLXLXLXLXLXLXLXKXJXLXLXLXLXLXLXLXLXLXLXLXLXLXPXKXKXHXJXJXFXSXnXnXvXcXzXgXgXgXrXrXrXrX=XeX*X$X$X$X$XOXoXoXoXoXXXXXXXXXXXXXXXXXoXoX#X#X#X#X#X#X*X=X=XfXfXfXfXlXzXzXbXmXmXMXGXHXKXKXKXPXPXPXPXKXKXKXKXJXFXnXzXfXfX(.(.).).)._.(.MXMXV f 2.4.V.V.4.C.C.C.C.C.C.C.C.C.C.V.C.Z.Z.C.C.N.C.C.].].].].V.4.V.V.V.V.V.'.N.4.V.",
"FXFXFXSXSXSXZXZXZXAXvXvXcXxXxXxXxXxXhXrXrXrXrXrXrXrXwX0XqXqXqXqX8X8X8X8X8X1X;XOXOXOXOXOXOXOXOXOX:X:XOXOXOX;XOXOXOXOX1X1X8X8XqXqXqXqXqXeXeXrXrXrXrXrXrXrXrXrXrXxXcXvXSXSXSXFXGXJXJXHXHXKXPXLXLXLXLXLXLXLXLXLXLXLXLXLXLXLXLXLXKXJXLXLXLXLXLXLXLXLXLXLXLXLXLXPXKXHXHXJXJXFXSXSXnXvXcXcXlXgXgXgXrXrXrXrXeX*X*X*X$X$X$XOXoXoXoXoXoXoXoXoXoXoXoX#X@X#X#X$X$X$X*X=X=XfXfXfXlXzXzXzXmXmXnXGXGXHXKXLXLXLXLXLXLXLXLXLXLXLXLXLXPXKXKXHXGXMXmXzXfX(.^.Z =XM S 2.8.V.V.N.C.C.C.C.C.C.C.C.C.C.V.C.Z.Z.C.Z.N.C.C.].].].].V.4.V.V.V.V.V.'.N.4.V.",
"FXFXDXSXSXSXZXZXZXAXvXcXcXxXxXxXxXxXhXsXrXsXrXrXwXwXwX0XqXqXqXqX8X8X8X8X8X1X;X;X1X;XOXOXOXOXOXOX:X:XOX:XOXOXOXOX;X;X8X8X8X8X8XqXqXqXqXeXrXrXrXrXrXrXrXrXrXrXrXgXxXcXnXSXSXFXGXJXJXHXHXKXKXPXLXLXLXLXLXLXLXLXLXLXLXLXLXLXLXLXKXJXLXLXLXLXLXLXLXLXLXLXLXLXLXPXKXHXHXJXJXFXSXSXnXvXcXcXxXgXgXgXgXrXrXrXeX*X*X*X$X$X$XOXoXoXOXOXoXoXoXoXoXoXoX#X#X$X$X$X*X*X=X=X=XfXgXlXlXzXzXmXmXnXMXGXJXHXPXLXLXLXLXLXLXLXLXLXLXLXLXLXLXLXLXPXKXHXGXMXmXfX(.` =Xa S 2.V.V.C.4.C.C.C.C.C.C.C.C.C.C.V.C.Z.Z.C.Z.N.C.C.].].].].V.4.V.V.Z.V.V.'.N.4.V.",
"FXDXDXSXSXSXZXZXAXAXcXcXcXxXxXxXxXxXhXhXsXrXrXsXsXrXwX0X0XqXqXqXqX8XqX8X8X8X1X;X;X;XOXOXOXOXOXOX:X;XOX;XOX;XOXOX8X8X8X8X8X8X8XqXqXqXeXeXrXrXrXrXrXrXrXrXrXrXrXgXxXcXvXSXSXFXGXJXJXHXHXHXKXKXPXLXLXLXLXLXLXLXLXLXLXLXLXLXLXLXKXJXLXLXLXLXLXLXLXLXLXLXLXLXLXPXKXKXHXJXJXFXSXSXSXvXcXcXxXgXgXgXgXgXgXrXrXeXqX*X*X$X$XOXOXOXOXOXOXOXOXOXOXOX#X$X$X$X*X*X*X*X=X=X=XfXgXlXzXzXzXmXmXnXMXGXHXHXPXLXLXLXLXLXLXLXLXLXLXLXLXLXLXLXLXLXLXKXHXGXGXfX(.` =Xt ,.4.V.V.C.4.C.C.C.C.C.C.C.C.C.C.V.C.Z.Z.C.Z.N.C.C.].].].].V.4.V.V.V.V.'.'.N.4.V.",
"FXSXSXSXSXZXZXZXAXvXcXcXcXxXxXxXxXxXhXhXhXsXsXrXsXrXwXwXwX0XqXqXqX8X8X8X8X8X1X1X;X1X1XOXOXOX;X;X$XOX;X;XOXOX1X;X1X8X8X8X8X8XqXqXqXqXeXwXrXrXrXrXrXrXrXrXrXrXrXgXhXcXvXSXSXFXGXJXJXJXHXHXHXKXKXLXLXLXLXLXLXLXLXLXLXLXLXLXLXLXKXJXLXLXLXLXLXLXLXLXLXLXLXLXLXPXKXHXHXJXJXFXSXSXSXvXcXcXxXlXgXgXgXgXgXrXrXeXeXqX*X*X$XOXOXOXOXOXOXOXOXOXOXOX$X$X$X*X*X*X*X=X=X=X=XgXgXzXzXzXmXmXnXnXMXGXHXHXLXLXLXLXLXLXLXLXLXLXLXLXLXLXLXLXLXLXLXPXHXHXGXzX(.t.fX1.4.N.V.V.C.4.C.C.C.C.C.C.C.C.C.C.V.C.C.C.C.V.3.C.C.].V.].].V.4.V.V.V.V.'.V.V.4.V.",
"FXSXSXSXSXZXZXZXZXvXvXcXcXxXxXxXxXhXhXhXsXrXsXsXsXrXwXwX0XqXqXqXqX8X8X8X8X1X8X1X1X1X1XOXOXOX;X1X$X$X1X1X;X;X1XOX1X1X8X8X8X8XqXqXqXqXeXwXrXrXrXrXrXrXrXrXrXrXrXgXhXxXcXSXSXSXFXJXJXJXHXHXHXKXKXPXLXLXLXLXLXLXLXLXLXLXLXLXLXLXKXDXLXLXLXLXLXLXLXLXLXLXLXLXPXKXKXHXHXJXGXFXSXSXSXvXvXcXxXlXgXgXgXgXgXrXrXeXeX*X*X*X$X$XOXOX$X$X$X$X$XOXOXOX$X$X$X*X=X=XeX=X=X=XfXgXlXzXzXzXmXmXnXnXMXGXGXHXPXLXLXLXLXLXLXLXLXLXLXLXLXLXLXLXLXLXLXLXKXHXGXlX#Xi.fX3.N.N.V.C.C.4.C.C.C.C.C.C.C.C.C.C.V.C.C.C.C.V.3.C.C.C.].].].V.N.V.V.V.V.'.V.V.4.V.",
"FXSXSXSXSXZXZXZXZXAXvXcXcXxXxXxXxXxXhXhXhXsXrXsXsXsXwXwX0X0XqXqXqXqXqX8X8X8X8X1X1X1XOXOXOXOX1X;X$XOX;X;X;XOXOXOX1X8X8X8X8XqXqXqXqXeXwXrXrXrXrXrXrXrXrXrXgXgXrXgXhXxXcXvXSXSXFXJXJXJXJXHXHXKXKXPXLXLXLXLXLXLXLXLXLXLXLXLXLXLXKXFXLXLXLXLXLXLXLXLXLXLXLXLXPXKXHXHXJXJXGXFXSXSXSXvXcXcXxXgXgXgXgXgXgXgXrXrXeXeX*X*X$X$X$X$X$XOXOXOX$X$X$X$X$X$X*X*XeX=XeX=X=XeXgXgXlXzXzXzXmXmXnXnXFXGXJXHXPXLXLXLXLXLXLXLXLXLXLXLXLXLXLXLXLXLXLXLXKXHXGXfX%Xa.fX4.N.`.V.C.].4.C.C.C.C.C.C.C.C.C.C.N.C.C.C.V.].3.C.C.C.].].C.V.4.V.V.Z.Z.V.V.V.4.V.",
"SXSXSXSXSXZXZXZXAXvXcXcXcXxXxXxXxXxXxXxXhXsXrXsXsXwXwXwXwX0X0XqX0XqXqXqX8X8X8X8X8X8X1XOXOXOX;X1X1XOX1X1X1X8X$X8X8X8X8X8X8X8XqXqXqXwXwXrXrXrXrXrXrXrXrXrXhXhXgXgXhXxXcXvXSXSXFXGXJXJXJXHXHXKXKXPXLXLXLXLXLXLXLXLXLXLXLXLXLXLXKXDXLXLXLXLXLXLXLXLXLXLXLXPXKXKXHXHXJXJXGXFXSXSXSXvXcXcXxXxXgXgXgXgXgXgXrXrXeXeX*X*X$X$XOX$X$X$X$X$X$X$X$X$X$X$X*X*XeXeX=X=XeXrXgXgXlXzXzXzXmXmXnXnXFXGXGXHXPXLXLXLXLXLXLXLXLXLXLXLXLXLXLXLXLXLXLXPXHXHXGXgX=Xa.fX4.N.`.V.C.].4.C.C.C.C.C.C.C.C.C.C.N.C.].C.V.].3.].C.].C.].].V.4.V.V.Z.Z.V.V.V.4.V.",
"FXDXSXSXZXZXZXZXZXvXcXcXcXxXxXxXxXxXxXhXhXsXrXrXsXwXwXwXwX0X0X0X0XqXqXqXqX8X8X8X8X8X8XOXOXOX1X1X1X;X1X1X1X8X;X8X8X8X8X8XqXqXqXqXqXqXwXrXrXrXrXrXrXrXrXrXhXhXgXgXhXxXxXcXZXSXSXFXJXJXJXHXHXHXKXKXPXPXLXLXLXLXLXLXLXLXLXLXLXLXKXSXLXLXLXLXLXLXLXLXLXLXPXPXKXHXHXJXJXGXFXDXSXSXSXvXcXcXxXxXgXgXgXhXhXgXsXrXeXeXqX*X$X$X$X$X$X$X$X$X$X$X$X$X$X$X*X*X=X=X=X=XeXrXgXgXlXzXzXvXvXmXnXnXFXFXGXHXKXLXLXLXLXLXLXLXLXLXLXLXLXLXLXLXLXLXLXPXHXHXGXfX=XA.fX3.N.`.V.C.].V.C.C.C.C.C.C.C.C.C.C.V.V.C.V.].C.3.].].].V.].].V.4.V.V.Z.Z.V.V.V.4.V.",
"SXSXSXSXZXZXZXZXAXvXcXcXcXxXxXxXxXxXhXxXhXsXsXsXsXwXrXwXwX0X0XqX0XqXqXqXqXqX8X8X8X8X8XOXOXOX1X8X1X1X1X;X8X8X8X8X8X8X8X8XqXqXqXqXqXqXeXrXrXrXrXrXrXrXrXgXhXhXhXgXhXxXxXcXvXSXSXDXFXGXJXJXHXHXHXHXKXPXLXLXLXLXLXLXLXLXLXLXLXLXHXZXLXLXLXLXLXLXLXLXLXPXPXKXKXHXHXJXJXGXFXSXSXSXZXvXcXcXxXxXhXgXhXhXhXhXrXrXeXeXqX*X$X$X$X$X$X$X$X$X$X$X$X$X$X$X*X*XeX=X=X=XeXrXgXgXlXzXzXzXvXmXnXnXnXFXGXHXHXPXLXLXLXLXLXLXLXLXLXLXLXLXLXLXLXLXLXPXHXHXGXgX=XA.fXa.N.`.V.C.].N.C.C.C.C.C.C.C.C.C.C.N.].4.'.C.].N.].V.V.].].C.V.N.V.V.Z.Z.V.V.V.4.V.",
"SXSXSXZXZXZXZXZXZXvXvXcXxXxXxXxXxXxXhXhXhXhXsXrXsXsXrXwXwXwXwXqX0X0XqXqXqXqXqX8X8X8X8X8XOXOX1X8X1X1X1X1X8X8X8X8X8X8XqX8XqXqXqXqXqXqXwXrXrXrXrXrXrXrXrXgXhXhXhXgXhXxXxXcXvXSXSXSXFXFXJXJXJXHXHXHXKXKXKXPXLXLXLXLXLXLXLXLXLXLXJXZXLXLXLXLXLXLXLXPXPXPXKXKXHXHXJXJXJXGXFXSXSXSXvXvXcXcXcXxXhXgXhXhXhXhXrXrXeXeXqX8X$X$X$X$X$X$X$X$X$X$X$X$X$X$X*X*XeX=X=X=XeXrXgXgXlXzXzXcXvXmXmXnXnXFXGXJXHXPXLXLXLXLXLXLXLXLXLXLXLXLXLXLXLXLXLXKXHXJXGXfX=XA.fXa.4.`.V.C.].N.C.C.C.C.C.C.C.C.C.C.4.].].].V.V.a.V.V.].].].].N.V.V.V.Z.V.V.V.V.2.V.",
"SXSXSXZXZXZXZXZXZXvXcXcXxXxXxXxXxXxXhXhXhXrXsXsXsXsXwXwXwXwX0X0X0X0XqXqXqXqXqX8X8X8X8X8XOXOX8X8X1X8X8X8X8X8X8X8X8X8X8XqXqXqXqXqXqXwXwXrXrXrXrXrXrXrXrXgXhXxXhXhXxXxXxXcXvXZXSXSXFXFXGXJXJXJXHXHXHXKXKXPXPXLXLXLXLXLXLXLXLXLXJXvXLXLXLXLXLXPXPXPXPXKXKXHXHXHXJXJXJXFXFXSXSXSXZXvXcXcXxXxXhXhXgXhXhXhXgXrXrXeXqX8X8X$X$X$X$X$X$X$X$X$X$X$X$X$X*X*XeX=X=X=XeXrXgXgXlXzXzXcXvXmXmXnXnXFXGXGXHXKXPXLXLXLXLXLXLXLXLXLXLXLXLXLXLXLXPXKXHXGXGXfX=XA.fXa.4.`.V.V.].N.C.C.C.C.C.C.C.C.C.C.N.C.C.].V.'.3.].C.C.C.C.].N.V.V.V.V.V.Z.V.V.2.V.",
"SXSXSXZXZXZXZXZXAXvXcXcXxXxXxXxXxXxXhXhXsXsXsXrXsXsXwXwXwXwX0X0X0X0X0X0XqXqXqX8X8X8X8X8XOXOX;X1X1X8X8X8X8X8X8X8X8XqXqXqXqXqXqXqX0XwXwXrXrXrXrXrXrXrXrXhXhXxXxXxXxXxXxXcXcXvXSXSXSXFXFXJXJXJXHXHXHXHXKXKXKXPXPXLXLXLXLXLXLXLXJXcXPXLXLXPXPXPXPXKXKXHXKXHXHXJXJXJXGXFXSXSXSXSXvXvXcXcXxXxXhXhXhXhXhXhXgXrXrXeXqXqX8X$X$X$X$X$X$X$X$X$X$X$X$X*X*XqXeXeX=X=XeXrXgXgXlXlXzXzXcXvXmXmXnXSXGXGXHXHXKXPXLXLXLXLXLXLXLXLXLXLXLXLXLXLXPXHXHXGXGXfX=X).fXa.a.`.V.].].4.C.C.C.C.C.C.C.C.C.C.V.V.C.C.].C.3.].C.C.C.C.C.N.V.Z.V.V.V.V.V.V.4.V.",
"SXSXSXZXZXZXZXvXAXvXcXcXxXxXxXxXxXxXhXhXhXrXsXsXsXsXwXwXwXwX0X0X0X0X0X0X0XqXqX8X8X8X8X$XOXOX;X1X1X1X8X8X8X8X8X8X8X8X8XqXqXqXqXeXqXwXwXrXrXrXrXrXrXrXrXhXhXxXxXxXxXxXxXcXvXvXSXSXSXSXFXGXJXJXJXHXHXHXHXKXKXKXKXPXLXLXLXLXLXPXJXxXKXPXPXKXKXKXKXKXHXHXHXJXJXJXJXJXFXSXSXSXSXZXvXcXcXcXxXxXhXhXhXhXhXhXgXrXrXeXqXqX*X$X$X$X$X8X$X$X$X$X$X$X*X*XqXeXeXeX=X=XeXrXgXgXgXlXzXzXzXzXvXmXnXnXFXGXGXHXHXPXPXLXLXLXLXLXLXLXLXLXLXLXLXPXKXHXJXGXGX=X=X).fX3.a.A.V.'.V.4.C.C.C.C.C.C.C.C.C.C.V.V.Z.V.].C.3.].C.C.C.C.V.4.V.Z.V.V.V.V.V.V.4.V.",
"SXSXZXZXZXZXZXAXvXcXcXxXxXxXxXxXxXxXhXhXhXrXsXsXsXrXsXrXrXwXwXyX0X0X0X0XqXqXqXqX8X8X8X8X$XOX;X1X8X8X1X8X8X8X8X8XqXqXqXqXqXqXqXwXqX0XwXrXrXrXrXrXrXrXrXrXhXxXxXxXxXxXxXcXcXvXZXSXSXSXSXFXGXJXJXJXJXHXHXKXKXKXKXKXPXPXLXLXLXPXDXxXKXKXKXKXHXHXHXHXHXHXHXHXJXJXJXJXFXSXSXSXSXZXvXcXcXcXxXxXgXhXhXhXhXhXhXrXrXeXqXqX*X*X$X$X$X*X*X$X$X$X$X$X*X*XqXeXeXeX=XeXeXeXrXgXgXlXzXzXzXzXvXvXmXnXFXGXGXHXHXKXKXPXLXLXLXLXLXLXLXLXLXPXPXKXHXHXGXGXMX=X=X).fXa.a.A.V.].'.4.C.C.C.C.C.C.].C.C.C.N.].4.'.].].3.C.C.C.C.C.V.4.V.Z.V.V.V.V.V.V.3.V.",
"ZXZXZXZXZXZXAXAXvXcXcXcXxXxXxXxXxXxXhXhXrXsXsXsXsXrXsXwXrXwXwX0X0X0X0X0XqXqXqXqX8X8X8X8X$XOX1X1X8X8X8X8X8X8X8X8XqXqXqXqXqXqXqXwX0X0XwXrXrXrXrXrXrXrXrXhXhXhXxXxXxXxXxXcXcXvXvXSXSXSXSXFXFXGXJXJXJXJXHXHXHXHXKXKXKXKXPXPXLXPXDXxXHXHXHXHXHXHXHXHXHXHXJXJXJXJXJXFXFXSXSXSXSXvXvXvXcXcXxXxXhXhXhXhXhXhXgXrXrXwXqXqX8X*X$X*X$X*X*X*X$X$X$X$X*X*XqXqXeXeXeXeXeXeXgXgXgXlXzXzXzXzXzXvXmXnXSXFXGXJXHXHXHXKXKXPXPXLXLXLXLXPXPXPXKXHXHXJXGXGXMX=X%X).fXa.a.A.V.].'.4.C.C.C.C.C.C.V.C.C.C.4.].].].'.].3.C.C.C.C.C.V.4.V.V.V.V.Z.V.V.V.4.V.",
"ZXZXZXZXZXAXAXAXcXcXcXxXxXxXxXxXxXxXhXsXsXsXsXsXsXsXsXwXwXwXwXyX0X0X0X0X0XqXqXqXqX8X8X8X1X$X1X8X8X8X8X8X8X8X8XqX8XqXqXqXqXqXqXqXwXqXwXrXrXrXrXrXrXrXrXrXrXhXxXxXxXxXxXcXcXcXvXvXSXSXSXSXFXFXGXJXJXJXJXHXHXKXKXKXKXKXKXKXPXKXDXhXHXHXHXHXHXHXHXHXJXHXJXJXJXJXFXFXSXSXSXSXSXvXvXvXcXcXxXxXhXhXhXhXhXhXhXrXrXwXqXqXqX*X8X8X8X8X8X*X$X$X*X*X8X*X*XqXeXeXeX=XeXrXgXgXgXlXlXzXzXzXzXvXmXnXnXFXGXGXHXHXHXHXKXKXKXPXPXPXPXPXKXHXHXHXHXGXGXMXMX=X%X).fXa.a.A.V.'.'.4.].].C.C.C.C.V.C.C.C.N.].].].'.'.3.C.].C.C.'.V.3.V.V.V.V.V.V.V.V.3.V.",
"ZXZXZXZXAXAXAXAXAXAXcXxXxXxXxXxXxXhXhXsXsXrXsXsXsXsXwXwXwXwXwXyX0X0X0X0XqXqXqXqX8X8X8X8X1X1X1X8X8X8X8X8X8X8X8XqX8XqXqXqXqXqX0XqXwXwXwXrXrXrXrXrXrXrXrXrXrXhXhXxXxXcXxXcXcXcXcXvXZXSXSXSXDXFXFXJXJXJXJXJXHXHXHXHXHXKXKXKXKXKXFXhXJXHXHXHXHXHXJXJXJXJXJXJXJXFXFXSXSXSXSXSXZXvXvXcXcXcXxXhXhXhXhXhXhXhXhXgXrXwXqXqXqX8X8X8X8X8X8X8X*X*X*X$X8X*XqXqXeXeXeXeXrXrXrXgXgXlXlXlXzXzXzXzXvXmXnXSXFXGXGXJXHXHXHXHXHXHXKXKXKXHXHXHXHXHXGXGXGXMXMX=X=X).fXa.a.A.V.V.'.V.].].C.C.C.C.C.C.C.C.'.V.].].'.V.3.C.].C.V.C.'.3.V.V.V.V.Z.V.V.V.4.'.",
"ZXZXZXZXZXvXcXAXAXcXxXxXxXxXxXxXxXxXhXhXhXsXsXsXsXsXwXwXwXwXyX0X0X0X0XqX0XqXqXqX8X8X8X8X8X$X5X8X8X8X8X8X8X8X8X8X8XqXqXqXqXqX0XqXwXwXwXwXrXrXrXrXsXrXrXrXrXhXhXhXxXxXxXxXcXcXvXvXZXSXSXSXSXSXFXGXJXJXJXJXJXHXHXHXHXHXKXKXKXKXDXhXJXJXJXJXJXJXJXJXJXJXJXFXFXDXSXSXSXSXSXZXvXZXvXcXcXcXxXhXhXhXhXhXhXhXhXhXrXwXeXqX8X*X*X*X8X8X8X8X8X8X8X*X*X*X*XeXeXeXeXeXrXrXrXgXgXgXlXlXlXcXzXzXvXmXnXSXFXGXGXGXGXHXHXHXHXHXHXHXHXHXHXHXHXJXGXGXGXMXmX#X=X).fXa.a.A.V.V.].N.].].V.].C.C.V.V.C.C.'.V.].V.].V.N.C.].C.V.C.'.3.V.V.V.V.V.N.V.V.2.V.",
"ZXZXZXZXZXAXcXcXAXcXcXxXxXxXxXxXxXhXxXhXhXhXrXsXsXsXwXwXwXwXyXyX0X0X0X0X0XqXqXqX8X8X8X8X8X*X8X8X8X8X8X8X8X8X8X8X8XqXqXqX0XqX0XwXwXwXwXwXrXrXrXrXrXrXrXrXrXrXgXgXhXxXxXxXxXcXcXvXZXSXSXSXSXSXSXFXGXGXGXJXJXJXHXHXHXHXHXKXKXKXDXsXGXGXJXGXGXJXJXGXJXJXFXFXFXSXSXSXSXSXZXZXAXAXvXcXcXxXxXhXhXhXhXhXhXhXhXrXrXwXwXqX8X*X*X*X8X8X8X8X8X8X8X*X*X*X*X*XeXeXeXeXeXrXrXgXgXgXgXlXlXlXzXzXbXvXnXnXMXFXGXGXGXGXHXHXHXHXHXHXHXHXHXHXJXGXGXGXGXMXMX#X=X).fXa.a.A.`.'.'.N.].].V.C.C.C.V.V.C.].A.'.V.V.'.'.A.].].V.V.V.'.3.V.V.V.V.V.N.V.'.2.N.",
"ZXZXAXAXAXvXcXcXcXxXxXxXxXxXxXxXxXhXhXhXhXsXsXsXsXsXsXwXwXwXwXwX0X0X0X0X0XqXqXqX8X8X8X8X8X8X8X8X8XqXqX8XqX8X8XqXqXqXqX0X0XqX0XwXwXwXwXwXrXrXrXrXrXrXsXrXrXrXgXhXhXxXxXxXcXcXvXvXvXZXZXSXSXSXSXSXFXFXGXJXJXJXJXJXJXHXHXHXKXHXSXsXFXGXGXGXGXGXGXGXGXFXFXFXSXSXSXSXSXSXZXZXvXvXcXcXxXxXxXhXhXhXhXhXhXhXhXrXrXwXeXqX8X8X8XqXqX8XqX8X8X8X8X*X*X*X*X*XeXeXeXeXeXeXrXgXgXgXgXgXlXlXzXzXzXvXmXnXnXFXFXGXGXGXGXGXHXHXHXHXHXHXJXGXGXGXGXGXMXMXmX#X#X).fXa.a.A.`.'.'.N.].].V.C.C.C.C.C.4.].3.].:.].V.'.A.].].V.V.V.'.3.V.V.V.V.V.N.V.`.2.N.",
"ZXZXAXAXcXcXcXxXcXxXxXxXxXxXxXxXhXhXhXsXhXrXsXsXsXsXsXwXwXwX0X0X0X0X0X0X0XqXqXqX8X8X8X8X8X5X8X8X8XqX8X8XqXqX8X8X8XqXqXqX0XqX0XwXwXwXwXwXwXrXrXrXrXrXsXrXrXhXhXhXhXxXxXxXcXcXcXvXvXZXSXSXSXSXSXSXSXFXFXFXJXJXJXJXJXJXHXHXHXHXSXwXFXFXGXGXFXFXFXFXFXFXSXSXSXSXSXSXSXSXZXZXvXvXcXcXxXxXxXhXhXhXhXhXhXhXhXrXrXwXwXeXqXqXqXqXqXqXqXqX8X8X8X*X*XqXeXeXeXeXeXeXeXrXrXgXgXgXgXgXgXlXlXcXzXvXmXnXnXSXFXFXGXGXGXGXGXGXGXGXGXGXGXGXGXGXGXMXMXnXmX@X#X).fXa.a.a.`.'.'.N.'.].V.C.C.C.V.].].'.2.].].].V.V.N.].].V.V.V.'.3.V.V.V.V.V.V.V.'.3.V.",
"vXvXAXAXAXAXcXcXxXxXxXxXxXxXxXxXxXhXhXsXrXrXsXsXsXsXsXwXwXwX0X0X0X0X0X0X0X9XqXqXqX8X8X8X8X8X8X8X8X8X8X8XqXqXqXqXqXqXqXqXqXqXqXqXwXwXwXwXwXrXrXrXrXrXrXrXrXrXgXhXhXhXxXxXxXcXcXcXcXvXvXZXSXSXSXSXSXFXFXFXFXJXJXJXJXJXJXJXHXJXZXwXSXFXFXFXFXFXFXSXSXSXSXSXSXSXSXSXZXvXZXvXvXcXcXcXxXxXxXhXhXhXhXhXhXhXhXrXsXrXeXqXqXqXqXqXqXqXqXqX8X*X*X8X*X*XqXeXeXeXeXeXeXeXrXrXgXgXgXgXgXlXlXlXzXbXmXnXnXnXSXFXFXFXGXGXGXGXGXGXGXGXGXGXGXGXMXMXnXmXmXXX#X).fXa.a.a.`.'.'.4.'.].V.C.C.V.V.].].V.3.'.].].V.'.a.].].V.V.V.'.3.V.N.V.V.N.N.V.`.3.'.",
"vXvXAXAXcXAXcXcXxXxXxXxXxXxXxXxXxXhXhXsXsXrXrXsXsXsXwXwXwXwXwX0X0X0X0X0X0XqXqXqX8X8X8X8X8X8X8X8X8X8X8X8XqXqXqXqXqXqXqXqXqX0XqXqXwXwXwXwXwXwXrXrXrXrXrXrXrXrXgXhXgXhXxXxXxXcXcXcXvXvXvXvXSXSXSXSXSXSXSXDXFXFXDXJXJXJXJXJXJXJXZXwXnXFXFXSXFXSXSXSXSXSXSXSXSXSXSXZXvXvXAXvXvXcXxXxXxXxXxXhXhXhXhXhXhXhXhXrXrXwXeXeXqXqXqXqXqXqXqXqXqX*X*X*X8X*XqXeXeXeXeXeXeXeXrXrXgXgXgXgXgXgXgXlXzXzXvXnXnXnXSXSXSXFXFXFXFXGXGXGXGXGXGXGXFXFXMXnXMXmXmXXX=X).fXa.a.a.A.`.`.4.V.'.V.C.C.V.V.].].V.A.V.].'.'.V.a.].].V.V.V.V.3.V.V.V.V.N.N.V.A.4.V.",
"AXAXAXAXcXcXcXxXxXxXxXxXxXxXxXhXxXhXhXsXsXsXsXsXwXwXwXwXwXwXyXyX0X0X0X0X0X0XqXqX8X8X8X8X8X8X8X8X8X8X8XqXqXqXqXqXqXqXqXqX0XqXqX0XwXwXwXwXwXrXwXwXsXsXrXrXrXrXrXhXhXhXhXxXxXxXcXcXvXvXZXZXZXSXSXSXSXSXSXSXSXFXFXFXFXDXDXJXJXJXZXwXnXSXnXnXSXSXSXSXSXSXSXSXSXSXZXZXZXvXvXvXvXcXxXxXxXxXxXhXhXhXhXhXhXhXhXsXrXrXwXeXqXqXqXqXqXqXqXqXqXqX8XqX8XqXqXqXeXeXeXeXeXeXrXrXrXgXgXgXgXgXgXlXlXzXvXmXmXnXnXnXnXSXFXFXFXFXFXFXGXGXFXFXFXnXnXnXnXmXmXR.#XJ.fXa.a.a.a.`.`.4.V.V.V.'.'.V.V.].'.].A.V.'.V.'.'.a.'.].V.V.V.V.3.V.V.V.V.N.V.V.N.3.N.",
"cXcXAXcXAXxXxXxXxXxXxXxXxXxXxXhXhXhXsXsXsXsXsXsXsXsXrXrXwXwXyX0X0X0X0X0X0X0XqXqXqX8X8X8X8X8X8X8X8X8X8XqXqXqXqXqXqXqXqXqX0X0XqXqX0XwXwXwXrXrXwXrXsXsXsXrXrXrXrXhXhXhXxXxXxXxXcXcXcXvXvXvXZXZXZXZXSXSXSXSXSXSXSXFXFXFXDXDXJXJXZXyXvXnXnXnXnXnXnXnXSXSXSXSXZXSXZXZXvXvXvXvXcXcXxXcXxXxXxXhXhXhXhXhXhXhXhXsXrXrXwXeXeXqXqXqXqXqXqXqXqXqX8X8X8XqXqXqXqXeXeXeXeXeXrXrXrXgXgXgXgXgXgXgXlXzXzXvXmXnXnXnXnXnXSXSXSXFXFXFXFXFXFXSXnXnXnXnXmXmXmXL.#XJ.fXa.a.r.a.`.A.4.'.'.V.'.'.V.V.].V.].A.`.4.V.V.].3.'.].V.V.V.`.3.V.V.N.V.N.V.N.`.3.N.",
"cXcXcXcXcXxXxXxXxXxXxXxXhXhXhXhXhXhXsXsXsXsXsXsXsXsXwXwXwXwXwX0X0X0X0X0X0X0XqXqXqXqX8X8X8X8X8X8X8X8X8XqXqXqXqXqXqXqXqXqXqXqX0XqX0X0XwXwXrXwXrXwXrXrXrXrXsXrXhXhXhXhXxXxXxXxXxXcXcXvXvXvXvXZXZXZXSXSXSXSXSXSXSXSXDXFXFXDXJXJXZXyXvXnXnXnXnXnXnXnXSXZXZXZXZXZXZXAXAXAXcXcXcXcXxXxXxXxXhXhXhXhXhXhXhXhXhXsXsXrXwXeXeXqXqXqXqXqXqXqXqX8X8XqX8XqXqXqXeXeXeXeXeXeXeXrXrXrXgXgXgXgXgXgXlXzXzXvXmXnXnXnXnXnXnXnXnXnXnXSXSXSXnXSXnXnXnXmXmXmXmXj.#XJ.fXi.a.3.a.`.`.3.'.V.V.'.'.V.V.].V.'.N.'.4.'.4.].3.V.V.V.V.V.`.3.V.V.V.'.4.V.N.A.4.V.",
"cXcXcXcXxXxXxXxXxXxXxXxXxXhXhXhXhXhXhXsXsXsXsXsXsXwXwXwXwXwX0X0X0X0X0X0XqXqXqXqXqXqXqX8X8X8X8XqX8X8XqXqX8XqXqXqXqXqXqXqXqXqX0X0X0XwXwXwXrXwXrXrXwXsXrXrXsXsXrXrXhXhXhXhXxXxXxXxXcXcXcXvXvXvXZXZXZXZXSXSXSXSXSXSXSXFXFXFXJXJXZXyXcXnXnXnXnXnXvXvXvXZXZXZXZXZXvXAXAXcXcXcXcXxXcXxXxXxXhXhXhXhXhXhXhXhXhXsXsXrXwXwXeXqXqXqXqXqXqXqXqXqXqXqXqXqXqXqXeXeXeXeXeXeXeXrXrXrXgXrXgXgXgXgXgXlXzXcXvXmXnXnXnXnXnXnXnXnXnXnXSXnXnXnXnXnXmXmXmXmXmXj.#XJ.fXi.a.r.a.`.`.3.'.'.V.'.'.V.V.].V.'.3.].'.].N.'.3.V.V.V.V.V.`.3.V.N.N.'.4.V.N.A.4.`.",
"AXAXxXxXxXxXxXxXxXxXxXxXxXxXhXhXhXsXsXsXsXsXsXwXwXsXwXwXwXwXwX0X0X0X0X0X0X0XqXqXqXqXqX8X8X8X8X8X8X8X8X8X8X8XqXqXqXqXqXqXqXqXqXqX0X0X0XwXwXrXrXrXrXwXrXrXrXrXrXrXrXhXhXhXxXxXxXxXcXcXcXvXvXvXvXZXZXZXZXSXSXSXSXSXSXSXDXDXDXDXAXyXcXnXmXvXnXvXvXvXvXvXvXZXvXAXAXAXcXcXAXcXcXxXxXxXxXhXrXrXrXhXhXhXhXsXsXsXsXrXwXwXqXqXqXqXqXqXqXqXqXqXqXqXqXqXqXqXqXeXeXeXeXeXeXrXrXrXrXrXrXrXgXgXgXlXcXcXvXvXvXnXnXnXnXnXnXnXnXnXnXnXnXnXnXmXmXmXmXmXmXj.#XJ.kXa.a.r.a.`.A.3.'.'.'.'.'.'.V.'.V.'.2.'.].'.N.'.3.V.V.V.V.V.'.3.4.4.N.`.N.V.4.A.2.V.",
"xXcXxXxXxXxXxXxXxXxXxXxXhXhXhXsXhXhXsXsXsXsXsXsXwXsXwXwXwXwXwX0X0X0X0XqX0X0XqXqXqXqXqX8X8X8X8X8X8X8X8X8X8X8XqXqXqXqXqXqXqXqXqX0X0X0XqXwXwXrXrXwXwXwXrXrXrXsXrXrXhXhXhXhXxXxXxXxXxXcXcXAXcXvXvXvXvXZXZXZXZXSXSXSXSXSXSXDXDXDXAXyXxXvXvXvXvXvXvXvXvXvXvXvXvXvXAXvXcXcXAXcXcXxXxXxXxXgXeXeXeXrXeX*XqXrXrXsXrXwXwXwXwXqXeXeXeXeXqXqXqXqXqXqXqXqXqXqXqXeXeXeXeXeXeXrXrXrXrXrXrXgXrXgXgXgXcXzXvXvXvXnXnXnXnXnXnXnXnXnXnXnXnXnXmXmXmXvXmXvXcXj.#XH.kXa.a.2.a.`.A.3.`.`.'.'.'.V.V.'.V.'.2.V.].V.V.V.3.V.V.V.V.V.'.3.4.4.N.`.N.'.N.A.2.V.",
"xXxXxXxXxXxXxXxXxXxXxXhXhXhXhXhXhXhXsXsXsXsXsXsXsXsXwXwXwX0XyXyX0X0X0X0X0X0XqX0XqXqX8X8X8X8X8X8XqXqXqX8XqX8XqXqXqXqXqXqXqXqXqX0X0X0X0X0XwXwXrXrXwXrXsXsXsXsXrXrXrXrXhXhXxXxXxXxXxXxXcXcXcXvXvXvXvXvXZXZXZXZXSXSXSXSXSXDXDXDXAXpXxXvXbXvXvXvXcXvXcXvXvXAXAXAXAXcXcXcXcXxXcXxXxXxXhX$X$XoX$X$X.X.Xj.*X*XwXwXwXwXwXwXwXwXwXwXqX0XqXqXqXqXqXqXqXqXqXqXeXeXeXeXeXeXeXeXeXrXrXrXrXrXrXgXgXlXzXcXvXvXvXvXnXnXnXmXmXnXmXmXmXnXmXmXmXmXmXmXvXmXj.#XH.kXi.a.e.A.`.A.a.`.`.'.`.'.V.V.'.V.'.2.4.V.4.`.N.3.V.V.V.V.V.V.3.N.4.N.`.N.'.N.A.2.V.",
"xXxXxXxXxXxXxXxXhXhXhXhXhXhXhXsXsXsXsXsXsXsXsXsXsXsXwXwXwX0X0XyX0X0X0X0X0X0XqXqXqXqX8X8X8X8X8X8XqXqXqXqXqX8X8XqXqXqXqXqXqXqXqX0X0X0X0X0XwXwXwXrXwXwXrXsXsXsXrXrXsXrXrXhXhXhXxXxXxXxXcXcXcXcXvXAXvXvXZXZXZXZXZXZXZXZXSXSXSXDXAXpXxXbXbXbXbXvXvXcXcXvXvXvXcXAXAXxXxXhXhXxXxXxXgXhXeXXXXXXXR.XX.. .W j.oXqXeXwXwXwXwXwXwXwXwXwXwXqXqXqXqXqXqXqXqXqXqXeXeXeXeXeXeXeXeXrXrXrXrXrXeXrXgXgXlXzXzXzXvXvXvXvXvXvXvXmXmXmXmXmXvXmXmXvXvXvXvXvXvXo.#XH.%Xi.a.e.A.`.A.a.`.`.'.V.'.V.V.'.'.'.2.4.4.4.'.4.3.V.V.V.V.V.V.3.N.4.N.`.N.'.N.A.2.N.",
"xXxXxXxXxXxXxXxXhXhXhXhXhXsXsXsXsXsXsXsXsXsXsXwXsXaXwXwXyX0X0XyX0X0X0X0X0X0XqXqXqXqXqXqX8X8X8X8XqXqXqXqXqXqX8XqXqXqXqXqX0X0XqX0XqX0XwX0XwXwXwXwXwXwXwXsXrXsXrXrXsXrXhXhXhXhXxXxXxXxXxXcXcXvXvXvXvXvXvXZXZXZXZXZXZXZXZXSXSXDXAXpXxXbXzXzXzXzXcXcXcXcXcXcXcXcXAXxXrX=X*XeXrXeXeXeX$Xj.X.L.Y.XX) s s ) X.XX$X8XwXwXwXwXwXwXwXwXwXwXeXqXqXqXqXqXqXqXqXqXeXeXeXeXeXeXeXrXrXrXrXeXeXrXgXgXlXzXzXzXcXcXcXcXvXvXvXvXvXvXvXvXvXvXvXvXcXzXzXzXvXO.#X~.%Xy.a.e.a.A.a.a.`.`.'.V.'.'.V.`.'.'.2.4.4.2.'.4.3.V.'.V.V.V.`.3.4.4.N.`.4.`.4.a.3.N.",
"xXxXxXxXxXxXxXhXhXhXhXsXsXsXsXsXsXsXsXsXrXsXwXwXsXwXwXwX0X0X0X0X0X0X0X0X0X0XqXqXqXqXqXqX8X8X8X8XqX8XqXqXqXqX8XqXqXqXqXqXqX0X0X0X0X0XwXwXwXwXwXwXwXrXwXsXrXsXrXrXrXrXrXhXhXhXxXxXxXxXxXxXcXcXcXvXvXvXvXvXZXvXZXZXZXZXZXZXSXSXAXiXgXzXzXlXzXzXzXcXcXcXcXcXxXxXxXhX*XXXj.j.oX$XXXXXh.h.R.oXXX..W s J  .) j.XXOX1X0XwXwXwXwXwXwXwXwXeXeXqXqXqXqXqXqXqXeXeXeXeXeXeXeXeXeXrXrXrXeXeXrXrXgXlXcXcXzXzXcXzXcXzXcXzXcXvXvXvXvXvXcXcXcXcXzXzXzXcX .@X~.%Xy.a.e.a.a.a.a.`.`.'.A.'.V.N.`.`.`.3.2.2.4.'.3.3.V.V.V.V.V.`.3.4.4.4.N.N.V.4.3.3.N.",
"xXxXxXxXhXxXhXhXhXhXhXhXhXsXsXsXsXsXsXsXsXwXwXwXwXwXwXwXwX0X0X0X0X0X0X0X0X0X9X9XqXqXqXqX8X8X8X8XqXqX8XqXqX8X8XqXqXqXqXqXqXqXqXqX0XqXwX0X0XwXwXwXwXwXwXsXrXrXsXrXsXsXrXhXhXhXhXhXxXxXxXxXxXcXcXcXcXvXcXvXvXvXZXZXZXZXZXZXZXSXAXiXgXzXzXlXlXzXzXcXcXcXcXcXxXhXhXeXeXh./ W j...) T W X.$XXXh.) W Y Y T ) ..j.oXOXOX8XeXwXwXwXwXwXwXwXeX0XqX0XqXqXeXqXqXeXeXeXeXeXeXeXeXrXrXrXeXeXeXrXgXgXlXzXzXcXcXzXcXcXvXcXcXvXvXvXmXvXvXcXcXcXzXzXzXzX .$X^.%Xy.a.e.a.a.a.a.`.`.'.N.'.'.N.`.`.`.3.=.2.V.'.A.3.N.V.V.N.V.`.3.3.4.4.`.4.`.4.3.2.N.",
"xXxXxXxXxXxXhXhXhXhXhXhXhXsXsXsXsXsXsXsXsXsXwXwXwXwXwXwXwXyXyXyX0X0X0X0X0X9X0X0XqXqXqXqX8X8X8X8X8XqXqXqXqXqXqXqXqXqXqXqXqXqX0X0X0X0X0X0X0XwXwXwXwXwXwXwXrXsXsXsXrXrXsXrXhXhXhXxXxXxXxXxXxXcXcXcXcXcXcXAXvXAXvXvXZXZXZXZXZXZXAXuXgXzXlXlXzXzXlXxXcXcXxXxXhXhXeXeXeXR./ s ) m W Y s ..XX.... .Y 7 Y s ) W X..XXX$XqXqXqXeXwXwXrXwXwXwXwXqX0XqXqXeXqXqXeXeXeXeXeXeXeXeXeXrXeXeXeXeXrXgXgXlXlXcXcXcXcXzXzXzXzXzXcXcXvXcXcXcXzXzXzXzXzXzXzX .$X/.%Xy.a.e.a.a.a.a.`.`.'.N.'.'.N.`.`.`.A.4.2.`.N.A.3.N.V.V.N.N.`.3.3.4.4.N.N.`.4.3.2.N.",
"xXxXxXxXhXhXhXhXhXhXhXhXsXsXsXsXsXsXsXsXsXsXsXsXwXwXwXwXwXyXyXyX0X0X0X0X0X0X0X0XqXqXqX8X8XqX8X8X8XqXqX8X8X8XqXqXqXqXqXqXqXqX0X0X0X0X0X0X0X0X0X0XwXrXwXwXrXrXsXsXsXsXsXsXhXhXhXhXxXxXxXxXxXxXxXxXcXcXcXcXcXcXvXvXAXZXZXZXZXZXAXiXhXzXzXlXzXcXcXxXcXxXcXxXhXrX$XoXXXR.W s T s 5 8 5 T ....) ) s 9 9 s W ) ..j..X$XOX8X$XqXwXwXwXwXwXwXwXwXwXwXeXeXqXqXeXeXeXeXeXeXeXeXeXrXeXeXeXeXrXgXgXlXlXcXcXcXcXzXzXzXzXcXcXcXzXzXcXcXcXzXzXzXzXzXzX .$X@X#Xy.r.w.a.a.a.a.`.`.'.`.`.'.4.`.`.`.a.4.2.'.4.`.3.N.V.V.4.N.`.2.3.4.4.N.4.A.4.2.2.N.",
"xXxXhXhXhXhXhXsXhXhXhXhXsXsXsXsXsXwXsXsXsXwXwXwXwX0XwXwX0X0X0X0X0X0X0X0X0XqXqXqXqXqXqXqX8X8X8X8XqX8X8X8X8X8XqXqXqXqXqXqXqX0X0X0X0X0X0X0X0X0X0X0XwXwXrXwXwXrXrXrXrXsXsXsXrXhXhXhXhXxXxXxXxXxXxXxXxXcXcXcXcXcXAXAXAXAXAXZXZXZXAXiXgXzXzXzXcXcXcXcXcXxXxXxXgXoXX.) X.h.T s Y 9 2 ; 9 5 s X.) s s T Y ) ....' X..X.X.XOXOXXXqXeXwXwXwXwXwXwXwX0XeXeXeXeXwXeXqXeXeXwXeXeXeXeXeXeXqXeXeXrXgXgXlXxXlXlXlXcXzXzXcXcXzXzXzXzXzXzXzXzXzXzXzXlXzX+.$X@X@Xy.y.w.a.a.r.a.A.`.'.`.'.'.3.A.`.`.A.'.2.'.4.'.3.N.N.N.N.4.`.2.3.4.4.4.N.A.3.2.2.N.",
"hXhXhXhXhXhXhXsXsXsXsXsXsXsXsXsXsXsXwXwXwXsXwXwXwXwXyXyXwX0X0X0X0X0X0X0X0X9XqXqXqXqXqXqXqX8X8X8XqX8X8XqXqXqXqXqX9XqXqXqX0X0XqX0X0X0X0X0X0XwXwX0XwXwXwXwXwXrXrXsXrXsXsXsXrXhXhXhXhXxXxXxXxXxXxXxXxXcXxXxXcXcXAXAXAXAXAXZXZXZXAXNXrXzXzXzXcXcXcXcXxXhX*X$Xh.' W T ' ) T 8 8 7 ; > 9 2 7  .T 5 2 J s W  .)  . . .)  .O.....L..X$X$XOXqXqX8X8XqXeXeXeXeXeXeXeXeXeXeXeXeXeXeXeXeXqXeXeXrXgXgXgXlXlXlXlXlXlXlXcXzXzXzXzXzXzXzXzXzXzXzXzXlXzX| $X@X/.y.e.>.a.a.r.a.A.`.'.`.'.'.N.A.A.A.a.'.'.'.3.'.3.N.N.V.V.4.N.3.3.3.4.3.N.A.3.2.2.N.",
"hXhXhXhXhXhXhXhXsXsXsXsXsXsXsXwXwXsXwXwXsXsXwXwXwXwXwXwXwX0X0X0X0X0X0X0X0X0X0X0X0XqXqXqXqX8X8X8XqX8X8XqXqX9XqXqXqXqXqX0X0X0X0X0X0X0X0XwXwXwXwXyXwXwXwXwXwXwXsXsXsXsXsXsXrXrXhXhXhXxXxXxXxXxXxXxXxXxXxXxXxXcXAXAXAXAXAXAXAXZXAXNXrXzXzXcXcXcXzXgXgXoX] ) ) T p s s s Y 4 ; 4 ; & & ; ; 5 2 1 ; 4 5 s s s ) n 4 ; 9 s s Y T W ..j...j.j.OX1X8XqXqXeXwXeXwXeXeXwXwXeXeXeXeXeX*X*XeXeXrXgXgXgXlXgXgXlXlXlXxXcXcXzXzXzXzXzXzXzXzXlXlXzXlXlX+.$X#X~.t.e.0.a.a.r.a.A.`.`.'.'.'.A.A.A.A.a.'.'.`.4.'.3.N.V.N.N.4.N.2.3.3.3.4.N.N.N.2.4.N.",
"hXhXhXhXrXrXrXrXrXrXsXsXsXrXwXwXsXsXwXwXwXsXwXwXaXaXwXwXwXwXwXyX0X0X0X0X0X0X0X0X0X9XqXqXqXqX8X8XqXqX8XqXqX0X9X9X9X9X9X0X0X0X0X0X0X0X0X0XwXyXwXwXwXwXwXwXwXwXsXsXsXsXsXsXhXrXhXhXhXxXxXxXxXxXxXxXxXxXxXxXxXcXcXcXcXAXAXAXAXAXAXBXsXzXzXcXcXcXlXgX@XT s 5 Y W 8 5 5 2 4 1 ; % ; & # $ & & % ; ; % ; - & ; 6 & ; ; & ; ; 2 ; 7 s ) ) W ) j.OXqX0XqXwXwXwXeXeXeXwXwXeXwXwXwXeXeXqXeXeXrXrXgXgXgXgXgXlXlXxXxXxXlXcXzXzXcXcXcXzXzXlXlXzXlXgX+.$X#XU.t.e.0.r.a.r.r.A.`.A.'.'.'.A.A.A.A.3.'.'.V.2.'.3.N.V.4.4.4.A.2.3.3.4.3.N.3.N.2.4.3.",
"hXrXrXrXrXrXrXrXrXsXsXsXsXrXrXrXrXrXwXwXwXaXaXaXwXwXyXyXwX0XyXyXyX0X0X0X0X0X0X0X9XqXqXqXqXqX8X8X8XqXqXqXqXqXqX9X9X0X0X0X0X0X0X0X0X0X0X0XwXwXwXwXyXwXwXwXwXwXwXsXwXsXsXsXsXrXhXhXhXxXxXxXxXxXxXxXxXxXxXxXxXxXxXAXAXAXAXAXAXAXAXBXsXzXcXcXcXcXgX=XX.d n s ) ) 9 5 4 1 ; % & % & & $ $ $ $ $ & # @ @ $ & % % $ % % + + % & % ; 2 s ) ) T ...XqXwXeXwXwXwXwXwXwXwXwXwXeXwXrXrXrXrXeXeXrXrXgXgXgXlXgXgXlXgXxXxXxXlXlXlXlXlXcXlXlXlXlXlXlXgX| $X#XP.t.e.w.a.a.e.a.A.`.A.'.'.`.`.A.A.A.a.`.`.N.2.'.2.4.N.N.4.4.A.1.3.3.3.3.N.3.N.1.3.N.",
"hXrXrXrXrXsXrXsXsXrXsXsXrXrXrXrXrXrXwXwXwXaXaXaXwXwXwXwXyXyX0XyX0X0X0X0X0X0X0X0X0XqXqXqXqXqX8X8X8X8XqXqXqX9XqXqX9X0X0X0X0X0X0X0X0X0X0X0XwXyXwX0XyXwXwXwXwXwXwXwXrXrXsXsXsXsXsXhXhXhXxXxXxXxXxXxXxXxXxXxXxXxXxXxXxXAXAXAXAXAXAXBXsXlXlXzXlXlX*XS.) d W ..X.T 7 ; ; % % & # $ $ $ @ $ $ $ @ . @ @ * @ @ @ @ @ $ & $ # $ $ & & ; ; s W J  .}.1X0XwXwXwXwXwXwXwXwXeXeXeXwXrXrXrXrXrXrXrXrXgXgXgXgXgXgXxXhXxXxXxXlXlXlXlXcXcXlXlXlXlXlXlXgX| $X#XP.t.e.0.i.a.e.r.A.`.`.'.A.'.A.A.N.A.3.`.`.3.4.'.3.4.N.4.4.4.N.2.2.3.3.3.A.3.N.1.2.4.",
"rXrXrXrXsXrXsXsXrXrXsXrXrXrXwXwXwXwXwXwXwXaXaXaXwXwXyXyXyXyXyXyX0X0X0X0X0X0X0XqX9X9XqXqXqXqX8X8X8X8XqXqXqX9XqXqXqX0X0X0X0X0X0X0X0X0X0X0XyXyXyXyXyXyXwXwXwXwXsXsXwXrXsXsXsXsXsXsXsXsXhXhXxXxXxXxXxXxXxXxXxXxXxXAXxXAXAXAXAXAXAXBXwXgXfXgXgXfXY./ T s n n s 5 1 & & & & # @ # $ $ $ $ $ $ @ o o o @ @ @ . . . # # @ @ o o # $ & & - ; s  .j.OX0XwXwXwXwXwXwXwXwXwXwXwXwXrXrXrXrXrXrXrXrXgXgXgXhXgXgXgXhXhXxXhXxXlXlXlXlXxXlXlXlXlXgXgXgXO.$X#XP.t.w.0.i.a.e.e.A.A.A.'.A.A.A.a.N.A.3.`.V.4.4.`.3.3.N.4.4.4.A.2.2.3.4.3.A.3.N.1.3.a.",
"rXrXrXrXrXrXsXsXrXrXrXrXwXwXwXwXwXwXwXwXwXaXaXaXwXwXwXyXyXyXyXyXyXyX0X0X0X0X0X0X0X9X0XqXqX8X8X8X8XqX8X8X0X9XqX9X0X0X0X0X0X0X0X0X0X0X0XyXyXyXyXwXyXyXwXaXwXwXsXsXsXwXsXsXsXsXsXsXsXsXrXhXxXxXxXxXxXxXxXxXxXxXAXAXAXAXAXAXAXAXVXtXqX=X=X#X#XP.] m 8 2 ; ; % % $ # & & $ @ @ & $ $ $ $ $ $ @ @ o o o o * @ o . o @ @ @ @ @ @ # # # ; ; s W o.1XqXwXwXwXwXwXwXwXwXwXwXwXwXeXrXrXrXrXrXrXrXgXgXhXhXgXgXgXgXhXgXhXhXgXgXgXxXlXlXlXlXgXgXgXgX| OX#XP.t.w.0.i.a.e.e.a.a.a.a.1.S a.a.N.A.3.A.N.4.3.A.3.N.a.4.4.4.A.,.2.3.4.3.A.3.N.B 2.3.",
"rXsXsXrXrXsXsXsXrXrXrXrXrXrXrXwXwXwXwXwXwXaXaXaXwXyXwXyXyXyXyXyXyX0X0X0X0X0X0X0X0X0XqXqX8X8X8X8X8XqX8XqX9X9X9X0X0X0X0X0X0X0X0X0X0XyX0X0XyXyXyXwXyXyXaXaXaXwXsXsXsXsXsXsXsXwXsXsXsXsXsXhXxXxXxXxXxXxXxXxXxXxXxXAXxXAXAXAXxXsXwX+X.XY.R.X./ m d 8 4 1 ; & $ # @ @ @ @ @ # $ $ $ $ @ $ @ @ @ @ . . . . . . o o o o @ o @ @ @ @ # o & 1 )  .j.+X+X8X$X$XwXwXwXwXwXwXwXwXwXwXwXrXrXrXrXrXrXrXgXhXhXgXgXgXgXhXgXgXhXgXgXhXhXlXlXxXgXgXgXgXgX| OX#Xh.t.w.( i.a.e.r.A.A.A.a.3.B 3.a.3.A.2.N.N.4.N.N.3.3.a.4.4.4.N.,.2.3.4.3.A.3.N.B 2.3.",
"rXsXsXsXsXsXsXsXwXrXrXwXrXwXwXwXwXwXwXaXwXwXwXwXwXyXwXwXyXyXyXyXyX0X0X0X0X0X0X0X0X9X9XqXqXqX8X8X8XqXqXqXqXqXqX9XqXqXqX0X0X0X0X0X0X0X0X0XyXyXyXyXyXyXaXaXyXyXaXaXaXsXsXwXsXsXsXsXsXsXsXhXhXxXxXxXxXxXxXxXxXxXxXAXxXxXAXxXxXwX$X.X) ) / s 5 , 5 2 1 ; % & $ $ # $ @ @ # & & $ $ & @ @ @ @ @ @ . . . . . . o o @ @ @ o o o @ # # o 4 T ) ) o.O. .XX.Xo.1XaXwXwXwXwXwXwXwXwXwXwXrXrXwXwXrXrXgXgXhXgXgXgXhXhXgXgXhXgXhXhXhXgXgXhXgXgXgXgXrX| OX$Xh.t.w.( i.a.w.r.a.A.A.a.a.2.2.a.A.A.3.N.N.2.A.N.3.4.3.4.4.4.N.1.2.3.4.4.N.3.3.A u 3.",
"sXsXsXsXrXrXsXrXwXwXwXwXwXwXwXwXwXwXwXwXwXwXwXwXwXwXwXwXyXyXyX0XyX0XyX0XyX0X0X0X0X9X0XqXqXqXqX8X8XqXqX8XqXqXqX9X9XqXqXqX0X0X0X0X0X0X0X0XyXyXyXyXyXyXyXwXyXyXaXaXaXsXsXsXsXwXsXsXsXsXsXhXhXxXxXxXxXxXxXxXxXAXAXAXxXxXxXxXsXoXL...T m p 5 2 5 5 4 ; 1 & $ $ $ $ $ $ & & & & & $ $ @ @ @ . . . . . . . . o @ @ @ @ . . . o o @ @ & 5 7 9 J ~ )  .j. .o.OXaXwXwXwXwXwXwXwXwXwXwXwXwXwXwXrXrXgXhXhXgXgXgXgXhXgXhXgXgXgXgXhXgXgXgXgXgXgXgXrX} OX$Xh.t.w.( i.a.w.e.a.A.a.a.A.a.r.a.a.a.2.3.4.2.`.N.3.4.3.4.4.4.3.,.2.2.3.4.3.3.3.N N A.",
"rXwXsXrXrXrXwXwXwXwXwXwXrXwXwXwXwXwX0XwXwXwXyXwXwXyXyXyXyX0X0X0X0X0X0X0XyXyX0X0X0X9X0XqXqXqXqXqXqXqXqXqXqX9XqX9X9XqXqX0X0X0X0X0X0XyXyXyXyXyXyXyXyXyXyXyXyXwXaXaXwXaXaXsXsXsXsXsXsXsXsXsXsXhXxXxXxXxXxXxXxXxXxXxXxXxXhXeXoXX.) n p p 5 2 5 2 4 1 ; % & $ $ @ @ @ $ & & & $ $ $ @ o @ @ . . . . . . . . . . . o o . . . . o o o @ & % - 9 Y ) ~  . .X.OX$XqXsXaXwXwXwXwXwXwXwXwXwXwXwXrXrXrXgXgXrXgXgXhXgXgXhXgXgXgXgXgXhXgXgXgXgXgXhXwX} OX$Xh.t.t.( y.i.e.e.a.a.a.a.A.A.a.3.a.a.2.3.3.2.`.3.3.4.3.3.4.4.3.,.2.2.3.3.3.3.3.t 2.A.",
"rXrXrXrXrXrXrXwXwXwXwXwXwXwXwX0XwX0XwXyXyXyXyXyXyXyXyXyX0X0X0X0X0X0X0X0X0X0X0X0X0X0X0XqXqXqX8X8XqX8XqXqXqXqXqX9X9X0X0X0X0X0X0X0XyXyXyXyXyXaXyXyXyXyXyXaXaXsXsXsXaXaXsXsXsXsXsXsXsXsXsXsXsXhXAXAXxXAXAXAXAXxXxXAXxXxXrXXXW ' T p 2 5 4 ; 2 1 ; & & $ # # @ @ @ @ @ @ $ $ & @ @ @ o @ @ . . . .   . . . . o o . . . . . . o o . o @ # & ; 9 ) ) W X..XOX1X1XwXaXwXwXwXwXwXwXwXwXwXwXwXrXrXrXgXrXrXrXrXrXgXgXgXhXgXgXgXgXgXgXgXgXgXgXgXeX| OX$Xd.t.t.( y.a.w.e.a.a.a.a.A.A.a.3.A.A.2.4.3.2.`.3.3.3.3.3.4.4.3.,.2.2.3.3.3.3.3.N A.N.",
"wXwXwXrXwXwXrXrXrXwXwXwXwXwX0X0X0XyXyXyXyX0X0X0X0XyXyXyX0X0X0X0X0X0X0X0XyXyXyX0X0X0X0XqXqXqXqXqXqXqX8XqXqX0X9X0X0X0X0X0X0X0X0XyXyXyXyXyXwXaXwXwXaXaXaXaXsXsXsXsXaXaXsXsXsXsXsXsXsXsXsXhXxXxXAXAXhXxXxXAXxXxXxXhXxXrXOXX.s W s p 5 5 ; ; ; % % & $ $ o @ o @ @ @ o @ @ $ $ @ @ @ @ @ @ @ . . .     . . . o o . . . . . . o . o @ @ o o + ; 7 Y W ..j.j.OX1X0XaXwXwXwXwXwX0X0XwXwXwXwXrXrXrXsXrXrXrXrXrXgXgXhXhXhXhXhXhXhXhXhXhXgXgXgXqXO.OX$Xj.t.t.( y.a.w.e.a.a.a.A.a.A.a.3.A.A.,.2.3.2.A.3.3.3.3.4.4.4.a.,.2.2.3.3.3.3.3.x A.3.",
"wXwXsXwXsXwXwXwXwXwXwXwXwXwXwXwXwXyXwXyXyX0X0X0XyXyXyXyX0X0XyX0X0X0X0X0XyXyXyXyX0X0X0XqXqXqX9XqXqX8XqXqXqX0X9X0X0X0X0X0X0X0X0X0X0XyXyXyXyXyXaXwXwXwXaXaXaXaXaXsXaXaXaXaXsXaXwXsXsXsXsXsXhXxXhXUXsXxXhXxXxXxXxXhXrX$X..T p s 8 8 5 5 - % % % & & $ @ . . . @ @ . . . o @ @ @ $ @ @ $ $ *             . . @ o . . . . . . . . @ o o . o o & ; 5 Y W s  ..XOXOXqXaXwXwXwXwX0X0XqXwXwXwXwXrXrXrXrXrXrXrXrXrXgXrXhXhXhXhXhXgXgXhXgXgXgXgXqX{.OX$Xj.t.t.( y.i.w.e.a.a.A.A.a.A.a.3.A.A.,.2.2.3.A.3.3.3.3.4.4.4.3.,.2.2.3.2.3.3.2.N 3.3.",
"sXsXsXwXwXwXwXwXwXwXwXwXwXwXwXwXwXwXyXyX0X0X0X0X0XyXyXyX0X0X0X0X0X0X0X0X0XyXyXyX0X0X0XqXqXqXqXqXqXqXqXqXqX9X9X0X0X0X0X0X0X0X0X0X0X0XyXyXyXyXyXyXyXyXaXaXwXaXaXaXaXaXaXaXsXaXaXsXsXsXsXsXhXxXhXhXsXhXAXxXxXAXxXhXqXh.T 8 5 8 > 4 5 4 ; ; % & & $ # @ . . . o o o .   . . o @ @ @ @ $ @ .             . . @ o o . . . . . . o o @ . . o o $ $ ; 4 5 7 W  .X..XOX1XyX0XwXyX0XwXqXqXwXwXwXwXrXrXrXrXrXrXrXrXsXgXgXgXhXhXgXgXgXgXgXgXgXgX8X{.OX$Xj.t.t.( y.i.w.e.a.a.a.A.a.A.r.3.a.a.,.2.2.3.A.2.3.3.3.3.4.4.3.,.2.,.2.2.3.3.2.N 3.3.",
"wXwXwXwXwXwXwXwXwXwX0XwXwX0XwX0X0XyXyXyX0XqX0X0X0X0XyXyX0X0X0X0X0X0XyX0X0XyX0X0X0X0X0XqXqXqXqXqXqXqXqXqX0X0X0X0X0X0X0XyX0X0X0X0X0XyXyXyXyXyXyXyXyXyXyXaXwXwXaXaXsXsXsXsXsXsXsXsXsXsXsXsXhXhXhXhXhXUXUXhXxXAXxXrXoX..s s 4 2 ; ; ; 1 ; & & & $ $ @ @ . . . o o . . . . . @ * * @ . @ . .               . @ @ o .     . . . o @ o . . o @ @ @ $ + & 4 s s W o.}.1X1XqXyXwX0X0X0XqXwXwXwXwXrXrXrXrXrXrXrXsXsXsXgXgXgXgXgXgXgXgXgXgXgXgX8X{.OX$Xj.t.q.( y.i.w.e.a.a.a.A.a.a.r.3.A.r.,.2.2.3.N.2.3.a.3.4.4.4.3.,.2.2.2.2.3.2.3.S N.2.",
"wXwXwXwXwXwXwXwXwXwX0X0XwX0X0X0X0X0X0X0XyX0X0X0X0XyX0X0X0X0X0XyX0X0XyXyXyX0X0X0X0X0X0X0XqXqXqXqX9X9X9X9X0X0X0X0X0X0X0XyX0X0XyXyXyXyXyXyXyXyXyXyXwXyXyXwXaXwXwXaXsXsXaXaXsXsXsXsXsXsXsXsXhXhXUXhXhXhXAXAXAXAXrX*XX.T 8 5 % & + & & ; & $ $ # @ @ @ o o . . @ . . . . . . @ * . . * @ . .               . . . @ .       . . . o . . . o @ @ o o o + 2 s 9 +.o.o.OX:X0XyXyX0X0XqXqXwXwXwXwXwXrXrXrXrXrXsXsXsXrXrXrXrXgXhXgXgXgXgXgXgXgX8X{.:X*Xj.] ` ( p.i.t.w.a.a.a.a.a.a.e.3.A.r.,.2.3.3.A.2.3.a.3.4.4.4.3.,.2.2.2.2.a.2.3.N 3.2.",
"wXwXwXwXwXwXwXyXwX0X0X0X0X0X0X0X0XyXyX0X0XyX0X0XyXyX0X0X0X0XyX0XyXyX0X0XyX0XyX0X0X9XqXqXqXqXqX9X9X9X9X9X0X0X0X0X0X0X0XyX0X0XyXyXyXyXyXyXyXyXyXyXyXyXyXyXwXyXyXwXyXyXaXsXsXsXsXsXsXsXsXsXhXsXVXsXsXsXUXAXhXhXoX .Y 5 ; ; & & & & $ $ & @ @ @ @ @ @ o o . . . . . . . . . o . . . * * . .                 . . @ .         . . . . . . . . o o o $ + 7 ) ) O.o.}.+X1XyXwXyX0X0XqXqXwXwXwXwXwXrXrXrXrXrXrXrXrXrXrXrXrXrXgXgXgXgXgXgXgXgX1X{.:X$Xj.t.` _ u.i.w.w.a.a.r.a.a.a.1.r.A.r.2.,.3.3.3.2.3.a.3.2.4.4.2.,.,.2.2.2.2.3.3.t 3.2.",
"sXwXsXwXwXwXwXwXwX0XyXyXwX0X0X0X0X0X0X0X0X0X0X0X0X0X0X0X0X0XyXyXyX0XyXyXyX0X0X0X0X0X9X0XqXqXqX9X9X9X9X9X9X0X0X0X0X0XyXyXyXyXyXyXyXyXyXyXyXyXyXyXyXyXyXyXyXyXyXyXyXyXyXaXsXsXsXsXsXsXsXsXsXsXsXVXVXsXsXUXsXqX..~ 4 5 + 4 & & & $ @ o # * o o @ @ @ @ * . * . . .       . . . . . @ * . . .               . . . .       . . . . . . . . . @ o o $ + ; 5 s J  ..X+X8X8XyXyX0X0X0X0X0XwXwXwXwXwXrXrXwXwXrXrXrXrXrXrXrXrXrXrXrXrXgXgXgXgXOX{.:X$Xf.] ` _ k.g.t.w.r.A.r.a.a.a.1.r.A.r.1.,.2.3.3.,.2.3.3.4.4.4.2.,.2.2.3.3.2.3.B t 2.3.",
"sXwXwXwXwXyXyXyX0X0X0XyXyX0X0X0X0X0X0XyX0X0X0X0X0X0XyXyXyX0X0X0XyXyXyXyX0X0X0X0X0X0X9X9XqXqXqX9X9X9X9X9X9X9X0X0X0X9XyXyXyXyXyXyXyXyXyXyXyXyXyXyXyXyXyXyXyXyXyXyXyXyXaXaXsXsXsXsXsXsXsXsXsXsXsXVXVXsXVXhXwXOX) s 4 ; o & & & $ $ @ . . . o o o @ @ @ . . . . .         . . .   . * . . .                   . . . .   . . . . . . . . . . @ o o o o + & 4 1 J O..XOX;XyXaX0X0X0X0X0XwXwXwXwXwXwXwXwXwXwXrXrXrXrXrXrXrXrXrXrXrXrXgXgXrXOX{.:X$Xj.] ` _ k.l.t.w.i.a.a.a.r.a.e.r.A.r.2.,.2.3.3.,.2.3.3.2.4.2.2.,.2.2.3.2.2.3.N r 2.2.",
"wXwXwXwXyXyX0X0X0X0X0X0X0X0X0X0X0X0X0X0X0XyXyX0X0XyXyXyXyX0X0X0XyXyXyXyX0X0X9X0X0X9X9X0XqXqXqXqXqX9XqX9X9X9X0XyX0X0X0X0X0XyXyXyXyXyXyXyXyXyXyXyXyX0XyXyXyX0XyXwXyXyXyXyXyXaXsXsXsXsXsXsXsXsXVXVXsXsXsXsX8XXX .9 > & o # & & $ $ . . .     . . @ * * .     .                 . . . . .   .           X     .   . .   . . . . . @ . . . . @ o o o # & & & ; 5 T  ..XOX0XyXaX0X0X0X0XwXwXwXwXwXwXwXwXwXrXrXrXrXrXrXrXrXrXrXrXrXrXrXrXrXOX{.OX*XX.] t.( k.).t.w.i.A.a.a.r.a.e.r.A.r.2.,.2.3.3.,.2.3.3.2.2.2.2.,.2.2.2.2.2.a.r M 2.3.",
"yX0XyX0X0X0X0X0X0X0X0X0X0X0X0X0X0X0X0X0X0X0XyXyXyXyXyX0XyXyX0XyXyXyXyXyX0X0X9X0X0X9X0X0XqXqXqXqXqXqXqX9X9X9X0XyX0X0X0X0X0XyX0XyXyXyXyXyXyXyXyXyXyXyXyXyXyXyXyXwXwXaXyXyXyXyXaXsXsXsXsXsXsXsXVXVXsXsXVX1XXX..' s > & & $ + $ $ # o .         . . . .   .                     . . . .                             .   . .   . . @ . . . @ @ o @ o # & & - 4 Y Y ^ o..XqXyXaXyX0X0X0X0XwXwXwXwXwXwXwXwXwXrXrXrXrXrXrXrXrXrXrXrXrXrXrXrXOX{.OX*XX.] t._ k.g.w.w.r.a.a.r.r.a.1.r.A.p.r.2.2.2.3.,.2.3.3.3.3.3.1.>.1.2.2.2.2.a.Z j 2.3.",
"yXwXwXwX0X0X0X0X0X0X0X0X0X0X0X0X0X0X0X0X0X0X0X0XyXyXyXyXyXyXyXyXyXyXyX0X0X0X0X9X9X9X9X9XqXqX9XqXqX9X9X9X9X0X0X0X0X0X0X0X0XyXyXyXpXyXyXyXyXyXyXyXyXyXyXyXyXyXyXyXyXwXyXyXyXyXaXaXsXsXsXsXsXsXsXVXsXsXsXOX.X..T 8 4 % & $ $ o @ @ . .           .   .                             . .   .                         .         . . @ o . . o @ o o o o # & & s W W  .o..X8XyXaXyX0X0X0X0X0X0XwXwXwXwXwXwXwXwXrXrXrXrXrXrXrXrXrXrXrXrXrXrXOX{.OX*XX.] ` _ t.i.` w.r.a.a.r.r.a.1.r.A.r.a.,.,.2.3.B 2.3.3.3.3.2.1.1.2.1.2.2.2.2.B a 2.3.",
"aXyXwXyX0X0X0X0X0X0X0X0X0X0X0X0X0X0X0X0X0XyXyX0X0XyXyXyXyXyXyXyXyXpX0X0X0X0X0X9X0X9X9X9XqXqX0XqXqX9X9X9X9X9X9X9X0X0X0X0X0X0X0XyXyXyXyXyXyXyXyXyXyXyXyXyXyXyXyXyXyXyXyXyXyXyXaXaXsXsXsXsXsXsXsXsXsXsXsX8Xj.X.T s & % # @ o o o o . .         . .                                 . .   .                         . . .       . o o o o . o o o o o o $ ; > 9 T o..XOXqX9XyXyXyX0X0X0X0X0XwXwXwXwXwXwXwXwXwXwXrXrXrXrXrXrXrXrXrXrXrXrX+X{.<X*XX.] ` _ t.i.` w.r.a.a.a.r.a.1.r.A.r.e.,.2.2.3.,.2.a.3.2.2.2.,.,.2.1.2.2.F F 2.j ,.2.",
"yXyXyX0X0X0X0X0X0X0X0X0XyX0X0X0X9X0X0X0X0X0X0X0X0XyXyXyXyXyXyXyX0X0X0X0X0X0X0X0X9X9X0X0X0XqXqXqXqX9X9X9X9X9X0X0X0X0X0XyXyXyX0XyXyXyXyXyXyXyX0X0X0XpX0XyXyXyXyXyXyXyXyXaXaXaXyXaXsXsXsXsXsXsXsXVXsXsXsXwXOXXX) s ; + @ . . . . . .           . . .                               . *                               . . .   . . @ . . o @ . . . o o o & ; ; 4 7 W o.OX0X0XqXyX0X0X0X0X0XwX0XqXwXwXwXwXwXwXwXwXwXrXrXrXrXrXrXrXrXrXrXrX+X{.OX$XX.] ` _ u.i.` w.i.a.i.i.r.r.1.a.A.1.2.,.2.2.3.B 2.a.3.2.u S N ,.1.2.2.F F F A.x ,.,.",
"yXyX0X0X0X0X0XyX0X0X0X0X0X0X0X0XqX9X0X0X0X0X0X0X0X0XyXyXyX0X0X0X0X0X0X0X0X0X0X9X9X9X9X9X0XqXqXqXqXqX9X9X9X0X0X0X0X9X9X0X0X0X0X0X0XyXyXyXyXyXyX0XyXyXyXyXyXyX0XyXyXyXyXwXaXwXaXsXsXsXsXsXsXsXsXsXsXsXsXaXqX$X.X) 9 + @ . . . . . .                                                     X                       .   . * @ . . . @ o . o . . . . . o o $ & & ; 4 Y o.j.OX8XyXyX0X0X0X0X0X0XqX0X0XwX0XwXwXwXwXwXrXrXrXrXrXrXrXrXrXrXrXrX+X{.<X$XX.] ` _ k.i.( t.i.a.a.r.r.r.1.a.r.S 2.,.2.2.3.S 2.3.3.2.,.2.r ,.2.2.D F F 1.A.t ,.>.",
"yX0X0X0X0X0X0X0X0X0X0X0X0X0X9X9X9X0X0XyX0XyX0X0X0X0XyX0X0XyX0X0X0X0X0X0X0X0X0X9X9X9X9X9X9X9X9X9XqXqX9X9X9X9X9XpXtX9XpXtX0XpXyXpXyXpXyXyXyXyXyXpXyXyXyXyXyXyXyXyXyXyXyXwXwXyXaXaXsXsXsXsXsXsXsXsXVXVXsXaXwX$XOXX.7 & @ . . .                                                           X       .     X             . @ @ . o @ @ . . . . . . . . . o @ $ # & - 2 ..}.1X1XyXyXyX0X0X0X0X0X0X0XwXwXwXwXwXwXwXrXwXrXrXrXrXrXwXwXwXwXrXrX+X{.<X$XX...` _ k.k.( t.i.i.a.r.r.r.1.a.1.N 1.,.2.2.3.x a.a.a.2.2.3.N >.2.D 2.A.A.r.B.t B >.",
"0X0X0X0X0X0X0X0X0X0X0X0X0X0X0X0X0X0X0XyX0XyX0X0X0X0X0X0X0X0X0X0X0X9X9X0X0X9X9X0X9X9X9X9X9X9X9X9XqXqX9XqX9X9X9XpXtXtXtX0X0XpXpXtXyX0XyXyXyXyXyXpXyXyXyXyXyXyXyXyXyXyXyXyXyXyXaXaXsXsXsXsXsXsXsXsXsXVXVXsXaX1X}.W 4 $ o . .                   .                                         X         X                 . . o @ @ @ @ . . . . . . . o o o o o # # & 4 }.+X8X8X0XyXyXyXyX0X0X0X0X0XwXwXwXwXwXwXwXwXwXrXrXrXwXwXwXwXwXrXrXrX.X{.<X*Xo...] _ k.y.( t.i.i.a.i.r.r.1.a.1.N 1.,.2.>.3.N A.a.a.3.2.2.1.>.2.2.A.a.A.A.2.t c ,.",
"0X0X0X0X0X0X0X9X0X0XyX9X9X0X0X0X0X0X0X0X0X0X0X0X0X0XyX0X0X0X0X9X0X0X9X9X9X9X0X0X9X9X9X9X9X9X9X9X9X9X9X9X9X0X0X0X0XtX0X0X0X0X0X0XyXyXyXyXyXyXyXyXyXyXyXyXyXyXyXyXyXyXyXyXyXaXyXaXaXaXsXsXsXsXsXsXsXsXsXsXaX1X..7 & $ o . . .               . .                 .   .                             X X                 . . o @ @ @ o . . . . . . . . o o o # $ + 2 .XOX0XyXyXyXyXyXyXyX0X0X0X0X0X0XyXwXwXwXwXwXwXwXwXrXwXrXwXwXwXwXrXwX.X{.+X*Xo...` _ t.y.( p.i.i.a.i.r.r.1.a.>.A 1.,.2.,.3.N A.3.3.3.2.2.1.>.r.a.A.A.2.B.2.F 2.>.",
"0X0X0X0X0X0X9X9X0X9X0X0X0X9X9X9X0X0X0XyX0XyX0X0X9X0X0X0XpX0X0X9X0X0X0X9X9X9X9X0X9X9X9X9X9X9X9X9X9X9X9X9X9X9X9X0X0XtX9XpX9X9XtX9XtXpXpXyXyXyXpX0X0XpXpXyXyXyXyXyXyXyXyXyXyXaXaXaXaXaXsXsXsXsXsXsXsXsXsXsXaXOX~ ; $ + o o . . .               . .                 .   .       X                                       . . o o @ @ . . .   . . . . . o o o o o + 2 ^ }.9XyXyXyXyXyXyX0X0X0X0X0X0X0XyXwXwXwXwXwXwXwXwXwXwXwXwXwXwXwXwXwX.X{.+X$Xo...` _ t.g.( p.i.r.i.i.r.r.1.r.B A 1.1.2.,.2.S A.r.3.2.,.2.1.1.a.N.A.A.F b b b B >.",
"0X0X0XyX0X0X0X0X0X0X9X9X0X0X0X0X0X0X0X9XyXyX0X0X0X0X0X0X0X0X0X9X0X0X0X9X9X9X9X9X9X9X9X9XqXqXqXqX9X9X9X9X9X9X9X9X9X0X9XpX9X9XpX9XtXyXpXpXyXyXyX0X0X0XpXyXyXyXyXyXyXyXyXyXyXyXyXyXdXsXsXsXsXsXsXsXsXsXsXsX0X.X7 & o $ o o .                     . .                                   .                               . . o o o . . . .   . o . . . . o o o $ & 2 W ~ +XyXyXyXyXyXyX0X0XqX0X0X0X0XyXaXwXwXwXwXwXwXwXwXwXwXwXwXwXwXwXwX}.{.+X$XX.] ` _ t.g.( p.i.i.a.i.p.r.w.r.>.A >.2.2.B 2.N r._.2.2.,.2.1.2.B.B.B.%.b b b j ,.1.",
"0X0X0XyX0X0X0X0X0X0X0X9X0X0X0X9X9X9X0X9XyXyX0X9X9X9X9X9XpXtX9X9X9X9X9X9X9X9X9X9XqX8XqX8XqXqXqXqXqXqXqX9X9X9X9X9X9X9X9X9X9XpXpXpXpXpXpXpXyXyXyXyXyXyXpXpXyXyXyXyXyXyXyXyXyXyXyXaXyXsXsXsXsXsXsXsXsXsXsXsXOXX.3 & + $ o o o .             . .   . .                         X                                         . . @ o .     . .   . . . . . . o o @ & & & 5 T  .OXyXyXyXyXyX0X0X0X0X0X0X0XyXyXwXwXwXwXwXwXwXwXwXwXwXwXwXwXwXwX[.{.+X1Xo.] ( _ u.g.( i.i.i.i.i.p.r.w.e.1.C B r._._._.H._.B.*.,.,.2.1.2.b b %.&.%.b c S 1.2.",
"0X0X0X0XyX0X0X0X0X9X9X9X0X9X9X9X0XtX0X0X9X0X9XtX9X0X0X9XtXtXtX9XtXtX9X9X9X9X9X9XqXqX9X8X8X8X8X8X8X8X8X8X8X9X9XtX9X9X9X9XpXyXyXpXpXyXpXpXyXyXyXyXyXyXpXyXyXyXyXyXyXyXyXyXyXyXyXaXaXdXiXsXsXsXsXsXsXsXsXyXOX.XY 5 % & @ @ @ .     X     . $ * .                               X X                                       . @ .   .   . . . . . . . . o o # $ $ & % $ 4 9 +XtXyXyXyXyX0X0X0X0X0X0X0XyXyXwXwXwXwXwXwXwXwXwXwXwXwXwXwXwXeX[.{.+X1Xo.' ( _ t.k.( p.i.i.i.r.e.r.w.w.w.p._._._.p.S B 1.2.2.2.2.2.A 2.2.B.B.b b b S N 2.2.",
"0X9X9X0XqX9X9X9X9X9X9X9X0X0X9X9X9XtXtX0X0X0X9X9X9X9X9XpXtXtXtX9XtXtXtX9X9X9X9X9XqXqXqX8X8X8X8X8X8X8X8X8X9X9X9XtX9X9X9XtXyXpXpXtXpXpXpXpXpXyXyXyXpXpXpXpXyXyXyXyXyXyXyXyXyXyXyXyXdXdXiXsXsXsXsXsXsXsXdXyX8XOXo.5 & # @ o .       X     . @ * .                       .   .   X         X                             . . @ . . .     . . o . . . . . o # # # % 3 Y 7  .1XtXpXyXyXyX0X0X0X0X0X0X0XyXyXyXwXwXwXwXwXwXwXwXwXwXwXwXwXeXeX[.{.+X$Xo.' _ _ t.k.( w.i.i.i.i.e.r.w.w.p._.Z r._.1.1.N 1.r.2.2.2.2.A 2.3.a.A.2.B.2.S N 2.2.",
"0X0X0X0X9X9X9X9X9X9X9X9X9X9X9X9X9XtXtXtX0XtXtX9X9X9X9XpXtX9X9X9X9X9X9X9X9X9X9X8XqXqXqX8X8X8X8X8X8X8X8X8X9X9X9X9X9X9X9X9X9X9X9X9X9XpXpXpXpXpXpX9XpXpXpXpXpXyXyXyXyXyXyXyXyXyXyXyXdXdXdXsXsXsXsXsXsXsXsXaXyX;X.X6 % o .   . . .     .   . . * .               X X     .   .       . .                                   @ @ @ . . . . . . @ o o . o o o # # $ % Y }.O.OXtXyXpXyXyXyX0X0X0X0X0X0X0XyX0XyXyXwXwXwXwXwXwXwXwXwXwXwXwXeXeX[.{.+X$XO.' _ _ t.k.( p.i.i.i.i.e.r.1.w.w.B e.A.A.2.2.S 2.2.2.,.2.2.>.r.r.a.a.2.3.2.S N 2.2.",
"9X9X9X9X9X9X9X9X9X9X9X9XtX9X9X9XtX9X9X9X0XtX9X9X9X9X9XtXtXtX9X9X9X9X9X9X9X9X9X9X8X8XqX8X8X8X8X4X5X5X8X8X4X4X4X9X9X9X9X9X9X9X9XtX9XpXyXyXyXpXpXpXpXpXpXpXpXyXyXyXyXyXyXyXyXyXyXdXdXiXiXiXsXsXsXsXsXVXsXyXyX0XOXY & @ .   . . * .       . . . .     X X       X     . .   .         .                           . . .   . . * .       . . o o o o o o @ o & & & ! .X1X9X9XyXyXyXyXyX0X0X0X0X0X0X0XyX0X0X0XwXwXwXwXwXwXwXwXwXwXwXwXwXwX[.{.+X$XO.' _ _ t.k._ p.r.r.i.i.e.r.w.1.1.A r.a.a.r.2.A r.2.2.,.2.2.>.r.2.2.3.2.2.2.D N 2.1.",
"9X9X9X9X9X9X9X9XqX9X9X9X9X9X9XtX9X9X9X9XtXtX9X9X9X9X9XtXtX9X9X9X9X9X9X9X9X9X9X8X8X8X8X8X8X5X5X;X8X1X8X;X;X4X4X9X9X9X9X9X9XtX9XtXpX0XyXyXyXyXpXyXyXpXyXyXpXpXpXyXyXyXpXyXyXyXyXiXiXdXiXdXdXdXdXsXsXVXVXiXyXyX:Xs & o .   . @ $ .         . .       X X     X X     . .           . *   X         . .       . . . . @         X         . o o o o @ @ # o % % 7  .+XpXpXyXyXyXyXyXtXtX0X0X0X0X0XyXyXyXyXyXyXwXwXwXwXwXwXwXwXwXwXwXwXwX[.{.+XOXo.' _ _ t.u._ i.i.i.i.i.p.r.w.1.1.A A.>.B a.,.w.r.2.1.2.,.2.A r.r.2.2.2.r.2.D N 2.2.",
"9X9X9X9X9X9X9X9X9X8X9X9X9X9X9X9X9X9X9X9XtX9X9X9X9X9X9XtX9X9X9X9X9X9X8X9X9X9X9X8X8X8X8X8X4X4X5X5X8X1X8X4X4X4X9X9X9X9X9X9XtXtXtXtXpXpXpX0X9XyXyXyXpXpXpXpXpXpXpXyXyXyXpXyXyXyXyXiXdXdXdXsXdXdXdXsXsXsXVXiXaX9X}.W ; .     . $ $             .   X X X X   X X X                   . * .   X X     . .       . . . . @ o                 . o o o o o @ $ & 3 Y  .o.;XyXpXyXyXyXyXyXtX9X0X0X0X0X0XyX0XyXyXyXyXyXyXwXwXwXwXwXwXwXwXwXwXwXO.{.+XOXO.' _ _ ] y._ i.i.y.i.i.r.r.w.A 1.A r.B ,.e.,.( r.e.2.2.,.2.A r.2.2.2.1.2.2.2.S 2.1.",
"9X9X9X9X9X9X9X9X8X8X9X9X9X9X9X9X9X9X9X9X9X9X9X9X9X9X9X9X9X9X9X9X9X9X9X9X9X9X9X1X8X8X8X8X4X8X5X5X8X8X;X;X;X4X9X9X9X9X9X9X9X9XtXtX0XpXtX9X9XyXyXyXyXyXpXpXyXyXyXyXpXpXyXyXyXyXyXyXiXiXdXdXdXdXdXsXsXsXVXVXyXyX}.W ; .   . $ $ .         X     . X X X X   X X X                   . * *     X X X           @ @ . . @ .               . . @ o o . . o $ % T .X:X8XyXiXiXiXiXyXyXyXtX9X0X0X0X0XyXyXyXyXyXyXyX0XyX0X0XyXyXwXwXwXwXwXwXeXO.{.|.OXO.' _ T ] t._ i.i.y.i.i.r.r.w.A e.A >.e.e.>.2.A r.1.1.2.,.2.A e.2.2.2.1.2.2.D 1.2.,.",
"9X9X9X9X9X9X9X9X8X9X9X9X9X9X9X9X9X9X9X9X9XtX9XtX9X9X9X9X9X9X9X9X9X9X8X8X9X8X9X1X1X1X8X8X5X4X4X5X8X;X;X;X8X;X4X4X9X9X8X9X9XtX9X9X9XtXpXpXpXpXpXpXpXyXyXpXpXpXpXpXpXyXyXiXiXiXiXyXyXiXdXdXdXdXdXVXVXVXVXVXiXiX9Xo.s @ . o @ . .                 X X X X X   X X X                 . .       X X X X         @ @ . . * .               . . @ @ o . . . & 0  .1XpXyXiXiXiXiXiXpXpXyXtXtX8X1X9X0XtXyXyXyXyXyXyXyXyX0X0X0X0X0XwXwXwXwXwX0XO.{.+XOX..' _ T ] t._ i.y.y.i.r.r.r.p.A e.A r.a.a.2.3.C r.1.2.1.2.2.A 2.1.1.1.1.1.1.A 1.2.>.",
"9X9X9X9X9X9X9X9X8X9X9X8X9X9X9X9X9X9X9X9X9X9X9X9X9X9X9X9X9X9X9X9X8X8X8X9X4X9X4X8X8X;X;X8X5X5X5X5X;X;X;X1X8X5X;X8X4X8X8X8X9X9X9X9X9XtXtXtXpXpXpXyXpXpXpXpXpXpXpXpXyXyXyXiXiXiXiXyXyXdXdXdXdXdXdXsXsXVXVXVXVXVXyX8X~ @ o o $ . .                 X   X X     X X   . .                 .     X X X X X       . o . . . . . .             . @ # @ o . o & Y [.tXpXiXiXdXiXiXiXyXyXpXtX9X1X8X9X0XtXyXyXyXyXyXyXyXyXyX0X0X0XyXwXwXwXwXyX0XO.{.+XOXO.' _ _ ] t._ w.p.r.i.p.r.r.p.A e.A r.2.>.r.2.A e.1.2.,.,.2.B 2.1.1.1.1.1.1.B D 2.1.",
"9X9X9X9X9X9X9X9X9X9X8X9X9X9X9X9X9X4X9X9X9X9X9X9X9X9X9X9X9X9X9X9X8X8X8X8X4X4X4X4X;X;X;X8X5X5X;X;X1X;X8X1X4X;X4X8X8X4X4X9X9X9X9X9X9X9XtXtXpXpXyXyXyXpXyXyXpXpXpXyXyXyXyXiXyXyXiXiXiXiXiXdXdXdXdXsXsXVXVXVXVXVXdXqX7 $ @ @ @ . . . . .   X X           X X   X X                       . .         X     X       . . . . . .             . o . o o o # ; 3 ~ +XiXiXiXdXiXiXiXyXyXpX9X8X;X8X9X0X9X0X0XyXyXyXyXyXyXyXyX0X0XyXaXwXwXwXaXyX| {.+XOXo.) _ _ ] t._ w.w.p.y.p.r.p.p.A e.A A.A.a.2.2.( e.1.>.2.1.1.1.2.>.1.1.1.1.1.S x 2.2.",
"9X9X9X9X9X9X8X9X9X9X8X9X9X9X9X9X9X9X9X9X9X9X9X9X9X9X9X9X9X9X9X4X8X8X8X8X4X4X;X4X;X;X;X8X4X5X;X;X1X;X8X;X4X;X4X4X4X;X;X4X9X4X9X9X9X9XtXtXpXpXpXyXpXyXyXyXpXpXyXpXyXyXyXyXyXyXyXiXiXiXiXdXiXiXsXsXsXVXVXVXVXVXdXqX& $ $ o @   . . .     X X X               X X         X       .                               . .   . .           . . . o o . # - - p i +.:XiXiXiXiXiXiXyXpXpXpXtX4X8X9X9X0X9X0X0XyXyXyXyXyXyXyXyX0X0X0XwXyXwXwXaXyX} {.+X+XO.' _ _ ] t._ w.w.p.p.w.r.p.w.A r.A 1.1.>.r.2.C e.1.>.2.,.1.S 2.2.2.1.e.>.1.N N 2.1.",
"9X9X9X9X9X9X9X8X8X8X4X4X4X9X9X9X9X4X4X9X9X9X9X9X9X9X9X4X4X9X9X8X8X4X4X4X4X4X4X;X4X4X4X;X5X;X1X;X;X4X4X4X4X4X4X4X4X;X;X4X9X9X4X4X9X9XtXtXpXpXpXpXpXpXpXpXyXyXpXyXiXyXyXyXyXyXiXiXiXdXiXdXiXsXsXVXVXVXVXVXVXVXVX:X4 % # X .   . * .     X X X X           X X X X               .                     .   X       .   . .     . .   . . @ @ @ $ ; 5 d _ ) +XyXiXiXiXiXiXiXyXpXpXpXtX;X;X1X9X0X0XyXtXyXyXyXyXyXyXyX0X0X0X0XyXyXyXyXyX0X} {.+X+XO.' ) m ] u._ w.w.t.p.p.p.p.w.w.e.( A.A.a.2.e.C e.1.,.1.,.2.C 1.>.2.1.1.B 1.N N 2.D ",
"9X9X9X9X9X9X9X8X8X8X8X4X9X9X9X9X9X4X4X8X8X9X9X4X8X9X9X8X4X4X;X;X4X;X;X4X4X;X;X4X;X5X4X;X;X;X1X8X4X4X4X4X4X4X4X4X4X9X4X4X4X4X4X4X9X9X9XtXtXpXpXpXpXpXpXpXyXyXpXpXpXpXyXyXiXiXiXiXdXdXiXdXiXVXVXVXVXVXVXVXyXdXOXY 2 ; $ .     . . .   X X X X       X     X X X X X X                   .         . . @ .             . @           . . @ # + ; 5 i _ y.h.aXiXiXiXiXiXiXiXiXpXpXpXtX4X;X;XtXtX0XtXyXyXyXyXyXyXaXyXyXyX0X0XyXyXyXyXyX0X} {.+X+XO.' ) T ] t._ ` t.p.y.w.p.p.p.w.p.A ,.B 1.r.e.A e.1.>.1.,.1.B 1.1.1.D 1.B D N S D 2.",
"9X9X8X4X;X4X4X9X8X8X8X8X9X4X4X4X;X4X4X4X9X9X9X4X4X9X9X9X4X4X4X4X4X4X;X;X;X;X;X;X4X4X8X4X5X4X4X;X;X;X4X;X;X;X;X9X9X9X4X4X;X9X4X4X9X9X9X9XtXpXpXpXpXpXyXyXpXyXpXpXpXpXyXyXiXiXiXiXdXiXiXiXVXVXVXVXVXVXVX:X9 9 9 9 6 2 & & & . . .     X X       X X X     X X X X X X       X       . . *   . .   . o + + . . . . . . o .       . . . . o @ ; ; , d ( y.XXiXiXiXiXiXiXiXiXiXiXyXpXtXtX9X9XtXtXtXtXtXyXyXyXyXyXyXyXyXyXyXyXyXyXyXyXyXyX} {.+X+XO.' ) W ] t._ t.w.p.i.w.r.p.w.w.p.` r.e.B w.1.N r.1.>.2.,.1.A 1.2.1.B D 1.1.N S B 2.",
"9X4X4X4X4X4X4X;X4X8X9X9X4X;X4X9X4X4X4X4X9X9X9X9X4X4X9X9X9X9X4X4X4X4X4X4X;X4X;X;X;X8X4X;X4X4X8X;X;X5X4X4X4X;X4X9X4X9X4X9X4X4X4X9X9X9X9X9XtXpXpXpXpXpXyXyXyXpXpXyXpXpXiXiXiXiXiXiXdXiXdXdXVXVXVXVXVXVXOXG . . . > 3 5 ; % & . .       X X X X     X X X X X X   X X X     X       . $ $ @ . @ . . o ; 5 , + @ @ . . o . . . . . . . . o @ $ - 5 p ( t.y.$XVXiXiXiXiXiXiXiXiXiXpXpXpXtX9X9XtXtXtXtXtXyXyXyXyXyXyXyXyXtX0X0X0XyXyXyXyXyX} {.|.+XO.' _ _ ] t._ t.w.y.i.w.r.w.w.w.e.` r.r.e.A w.N 1.1.>.1.2.1.A 2.1.>.B 1.B D M S B 2.",
"4X4X9X4X4X;X4X4X4X4X4X9X4X;X9X9X4X4X9X4X4X9X9X8X4X4X9X4X4X4X;X;X;X;X5X5X4X4X;X;X;X;X4X;X8X1X1X;X;X;X4X;X;X4X4X4X9X9X9X9X4X4X4X9X9X9X9XtXtXpXpXpXpXpXyXyXpXpXpXyXyXpXiXiXiXiXiXiXiXiXdXVXVXVXVXVXsXeX{ p , $ . . o o $ $ $             X X   X X X X X X X X X   X X           . # ; ; - o @ o o ; d V p ; - - - $ o o o . . . . . o o + + - , d t.g.y.1XVXCXiXiXiXiXiXiXiXiXyXpXpXtX9X9X9XtXtXtXtXyXyXyXyXpXtXpXpXtX0X0X0XyXyXyXyXyX} {.+X+XO.' _ T t.t._ ` w.p.y.p.r.p.w.w.p.( r.r.r.B 1.N e.1.,.2.2.1.B 2.>.B B A B D M S B >.",
"4X4X4X;X4X9X9X9X9X4X9X9X9X4X9X9X9X9X9X4X4X9X9X8X4X4X4X4X4X;X;X;X;X;X;X;X;X;X;X4X;X;X;X;X8X8X8X8X;X;X4X;X;X4X9X9X9X9X9X9X4X9X9X9X9XtX9XtXtXpXpXyXpXpXpXpXpXpXpXpXyXyXiXiXiXiXdXiXiXiXVXsXVXVXVX .' Z j t j , > & & $ . o .                     X X X X X X X X   X     . o . . @ ; 5 p ; o # ; ; V ( ( _ d i d m , & + o . . o o o # > p p > , d t.g.t.0XCXBXiXiXiXiXiXiXiXiXpXpXpXpX9X9X9X9XtXtXtXyXyXyXyXyXyXyXyXyX0X0XyXyXyXyXyXyX} {.+X+XO.' ) W ] t._ t.w.y.p.p.y.p.w.w.p.` a.r.r.A 1.N e.1.,.1.>.e.B 1.1.>.A 1.A D N S A B ",
";X;X4X4X;X;X4X4X4X4X4X4X4X4X9X9X9X4X9X4X4X4X9X8X;X;X;X;X;X;X;X;X;X;X;X;X;X;X4X4X;X;X4X8X8X8X5X;X;X;X5X4X4X4X9X9X9X9X9X4X4X4X4X9XtXtXtXtXtXtXpXpXyXpXpXpXpXpXpXpXyXiXiXiXiXiXiXiXCXsXdXVXVXVX4X@ o < t y t r < : > > & o .             X         X X X X X X X X X   o o o o o & 5 d d ; o ; 5 d ( 0.y.t._ f ( ` _ p 5 ; o ; 5 + = 5 M _ _ V d ( t.g.k.dXCXBXiXiXiXiXiXiXiXpXpXpXpXpXtX9X9X9X9XtXtXyXyXyXyXyXyXyXyXyXyX0XyXyXyXyXyXyX} {.+X.XO.' ) W ] t._ t.w.y.p.p.i.p.w.p.p.A i.i.1.w.>.N e.2.>.1.>.e.A 2.2.B B >.B D A S B A ",
"4X;X;X;X4X;X4X4X;X;X;X4X4X4X4X4X9X4X;X4X;X;X9X8X;X;X;X;X;X;X4X;X;X;X;X8X;X;X4X4X4X4X4X;X8X4X;X;X5X4X5X;X;X;X;X8X;X;X4X4X4X9X9X9XtXtXtXtXtXtXtXpXpXpXpXpXpXpXpXiXiXiXiXiXiXiXiXiXCXVXVXVXVXo.~ , j x D B x j j N M - - ; + .                         X X X         o # - # o # 5 d d m ; & 5 i V w.y.l.i.w.C y.i.y.( Z _ , d / ; , p ( q.t.t.q.y.y.y.h.VXCXBXBXiXiXiXiXiXiXiXpXpXpXtXtX9X9X9XtXtXtXtXpXpXiXyXyXyXyXyXyXyXyXyXyXyXyXyX} {.+X}.O.) ) W ] t.V t.p.i.t.i.i.p.w.p.p.Z B w.S w.A N r.1.>.1.>.1.C 1.1.>.B >.B 1.A B >.A ",
";X;X;X;X4X4X4X4X;X;X;X4X4X9X4X4X9X9X4X4X;X;X4X8X;X;X;X;X;X;X;X;X4X4X4X4X4X8X8X8X8X4X;X;X;X4X4X;X5X;X4X;X;X;X;X;X;X;X4X4X9X4X4X9X9X9XtXtXtXtXpXpXpXpXpXiXpXpXiXiXiXiXiXiXiXiXiXCXCXdXVXVXdXW M D D x D D x y t B j < = = = = + o .     X   . . o o .     o # + # # ; ; ; ; o # d W m m , 5 i p V t.y.).l.t.q.i.).l.t.0.t.V _ t.) = a t.t.t.y.y.g.y.t.XXVXBXCXBXiXiXiXiXiXiXiXiXpXpXtXtX9X9X9XtXtXtXtXpXpXiXyXyXyXyXyXyXyXyXyXyXyXyXpX} {.+X}.O.) ) T ] t.V t.t.i.t.i.i.p.w.e.p.( w.S N w.1.V r.1.>.1.,.>.N 1.1.1.1.1.>.1.V 1.1.A ",
"4X;X4X4X;X;X;X4X4X4X4X4X4X4X4X9X9X4X;X;X4X4X8X8X8X8X;X;X;X;X;X4X;X;X4X;X4X4X4X;X4X;X;X4X;X;X;X;X5X;X;X;X;X;X4X8X;X4X4X9X4X9X9X9X9X9XtXtXtXpXpXpXpXpXpXpXiXiXiXiXiXiXiXiXiXiXiXCXVXVXdXsX*X_.2.c b B 1.1.D j r r t r e = = : > : & $ + o   . . + $ $ . $ % - ; ; , , 5 5 > ; + W _ m s 5 p 5 d V 0.w.).i.w.w.y.).).y.y.g.t.w.i.j.= a ( t.t.y.i.y.t.y.OXVXiXiXCXiXiXiXiXiXiXiXpXpXpXtXtXtXtXtXtXtXpXpXpXyXiXiXyXyXyXyXyXyXyX0XtX0XtXyX} {.+X[.O.) _ T ] t.T t.p.i.t.i.i.p.w.p.w.Z e.t.p.w.1.N e.>.>.>.>.1.N >.>.>.1.>.1.1.V B 1.w.",
";X;X4X4X;X4X;X4X4X;X4X4X4X4X4X9X4X9X;X;X4X9X8X8X8X8X4X;X:X;X4X;X;X;X4X4X4X4X4X4X;X;X;X;X4X;X;X;X;X;X;X;X;X4X8X8X4X4X9X4X9X9X9X9XtX9XtXtXtXpXpXpXpXpXpXiXiXiXiXiXiXiXiXiXiXiXiXVXVXVXdXqX_.1.D c 2.D D D D D < = y r j y = = , , > > = = & o o $ & & + & - ; , 5 5 i i 5 5 5 > m _ m i i i i d V A 0.i.y.0.y.w.l.).i.l.).l.i.i.` = N 0.0.0.w.i.y.y.y.$XVXVXiXiXiXiXiXiXiXiXiXuXpXtXtX9X9XtXtXtXtXtXpXpXiXiXiXyXyXyXyXyXyXyXtXtXtXyXyX} {.|.[. .) ) T ..t.T t.p.p.p.i.i.p.w.p.p._ A i.w.1.A N e.>.,.,.,.1.N 1.1.B >.1.1.1.N B 1.A ",
";X;X4X4X;X;X;X4X4X;X4X4X;X;X;X4X4X;X;X;X4X;X;X;X;X;X;X;X;X;X;X;X;X;X;X4X4X;X4X4X;X;X;X4X4X;X4X4X;X;X;X;X;X;X4X8X4X4X9X4X9X9X6X4XtXtXtXtXtXtXpXpXpXpXpXiXiXiXiXiXiXiXiXiXiXiXBXVXVXVX8Xp.x w w k v l k l l j y < = r j j y : : < < < < , , - $ & & & & # & ; 2 5 5 5 i i i i 5 i T d p p i p d V C 0.e.w.w.e.e.e.i.l.l.).).).).w.: N t.w.0.0.i.i.y.y.1XVXBXiXiXiXiXiXiXiXiXiXpXpXtXtX9XtXtXtXtXtXpXpXpXpXpXpXpXpXyXyXyXyXtXyXtXyXyXpX} {.+X[.O.) ) m ..] W t.y.p.y.i.i.p.` p.p.Z w.S S 1.1.C r.>.,.,.,.1.N >.>.B >.>.1.2.N B B D ",
"4X;X;X;X;X;X;X;X;X;X;X4X;X;X;X;X;X;X4X;X;X4X;X;X;X;X4X;X;X;X;X;X;X;X;X4X4X;X4X4X;X;X;X;X4X4X4X4X;X;X;X;X;X;X4X8X4X4X9X9X4X4X6XtX9XtXtXtXtXtXpXpXpXpXiXiXpXiXiXiXiXiXiXiXiXiXVXVXVX8Xp.D c B c x x S x k k w r r , = t x j y < < < < < e , , $ o - - - - - ; 2 , 5 , i i i i i , d d p p i p d V C 0.w.0.0.y.e.e.w.y.i.l.).).).r.e f w.t.t.w.y.i.y.t.8XdXdXBXiXiXiXiXiXiXiXpXpXtXtXtXtXtX9X9XtXtXpXpXpXpXpXpXpXpXyXyXyXyXyXyXtXyXtXtX} {.+X[. .) ) m ] ] W t.p.p.p.i.p.p.( p.p.V p.1.w.>.1.N e.>.,.>.,.1.N >.1.>.>.>.1.1.M B B A ",
"4X;X;X;X;X;X4X4X4X4X;X;X;X4X4X4X;X9X9X9X;X4X;X;X;X;X;X4X;X;X;X;X;X;X4X4X4X4X;X;X;X;X;X;X;X;X;X;X;X;X;X;X;X;X;X4X;X;X4X4X9X9X4XtX9XtXtXtXtXpXpXpXpXiXuXiXiXiXiXiXiXiXiXiXdXdXVXVXeXi.1.D 1.D B B x x x x x j j r r < < j x j y < r r r e e e , . + - - - - - ; , , , i i i i 5 , i p i s p p d f C w.w.0.0.y.e.e.e.y.i.i.i.).).3.N f ( y.i.y.y.y.y.t.Z ..8XiXBXBXiXiXiXiXiXiXpXpXtXtX9X9X9XtXtXpXpXpXpXpXpXpXyXyXyXyXyXyXyXtXtXyXpXtX} {.+X[. .) ) T ] ] W t.p.t.p.i.w.t.` p.p.Z A i.p.A 1.N e.>.>.>.B >.S >.1.>.>.>.1.1.j B B V ",
";X;X;X;X;X4X4X4X;X4X;X;X;X4X4X4X;X4X9X4X;X;X;X;X;X;X;X;X;X4X;X;X;X;X;X;X4X4X;X;X;X;X;X;X;X;X;X;X;X4X;X;X;X;X;X4X4X;X4X4XtX4X4XtX9XtXtXtXtXpXpXpXpXiXiXiXiXiXiXiXiXiXiXiXdXVXVXaXF.2.2.B x l l l l l v x x j j j t r < y x x t t y r r r r r r - # - - - = # - , > , 5 , > ; ; ; 5 i i i p d d f V q.w.0.0.y.e.y.y.e.i.i.i.l.).1.< f A y.g.i.y.y.t.0.< r ] iXBXBXiXiXiXiXiXiXpXpXtXtX9X9XtXtXpXpXpXpXpXpXpXpXpXyXyXyXyXpXyX0XtXyXpXtX} {.+X[.O.+.) T ] ] T ` t.t.y.i.Z p.` p.p.A S e.A A 1.N e.>.B B B A C 1.>.>.1.>.1.1.a w.i.s.",
";X;X;X;X;X;X;X4X;X;X;X;X;X;X;X;X;X;X4X;X;X;X4X;X;X;X;X;X;X;X;X;X;X;X;X;X;X4X4X;X4X;X;X;X;X;X;X;X;X;X;X;X;X;X4X4X4X4X;X;X9X9XtXtXtXtXtXtXpXpXpXpXuXuXuXiXiXiXiXiXiXiXiXBXVXdXdXH.2.2.c x x x l l l v v x x x j j j j r y r j t t r y y t j t r p - - - = = + = ; - , 5 , ; ; ; ; > i i i i p a f V 0.0.0.w.y.w.y.i.y.i.i.i.l.i.O e a C t.g.i.t.t.w.( + O e OXBXiXiXiXiXiXiXuXpXpXtXtXtXtXtXtXpXpXpXpXpXpXpXpXpXpXpXyXyXpXpXtX0XyXpX6X} {.+X[. .) ) m ] ] T t.t.t.t.t.Z w.w.p.i.V C A N A >.N e.>.B B B >.S >.>.>.1.1.1.r.w.A Z M ",
";X;X;X;X;X;X;X;X;X;X;X;X;X;X;X;X;X;X;X;X;X;X4X4X4X4X4X4X;X;X;X;X;X;X;X;X;X4X;X;X4X;X;X;X;X;X;X;X;X;X;X;X;X;X;X4X4X9X4X4X9XtXtXtXtXtXtXtXtXpXpXpXpXuXiXiXiXiXiXiXiXiXBXBXVXdXE.2.B v v B c x l l l l v l l x j j w t j w w t t j j j y y j j t t , - = = = - ; - - - , > ; ; ; ; ; 5 5 i i i a f f 0.0.0.y.w.e.i.y.i.i.i.i.l.V O < a V w.i.i.t.t.0.( + X + ..iXiXBXiXiXiXiXiXpXpXtXtXtXtXtXtXtXpXtXpXpXpXpXpXpXpXyXpXyXpXyXyX0X0XtX>X} {.+X[. .) ) T ` ] T t.t.t.p.t.A ( w.p.p.M A N N A A N e.>.B B B A N B B B B B S N i.g.F.F.",
";X;X;X;X;X;X;X;X;X;X;X;X;X;X;X;X;X;X;X4X;X;X4X4X;X;X;X;X;X;X;X;X;X;X;X;X;X;X;X4X4X4X;X;X;X;X;X;X4X4X4X4X4X4X9X9XtX9X4X9XtX4X4XtXtXtXtXtXtXtXpXpXuXuXiXiXiXiXiXiXiXiXCXCXVXoXp.D D D 1.c x c v l v v v v v v x j w y j j j k w x x x k y y t j t r - ; - = , i p ; + > , : , : : : > 5 i i i d a f 0.0.0.w.0.y.y.i.i.i.i.i.)., O : a V ( y.y.w.w.0.( + X . / iXBXBXiXiXiXiXiXpXpXpXpXtXtXtXtXtXtXtXpXpXpXpXpXpXpXyXyXyXyXpXyXtX9XtX;X} {.+X[. .) ) T ` ` V t.t.y.p.w.w.A w.p.i.a A a A A A V 1.>.B B B A N B B B B S S t t N M N ",
";X;X;X;X;X;X;X;X4X;X;X;X;X;X;X;X;X;X;X4X;X4X4X;X;X;X;X;X;X;X;X;X;X;X;X;X;X;X;X4X4X4X4X4X4X;X;X4X9X9X4X4X;X;X4X4X;X;X4X9X4X4X4XtXtXtXtXtXtXtXpXpXuXuXuXiXiXiXiXiXiXCXVXVXqXr.1.D D 1.D x x x l l v v v v c c c c x j w r S l k x x x x j w < j x j , + - : , i V d > = , 5 , , , 5 , , 5 i p a a f 0.0.0.w.w.y.y.i.i.i.i.i.t.: = : t N A ( ( A ( w.V o X X ` yXBXBXiXiXiXiXiXpXpXpXpXtXtXtXtXtXtXtXpXpXpXpXpXpXpXyXpXyXyXpXpXtX9X9X:X} {.<Xo.+...) T ( ` m t.t.y.i.` w.Z w.p.i.M A f p.A B V 1.>.B B B A N >.A B A S A N f t r t ",
";X;X;X;X;X;X;X;X;X;X;X;X;X;X;X;X;X;X4X4X;X;X;X;X;X;X;X;X;X;X;X;X4X4X;X4X4X;X;X4X4X4X4X4X;X;X;X;X;X;X;X;X;X;X;X4X;X;X4X9X;X4X4X4X9XtXtXtXpXpXpXpXpXuXuXiXiXiXiXiXdXiXVXiXF.D D D D 1.c x x l l l v v v v v v c c c v x t w v l l x x x x t t y j j t + + , e a Z _ _ d ; 5 5 5 5 i i ; 5 i d f f V 0.A w.0.w.y.i.i.i.i.i.i.A r : : e i a V A A ( ( r . X r r.yXBXBXiXiXiXiXuXpXpXtXtXtXtX6X6XtXtXtXtXpXpXpXpXpXpXpXpXpXpXpXyXyXtXtX:X} {.+Xo.+.X._ T ( ` T t.t.y.y.( w.Z t.i.i.a w.N p.A C N 1.>.B A B A S A A A B B N S S S x x ",
";X;X;X;X;X;X;X;X;X;X;X4X;X;X;X;X;X;X4X9X4X4X4X4X4X4X4X4X;X4X4X;X;X;X;X;X;X;X;X;X4X4X;X;X;X;X;X;X;X;X;X;X;X;X;X;X;X;X4X9X9X9X4X6XtXtXtXtXpXpXpXpXuXuXuXuXiXiXiXiXdXdXVX8X1.D D D D D j k l l l v v v v v v v c c c c v v x w c v v l x x x x w y j t , o , a N Z ( _ _ p - , 5 , i i ; 5 i d d f C 0.0.e.w.w.y.y.i.i.i.i.A.B.j : < e , e a M V Z N <   r B.2.0XBXBXiXiXiXiXuXpXpXtXtXtX6X6X6XtXtXtXpXpXpXpXpXpXpXpXpXpXyXpXpXpXtXtX:X} {.+Xo.) ) T m _ ` m ` t.t.y.` p.Z y.i.i.a p.w.1.A S V 1.>.S B S A V >.A A A A S B B S B S ",
";X;X;X;X:X:X;X;X;X;X;X;X;X4XtX4XtXtX6X9XtXtXtXtX4X4X4X;X;X;X;X;X:X:X;X;X;X;X;X;X;X;X;X;X4X4X4X4X;X;X9X;X;X;X;X;X;X4X4X9X9X9XtXtXtXtXtXtXpXpXpXuXuXuXuXuXiXiXiXiXiXiXiXU.D D 1.D D c k k k l l v v v v z v z z c c c c v v j x D c l x x x x l y t j < + - a V ( ( ( _ 5 X . + = ,.S ; 5 d d a V C ( 0.0.w.w.y.i.i.i.i.a.3.k : : < y t e r r t N N y N 2.b.2.0XBXBXBXiXiXiXuXuXpXtXtX6X6XtXtXtXpXpXpXpXpXpXpXpXpXpXpXpXyXyXtXtXtXtX-X} {..Xo.) ' _ m _ ] T ] t.t.y.` t.A u.w.i.M p.i.A A N V 1.,.B B S A S A A >.A 1.A >.,.,.B B ",
"4X4X;X;X;X;X;X;X4X;X4X4XtX4XtXtXtX6X;XtXtXtX6X4X4X4X;X;X;X;X;X;X:X;X;X;X;X;X;X;X;X;X;X;X4X4X4X4X;X;X9X;X;X4X;X;X;X4X4X4XtXtXtXtXtXtXtXtXpXpXpXuXuXuXuXiXiXiXiXiXiXCXyXw.b D D D B x k k k l l v v v v v v v z z c c b b v b r B b c x l x x v x y j y = . i Z ( ( _ d o X X X O ,.S ; 5 d d f C A A 0.0.0.e.e.i.i.i.a.a.B = = : y y w w x x x c c *.=.&.b.=.#XBXBXBXiXiXiXiXuXpXtXtXtXtX6XtXtXpXpXpXpXpXpXpXpXpXpXpXpXyXyXyXtXtXtX-X} {..X[.) ) _ m ) ] m t.t.w.t.w.w.A Z V u.M p.r.1.A N V >.,.B B S A S B A >.B A B >.,.>.,.B ",
"4XtX4X4X;X4X;X;X;X;X;X;X;X4X;X;X;X;X4XtXtX4X4X;X4X;X;X;X;X;X;X;X:X;X;X;X;X;X4X4X4X4X;X;X4X;X;X;X;X4X4X4X;X;X;X;X;X4X4XtX6XtXtXtXtXtXtXtXtXpXpXpXuXiXiXiXiXiXiXiXiXdXR.B D D D B S x k k k k x v v v z z z z z z z z *.*.*.c c r b *.c l x v v c x y t : o o a ( ( _ ; X X X X O @.a - 5 M V ( 0.0.0.0.0.w.e.e.i.l.l.a.2.y : = : < w w w l v z #.%.-.=.;.:.b.(.BXBXBXiXiXiXuXuXpXpXtXtXtX6X6XtXpXpXpXpXpXpXpXpXpXpXpXpXyXtXtX9XtX9X-XI {.+X[.~ W _ m ) ] m ` t.w.t.t.w.A ` V u.Z p.A >.A N Z >.B B B S A S A A A A >.S >.S B S S ",
";X4X4X4X>X;X;X:X;X;X;X;X;X;X;X;X;X;X;X4X6X4X4X;X;X;X;X;X;X;X;X;X;X;X;X;X;X;X;X;X;X;X;X;X;X;X1X;X;X;X;X;X;X;X;X;X;X9XtXtXtXtXtXtXtXtXtXtXtXpXpXpXiXiXiXiXiXiXiXiXiXqXD c D D B S x x k k k k l v v c z z c c z z z z *.*.*.*.b x x *.*.c x x v v v j y r + o o m ( _ + X X X X X f = . # p V w.w.0.0.0.w.y.y.i.l.)._.1.S y : = : y w w w l v z #.%.-.&.;.:.b./.BXBXBXBXiXiXiXuXpXpXtXtXtX6XtXtXpXpXpXpXpXpXpXpXpXpXpXpXpXtXtXtXtX9X<XI {.+X[.+.W T m ' ] m ` w.t.t.t.w.( u.( ` ( N a w.A N V >.S S S S A V A A A B >.S >.S S x x ",
";X;X6X;X;X;X;X;X:X:X;X;X;X;X;X;X;X;X;X;X4X4X4X;X;X;X;X;X;X;X;X;X;X;X;X;X;X;X;X;X;X;X;X;X;X;X;X;X;X;X;X;X;X;X;X9X;X4X4XtXtXtXtXtXtXtXtXtXtXpXpXpXpXiXiXiXiXiXiXiXiX$XB D D D B S x x j k k k l v c c z c c z c b z %.%.%.*.*.b b y c *.b v x x v v c t y < + o + m 5 X X X X X X d . . . # i M V V ( 0.y.y.i.).)._.>.B t w < = : < w y w l v z #.%.-.-.&.&.:.!.yXBXBXBXiXiXiXuXuXpXtX6X6X6X6XtXpXpXpXpXpXpXpXpXpXpXpXpXpXtXtX0X9X8X<XI [.<X[.+._ T m ' ] T ` ` t.w.w.w.` u.t._ M t a w.A N Z A S S S S A V A A A B A S >.S S S S ",
";X;X>X;X;X:X:X:X;X;X;X;X;X;X>X;X;X;X;X;X4X4X;X;X;X;X;X;X;X;X;X;X;X;X;X;X;X;X;X;X;X;X;X;X;X;X;X;X;X;X;X;X1X;X;X4X4X4X9XtXtXtXtXtXtXtXtXpXtXpXpXpXpXuXiXiXiXiXiXiXiXS.B D B c S S S S x x l l l l v c z c c c c c %.%.%.%.%.*.%.*.c w *.*.*.c c w c c c w y = + . X X X X X X X X 5 . . . . o + # - , p V t.g.).).>.x x y y < = < y y y w l v v #.#.#.-.%.%.=.=.i.aXBXBXiXiXiXuXpXtX6X6X6XtXtXpXpXtXpXpXpXpXpXpXpXpXpXpXtXtX9XtX9X1X<XI {.<X}.O._ W m ] ] T ` ] t.` t.w.` u.t._ e N a A A N Z A B B S S N C A A A B B S B S N t u ",
":X:X;X>X;X;X:X;X;X;X;X;X;X;X6X;X4X;X;X;X4X;X;X;X;X;X;X:X;X;X;X;X;X;X;X;X;X;X;X;X4X;X;X;X;X4X;X;X;X;X;X;X4X;X;X4X4X4X4X4XtXtXtXtXtXtXtXtXtXtXtXpXpXuXuXiXiXiXNXBXiXu.c c x S x x j x x x x l v v v z c c c c c c b %.%.%.%.*.*.%.*.t c *.*.*.c v x c c v y < = o X X X X X X X - a , - ; ; # . o $ $ + & ; i ( e.x x r : w < = y x w v u l v l v z %.#.#.:.-.%.=.R.BXBXiXiXiXuXpXpXtXtXtXtXtXpXpXtXtXpXpXpXpXpXpXpXpXpXtXpX9X9X9X1X<XI {.<X}. ._ W d ] ] T ` ` t.` t.t.` y.w.( e w.N A B N Z A B B S S A S B B >.r.A.'.`.f t t t ",
";X;X;X>X;X;X:X;X;X;X;X;X;X;X;X;X;X;X;X;X;X;X;X;X;X:X;X;X;X;X;X;X;X;X;X;X;X;X;X;X;X;X;X4X;X;X;X4X4X;X;X;X;X;X;X4X4X4X4X4XtXtXtXtXtXtXtXtXtXtXpXpXpXuXuXiXiXiXNXBXVX[ c B x S j x j k k k x x v v v z c c c b b *.*.%.*.%.%.%.*.%.*.B t *.*.*.*.c v x v v w w : o   X X X X X + j v c N a d d 5 # . . o $ $ & M e.x S : : w y : y w l v l -.#.v l z z -.=.n.:.%.#.s.BXBXiXiXiXuXpXpXtXtXtXtXtXpXpXpXpXpXpXpXpXpXpXpXpXyXpXtX9X8X1X;X<XI {.<X[. ._ T T ' ' m ` ` t.` t.t.` t.t.( M p.A A C N A A B S S S A e.A.`.'.'.'.`.A.1.S S N ",
";X;X;X;X>X;X:X:X:X:X:X;X;X;X;X;X;X;X;X;X;X;X:X:X:X:X;X;X;X;X;X;X;X;X;X;X;X;X;X;X4X4X;X4X;X;X;X4X4X;X;X;X;X;X;X4X4X9X4X4XtXtXtXtXtXtXtXpXpXpXpXpXpXiXuXiXiXiXCXBXVX` c x k B j x S x S S x l k k v c c b b *.*.*.*.*.*.%.%.%.*.*.*.*.x z *.*.*.%.c j j l w k y O . X       . j B c c *.1.B C Z V p ; @ @ $ & a S x S : : y l y y y w v l #.%.#.z z #.:.;.;.:.=.:.(.BXNXNXiXiXuXpXpXtXtX6X6XtXpXpXpXpXpXpXpXpXpXpXpXpXpXtXtX8X;X;X;X<XI {.<X.X .W W T ..' m ` ` t.( y.t.` ` w.( A p.w.A C N Z >.r.A.`.'.'.`.`.`.A.A.A.4.4.a.A.`.`.",
":X;X:X;X;X;X:X:X:X:X;X:X;X:X:X;X:X;X:X;X;X;X:X:X:X:X;X;X;X;X;X:X;X;X;X;X;X;X;X;X;X4X4X4X;X;X;X;X4X;X;X;X;X;X4X4X4X9XtXtX6XtXtXtXtXtXtXtXpXpXpXpXuXiXuXiXiXiXCXCXiXB S x k D j j j x S x x x l l l l c b b *.*.*.*.%.%.%.%.%.%.*.=.*.*.l *.*.=.=.c x < t k x x , o X X     < 1.c *.z *.2.2.1.B A ( _ m 5 - & : S B t < y y l x t g : y w w l #.-.%.-.-.-.%.-.:.:.*XBXBXNXiXuXuXtXtX6X6X6X6XtXtXpXpXpXpXpXpXpXpXpXpXpXpXtXtX8X;X;X;X XI {.<X.X .W W m ..] T ] ` t.` t.t.( ` w.( ( w.t.C C N a.].].].].].].].].].].].].'.'.'.'.'.'.",
":X:X:X:X:X;X;X:X:X:X:X:X:X:X:X:X:X:X:X;X;X:X:X:X:X:X;X:X;X:X;X;X;X;X;X;X;X;X;X;X4X;X;X;X;X;X;X;X;X;X;X;X;X;X;X;X;XtXtXtXtXtXtXtXtXtXtXtXpXpXpXpXuXiXuXiXiXiXBXBX0XS S S x D j j j j k x x l c b c v w c z *.*.*.z z %.%.%.%.%.*.-.=.=.l z *.=.=.=.v N O r x j N + . X     M 2.c v c *.2.*.*.2.1.>.( ( t.t.m e S x t y w y w w w x x x w w l #.%.-.%.#.#.#.%.:.=.0XNXNXiXuXuXpXtX6X6X6X6X6X6XpXpXpXpXpXpXpXpXpXpXtXtXtXtXtX1X;X;X;X XI {.<X[.+.W T d ....m ` ` t.` t.t.` ` w.( a a w.S A a a.`.`.`.`.`.`.`.`.`.`.`.'.'.'.].].].].",
":X:X:X:X:X:X:X:X:X:X:X:X:X:X:X:X:X;X:X:X:X:X:X:X:X:X:X:X;X:X;X;X;X;X;X;X;X;X;X;X;X;X;X;X;X;X;X;X;X;X;X;X;X4X;X;X4XtXtX4X>XtXtXtXtXtXpXpXpXpXpXpXiXiXuXiXiXiXCXCXOXS S S c B j j j j k k k x D *.*.b x x z v c *.%.%.z #.%.%.%.-.-.-.=.c v *.=.=.=.c v r O y j x < o   X   S B v u c #.*.*.=.2.2.2.1.w.y.i.t.t t x t y w w w y y y y w w w l v z #.#.z z #.-.:.=.qXBXiXiXuXuXpXtX6X6X6X6X6XtXtXpXpXpXpXpXpXpXpXpXtXpXtXtXtX4X;X:X:X XI {.<X}.+.W T d ' ' m ` ` ` w.t.t.` ` w.( e a A Z Z N a.`.`.`.`.`.`.`.`.`.`.`.`.`.`.`.`.`.A.",
":X:X:X:X:X:X:X:X:X:X:X:X:X:X:X:X:X:X:X:X:X:X:X:X:X:X:X:X;X:X:X;X;X;X;X;X;X;X;X;X;X;X;X;X;X;X;X;X;X4X;X;X;X;X;X;XtXtX4X4X4XtXtXtXpXtXpXpXpXpXpXpXuXiXuXiXiXCXCXBXOXx c D D B j j t t w k j v v b *.*.*.v l l l z %.%.%.z z %.%.%.=.=.%.*.l #.=.:.=.*.v x : O : j r o . X < c l l v v #.*.#.*.2.=.=.2.r.i.i.A : j j y : y w w w w w w w y w l v z z z z z -.:.=.-.qXBXiXiXuXpXpX6X6X6XtX6X6XpXpXpXpXpXpXpXpXpXpXpXpXpXtXtXtX8X;X:X:X[.I {.+X}.+.W T s ) ' T ( ` ` t.` w.` ` ` ( M A V A A M a.`.`.`.`.`.`.`.`.`.`.`.A.`.`.`.a.a.a.",
":X:X:X:X;X;X;X;X:X:X:X:X:X:X:X:X;X:X:X:X:X:X:X:X:X:X:X:X:X:X:X;X;X;X;X;X;X;X;X;X;X;X;X;X;X;X;X4X;X4X;X4X6X4X4X4X4XtX6X6X4XtXtXtXtXtXtXpXpXpXpXpXuXiXiXiXiXiXCXBXOXB c 2.2.S j t t w w k k x v v c b *.*.c c l l l b *.z z z %.%.-.=.-.c x c -.=.=.=.c v t < O = r - & = B 2.c v c *.*.*.#.%.*.-.=.=.=.3.r.S : j j : : : y l l l l l l l z z z z z #.%.&.&.:.#.=.0XNXiXiXuXuXpXtXtX6X6X6X6XpXpXpXpXpXpXpXpXpXpXpXpXtXtXtXpX4X;X:X:X[.I {.+X+X+.W W J ' ) m ( ` ` t.Z ( ` ( ` ( Z t.C A V a a.`.`.`.`.`.`.`.`.`.`.`.`.`.`.`.a.a.a.",
":X:X:X;X;X;X>X>X:X:X:X:X:X:X:X:X:X:X:X:X:X:X:X:X:X:X:X:X:X:X:X;X;X;X;X;X;X;X;X;X;X;X;X;X;XtX4X4X9X4X4X4X;X6X6X4X6XtX6X4XtXtXtXtXtXtXpXpXpXpXpXuXuXiXiXiXiXiXCXBXOXc D 2.D j j t t w k k l v v v v v c b *.*.c z z l z z l v z %.%.=.*.z c l %.=.=.*.*.v l t , O + > 8 a B c c #.z z -.=.*.#.%.-.=.:.=.:.:.2.t t y = : < y w l l l z z *.#.%.%.%.-.&.-.-.%.%.%.3.dXNXNXiXuXuXuXtXtXtX6X6X6X6XpXpXpXpXpXpXpXpXpXpXtXtXtXtXtX;X;X:X:X[.I {.+X+X+.W W Y ) ) T ( ( ` t.( ( ` ( ` ( ( t.A V V a A.`.`.`.`.`.`.`.`.`.`.`.`.`.`.x.x.a.x.",
":X>X:X;X:X:X>X>X:X:X:X:X:X:X:X:X:X:X:X:X:X:X:X:X:X:X:X:X:X:X:X;X:X;X;X;X;X;X;X;X;X;X;X;X6XtX;X4X9X4X4X4X;X6X6X4X4XtX6X4XtXtXtXtXtXtXpXpXpXpXpXpXuXiXiXiXiXiXBXBXXXc 2.2.B j j j t t j k x v v v c c c *.*.*.*.*.*.*.b %.*.z v z %.%.*.z x r c -.=.*.*.v x w y = O O < t c *.*.*.*.-.%.-.=.-.#.-.;.v.b.&.;.:.B.c : = : y y w l l l l z =.-.v l %.%.%.z z #.&.&._.BXBXNXNXuXuXuXpXpXpXtX6X6X6X6XpXpXpXpXpXpXpXtXtXtXtXtXtX9X;X:X:X:X[.I {.+X.X+.W W Y ) ) m ( ( ` t.( ( ( ( ( ( M Z w.Z N a A.`.`.`.`.`.`.`.`.`.`.`.`.`.x.x.x.x.x.",
":X:X>X:X:X:X:X:X;X:X:X:X:X:X:X:X:X:X:X:X:X:X:X:X:X:X:X:X:X:X;X;X;X;X;X;X;X;X;X;X;X;X4X4X4X4X4X;X4X4X4X4X;X;X;X4X4XtX>XtXtXtXtXtXpXpXpXpXpXpXuXuXpXuXiXiXiXiXiXBXK.c 2.D S j t t t j k x v v v v z z z c c c c *.%.%.%.%.%.*.*.%.%.%.%.z w y x *.*.=.*.c c w w : = e N k v c z %.%.-.&.=.-.-.-.&.b.;.&.&.;.v.b.b.t = : y y l z z l l z z =.:.=.&.%.#.#.%.&.;.v._.BXBXNXNXiXuXpXpXpXpXpX6X6XpXpXpXuXuXpXtX6XtXtXtXtXtXtX9X9X;X:X:X:X[.I {.|..X+.~ W Y ' ) T ( ( ` t.( ( ( ( ( ` e t ` Z N a `.`.`.`.`.`.`.`.`.`.`.`.x.x.x.a.x.x.a.",
"-X:X:X:X:X:X:X>X>X>X:X:X:X:X:X:X:X:X:X:X:X:X:X:X:X:X:X:X:X;X;X;X;X;X;X;X;X;X;X4X>X>X;X4X4X4X;X;X;X;X4X6X4X;X4X4X4XtX>XtXtXtXtXtXtXpXpXpXpXpXpXpXuXuXiXiXiXiXCXCXf.B D D j w w j t j k j x v c c c c c c *.b *.*.%.*.*.*.*.*.%.%.%.%.%.%.z k y v *.-.*.*.v x w y : N S x v c c -.-.&.&.&.;.&.&.;.v.v.;.;.;.v.b.-.y : = < y z z z z z z z z -.:.n.b.v.;.;.v.v.v._.BXBXBXiXiXuXuXpXpX6XpX6XpXpXpXpXuXuXuX6XtXtXtXtXtXtXtXtXtX;X:X:X:X[.I {.+X.X+.W W Y ) ) T ( ( ( ` ( ( ( ( ( ` a a Z Z N a `.`.`.`.`.`.`.`.`.`.`.`.`.`.`.x.x.x.x.",
"-X:X:X:X:X:X>X>X>X:X:X:X:X:X:X:X:X:X:X-X:X:X:X:X:X:X:X:X:X:X;X;X;X;X;X;X;X;X;X;X;X;X;X;X;X;X4X6X;X;X4X4X6X;X;X6X6XtX6XtXtXtXtXtXtXtXtXtXpXpXpXuXuXuXiXiXiXCXCXVX[ B B B t w t t j j j x v v c c c c c b *.*.*.*.*.*.*.*.*.%.%.%.%.%.%.%.*.*.j w *.%.-.*.v x x j : t w k l z z =.=.&.&.&.;.;.v.b.v.n.n.n.v.;.=.w y < = : w %.z z z z z z z z #.%.-.-.-.&.-.;.v.^.BXBXBXiXiXuXuXpXpX6X6XpXpXpXpXpXpXuXpX6XtXtXtXtXtX9X9X9X4X;X:X:X:X[.I {. X+X+.~ W Y ) ) T ] ` ( ` ` ( Z A Z ( ( Z a A V d e.a.a.a.A.`.`.`.`.`.`.`.`.`.`.`.A.x.`.",
"-X-X:X>X>X>X:X>X>X>X:X:X>X:X:X:X:X-X-X:X:X:X:X:X:X:X:X:X:X:X:X:X:X;X;X;X;X;X;X>X;X;X;X6X>X;X;X;X;X;X;X;X;X;X4X4X;X4X6XtXtXtXtXtXtXpXpXpXpXpXpXuXuXuXiXiXiXCXCXVX..N N S y r t t t j j l x v v v v c c c b *.%.%.*.*.*.%.%.%.%.%.z z %.%.%.*.c l l z *.*.c v x x y j y y w z z -.:.:.&.;.;.v.v.v.b.n.b.v.M.v.%.u y y : : y z %.-.%.%.%.#.#.#.#.#.#.#.%.%.#.&.b.*XBXBXNXiXuXuXuXpX6XpXuXuXuXpXpXpXpXpXtX6X6X6X6X6X4X4X;X;X;X;X;X:X:X[.I {.+X+X+.~ T Y ) ) T ] ` ( ` ` ` Z A Z / Z ` a A Z a C S N u u S V >.2.2.r.a.a.a.A.`.`.`.`.",
"-X-X-X>X>X>X>X>X>X>X>X>X:X:X:X:X-X-X:X-X-X:X:X:X:X:X:X:X:X:X:X:X:X;X;X;X;X;X;X6X;X6X6X6X6X;X;X;X;X;X;X;X4X;X;X4X;X4XtXtXtXtXtXtXpXpXpXpXpXpXpXpXuXiXiXiXiXCXCXBXX.r M N r t w t j k k k k x x v v z z z z c z %.z %.%.z #.%.z z z z z z z z z v l v *.*.b c x j j B *.v v z %.*.-.:.:.;.;.v.v.v.b.b.n.b.v.M.n.N.j y < y y w l z &.&.&.&.&.&.&.&.&.&.&.%.%.&.N.VXBXBXNXiXuXuXuXpXpXpXuXuXpXpXpXpXpXuXpX6X4X4X4X;X;X;X;X;X:X;X;X:X-X[.I {.|.+X+.^ T Y ) ) T ( ( ( ` t.` Z ( Z _ , ( Z Z Z a Z S N f N C m A Z Z Z C A N y x S B B ",
"-X>X>X>X>X>X>X>X>X>X>X>X>X:X:X:X-X:X:X-X:X-X-X:X:X:X:X:X:X:X:X;X:X;X;X;X;X;X;X>X>X;X6X6X;X;X;X;X;X;X;X;X4X;X;X4X6X;X6XtXtXtXtXtXpXpXtXpXpXpXpXpXuXiXiXiXiXCXCXCX[ e M j j j j j j j k x v x x l v z c z z z c z z z z #.%.%.z z z #.z z z c c v x l *.z *.v x r y j 2.*.z z l z z #.-.:.v.v.v.v.b.v.n.M.n.M.M.m.D y y w y y w l #.;.v.b.v.v.v.;.;.&.:.&.-.-.#XBXBXBXNXiXiXuXuXuXpXpXuX6X6XpXpXpXuXpX6X;X;X;X;X;X;X;X;X;X:X;X;X:X:X[.I {.|.+X+.~ W T ) ) T ( ` ( ` t.` Z ( Z _ a a ( Z Z p V N t e N A V A A A Z A A N e N t a , ",
"-X-X>X>X>X>X:X>X>X>X>X>X:X:X:X-X-X:X:X:X:X:X:X:X:X:X:X:X:X:X:X;X:X:X;X;X;X;X>X>X>X;X;X>X;X;X;X;X>X;X;X;X;X;X;X;X>X;XtXtXtXtXtXtXpXpXpXpXpXpXpXpXpXiXiXiXiXiXBXCX` < r j j S S x j j x x b c x x l v v v z z z z z %.*.*.*.%.z z z #.z z z c c w k w c c c z x t e < t v *.%.z z z l l -.;.v.v.n.;.v.v.n.n.M.M.N.x y y w w w y w z &.&.:.:.v.v.:.:.;.:.=.=.&.*XBXBXBXNXiXuXuXuXuXpXpX6X6XpXpXpXpXpXpX6X;X;X;X;X;X;X:X;X;X:X;X;X:X:X[.I {.|.+X+.^ W T ) ) T ` ` ( ` t.t._ ( Z / Z a Z Z V p Z N S a t C V A ( A A A A N e V a a , ",
":X-X>X>X:X>X>X>X>X>X>X>X:X:X:X-X-X:X:X:X-X-X:X:X:X:X:X:X:X:X:X;X:X;X;X;X;X>X>X>X>X;X;X;X;X>X;X>X>X;X;X;X;X;X;X;X;X;XtXtXtXtXtXtXtXtXpXpXpXpXpXpXpXiXiXiXiXCXCXVXw.r : e j j S S S S B v c c v v v v c c c b z z z -.=.*.%.%.z #.#.#.z z z z l w w r v c v v x x N y t y w l =.%.%.v l z -.v.v.n.;.;.v.v.v.M.m.*.w y y y w w w y #.%.%.-.&.&.;.:.:.;.=.=.=.:.A.dXBXBXNXNXiXuXuXuXuX6X6X6X6XuXpXpXpXpX6X;X;X;X;X;X;X;X:X;X;X;X:X:X:X{.I {.+X.X+.^ W T ) ) T ( ] ` ` u.u._ ( _ _ ` Z N A ( d w.A C N N N M ( ( ( A A A N i V a a i ",
"-X-X-X>X:X>X>X>X>X:X>X:X:X:X-X-X-X:X:X:X:X:X-X:X:X:X-X:X:X:X:X;X:X;X;X;X;X6X>X>X>X;X;X6X;X>X>X>X6X4X;X4X;X;X;X;X4X6X6XtXtXtXtXtXtXpXpXpXpXpXuXuXuXiXiXiXiXCXCXVXu.M : : t t k k j x c v v x x v l v v v v z z z *.=.*.%.*.z %.%.%.%.%.z z v v w y < w *.l x w c S t j x w y v =.&.%.z l z -.m.M.M.;.v.v.v.v.m.t w y w y v w w l z %.%.%.-.&.&.&.&.&.&.&.&.:.b.#XBXNXNXNXuXuXuXuXpXpXpXpXpXuXuXuXpXpX6X;X;X;X;X;X;X;X:X:X:X:X:X:X<X{.H {.|.+X+.~ T Y ) ) m ( ] ] ] u.u./ ` _ / ( ` N A ( a i.C B S S A M ` ` ` A A A N a V a p p ",
"-X-X-X;X:X>X>X:X>X:X:X:X:X-X:X-X-X:X:X-X-X:X-X:X:X:X:X:X:X:X:X:X:X;X;X;X;X>X;X>X>X6X;X;X;X>X>X6X6X;X;X4X9X;X;X;X;X6XtXtXtXtXtXtXtXtXpXpXpXpXpXuXuXiXiXiXiXCXBXBXI.N < : < t w w w j x x x x v x x v v v v v l v *.*.*.#.%.*.*.*.*.*.%.z z z l y y = : c k w y *.c x w c x t y l b.:.&.#.z z b.m.m.v.v.v.M.M.n.w w w y y l l w w l z #.%.%.&.&.-.&.&.&.&.&.&.b.H.BXNXNXNXNXuXuXpXpXpXpXpXuXuXuXuXpXpX6X;X;X;X:X;X:X:X:X:X:X:X:X:X<X{.I | [.+X+.~ T Y ) ) T ` ] ] ] / t.` ` _ _ a V Z Z Z d u.A S S S A m ( ` w.A A A M a Z N a a ",
"-X-X-X:X-X>X>X:X:X:X:X:X:X:X-X-X-X:X:X-X-X-X-X:X-X-X-X:X:X:X:X:X;X:X;X;X;X;X>X;X>X;X;X;X;X;X>X>X;X;X6X4X4X;X;X;X;X>X6XtXtXtXtXtXtXtXpXpXpXpXuXpXpXiXiXiXiXCXCXBX8XM < : : r w t j k x x x j x j k l v v z v l z =.*.%.%.%.*.*.*.*.*.%.%.z z v y < = = x w y < v *.c w x x t e w z n.b.&.-.z z :.m.m.M.;.v.m.n.w w w y y l v l w w l #.%.%.&.&.-.%.&.;.:.&.&.&._.BXNXNXNXNXuXpX6XuXpXuXuXuXuXpXuXpXpX;X;X:X:X:X:X:X:X:X:X:X:X:X:X<X{.H {.[.+X} W T Y ) ) T _ ( ] ] M _ ` ` _ / a a ( Z Z a t.( S S S A m ( ` ` ( A ( N a N N a M ",
"-X-X:X:X-X:X>X>X:X>X>X:X>X:X-X-X:X:X:X-X-X-X-X-X-X-X-X-X-X-X:X:X:X:X;X;X;X;X>X;X;X;X;X>X;X;X>X;X;X;X6X4X4X4X;X;X;X6X6XtX6XtX6XtXtXtXtXtXpXpXpXpXpXiXiXiXiXCXCXBXVX) < : : < t t j k x x j j j t j k v v v z z %.=.*.*.%.*.*.*.*.*.c z %.%.%.z w < < < y w y y y -.%.x y t N S v l %.n.b.v.&.%.z ;.m.m.M.v.n.:.w w w y w l z c v l w l %.;.;.;.&.%.&.&.&.&.;.b.!.BXNXNXNXNXuXpXpXpXuXuXuXuXuXuXpXpXpX;X:X<X<X:X<X:X<X:X:X:X:X:X:X<X{.H {.[.}.} ^ W Y ~ ) T _ ( ] ] ` ` ( ` / / M N ( Z N a w.` S S S Z V ( ` ` ( A A N d N N a N ",
"-X-X:X:X:X:X>X>X>X>X>X>X:X-X-X-X:X:X-X-X-X-X-X-X:X-X:X:X:X:X:X:X:X:X;X;X;X;X;X;X;X;X;X;X;X;X;X6X>X>X6X4X4X4X;X>X>X6X6X6X6X6X>XtXtXpXpXtXpXpXpXuXpXiXiXiXiXCXCXCXVX+Xr < : : e j j j j x j j r t t j k v v v z *.=.=.*.*.*.*.*.b c z z %.%.%.c w r < < k w t j r c -.c t e S c c z z &.n.m.v.v.*.%.b.m.m.m.m.*.w w w w w l l z #.z l l l &.;.:.:.-.&.&.;.v.b.b.#XBXNXNXNXNXuXuXpX6X6XuXuXuXuXpXpXpX6X;X:X<X<X:X:X:X:X:X<X:X:X:X:X:X{.H {.[.}.} ^ T T ~ ) W ( ( ` ] ` ` Z ` / / Z N ( V V d ` ` S S N A m ( ` ` ` ( Z S a V S a M ",
",X-X:X-X:X:X>X>X>X>X>X>X:X-X-X-X:X-X-X<X-X-X<X-X-X:X:X:X-X:X:X:X:X:X;X;X;X;X;X;X;X;X;X;X;X;X;X;X>X6X6X6X4X;X;X>X>X6X6X6X>X>X>XtXtXpXpXpXpXpXpXpXpXuXiXiXiXCXNXBXVX;Xr e < : : j j j j x j j r r t j k x v v z *.=.=.*.*.*.*.z z z z %.-.%.%.c x y : y v w x x j w =.c N y x c z z #.-.;.n.m.m.=.-.v.m.m.m.m.k w w w w y l l l v z l l #.%.&.&.&.&.&.;.v.b.b.b.*XBXNXNXNXNXuXpXpX6X6XpXuXuXuXuXpXpXpX;X:X:X:X:X:X:X:X:X:X:X:X:X-X<X{.P {.[.[.} ^ T T ) ) W ( ( ] ( ` ` Z ] / / Z V A V V a ` ` S N N Z m ( w.` ( ( Z A a N C a N ",
",X-X-X:X-X>X>X>X>X>X:X:X:X:X-X-X:X-X<X<X<X<X-X-X:X:X:X-X-X:X:X:X>X>X;X;X;X;X;X;X>X>X;X;X;X;X;X>X6X6XtX6XtX4X;X>X>X6X6X6X>X>XtXtXtXtXpXpXpXpXpXpXpXiXpXiXNXCXCXBXVXdXr a < : : r j j j j j t j r t t k x v v v *.=.*.*.z z z z z z z -.-.-.%.c t = : v c v B x x w -.v j t t c z z %.%.&.&.b.m.n.;.;.m.m.m.b.< y w w l w w z l l l z z -.%.&.&.&.;.;.;.v.b.b.:.aXBXNXNXNXNXuXuXuXuXpXpXuXuXpXuXuXuXpX;X:X:X<X:X:X:X:X:X:X:X:X:X:X:X{.I [.{.[.} ^ Y Y ) ) T _ _ ] ( ] _ _ ` / / Z V ( V V d ` ` C N N Z m ` w.` w.w.Z A M N A a N ",
"-X-X-X-X>X>X>X>X>X:X:X:X:X:X-X-X-X-X<X<X<X<X-X-X:X:X:X-X-X:X:X:X>X:X:X;X:X>X>X>X>X>X;X;X;X;X;X>X6XtX6XtX6X;X;X>X6X6X>X6XtXtXtXtXtXpXpXpXpXpXpXuXpXiXuXNXNXNXCXBXVXVX_ r < < : : t j j j t t j t t t j x v l c =.=.*.z z z z z z z *.-.-.%.%.l < : t *.c c c c x w %.b *.c w v *.z %.-.-.&.;.v.m.m.v.M.m.m.b y g w w l l w l z v l l z %.&.&.&.;.v.v.b.b.v.b.A.VXBXBXNXNXuXuXuXuX6XuXuXuXuXpXuXuXuX6X;X:X:X<X:X:X<X:X:X:X:X:X:X<X<X{.I [.{.[.} ^ Y T ) ) T ( ( ] _ ` _ / ` / / Z N Z Z V d ` ( V N N Z m ` w.w.w.w.C A M N A a N ",
"-X-X-X-X-X,X>X>X>X>X>X>X>X:X-X-X-X-X-X-X<X-X-X:X-X-X-X:X-X-X:X:X:X:X:X:X>X>X>X>X;X;X;X;X;X6X>X;X>X6X6X6X6X;X;X;X>X6X6XtXtXtXtXtXtXpXpXpXpXpXpXpXpXpXuXiXNXNXCXBXCXVX` r r < : : r j j j t t j t t t j x x v *.*.*.z v c z z z z %.=.=.*.%.z l y y x z %.b b c c k z &.-.c w v *.%.%.-.-.=.&.;.v.n.m.n.v.=.w y y w l l l l w c z v l l %.:.:.v.b.b.b.b.v.v.b./.BXBXNXNXuXuXuXuXuXuXpXuXuXpXuXuXuXpX6X:X:X<X:X<X:X<X:X:X:X:X:X:X:X<X{.I [.{.[.+.^ Y T ) ) T _ / [ ( _ / m / ( / Z M V ( Z m ( ( V N N A m ` w.` ` ` V A M N ( a N ",
">X-X-X,X,X,X>X>X>X>X>X>X>X:X-X-X:X-X-X-X-X-X-X-X-X-X-X:X-X-X:X:X:X:X:X:X>X>X>X>X;X;X;X;X6X6X;X6X>X6X>X6XtX>X;X;X>X>X6X6XtXtXtXtXtXtXpXpXpXpXpXpXpXuXuXuXNXNXCXCXBXVXf.t r < , , < j t t t j t t t t j x j c *.*.z z z b z z z %.=.=.*.z l w j j y v z %.%.%.%.b v l &.-.z x l *.%.%.-.-.:.;.;.;.M.Z.Z.N.t y w w w l l l l w l *.c v l #.b.n.n.n.n.b.b.b.b.:.qXNXNXBXNXNXuXuXuXpXuXuXuXuXpXpXuXuXuX6X;X:X<X<X:X:X<X:X:X:X:X:X:X:X<X{.I [.{.[.} ^ Y Y ) ) Y _ ( ] _ _ / / Z ( W Z N Z Z V m ` A N N N A m ( ` ` ` ( V A M N ( e V ",
">X-X,X-X>X>X>X>X>X>X>X>X>X:X:X-X:X:X-X-X-X-X-X:X:X:X-X-X:X-X-X:X-X:X:X:X>X>X>X>X;X;X;X;X6X6X>X>XtXtXtX6X6X6X>X;X;X>X>XtX6XtXtXtXpXpXpXpXtXpXpXpXpXpXuXuXiXNXCXCXVXVXK.t r r < < : r t t t j t t t t j x j b *.z z *.*.b v v v &.=.*.z l y x w x t B *.z *.%.*.*.%.z :.&.%.v w c -.%.-.-.&.;.;.;.;.m.m.c : < w w w l l l l l w z *.z v l v :.b.b.b.v.;.;.:.3.CXBXBXNXNXuXuXuXuXuXuXpXuXuXpXpXuXuXuX6X:X:X<X:X:X:X<X<X<X:X:X:X:X:X<X{.I [.{.[.+.^ s J ) ) Y ) { ] / ( Z / m / T Z N V V V m ( A N N f A m ` ` ` ` ` V ` V N ( e V ",
"-X,X,X-X,X>X>X>X>X>X>X>X>X:X:X-X-X:X-X<X<X-X-X:X:X-X-X-X:X-X-X-X-X:X:X:X:X>X>X>X:X>X>X>X6X6X6X>X>X>XtXtX6XtX>X;X;X>X6XtXtXtXtXtXpXpXpXtXtXtXpXpXpXuXuXuXiXNXCXCXVXVXXXj r r e < < < t t t j t t j t k x x c c z b *.*.b x l %.&.-.v l v y v k r N b *.z *.=.z z %.-.&.b.%.v w v =.-.%.-.&.;.n.n.;.M.=.y < : w w w l l l l l l z -.#.z v l z %.&.&.&.;.;.:.H.BXBXBXNXNXNXuXuXuXuXuXpXuXpXpXpXuXuXuX6X:X:X<X:X:X:X:X<X:X:X:X:X:X:X<X{.I [.{.[.+.^ s Y W ) Y _ ( ] / ( Z / m / m Z M V V V m ( A N N f A M ` w.` ` ` V ` Z N Z e V ",
"-X-X-X,X,X>X>X>X>X>X>X>X>X:X-X-X-X:X:X-X-X:X-X:X-X:X-X:X:X:X-X-X-X>X:X:X:X:X>X>X>X>X>XtX6X>X>X6XtX6X6X6X6X6X>X;X>X>X>X6XtXtXtXtXtXpXtXtXpXpXpXpXpXuXuXpXuXNXNXCXVXVXoXj r r e e e < r t t j t t j t t j x v v c b *.*.b l c -.%.%.l z z w z c w t c =.z =.=.%.z %.&.z b.-.c l l =.;.;.;.&.;.v.n.v.M.*.y < : k k w l l l l l l #.-.%.%.#.z l v #.&.&.;.;.2.qXBXBXBXNXNXNXuXuXuXuXpXpXpXpXuXuXuXuXuX6X:X<X<X<X:X:X:X:X:X:X:X:X:X:X<X{.I [.{.[.+.^ s Y W ) T _ / ] / ` V ( m / m V V V V V m ( ( N f f A M ( w.w.` w.C ` M V V e V ",
"-X-X-X,X,X>X:X>X>X>X>X>X>X:X-X-X-X:X:X-X-X-X-X-X:X:X-X:X-X:X:X-X-X:X:X:X:X:X>X>X>X>X>XtX>X>X6X6X>X6X>X6X6X6X6X;X>X>X>X6XtXtXtXtXtXtXtXtXpXpXpXpXpXpXuXpXiXNXNXCXVXVXOXN r r e e < r y t j j j t t j j j j x v v b *.*.c k =.&.-.#.z b v l c %.x y x =.*.=.:.=.%.z ;.#.%.b.%.v w %.v.b.:.v.v.;.v.M.M.*.y y : w l w w z l z v l l %.-.-.=.*.#.z v %.&.&.=.*XBXBXBXNXNXNXNXuXuXuXuXpXpXuXpXuXuXuXuXpX6X:X<X<X<X:X:X<X<X:X:X:X:X:X<X<X{.I [.{.[.} ^ J Y W ) m _ / ] / ] / / / / m M _ M V V m ( ( N f N A M ` ` ` ( ` C ( M Z N e V ",
"-X-X,X-X>X-X>X>X>X>X>X>X>X:X-X-X-X-X-X-X-X-X-X<X-X:X-X:X:X:X:X-X:X:X:X:X:X:X:X:X>X>X>X>XtXtXtX6X>X6X>X6XtX6X6X;X>X>X>X6X6XtXtXtXtXtXtXtXtXpXpXpXpXuXuXiXiXNXCXBXVXVX8XN t r e y e < y r t j j j j j j j j x v v b *.c x v :.&.-.z z z v c z *.c x w *.=.=.=.:.&.-.&.-.l =.=.z l z v.b.;.b.;.;.v.v.M.*.y w y w l w w #.z z z l v z %.-.=.=.-.-.#.z #.=.#XBXNXNXNXNXNXNXNXuXuXuXuX6XuXuXuXpXpXuXuX6X6X:X<X<X:X:X:X<X:X:X:X:X<X<X:X<X{.H [.{.|.} ^ J Y W ) Y / / { / ` / / / / m p _ V V Z m ( Z N N N A M A ` ( A ( Z ( a Z M i V ",
"-X-X-X-X-X-X:X>X-X>X>X>X>X>X:X-X-X:X:X-X-X<X-X-X-X-X-X-X-X:X:X-X:X:X:X>X>X>X>X:X>X>X>X>X>X>X6X6X6X>X>X6XtX6X;X;X;X>X>X>X6XtXtXtXtXtXtXtXtXtXtXtXpXuXuXiXiXNXCXCXVXVXyXS t r y < < < y < r j j j j j j j j x v v c *.v w b b.=.%.#.z z v c z %.c v w z =.:.:.-.=.b.v.&.v z b.%.l l b.;.;.b.;.;.b.M.M.c y k w y w w w z %.z z z l l z #.-.=.=.=.=.-.*.F.VXBXNXNXNXNXNXNXuXuXuXuXuXuXuXuXuXpXpXpXuXpX>X:X<X<X<X:X:X<X:X:X:X:X<X<X<X<X{.G O.| [.} ^ J Y W / Y / / ) / ] / Z / / m e Z V V V d ( Z N f j A a Z A Z ( Z A ` a _ M i N ",
"-X-X-X-X-X>X>X>X-X>X>X>X>X>X>X-X-X:X:X-X<X<X-X-X<X-X-X-X:X:X:X:X-X:X>X>X:X>X>X>X>X>X>X>X>X>XtX6X6XtXtXtX6X;X;X:X>X>XtXtXtXtXtXtXtXtXtXtXtXtXpXpXpXuXuXpXiXNXCXCXCXCXiXS t r r y < < y e y t j j j j j j j j x v c c k t *.n.=.*.#.z *.v x v -.v *.x k =.b.N.-.-.b.b.&.%.l -.-.z l b.n.v.v.b.&.b.m.m.j y l t y w l w w -.#.z z z z z z %.-.&.&.=.-.r.yXBXBXNXNXNXNXNXNXuXuXuXuXuXuXuXuXuXuXuXuXuXpX;X:X:X:X:X<X<X<X:X:X<X:X:X:X:X<X{.G o.} [.| ^ J Y W W n / / / _ { / m / / n 5 _ m V V d _ Z f N N ( p V V A ( V A A a Z a p N ",
"-X-X:X-X-X>X>X>X>X>X>X>X>X>X>X:X:X-X:X-X<X<X<X-X-X-X-X:X-X-X:X-X:X:X:X:X:X:X>X>X>X>X>X>X>X>X6X6X6XtX6XtX>X6X;X;X;X>X6XtXtXtXtXtXtXtXtXtX>XtXtXtXpXuXuXuXiXNXCXCXCXCXVX{ t r r r y < < y y e r t j j t j j j j c b v w x c n.-.*.z *.v 2.*.v &.z c *.k -.b.n.=.%.&.b.;.%.l v =.#.v :.m.m.m.n.n.n.m.b.y y v r t w l w w z -.z z z z z z z #.%.-.&.2.qXBXBXBXNXNXNXNXNXNXuXuXuXuXuXuXuXuXuXpXpXuXuXpX;X:X:X<X:X<X:X:X:X:X<X:X:X:X:X X{.G o.} [.| ^ Y J W W n / / / { / { m / / n i V V V V p _ Z f a M ( a Z A ( ( Z ` ( p Z N p N ",
":X:X-X-X-X-X>X>X>X>X>X>X>X>X>X-X>X-X:X:X<X<X-X-X<X<X-X-X-X-X-X:X-X-X-X:X:X:X>X>X>X>X>X>X>X>X>X>X>X>X>XtX6X6X>X;X;X>X6XtX>XtX>X>XtXtX6XtX>XtXtXtXpXpXuXuXiXNXCXCXCXCXVXf.j r r r y y y y y < < t j j j j j j j x c v j S x b.-.c c *.l =.=.z ;.%.l *.v -.b.n.v.-.=.b.v.=.z l =.-.v ;.n.n.b.n.n.n.m.z r y v y x g w l l l -.%.z z z z z #.z %.-.=.#XBXBXBXBXNXNXNXNXNXuXuXuXuXuXuXuXuXuXuXuXuXuXuX6X;X:X:X:X<X<X<X:X:X:X:X:X:X:X<X X{.H O.+.o.+.^ Y J W W n / / / { d ' ' _ / d m m V M m p Z Z f a a Z p Z Z ( A A ` ( p Z V p M ",
"-X>X-X-X-X-X>X>X>X>X>X>X>X>X>X>X:X-X:X-X<X<X-X-X<X<X-X-X-X-X-X:X-X-X-X:X:X:X:X:X>X>X>X>X>X>X>X6X>X>X6X6X6X>X;X;X;X>XtX6X>X>X>X>X2X6XtXtX2XtXtXpXpXpXpXpXiXNXNXCXCXCXVXXXj t r r r r y y < : : < t j j j j j j x c x x S t =.=.c c v v *.b.z &.=.c l *.*.n.n.b.&.&.b.v.&.#.l z =.z v.n.v.v.v.n.m.b.w t w ,.M t w w w l w #.%.#.z #.#.z #.%.%.=.@XBXBXBXBXNXNXNXNXNXNXuXuXuXuXuXuXuXuXpXpXuXuXuXuX6X;X:X:X<X:X:X<X<X:X:X:X:X:X:X<X X{.H O.+.o.} ^ J s W W n W / _ ) / / / _ / d Z M V M M p Z Z f a a V M V i _ w.A ` ( r Z N p a ",
"-X>X-X>X:X>X>X>X>X>X>X>X>X>X>X>X>X-X:X:X-X<X-X-X-X-X-X-X-X-X-X-X:X:X:X-X-X-X:X:X:X>X>X>X>X>X>XtX>X>X6X6XtX6X;X;X>X>X>X>X>X>X>X>X>X>X2XtXtXtXpXpXpXpXpXiXiXNXCXCXCXVXVXqXM t r r r t r y < < < y y j j j j j j j x v x N t %.=.l *.k *.v N.%.-.:.*.x v *.b.n.v.&.&.b.:.&.%.v l *.-.b.m.n.;.v.n.:.z r t w 1.oXy x w w l l l %.#.z z z z z %.=.^.BXBXBXBXBXBXBXNXBXNXNXNXuXuXuXuXuXuXuXpXpXuXuXpXpX6X;X:X:X<X:X:X<X:X:X:X:X<X<X<X<X[.{.I [.} [.+.T Y J W W n / / / / / / / / Z s Z M V M M p Z Z f a t V a V Z t.` Z ( ( p Z M i a ",
"-X-X,X>X-X-X-X>X>X>X>X>X>X>X>X>X>X>X-X-X-X-X-X-X<X-X-X-X-X-X-X-X:X:X-X-X-X-X-X:X:X:X>X>X>X>X6XtX>X>XtXtX6XtX>X;X;X>X>X>X>X>X>X>X>X>X2XtXtXtXtXpXpXpXpXiXNXCXCXCXCXVXVXVXZ t t t t t r r < < < y y r j j j j j j x v v x w %.%.w *.y =.l =.*.c :.=.c w c ;.m.n.;.&.;.:.&.-.z l l %.v.b.n.b.v.;.%.z y k l *.sXW w l w l l l z %.#.z z z z =.H.BXBXBXBXBXBXBXBXNXNXNXNXNXuXuXuXuXuXuXuXpXpXuXpXpXpX6X;X:X:X<X:X:X<X:X:X<X<X:X<X<X<X[.{.I [.} O.+.~ Y s W W n W T / m / Z / { Z n / d Z M M d Z Z f t a V i m p.w.` Z A A p Z M i a ",
"-X-X-X>X-X-X-X-X-X>X>X>X>X>X>X>X>X>X>X-X:X-X-X<X-X-X-X-X-X-X:X-X:X:X:X:X:X:X-X:X:X:X:X>X>X>X>X>X>X6X6XtX6XtX>X;X;X>X6X;X6X6X6X>X>X2X2X2X2XpXtXpXpXiXiXNXNXNXCXCXCXCXVXVXh.N t t t t t r y e e y < < t j j j j j j x x j w *.l l c w -.l %.*.,.:.=.*.v l -.n.m.v.&.&.;.;.&.z v l z b.-.&.;.;.&.%.z g l l *.aXdXXXN l w w l l #.#.#.z z *.J.CXBXBXBXBXBXBXBXNXNXNXNXNXNXuXuXuXuXuXuXuXuXuXuXuXuXpX6X;X-X:X:X:X<X:X:X:X<X<X<X<X<X<X[.{.I  X[.o.^ ~ Y s W W n W / / / T m n { / s V a m M M d V V f t a V Z w.w.` ` V A Z p V V p a ",
"-X-X-X-X-X-X-X-X>X>X>X>X>X>X>X>X>X>X>X-X:X-X-X<X-X-X:X-X-X:X:X-X:X:X:X:X-X-X-X:X:X:X:X:X:X>X>X>X>X6X6X6XtX6XtX;X;X>XtX6X>XtXtXtX>X2X2X2XtXpXpXpXpXiXiXNXNXCXCXCXCXCXVXVXOXj N t r r r t r y < < < : = t j j j j j x x t w *.w z z w &.z v =.*.=.:.*.*.w %.v.m.v.:.&.;.;.&.%.z v z b.%.&.&.&.&.-.v y l l *.$XVXVXyXu.S l w l z z z *.c U.iXBXBXBXBXBXBXBXNXNXNXNXNXNXuXuXuXuXuXuXuXuXuXuXuXuXuXpX6X;X-X-X:X:X:X:X:X:X:X:X:X:X<X<X[.{.I  X[.[.} ^ J s W T s W T / / / m p ' / s Z M M M a M V Z f t a V V ` ` ( ` N ( Z a N Z p a ",
"-X-X>X-X>X>X>X>X>X>X>X>X>X>X>X>X>X-X>X-X-X-X-X-X-X-X-X-X-X-X-X:X:X:X:X-X:X-X-X-X-X:X:X:X:X>X>X>X>X>X>X>X6X6X>X;X2X2X6X>X>X6X2XtX2X2XtXtXtXpXpXpXpXiXiXiXNXCXCXCXCXCXVXVXaXB N r y r r r r e < < , O + : t j j x j x x w j *.x c #.u =.z w =.*.c :.*.*.v z &.n.v.;.;.b.v.:.-.z v -.&.%.&.&.&.&.-.l y l z -.h.BXBXVXVXdX$Xh.` B A A d.*XBXBXBXBXBXNXNXNXNXNXNXNXNXNXNXuXuXuXuXuXuXuXuXuXuXuXuXuXpX6X;X;X:X:X:X:X:X:X<X:X:X:X:X<X:X[.{.I  X[.[.} Y s s W T s T m W W T m p / / d Z m M a p d V V a t a M m ( ( A ( N A Z a V Z i a ",
"-X-X>X-X>X>X-X>X-X-X>X>X>X>X>X>X>X>X>X-X:X-X-X-X-X-X-X-X-X-X-X-X:X:X-X:X-X-X-X-X-X-X-X:X:X:X>X>X;X>X>X6X6XtX6X;X1X1X;X;X>XtX2X2X2X2X2XtX2XpXpXpXpXiXiXNXNXCXCXCXCXVXVXVXVXw.w y y r r r r r e < = = : : < t j x j x x w w *.l c -.l =.z l 2.*.c :.=.*.c l -.n.n.&.-.&.b.b.=.*.z :.b.:.&.v.&.&.-.w w l z &.1.VXBXBXVXBXBXBXBXiXiXBXBXBXNXNXNXBXNXNXNXNXNXNXNXNXNXNXNXNXuXuXuXuXuXuXuXuXuXuXuXuXuX6X;X:X:X:X:X<X<X<X<X<X<X<X:X:X:X X{.I  X[.o.} Y s s T T s T m T T m m d / / d Z M M d p d m V t r a M m ( ( A ( N A Z M V V i a ",
"-X-X>X-X-X-X-X-X-X,X>X>X>X>X>X>X>X>X>X>X:X-X-X:X-X-X-X-X-X-X-X-X-X:X:X-X-X-X:X-X:X-X-X-X:X:X:X>X>X>X;X>XtXtX>X;X1X;X;X;X>X2XtX2XtX2XtXpXpXpXpXpXiXiXiXNXNXCXCXCXCXVXVXVXrXS r r y r r r r t r : = < < < < < t j j x x t w *.v v b.z =.#.v *.:.=.*.:.#.*.l %.b.m.b.-.-.=.b.b.-.z b.-.m.&.M.;.&.-.y l l z &.-.tXBXBXBXBXBXBXBXBXBXBXBXNXNXBXNXNXNXNXNXNXNXNXNXNXNXNXNXuXuXuXuXuXuXuXuXuXuXuXuXuXuX6X;X:X:X<X:X<X<X<X<X<X<X<X:X:X:X X{.H  X[.[.} Y 9 9 T T s T m T m T m m / / s m M M d p m m M t r a M m ( Z Z A V Z Z M V V p a ",
"-X-X>X>X-X-X>X>X>X>X>X>X>X>X>X>X>X>X>X>X>X-X-X-X-X-X-X-X-X:X:X-X-X-X-X-X-X-X-X-X-X:X-X-X-X:X:X>X>X>X>X>XtXtX6X;X;X;X>X;X>X>X2X2XtXtXpXpXpXpXpXpXiXiXiXNXNXCXCXCXCXVXVXVXH.w t t r r r t t t e : e < < < < < < t j j j t t z l w B.-.*.*.v u b.b.v b.&.%.l z v.m.n.=.%.%.=.n.=.%.b.#.m.;.n.v.;.%.g l l #.=.=.oXBXBXBXBXBXBXBXBXBXBXNXNXNXBXNXNXNXNXNXNXNXNXNXNXNXNXuXuXuXNXuXuXuXNXuXuXuXuXuXuXuX6X;X;X:X:X:X<X<X<X<X<XOX:X<X:X:X[.{.H  X[.[.} J 9 9 T W s T Y T n m m m / / d d M M d p m m M a r a M m A Z Z Z V Z Z M M V i M ",
"-X-X-X-X-X-X:X>X>X>X-X>X>X>X>X>X>X>X>X>X>X:X-X-X-X-X-X-X-X-X-X:X-X:X-X:X-X-X-X-X:X:X-X-X:X>X:X:X>X>XtX6X6XtX6X;X1X;X;X>X>X2X2X2X2XtXpXpXyXpXpXpXiXiXNXCXCXCXCXCXCXVXVXwXA w t t t t t t t y < r y < < < < < : : t j j t t v x w c :.=.=.z x %.m.#.-.v.%.v l v.M.m.v.&.z z :.b.:.m.-.n.M.;.M.;.#.< v l #.b.b._.VXBXBXBXBXBXBXBXBXBXNXNXNXNXNXNXNXNXNXNXNXNXNXNXNXuXuXuXuXuXuXuXNXNXNXuXuXuXuXuXuX6X;X:X:X<X+X.X[.o.o.o.o..X+X+X<X[.} H [.[.[.^ J 9 9 T T s m n m m m T m / ) s p m d d a m M M r r t M M Z Z Z V V Z Z M M V , V ",
"-X-X-X-X-X-X>X>X>X>X>X>X>X>X>X>X>X>X>X>X>X-X-X-X-X-X-X-X-X-X-X-X-X:X-X:X:X:X:X:X:X:X-X:X>X>X:X>X>X>X2X6X>X>X6X;X;X;X;X>X>X2X>X>X2XtXpXpXpXpXiXpXiXiXCXCXCXCXCXCXCXCXVX#Xx t r r y y t j r < t t y < < e e < : : : t j j j w v t v c =.b.%.v l n.:.z b.&.z v %.m.m.v.v.-.z %.&.M.M.;.M.m.;.M.v.z g z l #.b.n.N.iXBXBXBXBXBXBXBXBXBXNXNXNXNXNXNXNXNXNXNXNXNXNXNXNXNXNXNXuXuXuXuXuXNXNXuXuXuXuXuXuX4X:X+X.Xo........... .' '  . .o.O.| } [.O.o.^ J 9 9 Y m 9 m d d n p T m / ' s 8 Z n d d m M M r e p M M Z Z Z V V V a M M V , M ",
"-X-X-X-X>X>X>X>X-X>X>X>X>X>X>X>X>X>X>X>X>X-X-X-X-X-X-X-X-X-X-X-X-X-X:X:X:X:X-X-X:X:X:X-X>X:X:X>X>X>XtXtXtXtXtX2X;X;X;X;X>X2X2X>X2X2XpXpXpXpXpXpXiXiXiXCXCXCXCXCXCXVXVXP.w y y y y r j t < y t r e < e e e < : : : < j x j w v t ,.l c b.-.c x =.m.*.*.b.%.z z M.m.v.v.%.%.%.v.m.m.M.v.m.;.M.M.v y z l %.n.n.N.qXBXBXBXBXBXBXBXBXBXNXNXNXNXNXNXNXNXNXNXNXNXNXNXNXNXNXNXNXNXNXuXNXNXuXuXuXpXpX;XOX.X}.o.............] .. .' .............. ..... .) W W T 9 n d d m 5 T m / { p p V M M d m M a r e i M M / Z Z V Z a = M N V e M ",
"-X-X-X-X>X>X>X>X-X-X>X>X>X>X>X>X>X>X>X>X>X>X-X-X-X-X-X-X-X-X-X-X-X-X-X-X-X-X-X-X:X:X:X:X>X>X>X>X>X>X>X6XtXtX6X2X;X;X;X;X>X>X>X2X2X2X2XtXpXpXiXiXiXiXiXCXCXCXCXVXVXVXVX).2.x j N j j t < r t y y r r r e < < : : : < < t j w c j c c l =.:.z c l n.b.l b.&.z z ;.m.n.b.%.-.v.m.m.m.m.v.m.v.M.M.l y z l %.n.m.n.(.BXBXBXBXBXBXBXBXBXNXNXNXNXNXNXNXNXNXNXNXNXBXNXNXNXNXNXNXuXuXuXuXpX6X:X+X.Xo...X.............] ' ............X...............X.X.X.X.X.X...' / T T > T m / ) p m m m M d m M a r e r d M ( Z V V ( V - M V V i M ",
"-X-X-X-X-X-X-X-X-X>X>X>X>X>X>X>X>X>X>X>X>X-X-X-X-X-X-X-X-X-X-X-X-X-X-X-X-X-X:X:X:X:X:X:X:X>X>X>X>X>X>X6X>X>X6X;X;X;X1X2X2X>X2X2X2X2XtXtXyXpXpXiXiXiXiXCXCXCXCXVXVXVXVX).N.B.D S t y y y x y y y t j t y < : : : , < < < t w x S c *.v v :.-.c x %.m.=.c n.%.z -.m.m.n.&.&.m.M.m.m.m.M.m.M.M.M.l w z l %.n.n.n.A.BXBXBXBXBXBXBXBXBXNXNXNXNXNXNXNXNXNXNXNXNXNXNXNXNXNXNXuXuXpXtX:X+Xj...X.............' ' ......X.X.X.X.X.X.......X.X.X.X.X.X.X.X.X.j.j.j.j.j.f.j.j...) s W ) 8 / d m m d m M a r e i d M Z Z N V ( ( M M V M i a ",
"-X-X>X>X-X-X-X-X:X>X>X>X>X>X>X>X>X>X>X>X>X-X-X-X-X-X-X-X-X-X-X-X-X-X-X-X-X-X-X-X:X:X:X:X:X>X>X>X>X>X>X6X>XtXtX2X;X;X;X;X1X1X2X2X2X2X2XtXyXpXpXiXiXiXiXiXCXCXCXCXVXVXVX).B.B t r y y r j y y y w j j j r < : : : < < < < < t w c c *.*.l #.b.*.v l =.N.l b.:.z %.n.M.n.v.v.M.M.m.m.m.m.m.M.M.v.y w #.l -.n.n.n.N.qXBXBXBXBXBXBXBXBXNXNXNXNXNXNXNXNXNXNXNXNXNXNXNXNXuXuXpX:X.Xj.X.X...........................X.X.........X.X.X.X.X.X.X.X.X.X.X.j.j.j.j.j.j.j.f.j...T 0 3 3 3 5 s 5 p d s m M a e e i d a V V V M Z Z M m V M e t ",
"-X-X-X>X>X>X>X>X>X>X>X>X>X>X>X>X>X>X>X>X>X>X-X-X-X-X-X-X-X-X-X-X-X-X-X-X-X-X-X-X:X>X:X:X:X:X>X>X>X>X>X6X>XtX2X>X2X;X;X;X>X2X2X2X2XtXtXpXtXpXpXiXiXiXiXiXCXCXCXCXVXVXVX^.x w j w w j x w < y t j j j t r < , : < < < < < < < t w v *.*.c l =.=.c l l b.c z N.%.%.m.M.v.&.v.M.m.m.m.m.m.m.M.M.b.: w %.l %.n.n.n.n.#XBXBXBXNXBXBXBXBXNXNXNXNXNXNXNXNXNXNXNXNXNXNXNXpXtX:X+X.XR.L.K.K.j.X...] ] ] ] ..........X.X...............X.X.X...X.X.X.j.j.j.j.j.j.j.f.....) 0 0 0 0 4 4 4 1 q 1 3 5 5 8 i i e i s M V V V m Z Z n m V M e a ",
"-X-X-X>X>X>X-X>X>X>X>X>X>X>X>X>X>X>X>X>X>X-X-X-X-X-X-X-X-X-X-X-X-X-X-X-X-X-X-X-X:X:X:X:X:X:X>X>X>X>X2X>X>XtXtX>X2X;X2X;X>X2X2X2X2X2XtXtXtXyXpXiXiXaXiXiXCXCXCXCXVXVXVXG.j w j t S x w < y t x x x t w r r < < < < < < < < e j x k v *.*.v l =.=.v l z 4.v :.=.%.n.m.v.%.;.M.m.m.m.m.m.m.M.M.-.< w %.l %.n.n.n.n.).BXBXBXBXBXBXBXNXNXNXNXNXNXNXNXNXNXNXuXpX6X;XOX+X.X.XL.K.L.K.K.R.Y.XXL.L.j.X...................X.X.X.X.X...] ' ..X.X.T ' ~ W o.j.j.j.X.) Y 0 0 0 0 0 0 4 q & & q 4 3 3 4 4 4 4 4 2 5 8 d M m M Z Z M m V M i a ",
"-X-X-X-X>X>X>X>X>X>X-X>X>X>X>X>X>X>X>X>X>X-X-X-X-X-X-X-X-X-X-X-X-X-X-X-X,X,X-X:X-X:X:X:X:X:X:X>X>X>X>X6XtXtXtX2X;X;X>X;X>X2X2X2X2X2X2XtX2XpXpXpXiXaXiXCXCXCXCXCXVXVXVXu.j t w B B w < < t x x x x x j r r r r e e < < < < r j c x k v b c x z b.*.v l =.*.z :.&.b.n.-.%.;.M.M.m.m.m.m.m.M.M.%.g l %.l %.M.M.n.n.N.iXBXBXBXBXBXBXNXNXNXNXNXNXNXNXuXtX:X+X.X.XL.L.L.K.K.h.j.X...h.K.K.K.K.h.h.K.R.h.j.j...X.X.X.X...X.X.X.......] ....~ 0 Y '  .9 ) T 9 0 0 0 0 0 0 0 4 1 q 1 4 0 0 0 0 3 4 4 1 1 4 3 3 3 5 5 5 5 m m d m M d p a ",
"-X-X-X>X>X-X>X:X-X-X-X-X>X>X>X>X>X>X>X>X-X>X-X-X-X-X-X-X-X-X-X-X-X-X-X-X,X,X-X:X-X:X:X:X:X:X:X>X>X>X>X6XtXtXtXtX2X;X2X;X>X2X2X2X2X2X2XtX2XpXpXpXiXaXiXCXCXCXCXCXVXVXVX` j j B D k < < t j x x x x x j t r j j t r < < < < j c c j y w v c c x *.:.z z v N.%.%.v.v.b.z %.;.M.M.m.m.m.m.m.M.M.z y l #.l %.v.n.n.n.N.8XBXNXBXNXBXBXNXNXNXNXNXuXpX:X+X.XL.L.L.L.h.j.j.j.h.L.L.L.K.L.j.X.X.j.f.j.L.Y.Y.Y.Y.R.L.R.K.K.j.X.j.j.X.X.X.X.f.X.9 G 4 s s 7 0 0 0 0 0 0 0 0 4 1 1 1 4 0 0 0 0 3 3 3 4 4 3 0 0 0 0 0 4 4 4 4 1 ; 1 , 5 5 5 d ",
"-X-X-X>X>X:X:X>X>X-X>X-X>X>X>X>X>X>X>X>X-X-X-X-X-X-X-X-X-X-X-X-X-X-X-X-X-X-X:X>X:X-X:X:X:X:X:X>X>X>X>X2X2XtXtXtX2X;X;X;X2X2X2X2X2X2X2X2XpXpXpXaXaXiXiXCXCXCXCXVXVXVXVX( j B D j < < t j x x x v x j j t j x x x j r r e r x c x t r w y k v c l *.2.z *.c N.-.;.;.z z %.&.M.M.m.m.m.m.m.m.M.z y z #.l %.v.n.n.n.N.#XNXNXNXNXNXNXNXNXNXpX>XOX.Xj.L.j.j.j.j.j.X.j.X.j.K.h.h.h.j.j.j.j.K.h.K.L.K.j.j.h.j.K.XXY.Y.L.K.K.j.j.j.j.j.Y.Y.Y.X.9 0 0 0 0 0 0 0 0 4 4 4 1 4 0 0 0 0 0 0 0 0 0 4 4 0 0 0 0 0 0 0 3 4 4 1 4 4 1 q % % & & + ",
"-X-X-X>X>X:X>X>X>X>X>X-X>X>X>X>X>X>X>X>X>X-X-X-X-X-X-X-X-X-X-X-X>X-X-X-X-X>X>X>X:X:X:X:X:X-X:X>X>X>X>XtXtX6XtXtX2X;X;X1X2X2X2X2X2X2X2X2XpXpXpXaXaXaXiXaXaXsXCXVXVXVXVXt.S S j y : r j x x x x x j w j t x x x x j j t t x *.c x r j t w w w v x x c *.c *.*.-.;.-.w z #.&.v.M.m.m.m.m.m.m.M.v y z #.l -.v.M.n.n.N.).NXNXNXNXNXtX:XOXOXXXXXR.L.L.L.K.j.j...X.K.L.R.L.L.K.j.X.X.X.j.L.Y.L.L.K.h.h.j.h.R.Y.Y.R.R.L.j.X.f.f...d.T.Y.R.R.R.Y...s 3 0 3 4 3 0 0 4 4 0 0 0 0 0 0 0 0 4 4 0 0 0 0 0 0 0 0 4 q 4 4 3 3 0 0 3 4 4 1 & & & ",
"-X-X-X>X-X-X-X-X>X>X>X>X>X>X>X>X>X>X>X>X-X>X-X-X-X-X-X-X-X-X-X-X-X-X-X-X:X-X-X:X-X:X-X-X:X:X>X>X>X>X>X>X>X6X>XtX2X2X;X;X2X2X2XtX2X2XpXpXpXpXpXaXaXaXaXaXaXCXCXCXVXVXVXt.x t < : r j j x x x x x w j j j x x x x j t j x *.2.*.j t S x x l v c t w w l v c c %.v.-.w l #.&.v.M.m.m.m.m.m.M.M.w w z #.l -.v.n.n.n.N.N.tXuX6X|.O.O.j.h.h.L.L.R.L.L.L.L.L.h.h.L.h.j.j.h.j.f.j.K.L.L.L.K.K.h.j.j.j.R.Y.Y.R.R.R.K.h.j.f.X.] ) P.Y.R.P.P.P.R.R.P.L.X.) ) Y 3 0 0 0 0 0 0 0 0 0 0 4 0 0 0 0 0 0 0 0 0 0 0 0 0 0 0 0 0 0 0 0 4 4 1 % & # ",
"-X-X-X-X-X-X-X-X>X>X>X>X>X>X>X>X>X>X2X>X>X-X-X-X-X-X-X-X-X-X-X-X-X-X-X>X:X-X>X:X-X-X-X-X>X:X>X>X>X>X>X6X>X>X>X>X2X2X2X1X2X2X2XtX2X2XpXpXpXpXpXaXaXaXaXaXaXCXCXCXVXVXVX` t y : r j j x x x x j w t x j j j x S x j t j c =.=.c j j B v v v c S t w w x l l l z v.-.w l #.&.;.M.m.m.m.m.m.M.&.y w #.z z &.v.M.n.n.N.N.#X X{.P 9 Y ) )  ...X.j.j.h.R.R.Y.XXY.Y.R.R.R.h.K.R.R.K.K.h.j.h.K.R.Y.Y.Y.Y.R.K.h.j.j.j.j...' ' j.Y.Y.Y.R.P.P.K.h.f.d.R.P.R.Y.Y.R.X.) T 0 0 0 0 0 0 4 0 0 0 0 0 0 0 0 0 3 0 0 0 0 0 0 0 0 0 4 4 1 1 % & # o ",
"-X-X-X-X-X-X-X>X>X>X>X>X>X>X>X>X>X>X>X>X>X-X-X-X-X-X-X-X-X-X-X-X-X-X>X>X>X>X-X-X-X-X-X,X>X>X>X>X>X>X>X6X2X2X2X2X2X;X;X2X2X2X2X2X2X2X2X2XpXpXaXaXaXaXaXaXaXsXCXCXVXVXjXN r : r j j j x x x j t t j x j j j x x x t t x *.=.*.v x w b c c v c x x t x v l l l z v.=.w l #.-.;.M.m.m.m.m.m.M.-.y l #.z z &.v.n.n.n.n.n.2.G G G G G J J Y T ) T J W X.j.j.h.R.Y.Y.Y.Y.Y.Y.Y.Y.Y.R.K.K.Y.XXY.Y.Y.Y.R.h.d.f.f.] ' ' W ..@X@XXXT.Y.R.R.R.K.f.d.R.Y.Y.Y.R.R.R.R.P.R.XXXXXXj. .Y 0 0 0 0 0 0 0 0 0 0 0 0 0 0 0 0 0 0 0 0 4 q q & $ o o # ",
"-X-X-X:X-X>X>X>X>X>X>X>X>X>X>X>X>X>X>X>X>X:X-X-X-X-X-X-X-X-X-X-X-X:X-X-X,X-X-X,X-X-X,X>X>X>X>X>X>X>X6X6X2X2X2X2X2X;X;X1X2X2X2X2X2XpXpXpXpXpXaXaXaXaXaXaXaXsXCXVXVXVXaXr : y j x j j x x x t j j x x j j x x x x t j v -.=.*.v c v *.c c c c x x x l v l l l %.v.=.w l z -.;.v.m.m.m.m.m.M.-.y l #.z z &.n.n.n.n.n.n.N.J G G G G J J ^ ~ +.~ ^ Y W ) ' X.f.j.h.h.K.K.R.R.Y.Y.Y.XXXXY.Y.R.R.P.K.h.f.X...' / ) ..Y.Y.K.d.d.P.P.K.d.P.R.Y.Y.Y.R.R.R.P.P.P.P.Y.XXY.Y.Y.XXXXXXXXj.X.) J 0 0 0 0 0 0 0 0 0 4 0 0 4 4 4 q & $ $ o - , e ",
"-X-X-X-X-X>X-X>X>X>X>X>X>X>X>X>X>X>X>X>X>X:X-X-X-X-X-X-X-X-X-X-X-X-X-X-X>X-X-X-X-X-X,X>X>X>X>X>X>X>XtXtX6X2XtXtX2X1X1X2X2X2X2XtXtXpX2XpX3X3XaXaXaXaXaXaXaXsXjXVXVXVXXXe < t x B j x x j t j j j x x j j x x x j t x c =.-.c v *.c =.=.*.c c v v x v l l l v %.v.=.l l z -.;.v.m.m.m.m.m.M.z y l #.z z &.M.n.n.n.n.m.N./ J J ^ ^ J J J ^ ~ ~ ~ ~ ~ ~ ~ W W ) ' ..f.f.j.h.h.K.K.R.L.K.K.h.d.f.X.] ' ) / ..Y.@XXXXXY.R.R.P.d.d.K.R.Y.Y.R.P.P.P.K.K.P.R.R.Y.Y.Y.Y.Y.Y.R.R.R.Y.Y.Y.Y.XX.X..T 4 4 0 0 0 4 4 4 4 4 1 q & & o ; r t e < ",
"-X-X-X-X-X>X>X>X>X>X>X>X>X2X2X>X2X>X>X>X>X;X:X:X-X-X-X-X-X-X-X-X-X-X-X>X-X-X-X>X,X,X,X>X>X>X>X>X>X>X2X6X6XtXtXtXtX2X2X2X2XtX2XtXtXtX2X3X3XaXaXaXaXaXaXaXaXjXjXjXjXjX/ < r x B x j j j t j j j x x j j x x x x t j x *.=.-.z v c #.=.=.=.*.*.c c v v v l l z %.v.:.l l z %.;.v.m.m.m.m.m.M.v y z #.z z &.n.n.M.n.n.n.N.1._ l.).'.].'.'.a.y.` W ~ ~ ~ ~ ~ ~ ^ ^ Y T ) ) ' ] ..X.X.X.h.h.j.h.R.XXXXXXoXXXXXT.T.R.P.h.h.Y.T.XXT.T.T.T.Y.R.R.K.h.R.Y.Y.Y.Y.Y.R.R.R.R.P.P.P.R.Y.Y.Y.Y.Y.R.R.XXj. .0 4 0 4 4 1 q q & $ > i M N t e e e ",
"-X-X-X>X>X>X>X-X-X>X>X>X>X>X>X>X>X>X2X2X>X>X>X-X-X-X-X-X-X-X-X-X>X>X>X-X:X:X-X>X>X>X>X>X>X>X>X>X>X>X>X>X6XtXtXtXtX2X2X2X2XtXtXtX2XpXpX3X3XaX3X3XaXaXaXaXaXjXjXjXjXwXr < x c D j x j w j j j j j j j j x j x x t x v =.=.*.c v c -.:.:.=.-.*.c *.b c v l v z %.v.:.l l z %.:.v.M.m.m.m.m.v.l w z %.z #.&.v.n.n.M.n.n.N.N.'.'.'.V.V.'.'.'.'.'.'.l._ J ^ ^ ^ ^ ^ ^ ^ J J Y Y s 8 2 m X.[ ] P.@X/.Y.T.Y.Y.XXXXR.R.R.P.R.Y.XXXXT.R.R.P.K.d.P.R.Y.Y.Y.Y.Y.Y.R.P.h.K.R.R.Y.Y.R.R.R.P.P.K.K.K.h.h.j.j.0 q & q & # & 5 V A >.S r : r a a ",
"-X-X-X>X>X>X>X>X>X>X>X>X2X2X2X2X>X>X2X>X-X>X>X-X-X-X-X-X-X-X-X-X:X>X>X-X>X:X>X:X>X>X>X>X,X>X>X>X>X>X>XtX6XtXtXtXtXtX2X2X2XtXtXtX2X2X2XpXaXaX3XaXaXaXaXaXjXjXjXjXjX3Xy t c *.x j j t t j j x j j j j j x x x j t x %.:.=.c v v v =.b.:.=.=.*.c *.b c v l v z %.v.:.l w z #.:.v.M.m.m.m.m.M.l w z %.z #.&.v.n.n.M.n.n.N.N.V.V.V.8.8.8.'.'.'.'.'.'.'.`.l._ J J G G G G J G G 9 0 6 W ] ] ' ' ) ] f.R.XXR.h.R.R.K.P.P.Y.R.R.R.R.P.K.d.R.T.Y.Y.Y.R.R.R.R.P.K.h.h.R.XXY.Y.R.R.R.P.K.K.h.h.j.X...' ) Y @ $ # ; m ( A 1.A a : : : e t r ",
"-X-X-X-X-X>X>X>X>X>X>X>X>X>X2X>X>X>X;X>X>X>X>X-X-X-X-X-X-X-X-X-X>X>X,X-X-X-X>X>X,X,X,X,X>X>X>X>X>X>X>XtXtXtXtXpXtXtXtX2X2XtXtXpXpXpX3X3X3X3X3XaXaXaXaXaXjXjXjXjXjX3Xg v *.>.j j j j j j j x j j j j j x x x t j x -.&.-.z l c x b.b.:.=.=.*.%.*.c c l v c z %.v.v.l w v %.=.v.M.m.m.m.m.v.l w z %.z #.&.v.M.b.b.m.n.n.m.V.V.'.'.8.8.8.8.8.'.'.'.'.'.'.'.x.i.t._ J 0 0 0 0 J ) X.K.h.h.K.P.P.d.] / ] X.d.h.h.h.P.R.P.R.R.R.P.P.P.R.T.T.Y.Y.R.R.R.P.P.R.R.Y.Y.Y.Y.R.R.P.P.K.S.j.j.X.X.' ) ~ W Y > > 5 V w.w.p.V r : : < t N N t t ",
"-X>X-X-X>X>X>X>X>X>X>X>X>X>X2X2X2X;X>X>X-X>X>X-X-X-X-X-X-X-X-X-X>X>X-X-X-X>X>X>X,X,X,X,X,X,X>X>X>X>X6XtXtXtXtXpXtXtXtXtXtXtXtXpXpXpXpX3XaX3XaXaXaXjXjXjXjXjXjXjXjX3Xy D 2.B j j j j j j j j j j j j j x x j t x c &.&.z v l *.v n.v.v.=.=.%.*.*.b z v c c z %.v.b.l w v %.=.v.M.m.m.m.m.&.w l z %.z %.&.v.M.v.b.n.n.m.m.V.V.'.'.'.'.'.8.8.8.8.8.8.'.'.'.'.'.'.'.).y._ ) X.h.h.d.j.f.f.f.d.d.d.R.P.h.f.) ..] j.R.R.Y.Y.R.Y.T.T.T.T.T.T.Y.Y.Y.R.P.d.R.T.T.XXY.Y.Y.R.P.h.h.f.f. .' ) ) W Y s p V ` w.w.1.w.A p = : : : < t S x r e ",
">X>X-X>X>X2X2X2X2X>X2X2X2X2X2X2X2X>X;X>X>X>X>X-X-X-X-X-X-X-X-X-X,X>X>X-X>X>X>X>X>X,X,X,X,X,X>X>X6X6XtX6XtXtXtXpXpXpXtXtX2X2XtXpXtXpXpXaX3XaXaXaXjXjXjXjXjXjXjXjXjX3Xw *.2.x j j j j j j j j j k j j j x x t t x *.:.-.v l b =.z n.n.b.:.=.%.=.%.c c c c v z %.v.b.l w l #.=.v.M.m.m.m.m.&.w l z %.z %.&.v.M.v.M.n.n.m.n.Z.V.V.'.'.'.'.'.'.V.'.8.8.8.8.8.x.8.V.'.'.'.'.'.).).).).H.d.....X.f.K.K.K.K.h.K.K.h.h.P.R.T.T.T.T.Y.Y.T.XXXXT.XXT.Y.Y.Y.Y.XXXXT.Y.Y.Y.R.K.h.j.j.X.' ~ ~ W n s d V w.w.1.e.e.N a d 8 : : : : < t x u 3.'.",
"-X>X>X>X>X>X2X2X2X2X2X2X2X2X2X2X2X2X>X-X>X>X>X-X-X-X-X-X-X-X-X-X>X>X>X>X>X>X>X>X,X,X,X,X,X,X>X>X>X6XtX6XtXtXpXpXpXpXpXtXtXtXtXpXpXpXpX3X3XaXaXjXjXjXjXjXjXjXjXjXkX).x 2.D j j j j j j j j j j j x j j x x t j v =.&.z v v =.=.c m.M.v.:.=.%.=.-.*.z c c v z -.v.b.l w l z -.v.M.m.m.m.m.&.w l z %.z %.&.v.M.b.v.b.n.m.n.m.V.V.'.V.V.V.V.V.V.V.'.'.'.'.'.`.8.8.8.8.8.V.'.'.'.'.'.'.'.'.).).P.h.h.d.j.j.h.h.f.j.K.R.I.Y.R.T.@X@XXXXXXXXXXXXXoXoXoXE.XXT.Y.R.R.P.K.j.X...' ) W Y s d m _ w.A ,.e.A a = = p M 5 : : : : : u a.'.'.'.",
"-X-X>X>X>X>X>X>X2X2X2X2X2X2X2X2X2X2X>X-X-X-X-X-X-X-X-X-X-X-X-X-X:X:X:X>X>X>X>X>X,X,X,X>X>X,X>X>X>X>X6XtXtXpXpXpXpXtXtXtXtXpXpXtXtXpXaX3XaXaX3XjXjXjXjXjXjXkX).x.8.8.*.2.x t t j t t j j j w w j x j j x j t x c :.%.z l c :.c %.m.m.b.:.=.#.-.=.*.c c c v #.&.v.n.l w l z -.v.M.m.m.m.m.&.l l z %.z %.;.v.n.v.v.b.n.n.n.m.V.'.8.8.8.8.V.V.V.'.'.V.'.'.`.x.x.x.V.8.8.8.V.V.'.'.'.'.'.'.'.'.'.).).h.X.f.f.X.K.P.R.P.R.R.R.Y.R.Y.T.XXXXXXXXXXXXXXT.oXoXXXT.Y.R.K.j...) ~ W n 8 5 d Z A 0.>.>.N , O O O O p M , = : : a a.].].'.'.'.",
"-X>X:X>X>X>X>X2X2X2X2X2X2X2X2X2X2X2X>X>X>X-X>X-X-X-X-X-X-X-X-X-X-X-X:X>X>X>X,X,X>X>X>X>X,X>X>X>X>X6X6X6XtXpXpXpXpXpXpXpXpXtXpXpXpXpX3XaXjXjXjXjXjXkXkX).x.x.7.7.7.7.2.*.k t t t t t j j j j j x x x x x w x c =.:.%.c l =.:.v *.m.m.n.:.=.z %.=.-.*.c v c z -.v.n.z w l z -.b.m.m.m.m.m.;.l l z #.z %.;.v.n.v.v.b.n.n.n.n.V.'.'.'.8.8.8.8.8.8.8.'.`.8.8.x.a.`.`.`.'.'.'.'.'.'.'.V.V.V.8.8.8.8.x.g.h.f.f.h.h.h.K.K.K.K.K.R.R.Y.T.T.T.T.E.T.R.R.T.XXoXXXY.Y.R.j...) W n p d a V A e.w.A M = O O O O O O + = = = : u ].'.'.'.'.'.V.",
":X:X:X2X2X2X:X2X2X2X2X2X2X2X2X2X2X2X>X2X>X>X-X-X>X-X-X-X-X-X-X-X:X:X:X>X,X,X,X,X,X>X>X>X,X>X>X>X>X6X6X6XpXpXpXpXpXpXtXpXtXtXtXtXtX2X1XXX0.z.kXkX'.x.8.8.7.7.7.7.7.8.2.c w w t t t j j j t j B x x x x j w x c :.-.%.v l N.=.v *.m.m.n.b.:.z -.=.-.*.*.z #.z -.M.n.z w l z -.v.M.m.m.m.m.v.l l #.#.z -.;.v.n.v.v.n.n.n.n.n.V.'.'.'.V.V.'.'.'.'.'.x.8.8.8.8.V.'.'.'.'.'.V.'.'.'.'.8.8.8.8.6.<.<.,.e.K.R.R.K.P.R.Y.R.j.f.j.K.R.Y.Y.Y.Y.Y.R.Y.R.Y.R.Y.Y.T.Y.h.X.' W T p p M A A A >.A A + + O O + O O - > , , , < < #.8.].'.'.'.'.V.",
":X>X2X2X2X2X:X2X1X1X2X2X2X2X2X2X2X2X2X2X>X>X>X-X-X-X-X-X-X-X-X-X-X:X>X>X,X,X,X>X>X,X>X>X,X>X>X>X>X6X6XpX6XpXpXpXpXpXtX2XtX6X6X;X:X+Xj.j.k.q.<.7.7.7.7.7.7.7.7.7.7.8.2.x t w t t t t t w w S c x x x x t x c -.:.-.z l z b.-.l *.n.m.m.n.:.z -.=.-.-.%.z %.#.%.b.b.z w l z %.v.M.m.m.m.m.M.l l #.#.z -.;.v.n.v.v.M.n.n.n.n.V.'.'.'.'.'.x.x.`.'.'.`.x.8.`.V.'.'.'.'.'.'.'.'.'.'.8.8.7.8.8.4.,.q.k.d.h.h.L.R.R.R.Y.Y.XXY.XXXXXXY.Y.R.R.P.K.h.j.X.X...' ' ..' ) T d d M A w.e.1.S S w.w., , - + + - , , , , , e , < #.$.8.].'.V.V.V.",
":X2X2X2X2X2X2X2X1X2X2X2X2X2X2X2X2X2X2X2X>X>X>X-X-X-X-X-X-X-X-X-X,X,X,X>X,X,X>X>X,X>X>X>X,X,X>X>X>X6X6X6X6X6XpXpXtXtX6X;X:X+X.Xj.X.j.j.h.h.h.y.6.9.9.7.7.7.7.7.7.7.4.D j t t t t j j t j x D c c x x j t c c -.-.%.c l *.b.-.l *.b.m.n.n.=.z -.=.-.-.*.-.-.%.%.n.b.z w l v %.;.M.m.m.m.m.M.z w #.z z &.;.v.n.v.v.v.n.n.m.m.V.V.'.8.V.V.8.x.x.x.x.x.x.`.`.'.'.'.'.'.V.V.V.8.8.8.8.6.<.,.u u y.P.R.R.R.K.j.j.j.K.Y.Y.XXY.Y.Y.Y.Y.R.L.K.h.j.X.X.' ~ W W T T W m d V A w.w.1.>.>.r.i.y.V , = + ; , , 8 i i , e e e p ,.$.$.V.V.V.V.V.",
":X1X1X2X2X2X2X2X1X1X1X2X2X2X2X2X2X2X2X2X2X>X>X>X:X-X-X-X-X-X-X-X,X,X>X>X,X>X,X>X>X>X>X>X,X,X,X,X,X6X6X6X6X6X6X6X;X:X+Xo.o.o.X.X.X.j.j.j.j.j.h.l.a.6.5.7.7.7.7.7.7.:.B j j j j j j j j x c b c c x N j j c #.=.%.%.l l -.b.%.l -.v.m.m.m.=.z =.=.=.-.-.-.-.-.&.n.;.z l l v %.;.M.m.m.m.M.M.z w #.z #.&.;.v.n.v.v.v.n.n.m.m.m.V.'.'.8.8.8.8.8.8.`.'.'.'.'.'.V.'.'.'.8.8.8.6.<.<.<.<.u e e u ,.h.h.K.K.K.R.K.K.R.Y.Y.R.R.R.R.R.K.K.j.j.....' ~ ) ~ Y s 5 n a ( ( w.e.>.S 1.w.w.r.1.w.` i ; , , , , , , i i a a N S ,.<.$.$.V.V.V.V.",
"1X2X1X1X2X2X2X2X2X1X1X1X2X2X2X2X2X2X2X2X2X2X>X:X:X-X-X-X-X-X-X:X-X-X,X>X,X>X>X,X,X,X,X,X,X,X,X,X,X>X6X6X>X:X+X.Xo.o.j.X.X.j.j.j.j.X.X.X.X.j.h.P.l.l.l.a.8.7.7.7.7.=.c j j j j j t j x c b b v c x x j c c -.-.%.z k l -.b.%.w -.v.m.m.m.-.z -.=.=.-.=.-.-.-.v.n.-.z l l l z &.M.m.m.m.M.M.%.w #.z #.&.;.v.n.v.v.v.M.M.n.n.m.V.'.'.'.8.8.8.V.V.V.V.V.V.V.V.V.8.8.8.8.6.<.<.<.,.S a f C A f <.k.j.j.K.h.j.j.j.K.R.L.R.L.L.j.j.j.j...' ' W W W 2 T p p M A w.r.i.0.a = N e.>.>.1.1.A e , 8 8 8 i 8 i i p a N C A B S u <.$.$.V.V.V.",
"1X2X1X1X2X2X2X1X1X1X1X1X2X2X2X2X1X2X1X2X2X2X:X:X>X-X-X-X-X-X-X-X-X-X,X,X,X,X,X,X,X,X,X,X,X,X,X,X,X,X:X<X}.o.X.X.X.X.j.j.j.j.j.j.j.j...X.X.j.h.h.h.h.h.h.g.a.a.6.6.*.x t t j j j j x v b *.*.c c x j l *.z =.%.%.v w l -.=.#.w =.v.m.m.n.-.z -.=.=.=.=.-.%.&.v.n.%.z l l l z &.M.m.m.m.M.m.&.l #.z #.&.;.v.n.v.v.v.b.n.m.n.n.V.'.'.a.4.4.6.8.V.V.V.8.8.8.8.8.8.6.<.<.<.<.,.u e a A e.w.>.A ,.t.X.j.L.R.K.L.L.K.j.j.j.j.j.X.' ' ) ~ W T n 8 4 > 7 m A w.e.w.Z e e r e N A A C A e.Z e , e i i i p a a a Z A C C A A : f <.$.$.V.V.",
":X1X1X1X1X1X1X1X1X2X3X3X2X2X2X2X2X2X1X2X2X2X:X-X-X-X-X-X-X-X-X-X-X-X-X-X-X,X-X,X,X,X,X,X,X-X<X<X.Xo.o.X.X.X.X.X...X.X.X.j.j.j.j.h.h.h.h.h.j.X.j.j.j.h.j.R.R.~.).r.D j t t j j x x c b *.=.c c x x k c c #.-.%.%.x w c :.=.c w =.M.m.m.n.*.v %.=.&.=.=.&.-.b.v.M.%.z l l l z -.n.m.m.m.m.m.&.l #.z #.;.;.;.b.v.;.v.v.n.m.m.n.V.V.V.`.`.`.'.V.V.V.8.8.8.7.8.6.<.<.<.,.S t r V w.r.e.>.>.w.A N ( d.j.j.h.K.K.K.K.j.j.X.X...) W T T s s p p d d M 7 C e.w.V : : : a S >.>.1.w.r.e.C N e , , e i a a N A A A A w.w.A M = = c $.$.$.6.",
"1X1X1X1X1X1X1X1X1X1X1X2X2X2X2X2X2X3X2X1X1X2X2X-X-X-X-X:X-X-X-X-X-X-X-X,X,X,X,X-X,X-X<X<X.Xo.X.X.X.X.X.X.X.X.j.j.X.....X.j.j.j.j.j.j.j.h.h.L.h...X.j.h.R.Y.T.Y.I.p.B w w t x v c b *.=.2.*.v v k k k *.z %.*.%.c x w *.b.-.c w :.M.m.m.v.%.v %.=.&.&.&.&.&.v.v.v.%.z v l l z -.M.m.m.m.M.m.;.l #.z #.;.;.;.v.n.;.v.b.n.M.m.m.V.8.V.'.'.'.'.'.8.8.8.7.7.<.$.<.<.,.f r a C A w.r.e.e.B 1.A S C ( h.j.j.j.j.j.j.j.j.j...' ) W n s p p d M Z A A ( m d p O = : : : N >.1.1.1.A e.>.1.V e i p M M N A A A 1.e.p.( a = : = + + ,.$.$.$.",
"1X1X1X1X1X1X1X1X1X1X1X2X2X2X2X2X2X2X2X1X1X2X2X>X-X-X-X:X-X-X-X-X-X-X-X-X-X-X<X<X+X[.o...X.X...........X.X.j.j.j.j.X.X.X...' ..X.X.X.X.j.j.L.L.L.R.XXR.R.h.h.P.P.1.x w k x c b *.*.=.2.c v l x w w v b z %.%.%.v w x =.b.%.v x v.M.m.m.v.-.z %.&.&.&.;.;.v.v.v.v.%.z v l l z -.M.m.m.m.v.m.;.l #.z %.;.v.v.v.v.v.v.b.b.n.n.m.V.a.8.8.8.`.'.'.8.8.6.<.<.<.,.,.u t C w.A >.w.e.e.>.B C w.S N C _ ] ..j.j.j.j.X.X...) ) ~ T s s n M V ` w.w.e.p.V s 5 ; = = : : : N >.2.1.A 1.>.B e.V a M N V A A A w.p.p.w.M = : : : = + = = ,.$.$.",
"1X1X1X1X1X1X1X1X1X1X3X3X2X3X3X3X3X1X3X1X1X1X1X:X:X:X:X-X-X-X-X-X-X-X<X<X<X+X[.o.....X.X.X.X.X.......X.X.X.X.j.j.j.j.j.j.j.j.........j.j.h.L.K.h.L.R.R.Y.XXh.j.d.1.x k v b *.*.*.=.=.c v v x l w w *.c z %.%.z l w z b.:.z x c n.M.m.n.;.*.c z &.&.&.v.v.;.;.v.;.%.z v v l z -.n.m.m.m.;.m.;.l z z %.;.v.v.v.v.v.v.;.b.n.n.m.N.).l.a.<.<.<.<.6.<.@.,.@.u t N ( y.p.p.p.y.V V S B A C >.1.A C V ( ) ' ..X.X...' ) W T n d m m ( y.i.i.i.p.Z ; X ; 9 , = = : : : N ,.1.>.f B 1.>.r.A A ( w.A A w.r.i.w.a - + = : : : = + + + = ,.$.",
"1X1X1X1X3X3X1X3X2X3X3X2X3X3X3X3X3X1X3X1X1X1X2X:X-X-X-X-X-X-X-X<X<X<X[.[.O.........X.X.X.X.j.j.j...X.X.X.X.X.X.j.j.X.X.j.j.j.K.X.X.X.X.X.j.K.h.j.j.h.L.R.XXXXL.G.1.x v b 2.2.2.2.*.c v v x x v c 2.2.z %.%.z v w x %.b.-.z w c n.n.M.M.-.%.v z &.&.v.v.n.v.;.v.&.%.z c v l l #.n.m.m.m.%.M.;.l z z %.;.v.;.v.b.v.v.v.b.n.m.n.N.A.d.s._ @.<.<.,.,.u u f ,.w.y.e.p.i.` m : = N C B >.( w.w.C f M _ / ' ' ' ) ' ) T s d M V ( i.e.e.i.w.p X X X X X 9 & = = : : < N >.1.e.e.1.w.e.e.e.p.>.A w.r.i.w.p O + + O = : : : O O = = O = u ",
"1X1X1X1X3X3X3X3X3X3X3X3X3X3X3X3X3X3X3X3X3X3X3X1X:X:X-X<X-X-X<X[.[.O... .' ........X.X.X.j.j.j.j.j.j.j.j.X.........X.X.j.h.L.K.h.L.L.L.j.X.X.f.j.j.L.Y.Y.Y.XXY.F.1.v *.*.2.2.2.*.c v c v k j c *.2.c z *.z z x w x -.b.-.z y #.;.n.m.M.-.*.v z &.&.b.M.n.n.v.v.&.%.z c v z v #.v.m.m.m.#.M.;.z z z -.v.v.&.v.b.v.v.v.v.n.m.m.N.A.f.' ) p e t e e u ,.S e.i.y.w._ i : : r r S e.r.w.r.e.e.w.S e V T ) ' ) ) ~ Y p M Z t.i.i.r.i.w.p X X X X X X $ 9 - = = = : : S >.1.r.e.e.e.e.e.1.>.w.r.i.w.d O o + O O O = = = = + + + = O O e ",
"1X1X1X1X3X3X3X3X3X3X3X3X3X3X3X3X3X%X%Xz.x.x.x.x.z.%X%XOX<X+X[.O. .) ) ) ' ' ' ....X.X...X.X.j.j.j.j.j.j.h.X.' ' ..X.j.j.j.j.h.K.j.h.K.L.L.X...X.h.K.L.L.R.P.S.u.D c *.*.*.2.*.D v v c v w k c v v v b %.z v w w c =.M.%.l w &.;.M.M.v.%.#.l %.&.;.v.M.n.b.v.&.-.%.z c c z z z :.m.m.m.#.M.;.z z z -.v.v.&.;.v.v.v.v.v.M.m.m.N.A.) T d i a N C A C ,.>.>.( a = : : : < N A >.r.1.w.>.A 1.>.f e f 2 T W ~ T s , a t.i.i.i.y._ , ; + + + O . + , 8 5 p i e e < < t B 1.e.e.e.e.>.>.w.r.i.` p o & - - + + = = = = = = + + + - O O e ",
"1X3X3X3X3X3X3X3X3X3X3X3X3X3X%Xz.z.8.6.6.6.6.8.8.8.8.x.z.l... .T W / / / / ) ' ' ' ' ' ' ] ..X.j.j.j.h.h.L.K.X.X.X.X.X.X.j.j.j.j.j.L.L.XXY.L.j.h.K.K.K.R.R.P.I.u.B c *.D c x B x x v v k l v 2.*.c z *.z c x w x *.b.v.%.w v ;.v.v.v.;.%.z z %.:.v.v.v.v.v.;.&.-.%.z z c z z z :.m.m.m.#.m.b.z l l &.v.v.;.;.;.v.v.v.v.n.m.m.N.N.V a V w.w.w.w.w.A <.M a > = : : : < < t S >.2.1.e.>.1.B 1.f e t ; 7 n Y T ] u.i.t.y.w.V , , , i - = + ; 5 i i p i p i a a a N S e.r.r.1.>.>.e.e.r.( i - > 8 5 , > > > > , , , ; : = = = - = + , ",
"1X3X3X3X3X3X3X3X3X3X3X%Xz.x.x.8.6.6.6.6.6.<.6.6.6.8.8.8.8.x.y.V d d m m W / / ) ) ) ) ' ' ' ..X.j.j.j.j.h.L.L.L.L.j.X.....X.X.j.L.L.K.K.L.XXXXXXXXXXY.R.Y.K.G.t.v v x x k S S x x v x k c c D *.c c b c v x t x =.M.v.z y %.;.v.v.;.&.%.z z -.:.v.b.b.v.v.b.=.-.-.%.z z z z z -.m.m.m.#.m.b.z l z &.v.v.;.;.;.v.v.v.v.n.m.m.N.N.A p.i.r.e.e.>.A i ,.: a w.V : : : < < x B 1.1.e.y.w.e.1.S S a t - p V t.w.).g.w.A C ( m p p p 8 + - , i i i i i p p i a V A A w.e.1.>.e.e.e.e.w.Z 2 8 p p p , , , , , , e e , , , = = + - = = , ",
"1X3X3X3X3X3X3X3X%Xz.a.4.6.7.7.7.7.6.9.<.<.<.6.6.6.6.6.7.7.8.8.x.e.a 5 i p m m T W / ) ) ) ' ' ..X.X.j.h.h.h.K.L.L.L.L.X.] X.j.h.L.Y.R.K.K.L.Y.Y.R.Y.Y.R.R.Y.u.A B x w w j D x x x x k B D b c l l c c c x k l z :.M.&.l y &.;.v.:.n.%.#.z z -.;.b.n.n.b.b.b.:.=.-.%.c v z z #.#.m.m.M.#.m.m.z l z &.v.;.&.&.;.v.;.v.v.b.n.m.N.N.3.i.i.y.A a : e , f : e f i : : : e e S >.1.e.1.w.r.a.1.>.C f u ; p N i.r.i.( A w.i.y.A V 8 - ; 5 5 , i 8 8 i 8 p a V A A >.w.1.A e.a.i.e.1.i.1.V n m s 8 , 5 5 5 i i i p p a a e + = = - + = p ",
"3X3X3X3X3X%Xz.a.6.6.6.6.7.7.7.7.7.7.6.$.$.<.<.<.6.6.7.7.7.7.7.8.8.x.,.; > 5 8 d n T / / ) ) ' ] ] X.f.j.j.h.K.L.L.R.L.R.L.L.Y.XXY.R.Y.Y.j.X.j.L.L.L.j.X.) ) T B c x k x D B x x x l c D v c b c l z c v l l l %.M.v.-.l l &.v.v.&.:.%.z z #.-.v.b.n.n.n.n.b.b.=.-.*.c z z z #.%.m.m.M.%.m.m.#.l z ;.v.;.&.;.;.;.;.v.v.b.n.m.m.m.A.w.p O O + = = , a - t f : : : : < e N >.1.r.w.w.w.>.e.>.N C f = a a A C 0.w.t.A 1.M , - , , , i , 5 i , , i p p V A w.w.1.1.e.i._.i.A A r.w.S V 8 , , i i 8 i i i i i i M V Z M + = = - O + p ",
"%X%X%Xz.a.x.6.<.<.6.6.6.6.6.6.6.7.6.6.6.6.6.<.<.6.6.7.7.7.7.7.8.8.8.8.e.a + = 5 p d m / / ) ' ' ) ] X.j.j.h.h.h.h.L.R.L.L.R.R.R.L.L.K.K.R.R.X.' ^ J Y J ^ ^ T D c x v B 2.x x x l x 1.b v c z *.v v v l l v z &.M.v.&.w -.b.n.v.b.-.#.%.z #.&.b.n.n.n.n.n.n.b.=.-.*.*.c z z %.&.m.m.n.&.m.M.%.l z &.;.&.&.;.b.:.&.;.v.v.n.m.m.N.2.+ O + + = = = - e < < N = : : : : < N >.1.r.i.e.i.e.e.B V f t = e e t t.y.i.A w.t., p p , , , e , i i p a , V m t.w.1.1.w.r.i.i.w.w.w.>.1.B e.m 5 i i i p p p p p e i Z _ / Z m + = + - O = d ",
"x.x.6.8.8.6.6.8.6.6.6.6.6.6.6.6.6.6.6.6.6.6.7.6.9.9.6.6.6.7.7.7.8.8.8.8.'.a.r = , 5 p m / ) _ T ) ' ..f.f.j.j.j.h.h.h.j.j.j.j.j.j.j.h.L...Y G J J J J J J ^ T 2.*.v b 2.D x x x k *.2.c c c z b c v l c *.-.-.b.M.n.:.w =.v.n.b.b.-.%.%.%.*.:.n.n.n.n.n.n.n.b.b.-.*.*.c z z -.;.m.m.n.&.m.M.#.l %.;.;.&.&.&.v.;.&.;.;.v.n.m.m.m.B + + = - ; - = : u r g r : : : : : < N >.1.a.r.1.e.e.e.>.C t e = e y e t.0.A A >.t.a p p i p p p p p i V V Z Z 8 w.1.r.i.i.r.Z : Z w.A A e.1.1.m i i , p p p p i e V ( ( / / / T = = = - O = m ",
"8.8.7.7.8.8.<.<.6.6.6.6.6.7.7.6.6.6.6.6.6.6.7.7.6.$.9.5.6.6.6.7.7.7.7.7.8.8.8.x.e.i ; 5 m T T / / ' ] ..X.f.f.j.f.j.j.j.X.X.f.f.j...~ J J J J J J J J J J J Y B.B.2.2.2.v x x x c 2.B v c c z c c v *.=.=.%.&.M.M.n.:.c :.&.&.b.b.%.#.%.%.-.b.m.n.v.n.m.n.n.n.:.=.-.*.z z z -.b.m.m.n.;.m.M.z l %.;.;.&.&.&.b.b.&.&.v.b.n.m.m.m.1., , : - - - , , f f r a i , , e e e N S >.e.e.r.i.r.r.A N t a : < a C 1.A t B i.( p a a p a a M V V Z Z i.w.N M Z i.i.i.V : : < V 1.>.w.>.w.1.M i i p p i e i M ( ( ( / / / W T + = + = O ; T ",
"<.6.6.7.8.8.8.6.$.$.<.<.6.7.7.6.7.6.6.7.7.7.7.8.7.6.6.6.6.5.5.6.7.7.7.7.7.7.8.8.8.x.x.1.a i s m W / ) ' ] ] ....X.X.f.X.X.X...) J G G G J G J J J J J J J J J 2.B.=.2.*.x x B B D B v l l c c c l *.=.*.#.%.v.n.M.b.%.=.n.b.;.&.&.%.z %.%.%.=.n.n.&.v.n.m.m.N.:.=.-.%.z z z -.n.M.m.M.v.m.M.z l -.;.;.&.&.;.b.:.&.&.;.b.n.m.m.m.=.r i p , , , , , f f t f i i i a a N N w.r.e.r.i.i.a.i.S N e N i a A >.1.w.A 1.r.Z a a p a V V Z A t.i.A A w.` i.m i.V = : : < C B 1.w.1.1.e.e.a i i i i e p Z _ / / W W W W W m = = + = + 5 ] ",
"$.<.<.6.6.6.6.6.7.6.6.<.$.<.6.7.7.7.7.8.8.7.7.8.8.8.8.8.8.7.6.9.5.7.7.7.7.7.8.8.8.8.8.8.x.e.a i d m T / / ) ] ] X.f.f.X...~ J G G G G G G G G G J J J G G G G >.=.2.b c B B c c c v l l v v c z *.2.*.#.%.&.v.n.n.v.z :.n.m.n.b.:.-.%.%.=.%.%.b.b.-.&.v.m.m.N.=.&.=.%.b z z =.m.m.m.M.M.m.M.z z &.;.;.&.&.;.v.&.&.&.;.v.n.n.m.m.n.N a i , , i i e a a f N p d d M V C e.e.r.a.a.a.i.r.>.t N g B N S N e.1.w.C S >.e.a a a Z C A t.y.w.w.w.e.i.` i.m + = : : < : S B 1.>.w.1.>.e.a i i i a m _ / / W W W W W W W T + = + - + 8 s.",
"<.<.<.<.<.<.6.6.6.6.7.8.7.$.$.6.7.7.8.8.7.7.7.7.7.8.8.7.7.7.7.9.9.7.7.7.7.8.8.8.8.8.8.8.8.8.x.a.N i p d T / ) ' ..X.f.) J G G G G G G G G G G G G G G G G G G B =.*.c v l l v *.v v *.b c v v *.2.*.#.%.&.;.v.v.v.-.l n.n.m.n.b.:.=.-.-.&.=.-.;.;.&.&.v.n.N.n.b.=.-.*.c z #.v.m.M.m.M.M.m.;.l z &.&.&.&.&.;.b.&.&.&.;.;.v.n.m.m.m.D 5 i i i e i i t a f C a N Z C C >.r.).).).r.e.e.e.1.< : : f C A A w.i.y.i.w.r.w.a V V ` y.i.A w.r.i._.i.w.8   X = : : : : : N S 1.1.B 1.>.w.a p a M / / / / W T T W W T W W m + = = - - n H.",
"6.<.<.<.<.$.<.<.<.6.7.8.7.8.$.9.9.5.6.7.7.7.7.7.8.7.8.7.7.7.7.7.7.8.8.8.7.8.8.8.8.7.7.7.7.7.7.8.8.,., i W ..h.L.h...s 4 0 0 0 0 0 0 0 0 G G G G G G J J J J J Z =.*.b v l v b *.c =.=.=.*.v *.2.*.z %.-.;.v.v.v.&.#.w n.m.m.m.b.b.b.b.=.&.b.v.;.;.v.v.v.m.n.b.N.=.%.*.b %.%.n.M.m.m.M.M.m.&.l #.&.&.&.&.&.;.;.&.&.&.;.;.v.M.m.m.m.B.p i i i i e e t a t C C >.>.0.e.a.).).i.M : >.>.>.S = = g u ,.S A A p.i.w.e.r.r.p.y.i.i.p.w.i.i.i.i.t.p X 4 . X + : : : : : N S 1.w.w.w.w.w.a m Z m / / / W T W T W W W W W T + + + ; 5 m U.",
"6.6.6.<.<.<.$.<.<.6.7.7.7.8.8.8.8.8.7.5.9.6.6.6.6.7.7.7.7.8.7.8.7.7.7.7.7.7.7.7.7.7.7.7.6.9.6.<.,.q.f.XXoXoXoX@XoX@X#X.X^ q 4 0 0 0 0 0 0 G G G G G G G G G G J B.B.=.*.*.=.2.z =.=.=.b.:.=.B.*.#.%.-.&.v.v.;.v.-.*.w n.m.m.n.m.n.b.v.b.b.v.v.;.;.:.b.n.m.n.b.N.b.-.z %.%.&.n.M.M.m.M.m.M.%.l %.&.&.&.&.&.&.&.&.&.;.;.;.v.v.M.m.m.B.n i i i i e e f f S >.1.2.e.a.)._.w.a g y e e B 1.S = = g u ,.A r.A A w.i.r.i.r.p.p.t.y.).).i.i.( , O o o 2 . X + = = : : : N B w.A A A N V / / / W W W W W W W W W W W ) ] ' + = = > 8 W /.",
"8.8.6.6.6.<.<.<.<.<.6.6.6.7.7.7.8.8.8.8.7.9.9.9.6.6.7.7.7.7.7.7.7.7.7.7.7.7.7.7.7.5.9.9.$.,.>.y.U.Y.Y.Y.XXXXXXXXXXXXoX@X#XL.Y 1 0 0 0 0 0 0 0 0 G G G G G G G G 2.n.n.b.B.4.2.-.b.=.=.=.=.:.=.*.#.%.&.;.v.;.&.-.%.z w n.m.m.m.m.n.;.v.n.b.v.v.v.v.b.n.m.n.n.b.N.N.=.*.z -.b.n.M.M.m.M.M.v.z l %.&.&.&.&.&.&.&.&.&.;.;.;.;.M.v.n.m.2.5 i i , i i a C f >.,.r.a.a.i.( e g y g y e y S 1.A O : : a B B a.r.r.a.i.a.e.w.w.p.J.).).g.( , + & - - + + 5 8 , - = = = : N B A A V V _ / / / W W / W W W T T T / ] s.G.J.f.= = = > p / /.",
"6.7.8.8.8.<.$.$.,.,.6.6.6.6.6.6.7.7.7.7.7.7.9.6.9.6.7.6.6.6.6.6.7.7.6.7.6.7.6.9.$.$.$.@.0.g.P.P.P.R.R.R.P.K.K.P.L.R.R.R.R.XX#XX.0 0 0 0 G G 0 G J J G G G G G J / B.N.n.n.N.=.b.=.:.=.:.:.=.=.*.*.&.;.v.;.;.&.-.%.c l m.m.M.m.M.v.v.b.b.v.b.b.b.n.n.n.m.n.n.n.N.N.b.%.z &.b.M.M.M.m.M.M.&.l z &.&.&.;.&.-.&.&.&.&.&.&.v.M.m.m.m.n.S 1 5 p a N N f S A 1.1.i.t.m = g y y y y e r r V 1.A O O = , N B r.i.i.i.w.1.w.t.i.).).J.] 8 9 Y Y s 2 > 5 p p p i p p 8 , , N C A Z Z _ / / W W / / / W W T T W { f.J.U.U.U.f.= = = > s ) ^.",
"6.6.8.7.6.6.6.4.<.,.@.<.9.6.6.6.7.7.8.7.7.7.7.7.8.6.6.7.6.6.7.6.5.6.7.6.6.$.$.$.$.,.q.g.h.h.K.h.K.K.P.P.h.j.f.f.f.f...j.R.T.oX@X@X..Y J J G G J J G G G G J J ^ Y 1.:.n.n.N.N.b.=.b.b.b.:.=.-.-.&.;.;.v.:.&.=.%.#.z *.m.M.m.M.M.;.n.v.v.b.b.b.n.n.m.m.n.n.b.n.N.N.b.*.%.b.M.M.m.M.M.M.M.&.z #.&.&.&.&.&.%.%.&.&.;.b.:.v.m.m.m.m.3., ; ; 5 V A C 0.0.w.w.C d p , < y y y y e e r e V 1.A X O + = a e.p.( ( A ( w.i.i.).g._ 8 9 Y T Y n p p s p p i p p p p i a M Z A A _ / / / / / / / / W W / / ) f.I.U.H.U.U.U.f.= = = > s { /.",
"<.6.6.6.6.6.6.6.8.<.,.@.9.<.9.6.7.7.7.7.7.8.8.6.6.8.5.7.7.6.7.6.6.<.$.$.@.$.<.<.l.g.d.d.j.f.f.f.f.d.h.h.h.f.' ) ) j.Y.R.R.Y.Y.XXoX@X#Xj.s 0 J J G G J J J J J J J Z =.=.=.b.b.-.=.=.b.b.=.-.-.&.&.v.v.b.:.=.-.*.z *.:.n.M.M.m.m.v.;.v.v.b.n.n.n.n.m.n.b.n.n.n.N.N.N.=.%.b.M.M.M.M.M.M.M.&.z %.;.&.&.&.&.-.&.v.b.b.n.b.n.n.m.m.b.D - % ; ; , w.y.p.A V < N m n & < g y e y y e e e V >.A p ; = = M V V _ ( w.i._.).i./ 7 9 n W T m p p p d d d a p a a p a V Z A _ / / / / / / / / / / W / W ) [ I./.U.U.U.U.!.T.f.= = = > s ) /.",
"<.<.6.6.6.6.6.7.7.7.6.$.$.$.<.6.6.6.7.7.8.7.8.8.7.7.5.5.6.9.9.$.$.$.$.<.<.e.t.g.d.d.f.f.X.X.X...X.f.f.j.j.f./ ' f.j.d.h.K.P.R.Y.XXoX@X#X#XX.s G G G G G G G G G G n *.*.b c b b *.*.*.-.-.=.:.;.v.v.v.;.=.=.-.*.v N.:.b.v.m.m.n.b.v.;.v.b.n.n.n.n.n.n.n.n.n.n.N.N.N.b.:.b.n.n.M.M.M.M.M.v.#.&.;.:.;.&.b.:.&.;.v.b.n.b.n.n.n.=.j - % % % ; ; i ( m f O : d 5 + - < g g g g g y y y N B A ( m p m _ ( ( w.i._.).i.r.y.m n m m m s p p a d d p a a a a N Z ( ` _ / / / / / / / / / / / / / ) ] d.T.^.^.^.^.^.^.^.^.f.= = - , s { W.",
"<.<.6.7.6.7.7.7.8.7.7.<.@.@.@.$.<.6.6.7.7.7.7.8.7.6.9.$.9.6.$.<.<.2.e.t.f.d.f.f.f.[ ..........] X.d.h.R.R.Y.XXXXY.h.f.d.d.K.P.R.R.Y.Y.XX@X@X$X) 0 0 9 G G G G G G J B k x x k x c c z z =.b.b.b.:.:.;.&.=.-.%.v =.n.;.b.n.M.n.n.n.n.b.b.b.b.n.n.n.n.b.n.n.n.n.n.n.b.b.b.b.n.n.n.M.M.M.M.M.-.%.;.v.b.&.:.b.&.&.&.;.n.b.n.N.2., % & & % % % ; ; , = S O + : p M a a a r r r y g g g N A p.A i , i M Z i.i.i.i.r.y.i.i./ m n p p p p p d a p p p p M Z ( p.w._ / / / / / / W / / / / / / ] d.T./.U.^.W.^.^.^.^.^.^.X.= - - , p { W.",
"<.<.6.6.6.7.6.8.8.7.6.8.8.8.6.<.$.6.6.9.9.9.6.7.6.$.$.@.@.<.q.t.k.d.f...X.X.......f.] ] ] ' ] f.f.d.h.h.K.K.P.R.R.Y.R.f.f.d.h.K.P.R.Y.Y.XXXX@X#XXXW 4 0 0 0 0 G G 9 2.x w j j j x B v c *.=.:.:.;.:.:.:.=.-.-.#.b.v.;.n.b.n.n.n.n.n.n.n.v.b.v.b.b.b.b.n.n.b.b.b.b.v.v.b.b.b.M.n.;.M.m.m.m.;.%.;.v.v.;.&.:.:.:.&.&.b.b.3.D r & % & % % % % % ; 4 i N 5 M V V V V N N N N N N N A ( w.t.C p i d m e a i.i.w.w.w.i.i.( n p 8 i p p a p a p p p M ( ( ` w.] ) ) ) / / / ) W W W W W / [ d.U././.W.U.W.^.^.^./.^.^./.[ = - - 5 p ] /.",
"<.<.<.6.8.8.8.8.7.6.6.8.8.8.7.6.<.6.<.$.$.$.$.$.,.,.,.e.y.t.f.f.j.f.X.....X.f.f.f.f.X.' ) ..f.f.f.f.f.f.h.h.K.P.R.R.R.Y...X.h.K.P.P.R.Y.Y.XXXX@X#X#XoX .3 4 0 0 0 0 D 1.x j t t r x x r r v %.-.=.=.=.=.=.=.b.b.n.:.;.b.v.b.b.b.b.n.n.n.b.v.v.v.v.v.v.v.v.v.v.b.v.v.b.b.b.v.M.M.;.M.m.m.m.v.%.;.&.=.:.&.-.=.N.*.c x j < & & % % % & & % % % ; s k._ V Z V V V V V V Z Z V A w.w.w.Z N a a V A V , a ( p.A y.p.w.e.( 8 p p p p p p p p a M V Z ` ( ( ) / ' ' { / / / / W W W / ] d.I.U.U.^.^.^.U.^.^././.^./.^.^.[ = - - 5 p [ /.",
"$.<.<.6.8.8.8.8.8.7.7.6.6.7.<.$.<.<.<.,.,.1.0.q.t.t.f.f.f.f.f.j.j.j.j.f.f.f.f.......X.] f.f.X.f.f.f.f.f.j.j.f.j.h.P.R.Y.R.R.P.h.h.h.h.K.R.Y.Y.XXXX@X#X$X$Xj.~ 9 3 5 x 1.N N j r < < y x x y y l l z c c c x =.b.b.&.&.:.:.b.:.:.;.v.b.b.b.v.v.v.v.:.;.;.;.:.;.v.v.v.b.b.v.v.n.M.v.m.m.m.m.v.&.;.=.=.=.*.c S t , & & & & & % % % % & & % % ; 4 t.~.g.V V V V V Z A Z A w.e.w.( N a a a A r.i.p.Z e d ` w.w.w.w.i.w.V p p p p p i i p M V V Z ( / ) / / ) ' ) ' ) / ) ) ) / ) f.I.E./.^.^.^.^.U.^./.^./.^./././.^.[ = - - 5 p [ /.",
",.,.$.<.6.7.8.8.7.7.7.6.<.$.$.u u S 0.t.t.u.f.j.f.f.f.X.X.f.f.X.f.f.f.X.f.f.f.j.j.d.d.h.h.d.f.....f.f.f.X.X.f.f.h.K.R.R.R.R.R.P.h.f.f.f.d.j.h.R.Y.XX@X@X#X#X#X$X$XoXu.j y y y t r t j v v x x l c t S B j t x *.*.*.-.-.-.-.=.=.&.&.&.;.v.v.v.v.v.v.v.:.:.v.v.v.b.v.v.b.v.;.n.v.M.Z.Z.m.m.n.=.=.b x r , + $ $ & & & & & & & & & & % % % % 1 ) ~.~.z.t.V V Z V V A w.y.t.A V a a N A w.w.e.w.S a e M w.y.w.i.w.` p.V p p p p p p d V Z _ ( _ / { ) ) ) ) ) ) / ) / ) ) ' f.P.E.U.U././.U.U.U.U.U.U.G.U.U.^.^./.^.] = - - 5 p [ /.",
"f u ,.<.6.6.6.6.6.9.<.$.$.@.f _ t.u.f.f.f.f.f.f.f.f.f.f.f.X...] ] ' ] ..f.f.f.f.d.j.f.f.f.f.d.d.......X.f.f.d.h.h.h.K.R.R.R.R.R.R.R.d.[ ] X.K.Y.T.XXXXT.Y.T.XXXXT.T.T.( r r t r t j x c *.*.=.=.*.r . + r B c c c v v z c %.=.=.-.-.&.&.&.&.&.;.;.v.v.b.v.v.v.v.v.b.b.b.;.&.b.v.m.Z.m.m.m.b.B j , # o @ # $ $ $ & & & & & & & & & % % % ; ] ~.~.~.~.g.( V Z ( t.y.i.w.V a r e ( p.>.>.C f t N a Z w.w.e.A w.V V e.M p i p p n V V ( ` ] W W / ) ) ) / / / / ) ) ) ) [ S.W././.^././.^.^./.^.^.^.^.^./././.W.U.^.] = - - 5 p u.(.",
"0 s a u ,.6.$.9.<.$.$.@.,.( [ ....X.X.f.f.f.f.f.f.f.f.f.f.f...) ) ] X.f.X.f...f.f.X.f.f.f.d.j.d.d.f.] X.f.f.f.j.j.d.h.K.P.R.R.Y.R.R.T.d...R.XXY.R.R.R.R.P.h.K.P.L.K.K.] j j j t j j x c *.=.B.B.D + . . X , x b 2.=.*.*.#.c v v c #.%.-.-.%.-.-.&.&.=.:.:.b.v.;.v.v.b.b.&.&.;.v.m.Z.Z.N.B.c , o o o $ $ $ $ $ $ $ $ & & & & & & $ & % 4 ] ~.%X%X%X~.).g.( y.g.g.( N a e e r t t N f t t t f N N V A A A ( V V a N Z p p M M Z ( ( { ) ) ) / W W T W ) ) ) / ) ' X.P.U./././././.(././.(.(.(./.(.(././././.^.U.U.] = - = 5 p f./.",
"0 0 2 5 e @.,.$.<.,.C ( ] ] ] ] ..........f.f.f.X.f.f.f.f.j.j...f.f...f.X.....X.X.f.f.j.j.j.f.f.j.h.d.f...f.f.j.j.d.h.h.K.P.P.R.Y.Y.T.T.XXXXoX@XoXR.K.h.P.h.K.h.j.j.X._ N j j j j j x B B S j =   . * * . . . = B 2.=.=.=.=.=.=.*.*.z z z z z z z %.%.%.%.=.v.&.;.=.b.b.n.;.m.n.v.Z.m.=.x = o @ $ $ $ $ $ & & & $ # $ $ & & & & & & p k.~.~.~.%X%X%X~.l.y.t.w.V a a S a i a a r r a f f N >.1.A M ( A ( ( A w.w.A V M _ ` _ Z _ / / / ) ) ) / / / W T T / { f.I././.(.(.(.(.^./././.(.(.(.(./.(.(./././././.^.W.) - - = 5 p f./.",
"4 4 1 ; g f f u u V ( ' _ ) ) ' ] ] [ ....X.X.f.f.f.j.j.j.j.j.j.j.j.j.............f.f.j.d.h.R.P.h.h.K.K.j.X.X.f.j.d.d.K.K.K.R.XXT.R.R.R.R.R.Y.Y.T.oXoXR.K.K.h.h.j. .) / N j j N V r > +         . . . . * * . o o r c *.=.N.=.:.=.b.b.b.b.B.=.*.=.=.=.-.%.&.b.N.N.N.N.m.m.v.m.b.:.b.b y $ @ # $ $ $ $ $ # # $ & & & # # # $ & % ; T l.~.~.~.).~.~.%X%X).l.0.V N A e.r.C e , + , V a N A >.>.1.C a Z V V Z w.A ( A ( t.k.` / / W W W W W W W W W / W / ) X.D.G.J.^.(.(.(.(.(././././././.(.(.#X(.(./././.(././.T.{ - - - 5 8 f./.",
"f 1.4.8.8.8.8.8.3.V V _ / / / ) { ' ] ....f.f.f.f.f.f.j.f.f.f.f.f.f.j.d...' ] ] X.f.d.d.d.j.d.K.P.P.P.R.R.R.h.f.f.f.f.f.f.h.h.K.P.R.T.XXR.K.R.R.h.K.P.P.K.K.h.X.' W W m M p i , + X X               . . @ @ @ @ $ $ $ + e D *.=.:.b.N.N.n.N.N.=.N.n.N.N.N.b.n.N.n.n.b.b.:.:.3.2.c B + o @ $ @ $ $ $ $ $ $ @ @ @ $ & $ @ @ @ + 8 ` ~.~.~.~.).~.~.~.~.).).l.y.A y.e.r.r.a O = = < C w.w.e.w.1.1.Z p V Z Z V V ( A ` t.u.' / / W W W W W W T T T W W / [ D.I.!./././.U.H.^./.(.(.#X(.(.^././././.#X(.(.(.(.(./.(./.{ = - - 5 8 f./.",
"8.7.7.7.7.7.7.8.8.8.1.V T / / / / ) ] ] ..f.f.f.f.f.f.j.j.f.f.f.f.f.j.j.h.] ) ] X.f.j.j.K.K.P.R.R.R.Y.Y.T.T.Y.Y.K.X.] ] f.h.R.R.R.P.P.P.R.I.P.P.K.h.f.d.j.X...) W W / Z p o                       .   . * @ @ @ $ & & & $ & + < x c c 3.N.b.N.b.b.=.N.N.N.b.=.B.N.=.D < y r : o . $ @ @ @ $ $ $ $ $ & & & $ $ $ & % & # @ 4 W k.l.).).).).).).).).~.).~.).l.w.y.i.Z = + + = , w.e.1.1.B >.>.>.V a V Z ( w.( ( ` t.) ) ) W W W W W W W W T W W W ' f.G.U.^./.(.(.(.(.(.(.U.H.H.U.#X(.(.(./.(./.(./.(.(.(.(.(./.(.{ - - ; 8 8 f.E.",
"9.6.9.7.7.7.7.7.7.7.8.a.V m V / / / ) ' ] ....f.f.f.f.j.j.j.j.f.f.d.h.h.K.L.f.j.X.f.f.f.f.j.j.d.f.f.f.f.f.h.d.d.K.R.K.R.P.h.P.R.R.Y.R.P.K.P.d.f.d.j.j.X...) T T T / t.i.` $ .                     . . . * * @ $ $ & & & & $ $ $ $ .   = j c D D b b *.B t < < < < = . .     . . . . * @ @ @ $ $ & & $ $ $ $ $ & % % & ; m t.g.l.l.l.l.).).).).).~.~.~.~.).l.y.Z = O O + + + e 1.>.>.A A C A A a d Z Z ( ( ( ] ) / W ) W W W W W W W W W T W ' j.P.P.U.U.^.U.U.^.^./.(.(.(.(.(.U.G.U.U.#X(.#X/./.(.#X(.(./.(.(././ - - - 5 8 f.E.",
"9.6.9.5.7.5.5.7.7.7.7.8.x.1.N V V / / ) ' ] ....f.f.f.f.f.j.d.d.d.d.d.d.h.h.P.K.P.K.X.....] [ [ ] ] f.h.P.h.d.] / ] j.K.d.K.P.K.K.h.K.K.K.d.j...X.X...) T Y Y m m Z w.p.t.+ . . .                 . . . * * * @ $ $ $ & & % % & & $ $ $ @ @ . . . . . . . . .   @ .         . . . . * @ @ @ @ * @ # $ @ @ # $ & % & p t.g.g.g.g.g.l.l.).).).).~.~.~.).).~.z.l.t.- O O O O + e >.A >.A >.C f C p , M _ t.t.) W / ~ ) ) W W W W W W W ~ ) ] j.I.T.U.U.U.U.^./././.^././.(./.^.(.(.(.#X(.G.F.J.@X#X#X#X#X(./././././ - - - 5 , d./.",
"9.9.9.9.9.9.9.9.5.7.7.7.7.8.x.1.M V _ / / ' ] ] ] ] ..f.j.j.d.j.j.j.j.d.h.h.h.h.K.P.K.f.] ' ] ] d.R.R.R.Y.R.R.R.f.{ ] h.P.[ ] K.R.P.X.f.f.X.X...' ) T T Y m n M V ( i.J.i.; @ .                     . * . * * @ $ $ & & & % & % % % & & & $ $ # # # $ $ $ $ # * *         . . . . . @ @ @ . . . @ @ $ $ o # $ $ ; _ g.l.g.g.g.g.g.l.).l.l.l.).).~.~.~.).~.~.).g.M O O O O O e B B S A A a C A i 5 / ] ) W / ~ ) ) ) ) ) W W W W ) W ' j.T.T.U.U.U.U.I./.^./.U.U.U./.^./././.^./.(.(.(.U.(.(.P.D.G./.#X#X(.(.#X(./ - - - 5 5 P.(.",
"$.$.9.9.9.6.6.6.5.7.5.7.7.7.7.8.x.>.m V / / / / ' ] ......f.f.f.f.f.f.j.j.h.j.d.d.K.K.P.X.] X.h.P.R.R.R.Y.Y.XXT.T.f.) ] P.R.X.] f.P.h.X.] ] ) W Y Y n n m m V t.g.).).).).8 # * . .                 . * . * @ # $ $ & % % % % % % % % % & & & & & & & & & $ $ @         .   . . . . * * @ . . . @ $ $ $ # @ & d t.l.l.l.g.g.k.y.g.g.l.l.l.l.z.).).).).).~.).).l.t.i O O O O e B N N N S V N Z 8 8 m W ) ~ ) ) ) ) ) ) / W W W ) ' X.Y.T.T.E.E.U.T.U.U././././././.(././././.T.U./././.(.(.(.(././.T.F.J.U.#X#X#X/ - - ; 5 5 J.@X",
"$.$.9.9.9.9.9.9.5.5.5.5.7.7.7.7.8.8.a.V m V / / ) ] ] ] ] ] ........f.j.d.d.h.h.K.P.P.R.R.Y.Y.Y.Y.Y.R.R.R.Y.XXT.E.T.I.X.f.R.Y.h.f.X.f...' W T n s n m m Z u.J.).).).).i.r.d $ $ .                     . * * @ $ $ $ & & & % % % % % % % % % % % % % % & & $ $ *           .   .   . . . . . . . @ & & & & p ` g.l.g.l.g.g.g.y.y.y.y.y.g.l.l.l.l.).).).).~.).).).g._ = O O O < S C A A Z Z _ Z W W W W W ~ W W W ) ~ ) / / W ) ' f.P.T.E./.(.(./.(././.(./.@X(.(././././.^.U.^.U.U.U.!.(./././././.(./.#X/.F.G.I.W - - ; 5 5 I.(.",
"$.$.9.9.6.6.6.7.5.5.5.5.5.5.7.7.7.7.8.x.>.M W / / ) { ' ' ] ] ........f.j.h.K.h.K.K.K.P.R.R.R.R.Y.R.R.K.K.K.K.R.T.Y.R.T.X.f.h.K.X.' ) W T Y s s m m ( g.).).).).J.i.A A 1.p $ @ .                     . * @ @ $ $ & % % % % % % % % % % % % % q % % & & & & $                     . . . . . . . @ $ & , _ k.g.l.g.g.g.g.g.g.k.y.y.y.y.g.l.l.l.l.).).).).~.).).).).y.d + O O e N C C C A _ / W / W W ~ W W W ) ~ ) ) / W ) ' ..X.f.J.E.(./.U.(./././.(.@X(.@X(./.U.U.^./.U.T.I./.T.U.U.U.U./.U.U./././.(.(.(.(.#Xm ; - - 5 , T.@X",
"6.9.$.$.9.6.7.7.5.5.5.5.5.7.7.7.7.7.7.8.8.2.M m V / / / ) { ] ] ......f.d.d.d.d.h.h.K.P.P.R.R.R.R.P.P.d.K.K.h.d.d.h.d.d.d.' ' ) T T Y s s s d V t.g.).).).).g.w.f N S S B a $ .                       . * * * $ $ & % % % % % % % % % % % % % % % % % % & & $             .               . . . # - a q.y.g.g.g.g.g.g.g.k.g.k.y.y.y.y.g.g.l.l.l.).).).).).).).).).l.q.i - = e V V V A Z / / W W W W W W W ~ ) / W ~ ) ' ..f.d.P.T././././.U./.(.(.(./.@X(.(.^.U.U./.U./.^.T.T.U.U././././.U.^././././.U././.(.#Xm - - - 5 , D.@X",
"9.6.7.9.$.9.9.9.9.5.5.5.7.7.5.5.7.7.7.7.8.8.x.N M m T / / ) ' ....X.j.h.h.h.d.h.K.K.K.P.K.K.P.P.P.K.P.P.f.d.f.X...] ] ' ) W n n n s p p m ` i.).).).).).i.A t f f t N S w.V @ . . .                 . . * * * @ $ & % % % % % % % % & % % % % % % % % % % & o                             . . o , _ t.t.t.y.y.g.g.g.y.y.y.k.k.y.y.y.y.y.y.g.g.l.l.z.).).~.).).).).).y._ i p V C V Z _ / / W W W W W W W W ~ ) W ) ' ..f.f.P.T./././.^./.(././././.(././.^./.^././.U.!.U.U.I.U.U.I.U.U./.U.U././././.U.U.U.^././.m - - - 5 , I.d.",
"6.9.9.7.6.$.$.9.9.9.5.5.5.5.5.5.7.7.7.7.7.8.8.x.>.a M / / { ' ] ..f.f.f.f.j.d.h.h.K.K.h.h.h.h.K.K.d.j.d.f.f.[ ' ) T T Y n Y s p p m V t.J.J.).).).).y.N t t t t t N w.J.g.A $ . * * .             . . . . * * @ $ $ % % % % % % % % % % % q q % % % % % % & o .                           . ; p _ q.w.t.t.y.y.y.y.y.y.y.t.y.y.y.t.t.t.y.y.y.y.g.l.l.).).).).).~.).).l.t.V M V m W ) ) ) / / W W W W W W ~ ) W ) ..X.f.S.I./.(.(.(.(./././.(.(./.(././././.T.T./.U.^././././.U.U.U.I.U.I.T./.U.U.U./././.U.T.!./.n - - - 5 , E.@X",
"9.9.9.9.5.9.$.$.$.9.9.9.9.5.5.5.7.7.7.7.7.7.8.8.8.3.a V _ / / ' ' ] ..f.f.j.h.h.K.K.K.h.d.j.j.j.f.j...] f.] ] W T n n s p p d M ( y.J.).).).).).t.N f t t t t f w.i.i.i.i.` & @ * * .   .         . . . . * * @ $ $ % % % % % % % % % % q q 1 1 % % % % ; ; . o &                       o 5 V V Z ( 0.q.t.t.t.y.t.t.t.t.t.t.t.t.t.t.t.t.t.y.y.y.g.l.l.l.).).).).).).l.y.( m m / / ) ) ) ) / W W W W W W W W ' ..f.S.I.E./.(.(.(./././.W./././.(.(././.U.T././.T.(.U.U.T.U.U./.U./.I.@X/.U.^././.U./.U.U.U./.U./.s - - ; 5 , @XI.",
"6.9.9.9.5.7.$.$.$.9.9.9.5.5.5.7.7.7.7.7.7.7.7.8.8.8.x.>.a d _ / _ { ] u.f.f.j.d.d.d.d.j.j.X.....) ' ' ) W T n n n s s s n V ( i.J.).).).).t.V ( ( t t t t C w.w.( Z ( i.i.w.; $ * * . . .           . . * * @ @ $ $ % % % % q % % % % % q % 1 % % % % ; - = , p i > .         X X X   o , M V V N V ( 0.t.t.q.t.t.t.t.t.t.0.q.q.0.q.q.q.q.t.t.y.g.l.l.l.).).).).~.).).g.t._ W / W W W W W W / W W W W W ) ] X.s.P.T./././.^./././././.U.!.^././././.(./././././.^././.U./././././.T././.T.T./.U.U.U.U.U./.U./.E.s - - - , > G.U.",
"6.7.7.5.5.6.6.6.6.9.9.9.9.5.5.5.7.7.7.7.7.7.7.7.8.8.8.8.x.1.f d V / ) ] [ ..X.f.f.f...] ' ) W W T Y n m s s 8 p p m m ( p.i.).).).).g.( , = = A f t t A t.w.V Z w.p.w.V p.p.> $ . . . . . . .       . . . * * @ $ $ & % % % % % % % % % q q 1 % q % % % ; i i a a a , $     . . . o 5 m i e a a N V N C ( q.q.t.( ( q.t.t.q.q.q.q.q.q.q.q.q.t.t.y.g.l.l.l.).).).).~.).l.y.( T W T W W W W W W W W W / ' X.f.F.U./.E.W././.^.^.U.U.^.^.U.^.U.(.T.U.T./.^.^.U.(././././.T.U.^././.(././.(./././././././.U././.T./.p = - - , > E.@X",
"6.6.6.6.6.6.5.6.5.5.7.9.9.9.9.9.9.9.5.7.7.7.7.7.7.7.7.8.8.8.'.a.f M _ _ ) ] f.f...] ' ) T n n s s 9 8 8 5 p d m V ` g.J.J.l.).).u.m = = = = : C S >.w.i.A A p.w.w.w.e.p.A p.8 @ * . . . .       . . . . * * * @ $ $ & % % q % % q % % % 1 1 1 % % % ; % ; e p a a d M d - X X   o d 0.( d i r r i a a a V C ( 0.q.( 0.q.q.q.q.t.t.q.t.q.q.q.q.q.y.y.g.l.l.l.).).).~.).).g.t._ T m T W W W T T W / ) [ f.G.H.U.^.^.(./.^./.(.(./.(./.(.(./.#X/./.^.^./././././././.T.T.U./.(.U.U.(.(.(.(./././.U././././.U.^././.8 = - ; , , @X/.",
"9.9.9.6.6.6.6.6.5.5.7.7.9.$.9.9.9.5.5.7.7.7.7.7.7.7.7.7.8.8.8.V.`.e.d m / / m T W T Y s s s s 7 5 5 p s m m t.J.J.J.J.).).g.( , O = = = : < r f B 1.w.Z w.w.` N p.A e.p.( p.a & * . . . . . . . . . . . . * * @ $ $ % % % % % % q q q q q ; % ; ; ; ; ; , e a a d N V N a >   = V ( V a a a e r e a a a a a C ( 0.0.0.( ( ( 0.q.q.q.0.0.q.q.q.q.t.y.y.i.l.l.l.).).).).).l.i.( m m T / ' / / / ' ] f.d.U.W.U.W.^.^.^.^.^././.U.^./.U././.^.^.^./.T.I./././.U.(./.@X(.T.U.T.T.U./././.T./.U.U.^.U.T././././.T.@X#X5 - - - , , @X@X",
"9.6.6.6.6.6.6.5.9.9.5.7.7.$.$.$.5.5.5.5.5.7.5.7.7.7.7.7.7.8.8.8.8.x.a.V p 5 4 7 s s s s 7 5 8 s m m M V y.).).).J.g.).i.m o X X O = = = = : a f N e.Z ( A V V V ( A e.w.w.i.d % * . . . . . . . . . . . . . * @ @ $ & % % % % % q q 1 1 q q % % 1 1 % ; , a a a a a f A e.i.( V N f f B 1.A i a e r i i a a a ( 0.0.0.0.( _ ( ( ( ( ( ( ( 0.0.q.q.t.y.g.g.l.l.l.).).).).).l.t._ m W / / ) ] [ [ s.F.U./.^.^.^.U.H.H.H.U.^.U.U.U.U.^.U.^./././.(.@X@X(./.(.^./././././.(.U.^./.T.U././././.U.(././.(././.@X(.@X#X, - - ; , , /.@X",
"<.<.<.<.9.9.9.9.9.9.6.7.7.7.7.7.7.5.9.5.5.7.7.7.7.7.7.7.7.7.7.7.8.8.8.x.V ; > 5 8 8 5 8 s m m m m t.i.J.J.J.J.J.g.] p X X X X X O = = = : : a a S B A V e.M ( M V V 0.w.i.i.M 4 * * * . . . . . . . . . * * * @ @ @ $ & & % % % % 1 1 1 q q q q 1 1 % % 5 p r r a A w.e.w.A N t f A w.1.e.>.a e < e e r i a a N _ ( ( ( ( ( ( ( ( ( ( ( ( ( ( 0.q.y.t.i.i.y.l.l.l.l.).).).l.g.t.W m / T { [ s.G.U.U.^./.^.^.H.^.!.U.U.U.^.H.^.U.^./.U.U.^./././.^.(./.^.#X(././././.(.^./.^././.U././././.^./.(.(././.@X@X@XI.P.; - - ; , 8 @X/.",
"$.$.$.$.$.$.$.5.6.6.6.6.6.6.6.6.6.6.5.9.9.6.6.6.5.9.9.5.9.9.9.6.<.<.$.<.2.+ & ; 5 8 s p d m V t.J.i.i.g.J.).g./ ; X X X X X X X O = = = = : a t S >.1.V w.Z w.Z A t.>.e.i.i.m 5 * * * * . . . . . . . * * . . * @ @ $ & % % % % % 1 1 1 q q q q q 1 % % , r a A w.w.w.B f a V >.e.w.w.p.A e y g : : e a e i a a f V _ _ _ _ ( ( ( ( ( ( ( ( ( ( 0.0.t.y.y.y.y.y.l.l.z.l.).).l.y.` m / { f.J.H.^.^.^.^.^.^.^.^.^.^.U.U.H.H.H.H.U.H.U.U.U.U.U.U./.U././.!.U.#X(.@X/./.U././././././././.U.(.T././.(.@X@X@XE.S.T.@X; - ; > , p @X/.",
"$.$.$.$.$.<.9.9.5.6.5.9.5.9.9.9.9.9.6.9.9.9.9.9.9.9.9.9.9.$.<.$.$.$.$.,.f 5 8 8 p p d a Z t.i.g.i.i.g.J.] n . X X X X X X X X X O = = = : : a t N >.w.A w.A w.t.t.A w.y.i.y.V 8 $ * . . .       . . . . . . . * @ $ $ $ % % % q q q 1 1 q q q 1 1 % % % , A w.e.w.C f f A e.e.e.e.w.V - O e y g a A A A ( a e i a a N V C C C C C ( ( ( ( ( ( ( ( ( 0.q.y.y.y.y.i.l.l.l.l.z.l.l.t.` / s.U.^.(.^.^.^.^.^.^.^.(.^.W.U.^.H.H.H.U.H.H.H.U.U.U.J.J.U.U./.U.U.U.U./.!./.U././.(.^./.U.I./.(./.(.(.(.(.#X@X@XP.G.@X@X#X; - - > , p @X/.",
"$.$.$.$.<.<.$.9.9.9.$.$.$.9.9.9.9.9.9.9.9.9.$.$.$.$.$.$.$.$.@.@.$.<.,.f V _ d p a Z t.u.p.i.i.i.g.g._ ; X X O X X O O O X   X X O = = = : : t t f 1.w.A 0.p.y.( ( y.p.i.i.t.Z p @ * * * . . . . . . . . . . * * @ $ $ & % % % q % q 1 1 q % 1 1 1 % % ; M w.>.S u t A y.r.e.e.w.V ; + O = e N A A B C 0.A V a e e i a f f V V V C C _ C C _ C ( ( ( ( q.0.w.y.y.y.l.l.l.l.z.z.l.k.t.( i.(.(.^./.^./.^.^.(.^.^.^.^.^.^.H.^.U.H.H.G.H.H.H.J.U.H.U.U.U.J.J.U.U.J.U./.U.U.U.U.(././.^.(./././.^.@X@X@XI.G.@X#X@X@X#X- - - ; , s @X@X",
"$.$.$.$.<.$.$.$.$.$.$.$.$.9.9.9.9.9.9.9.9.$.$.$.$.@.@.@.@.@.,.<.f e a a a A p.i.g.i.i.i.i.g.g.] m O X X X X X X O O O O X X     X + = = : : t a f >.C V C A >.w.y.i.i.i.y.p.( m $ * * * . . . . . . . . . * * * @ $ $ $ & q % % % % 1 1 % % q % 1 % % ; i f f t B e.e.e.i.w.i O O + = = = i w.w.S A C C f a a a i e i a a a V V _ _ _ V C C _ ( _ ( ( 0.0.0.t.y.y.y.l.l.l.l.l.l.g.t.t.w.!.(.(.(.(.(.^.^.(.(.^.W.^.^.U.U.^.U.H.G.G.J.G.U.U.H.H.U.J.J.U.G.U.U.J.H.U.U.T.U.U./././././.@X(.(./././.G.G.@X@X@X#X@X#X- - - ; , n #X@X",
"$.$.$.$.$.<.$.$.$.$.$.$.$.$.$.$.$.$.$.$.$.$.$.@.@.@.@.$.,.,.f e i i a w.i._.i.p.y.i.i.g.k./ , X X X X X X X X O O O O O O X . . O O + = = : e r N >.1.w.e.w.y.i.i.i.i.p.` Z Z Z & * * . . . . . . . . . . * * * @ @ $ & & q % % % % % % % q % q % % % % ; a C e.2.e.r.( d O + + + + O = = , w.A a f N a a a a a a i , i i a V V _ _ _ C C C C C _ _ ( ( 0.0.0.0.y.y.y.g.i.l.l.l.l.y.t.t.t.G.(.(.(.(.^.^.^././.^.^.^.U.U.H.H.H.J.G.G.J.J.J.H.U.U.U.U.U.H.U.J.H.H.J.J.U.U.U.U.^.U./././.@X/./.G.S.E.@X@X/.@X@X@X@X- - - ; > n #X#X",
"<.<.$.$.$.$.$.$.$.$.$.$.$.$.$.$.$.$.$.$.$.@.@.@.@.@.@.<.f e i a ( i.)._.i.w.t.i.i.g.t.m + O . X X X X . . O O O O O O O + + + + + O O + = = e r N A 1.w.p.i.i.i.i.t.A Z V A p.i.8 @ . . . . . * * . . . . . * * * @ $ & % % % q % % q % q 1 1 ; 1 % % % ; A 1.e.w.V , X X X + + + O X O = : >.N a a a N a r a a a i , 5 , i d f V C C C _ _ _ C C C C C ( ( 0.0.0.q.w.y.y.i.l.l.l.g.t.y.i./.H.G.H.(.(.(./.^.(.^.^.^.^.^.^.U.H.G.G.G.J.F.G.J.H.U.H.H.H.J.J.F.J.J.J.F.G.G.J.U.U.U.U.T./././.f.G./././.@X@X@X/.E.@X- - - ; > m @X@X",
"<.<.6.6.6.$.$.$.$.$.$.$.$.$.$.$.@.@.@.@.@.@.,.@.u g : u ,.V t.).).i.w.t.y.y.p.y.( , = + + O   + - - = + O O O O O + ; > > , , , , , ; - = = , r a C e.i.i.i.y.w.A N C w.e.i.a.r.p @ * . .   .   . . . . * . * * * @ @ $ & % % % % % % q 1 1 1 ; 1 ; % ; - M A a + o   X X . + + + O O O = : S S a r a a e r a a i i i , 5 5 i a f V V C C _ _ _ _ C C C C C ( 0.0.0.0.q.y.y.l.l.g.y.y.y.y.^.(.#X^.F.F.H.(.(.(.^.^.H.^.^.^.^.!.U.H.H.G.D.G.J.J.U.H.U.H.J.H.J.G.J.J.H.G.G.G.H.J.H.U.U.U.d.u.G.T././.T./.@X/.@X/.T.= - - ; > m @X@X",
"<.$.$.<.<.6.<.$.$.$.$.$.$.$.@.@.@.@.@.,.,.u : : : : : @.@.a.a.w.w.w.t.i.i.t.V , , = o . - > > , - = = = + + + - > 2 5 5 5 i 8 i p p p d d d M Z w.i.y.y.y.w.A V C w.i.a.a.e.>.B d * * * . * . . . . . . . . . * * @ $ $ & % % % % % % q 1 1 1 ; % 1 1 ; ; ; + & # + + X X   + + + + O O = , C N t a e e a a a a i i p s n s i i a f V V C V C _ _ _ C C C C ( ( ( 0.0.0.0.y.y.y.y.t.q.y.t.!.(.(.(.#X(.W.G.G.^./.(.^.^.^.^.^.^.^./.U.U.H.H.J.H.U.U.U.H.U.U.H.U.U.J.F.G.G.G.J.J.U.U.F.[ s.J.J.P.I.I.T.E./.@X/.#XE.= = - ; > W @XE.",
"6.$.$.$.$.$.<.<.$.$.$.$.$.@.@.@.@.,.f e g e , g a w.r.<.<.,.>.w.t.y.y.w.V d 5 > + + 7 s n s p 5 , , , ; = > , 5 5 5 p i p p p d d a m M d a Z i.i.i.p.( V C C w.i.i.i.e.A A A >.d * . . . . . . . . . . . . * * * @ @ & & % % % % % q 1 1 1 1 1 4 3 % % & & & ; - & # + o & = + + + + + = , V N N a a a a a a p p s n s n n n p e i a f V C C C ( ( C C C C C ( ( 0.0.0.0.w.y.t.y.t.q.t.t.H.(.(.(.(.(.(.(.^.H.s.G.(.(.(./.(.^.^.U.^.U.U.U.H.H.U.U.U.U.U.U./.U.H.H.G.G.G.F.G.J.G.u.[ I.J.F.s.F.F.P.I.U.(.(.(.@XE.= - - ; ; W /./.",
"6.<.5.$.$.$.$.$.$.$.@.@.@.@.,.,.u g < e e e A i.A.i.>.u @.,.w.t.w._ V m s 8 & 4 s Y m s s p p 8 8 , ; ; , 5 8 p p p p d d d n d m ( ` ( M A w.i.t.A A w.p.i.i.l.i.w.N f S >.S f i @ * * . .     . . . . . . * * * @ $ & & % % % % % 1 1 1 1 7 J 9 4 & & ; > ; - - - # - ; - - - - + + + = : N N d a a a a p p s n m n s n n n s p e i a f C C C _ _ C C C C C C C 0.0.0.0.0.w.0.q.0.q.t.w.J.^./.(.(.^./.(.(.(./.U.F.s.^.(.(.(.(./.W.^./.U.U.U.H.U.U.U.U.U.(.^.^.U.H.J.G.G.G.s.] d.J.F.F.J.F.F.d.P.G.J.U././.E.T.= - - - + T #X@X",
"6.<.$.9.$.$.$.@.@.@.@.@.,.@.u e e y y t w.A.A.r.A C N u ,.<.0.V a d d 2 ; s T T T m s p 8 p p 5 , , 5 5 5 p p p s s m d d m V _ ` t.t.( ( p.w.A Z A y.i.a.i.t.d t f f f f f C C i $ * * . . .   . . . . . * * * * @ $ $ & % % % % q q 1 ; 1 4 4 & & % 1 2 2 > > > ; ; ; ; ; ; ; ; ; ; - = = a a a a p p p s Y m n n n n n n s n s p e a f N V V C C C C C C C ( 0.0.0.0.0.0.0.0.0.( 0.q.w.J.^.(.^.^.^.^.^././.^.^./.^.G.D.s.^.^.^././.^.H.H.H.H.U.U./.^.U./.^.U.U.^.U.H.G.] [ J.J.F.d.F.F.G.F.d.s.s.F.J.U.I.T.K.= - - - + W @X@X",
"$.$.$.$.<.$.$.@.@.@.u y g g y e e S r.A.i.w.S S A A S u S ,.f i 5 & 2 s Y T m m p p p p 5 , , 5 5 5 5 i p p p p p s s n V ] ` ` t.` ` t.( A A w.p.i.i.i.w.i + = a f a N A >.C C i $ * . . . . . . . . . * * * * * @ $ $ $ & & % % % % 1 1 ; % % ; 4 4 > > > > ; ; ; > ; > > ; > > > > ; ; , a a a p p s n m m Y Y m n n n n s s n d p i a d d V C C C C C C C ( ( 0.q.q.w.w.q.w.0.( ( ( t.^.^./.^.^.^.^.!.^.^.H.H.!.^.(.(.^.s.u.G.^.^.^.^.U.H.G.F.U.U.H.U.H.^.^.^.U.U.D.` J.U.J.G.F.F.F.F.F.s.s.d.s.s.d.s.G.D.f.= - - ; O / E.@X",
"$.$.$.$.$.@.@.$.,.t g y y y t w.a.A.r.>.S C A A A Z a f f f , & 8 n m m d p p p 5 i 5 , , 5 5 5 5 5 p p p p p p p m / ] ` ` ( ` t.t.( A A w.i.i.a.i.Z , = = = = e V ( A A C S C a & . . .     . . . . . . . . * * * @ $ $ % % % % % ; 1 3 s 4 5 5 5 2 , , > ; ; ; ; > > > > > > ; > 5 , p p a a s n m m Y m n n m m m m n n n n m m d p , i a f V V V V V C C _ ( 0.0.t.t.t.t.w.w.( ( ( F././.^././.^.^.^.^.^.!.H.U.U.^.U././.^.U.s.u.s./.^.U.H.F.J.G.F.J.H.U.U.U.G.` u.U.U.J.J.J.H.H.F.F.s.s.s.F.s.s.s.s.s.s.[ - - - - + W T.I.",
"$.@.@.@.@.$.@.y g e y e C e.A.a.e.>.A A ( ( ( C d d p : f u p s d s p 5 5 8 5 , , ; , 5 5 5 8 i i p p p p p p m / ( ( ` ( ` w.t.` V A w.r.a.a.w.M + + = = = = = e A A S C S S A V o .   .           . . . . * * * * $ $ & % % % % ; 1 m g.' 8 8 8 8 5 > ; > ; ; ; ; ; ; > > ; ; ; , 5 p p p s m m m Y m m m m n m n s n n n n s n T / { / , i d f V V V V C C C A ( 0.0.0.t.t.w.0._ V ` U.^././.^.^.^.^.^.(.^.^.U.U.U.H.J.U.U.U././.(.J.u.s.U.^.U.J.G.F.F.F.U.U.s.] U.U.U.U.J.U.U.J.H.H.J.s.F.s.s.F.s.d.s.d.D.[ - - - ; + W D.G.",
"@.$.$.,.f g : e e f w.a.A.r.1.>.>.1.>.w.( Z a p p ; o ; u @.a 5 , , , , , , ; ; , 5 5 5 5 8 p p p p p p p m _ ( ( ( ( ( t.t.( A w.i.i.a.i.w.p X X . + = = = = = , C V N N S C C C 5 . . . . . .   . . . . . . * * @ $ $ & % % q 1 ; ' ~.l.( 5 5 5 ; - ; ; ; ; ; > , , > > , 5 i p p p p s m n Y n n n m m m n n Y n s n n s n T / ] f.d.` i : i a f f V V V C C C A ( ( 0.0.0.( C C V u.^./.^.^.^.^.^.^.H.H.!.!.!.U.U.J.U.J.U.H.H.^./.(./.U.s.u.s.U.J.H.F.G.F.{ s.U.^.U.U.!.U.U.H.H.H.H.s.G.G.s.s.d.s.f.s.s.F.f.- - ; > - W J.F.",
"$.u u g e e e C r.A.A.e.1.>.>.1.w.1.B N a p 5 # + - , 5 u @.a ; - ; ; ; ; > , , 5 5 5 5 p p p p p 8 p V _ ( ( ( ( ` t.( ( A w.i.i.a.i.Z , X X X X X + = = = = = : V N S N N N V C i @ * .           . . . . . . * * @ $ % % 1 ; / ~.~.).l.` , ; - - ; ; ; ; ; ; > , > > 5 i p d d d d m Y Y m n n n n n n n n n n n m Y Y T ' f.S.I.U.s.V p , , i a a V V V C C C A ( ( ( ( ( A V V ` H.^.U./.^.^./.^.^.^.^.^.^.!.U.U.F.s.s.G.J.U.U.^./.^.W.U.U.U.u.] s.G.u.] J.U./.^.^.^././.U.U.U.H.U.U.J.F.s.s.s.s.s.s.F.F.[ - ; ; > ; / D.G.",
": : g e r 0.a.A.r.1.B B 1.1.w.>.S f N N N i + ; ; ; - = g @.a - - = ; > , , 5 5 , 5 5 5 p p p p d V _ ( _ _ ( w.t.( A ( w.i.a._.p.V + X X X X X X   O = = = = = : N C C N N N N N 5 $ . .           . . . . . * * @ $ & ; T k.~.%X~.).).l.t.- - ; > > > > > , , > ; 5 8 p d V m m T T m n n n Y n Y n s s n m n m n n T ) X.S.U.!.^.U.` d d e , e i a a f V V C C A ( C C C C V V V s.U.^./.(./.^./.^.!.^.U./.^.!.U.H.J.G.F.s.d.F.U.U././.U./.^.U.U.U.s.m / U.U.H.U.^.^.^.^.^.^.^.U.U.J.U.P.J.F.s.s.d.s.F.s.G.[ = ; ; ; ; / D.F.",
": g N e.A.A.e.>.>.A A 1.w.A f t N N N a N e + + = + + + = @.f , ; > , , , , 5 5 5 5 5 p i i d m Z _ Z Z ( ` t.( A ( i.i.a.a.w.d .     . . o   X X   + = = = = = = N ( C N N f t r 5 @ * . .         . . . . @ @ 4 s ] k.l.%X~.).~.).).).l.k.= - ; ; > > , , > , , i p d M m m / W T m m n Y Y s n n n n n m n s n T / [ d.J.H.U.^.!.F.Z d a i , e e a a f f V C C C ( C C C V V M t.U.^.U.(.(./.^.^.^.^.U.U./.U.U.U.H.H.H.F.F.s.s.J.U.T././././.^.U.s.` G.J.u.] s.U.U.^./.^.^.U.!.U.U.J.F.F.F.s.F.F.s.d.d.d.G.[ - ; ; ; - / F.s.",
"( a.A.r.1.B A w.0.0.A S t t S S S f f N a = + O O O + + = @.f , , , , , 5 5 5 5 5 5 5 p m _ _ _ _ _ ( t.( A V A e.a.i.i.` 5 X X o o o o . X X X X X + + O = = = = N ( A N f t e e i & @ $ % % ; 4 7 p T W ) ' t.t.k.l.).).).).).).).).z.l.g., - ; ; ; ; > , 5 i 8 a V V W / / W T T T T Y n n s n n n n m n n m / ] d.I.U.^.^.U.!.H.( V a i e e e i a a a f V C C C C C V V V M Z F.!.^.^.^././.^.^.(./.^.!.U.U.^.^.U.U.J.H.F.s.F.s.H.H.U.^./.^.U.[ J./.U.U.U.U.F.] u.U.!./.U.U.I.U.I.J.F.F.J.F.s.s.d.s.F.G.G.[ ; ; ; ; - { G.J.",
"a.2.S B >.1.w.w.C t t t N S S u x N S S N + + O + = = - ; u u , > , , 5 5 5 5 5 5 p m W _ _ _ _ ( ] ( Z a Z i.a.i.i.V ; X   . o O O O X X X X X o + + + O O = = = V ` A N t y e M _ 5 2 5 5 J ) ' t.k.k.k.k.k.t.y.g.g.l.).).l.).).).).).).g.p ; ; ; ; , , e i i d M / / / / W W W T T T T m n s n n s n m m / ] d.I.U.^./.^.^.^.H.t.V N a e e i i i a a a f f N C C C V V V V V t.^.^.^.^././././././.U.U.U.^././.U.U.U.U.G.F.s.F.F.J.F.G.J.G.s.u./.^././.U.U.F.F.U.G.u.u.s.U.U.I.U.G.J.F.s.J.s.s.d.s.F.F.J.G.] ; ; ; ; - { G.f.",
"x S A 0.w.1.N t u N S x x u x N S B >.A N = + + = - - ; ; g @.i , 5 5 5 5 5 5 p m _ / _ _ ( ` ` _ V Z V e - w.` M o X . O O O O . O X X X O o + & + + O O + O + = M A N t e V ( ` ( 5 s s s s _ ' k.t.t.t.t.t.` t.y.y.l.).l.).).).).z.).).g.m ; ; ; , i e i a n T / / / / W / / W T T Y T m n n n m n n W ] d.J.U.^./.^./.^.^.^.G.V N a a a i i i a a a a f f V C C C V V V M ( H.^./.^.!.^./.^.^.!.^./.U.U.U.^.U.!.U.H.H.J.U.G.F.s.F.s.s.s.] s.W.U.U.U.U.U.U.U.J.U.J.F.H.J.u.u.s.F.G.F.s.s.F.G.d.J.G.G.J.G.P.] ; ; ; ; - ] I./ ",
"B B >.A N w u u N x u u u S B >.>.B B >.B = = ; > > ; ; ; g @.f 5 5 8 5 5 p T T _ / _ ( ` ` _ V ( w.w.( - . = X X O + + O . O O X O O . ; , 2 > ; - = + + O O O O i N a ( t.t.0.C a i s s s d T ] t.t.q.t.t.t.` t.y.y.l.l.l.l.).).).z.).l.l._ > , 8 i i a d m / / T / W T T / / W W W T T Y n n n Y W ] d.I.W.^.^./.!.^.^.^.^.U.` V a a a a a a a a a a f N V V C Z C C V V V s.^.^./././.!./././.!.^.^.U.U.U.U.U.U.U.U.U.U.P.J.J.J.F.s.u.u.U.H.U.U.U.J.U.U.!.U.U.H.J.F.F.F.F.J.s.] ] s.F.F.J.J.F.s.s.F.d.J.P.] - > ; ; - { { , ",
"B N t t u u u u u u x S S S B >.>.B B A S , ; ; > , , ; > g @.,.5 5 5 5 p Z _ _ _ ` t.` _ Z ( p.i.p.` p O . . O O = - + O O O O + ; 5 s p 8 8 5 5 5 , > - > , ; - a ` y.t.t.A a f ( _ i s s d T _ ] ] q.t.t.q.( q.y.g.l.l.l.l.z.z.).z.z.l.l.( 8 5 8 i a m T T T T T T W W W / / / / / W T T m m W ' f.I.U.U.^.^.^.U.!.H.U.^.^.H.V V a a a a a a a a f a N V V V V C Z V V N ( ~.(././././././././.!.^.^.^.U.H.U.J.J.H.H.U.U.U.U.U.U.s.] F.J.J.J.J.U.U.H.J.U.U.U.J.H.F.F.s.s.s.F.F.F.s.u.] u.G.P.P.J.d.F.s.F.F.] - - - ; ; p n ; ",
"e u u u u u u u S B B B S S B >.B >.>.>.S i ; ; ; > , , , , @.,.8 p p p m Z _ ` t.( _ Z ( w.y.p.( M + = ; - + O = = = O O + - > d d d p 5 5 5 5 5 8 5 ; i d d _ u.i.i.i.w.A V A ( t.t.5 s s d T _ _ q.t.t.t.` ( t.y.g.l.l.l.l.l.z.z.z.z.l.l.t., 8 p p p n m m T T W W W W W W W W W W T W W / ' f.P.U.U.U.U.U.U.H.H.U.^.^.^.^.u.a f a a a a a a a f V V V V V V V V V V V V s./.!././././.^.!././././.U.H.H.U.J.U.H.H.J.U.U.H.H.J.u.s.U.U.U.J.J.F.F.F.G.J.U.J.J.J.J.F.s.F.s.F.F.s.s.J.J.J.s.[ [ F.d.G.F.s.F.G.{ - = - ; ; p p 2 ",
": N u u u u S B S S S S x S >.,.>.>.>.A S p ; > > > , , , , u ,.V V m d V ] ` ( A ( w.p.i.p.( 8 + - , 8 , ; = O + O O = ; > p n p p 5 5 5 5 5 p 5 ; > i d Z t.t.i.i.t.A A w.w.w.w.0._ 5 p p s T _ _ ] t.t.t.q.q.q.y.y.l.g.l.l.z.z.z.z.z.l.l.t.p s m n m s p m T T T T T T T W W W W W W / ) f.G.U././././.U.H.U.H.^.^.^.!.!.U._ a a a a a a a a N V V V C C C C V V V V M _ !.(.^././././././.^.^.U.!.!.U.U.U.U.U.U.H.^.^.U.H.u.u.J.U.U.U.U.U.F.J.F.F.F.J.U.F.F.F.F.U.s.d.F.d.F.s.d.F.d.J.J.P.P.] / ` d.G.P.S.{ = = = - - n 8 W ",
"= N u u x x S S B >.S B B >.B >.>.>.>.B S r ; ; ; ; > , 5 5 e ,.C Z Z ( ( Z V A t.w.i.t.Z , + ; 5 m Z M i = O X - ; > 5 8 p s 5 5 , , 5 5 5 5 , ; 5 d _ t.y.g.g.t.( w.i.i.w.0.A V a a 5 i s s J _ _ q.q.t.q.q.q.0.t.y.g.l.l.l.z.l.l.l.l.l.l.k.d n d n m m m s p m W W T T W T W W W / { ] f.U././.(./.!.^.U.!.^.^.^.^./././.J.M a a a a a a a f N V C C _ C C C V V V V M u.^.^.^./././.!.^.!.U.^.U.!./.^./.!.U.^.^.^.^.U.J.] s.^.U.U.U.U.J.H.U.F.J.J.J.J.G.d.J.s.s.s.F.d.G.F.F.d.F.F.s.F.F.J.J.P.F.d.f.[ u.d.) = = = + . 8 > ..",
"< y y x S x x S B B B S S S S ,.>.>.B B S a - - - - - i p d a f u ( _ V A w.p.r.y.p.m - - > p m _ / M i ; . - , , 5 i p p i , , , 5 p 8 , - ; , p ( i.g.g.i.t.A w.p.i.w.A A r r d V a 5 5 i s J T _ t.q.q.t.y.t.0.t.y.y.g.l.l.l.l.l.l.l.l.l.g.d n n d m n m m m s s m W W W W T W { [ s.F.G.^./././././.^././.^.^.^.^.^.^./.t.a a a a a a a f N N V C C C Z C C V V V M V F.!.!.U.U.!.^.U.U.U.!.U././.(.(.(.!.U.^.U.U.H.u.u.U.U./.U.U.H.H.U.U.H.G.J.J.I.J.J.F.P.J.d.s.s.d.F.s.s.F.s.s.F.F.G.F.J.G.d.G.G.J.D.] m = = = + . 4 > L.",
"y y t N S x S u S B S S S B ,.>.>.B B B S N , , , , e e a M N f @.,.Z t.i.r.p.w.M ; ; , d / _ _ Z p = + ; , , 8 p p 8 , , , 5 8 p 8 , > , i m ( p.i.i.i.w.A w.y.( w.A S a r N N V V a i 5 i i J _ _ ( q.q.t.k.t.q.q.q.y.l.l.l.z.l.l.l.l.l.l.g.m n d m m m m d n m T n s m / / ) ] d.P./.^.^.(.(./.^./.^./.^.(.(.^.^.^.^.^.!.( a a a a a a a N V N V C A Z C C C V V N a ` !.U.U.U.U.H.U.^.!.U.U.U././.(./.^./.^.^.U.G.] F.!.^.U.^.U.H.H.J.G.H.H.J.J.J.F.G.G.J.J.F.d.P.G.J.F.G.F.d.F.s.F.s.F.d.d.G.P.F.J.J.J.G./ = = + + . 2 n .X",
"y y t u B S B S S B B B >.B >.>.B S >.>.B N e i m Z V Z V _ V u @.,.i.i.p.Z i - - 5 d Z _ ( / d - & > , , 5 p i 8 , ; > , 8 p i 5 > , i Z ` p.i.i.y.w.( w.i.i.y.t.C a e N C Z Z Z V N a 5 i p d J _ _ q.q.t.t.t.t.q.q.t.y.l.l.z.).z.l.l.l.l.g.d d n m m n m m m m T T T m T ) f.I.^././././.(./.^././.(./.(.(.^./././.(.^.U.M a a a a a a a N V V C C C Z Z V V V N N M s.U.U.U.!.!.^.^.U.U.U.!.!././.(.^.U.^.U.H.u.s.^.U.U.U.U.U.U.U.U.F.G.H.J.J.U.J.I.U.U.J.s.J.d.J.J.F.F.s.s.s.G.F.F.F.s.F.G.F.d.d.F.G.G.G./ = = + $ o 5 ' o.",
"y y t N B S x S S S N S S B S S B >.1.1.B N Z ( ( ( ( V a r a ,.@.,.w.V , = ; 5 d Z _ / m p o - , , , i p 5 8 , ; ; , i p i , , , p _ t.t.y.i.y.w.>.p.i.i.i.t.w.M a V a N V A Z Z ( ( d 5 5 i s d T _ ] q.t.t.t.t.t.t.y.y.l.l.l.z.l.l.l.l.l.g.d s n m m d n m T m m T / ] s.s.s.G.(.(././.(.(.(.^.(.(.(.(.(././.(.(.(./.(.s.a a a a a a a a N V V Z C ( ( C V V V a a Z J.U.^.^.!././.!.!.U.!.!.U.U.^./.^.!.U.F.u.J.U.U.U.^.U.U.F.U.J.U.U.U.J.J.F.J.J.J.J.U.I.F.d.d.F.G.J.s.s.d.G.J.J.G.G.P.I.F.s.s.F.G.s.d.D./ - - & $ > 2 K. .",
"g g y u B S x N S S S S S S S S S B >.>.w.0.A ( ( _ a a A A S A ,.,.N = ; p d V V M d 5 X - , , , , 5 5 , , ; ; , 5 8 8 , , , a Z t.p.i.i.i.>.1.w.r.e.e.p.A N a V ( ` d a V V Z A ` ( d 5 5 5 p d T _ ( ( q.t.t.t.t.t.y.y.l.g.l.l.z.z.l.l.g.g.d n m n s s n m m m / [ S.U.W.^.(.H.s.H.^.(.(.(.(.(.(.(.(.^.(.^.(.(.(.(.#X(.t.a a a a a t a f V V Z Z C ( C Z V V M a a t.(./.!.U.U.!.U.J.U.!.U.^.!.^.U.U.U.U.] s.U.U.G.U.U.U.U.U.J.H.U.H.U.U.J.J.F.F.U.J.H.U.U.s.s.F.J.J.G.G.J.J.J.F.J.G.G.U.J.I.d.F.J.F.s.s.F.{ > = - $ 3 s .XY ",
": g t t S S S S S N S S S S S A >.A 1.>.A A A Z a a ( w.t.A a : @.e V i M / V M 5 - . = , , 8 5 , , > = = - , , , 5 , ; , p Z w.w.r.i.y.1.1.e.r.r.r.i.w.N N C ( A ( Z V V Z N A A A V a > 5 5 i d T _ _ ( q.t.t.t.t.t.t.y.y.l.l.l.l.l.z.l.g.g.m n n d m m n m T { f.J.U.W.^./.^.(.(.U.s.F.(.(.(.(.(.(.(.(.(.(.(.(.(./.#X(.( r a a a a a a f N C Z Z C A C C V N a a V J.H./.!.U.H.^.U.U.U.U.U.U.^./.U.U.s.] J.U.U.U.U.H.U.U.H.F.J.U.U.J.H.H.H.H.I.P.U.U.J.U.U.U.U.J.I.I.P.G.J.P.G.G.F.d.d.G.F.P.J.s.s.G.s.s.D.I.P.] n ; 8 ) j.7 ",
": y t w S B S S S N N N S B B >.>.>.>.w.A V t V A ` w.` V , - ; f f S V V M 5 o . + ; , 5 5 , ; ; = = = > , , , , ; , a C A 1.e.e.w.1.w.i.e.r.r.e.( a + , A A ( Z V A V C A A N w.( Z d , 5 5 i i d T _ ( ` t.t.t.t.t.t.t.y.l.l.l.l.l.z.l.g.k.m s s d n m m / [ F.H.^.^.^.^.^./././.(.(.!.u.G.(.(.(.(./.(.(.(.(.(.(.(./.!.M r a r a a a a N N V C Z A ( Z C V f a a ] /.^././.^.U.^.U.U.H.U.!.!.!.U.J.] s.U.^.U.G.U.U.^.U.U.J.J.F.G.U.U.J.U.J.U.J.P.J.U.J.J.P./.U.U.G.U.J.J.U.J.I.P.G.s.G.d.P.G.F.s.F.d.s.s.J.I.S.K.Y.K.2 X...3 ",
"= y y t S S S S S t N S B A >.>.w.>.A N N A ` w.w.( d - - ; 5 i f f f N 5 O o - ; , 5 5 5 ; ; ; - ; , , , , , ; , d ( ( 0.w.1.1.B 1.p.i.i.e.e.A r : = = : ( A C A A N A V V a V V ( N p , 5 5 5 i d d _ ( q.t.q.y.t.q.q.t.y.l.l.l.l.l.z.l.g.y.d s s s n Z ] f.J.U.^.U.^.^.H.^.^.^./.(.(.(.(.^.s.G.(.(.(.#X#X(.(.(.^.^.(.J.a r r r r a a a V V V Z C Z C Z V N d a m J./.(./././.!.^.^.^./.(./.!.U.s.u.U.U.U.U./.U.U.H.H.H.U.U.U.H.G.U.U.U.!.U.U.U.U.I.I.J.J.U.T.U.J.U.U.G.U.J.J.J.F.G.d.s.d.d.G.J.F.s.s.s.s.s.s.d.S.D.f.2 K.) m ",
"= y y t S S N S S S B A S B A >.A N C >.w.w.w.Z 8 + & > 8 p p a a u u a + - - , 5 5 , , > , > > , , , , , ; , a _ ` w.t.w.>.B >.1.e.r.r.y.Z e = = : ; , < V C A A C N N N a V N V V a d , , 5 5 i p d _ _ ( q.q.y.q.q.q.q.y.i.l.z.l.l.l.l.g.y.d s s m / [ s.J.H.^.H.U.U.W.U.^./.^.^.^./.(.(.(.(./.s.F./.#X(.(.(.(.(.(.(.s.i e r r r a a a f V V Z A Z C V N N a a ] /./.^.^.^./././.!.U.^.U.!.H.u.J./.U.U.U.U.U.U.H.J.F.U.J.U.J.H.H.J.U.U.J.U.T.P.I.J.J.J.U.^.U.U.U.U.F.G.F.J.G.G.P.P.G.d.d.d.G.G.G.J.d.s.s.f.s.d.s.d./ T j.' { ",
"= y y y N S S S A C S N N S S f N >.w.w.w.V , + ; , p d m n p , : u u f - ; 5 5 , > , 5 5 5 5 , 5 , 5 ; ; d _ ` w.w.1.A S B 2.e.e.e.p./ ; X = = = : ; i N a C A S N Z Z a a a a i a V p ; > , 5 i p d T _ ( ( q.t.0.0.0.y.y.y.g.l.z.l.l.l.g.t.d m / ] s.F.J.J.H.U.^.^.U.^.^.^.^.(./.^.^.^.(.(.(.(.(.!.s.G.(.(.(.#X#X(.(.t.e e r r r a a a a V V C Z Z Z V N a a M J./.^.^.U.^.U.U.^.!.U.U.U.s.s./././.U.U.F.U.U.U.U.U.U.U.U.U.U.U.U.U.U.U.U.G.U.I.U.G.U.U.U.I.I.J.U.T.U.P.J.J.s.G.P.G.S.D.G.d.d.J.G.D.P.S.f.f.d.D.G.S.s ..X.] ] ",
"= < y y N S S S S N N N t f S 1.w.w.>.C , + ; 5 p d m m p > o X : u y ,.p 5 5 5 8 8 8 5 5 5 5 5 , , ; m ( w.0.0.A N x B e.e.e.1.w.M & X X   = = = - , e N N C w.A A a V V a V M p d V p : , , 5 5 i d V _ _ ( q.q.( ( 0.q.q.y.y.l.l.l.l.l.g.t.T ` u.s.J.H.H.H.J.H.J.H.H.J.H.^.^.^./.^.^.^.^.^./.(.(.(.(.^.s.F.^.(.#X#X(.] e e r r r t a a f V V V Z C N N N a a ] /.!././.^./.!.^.U./.U.J.u.G././.^.^./.U.U.U.U.U.U.U.U.U.U.U.U.U.J.J.U.I.U.U.I.U.U.G.G.U.F.F.P.P.U.U.U.U.I.I.G.G.G.d.G.G.G.P.P.P.P.G.s.G.D.d.G.P.P.P.5 j.] ] ] ",
": : : r N N N S S N f N >.>.1.1.>.N t t e i s d m m 5 ; X o & + : ,.f ,.d p p s p 8 5 8 p p i 5 5 M ( ` ( A V N x S 1.1.e.e.w.V - .   . . X = = - - : i M N C ( V ( V Z a N V a a d M a ; > , 5 5 i d d V _ ( ( ( C 0.0.0.q.q.y.l.l.l.l.l.g.t.] F.G.H.U.U.J.J.F.H.H.H.U.^.U.U.H.^.^.^.^.^././.^.^.(.^././.(./.s.F./.#X(._ e e r r r r a a N V V C C V N N N a M J.U.^./././.^.U.U.U.U.u.s.U.^./././.U./.U.U.H.U.U.U.U.U.G.H.U.U.U.J.U.U.I.U.J.U.^.U.U.I.U.J.P.U.J.U.U.U.U.J.P.G.D.G.P.d.P.d.d.d.d.F.s.d.S.D.d.D.d.d.] n L.X.f.] ",
"< e a N N B B S f N >.1.1.>.B t t t t t a d m d 5 & X + ; ; ; , 5 f a S M s s p 5 5 5 5 , , i Z ( ( w.( Z N N S >.A >.1.w.V = . o o + o o X = = : - : e N N S ( N A a V Z V a M a a M a 5 5 5 5 5 5 i d d C _ _ C ( 0.0.0.0.q.y.y.l.l.l.l.y.t.u.H.J.H.U.H.H.H.H.H.J.U.U.U.^.!.^.^.^.^.^.^.^.^./.^.^.^.U.!.(.(././.F.F.!.Z r r r r r a a a N V C V V V f M M a ] /./././././.^.^.U.F.] F./.(.(.(.U./.U.H.U.U.U.U.U.U.U.U.!.U.J.U.U.U.I.U.U.#X/.U.U.I.G.I.I.J.U.U.U.U.U.U.U.U.J.G.P.P.P.I.D.D.S.G.s.d.F.d.D.s.d.G.d.D.W ) X.f.d.] ",
"r a N S S S N B 1.1.w.>.S t t t t t y e m d 5 o . & ; - , 5 5 i 5 p i p d p p 5 , , , , 8 M ( w.( w.N N N A A A A A A M + X o + & + o o . . + = = : - e N N S A N N M p a V V a M m M d 9 5 5 5 5 5 i p d V _ C C ( ( 0.0.0.q.y.y.l.l.l.i.y.t.s.J.U.H.U.U.H.H.H.H.J.H.H.H.^.U.^.^.U.^.^.^.^./.!.^./.(././.(././.(.(.(.F.m e e e a a a a a V V V V N f a N a M J.^./.(.!.!.^.^.U.u.s.H.U.U.U.^.^.U.U.U.U.J.H.U.U.U.J.H.J.U.I.f.J.U.P.U.U.d.J.F.I.J.J.J.I.U.J.U.U.U.I.J.U.P.U.P.G.P.P.I.T.I.S.G.d.d.d.S.d.d.d.D.G.D.D.p X...d.s.f.",
"a C S f C >.e.w.w.1.N t y t t t t t N t ,   . & - > 5 5 5 5 i p p p 5 8 i i 5 5 , , p _ ( t.t.w.Z N C A >.A S C C a + X o & ; - + + o o + + + = = = = < a N S B A Z ( V V M i m M m d p s 5 5 5 5 5 i p d d V _ V V ( ( ( 0.0.y.y.i.l.l.l.y.t.s.U.H.!.H.U.U.H.H.F.G.J.H.J.J.H.H.^.^.^.U.^.^.^.^.U.^./.^.^././././.(.(./.V e e e e r a a N V V V V N a a N a ] (./.(.(./.^.U.s.u.U./.U.^.U.U.U.U.U.U.U.U.U.U.U.J.U.J.J.U.U.I.U.U.U.U.d.F.J.F.F.U.I.U.U.J.U.P.J.U.U.J.J.U.I.I.P.S.D.D.I.T.T.I.I.P.S.G.d.d.d.d.d.f.D.f.s j...S.d.u.",
"S N B 1.1.1.e.B x y t t t t t t N t f N e + - - , i 5 , 8 p p i p i 5 8 i 5 8 , a V w.w.t.t.( V A w.( >.A C Z p + X O + - - - - = = + = = = = = = = = , a f S A w.A N N a Z _ V m d s s s p , 5 5 5 5 5 i d f V f V C C A 0.0.q.y.y.y.l.i.y.t.F.^.^.^.U.U.J.J.U.H.H.U.U.H.H.U.H.H.U.!.U.J.H.!.U./.U./.U.!././././.(.E.I.m e e i e r a f f f f V V N a N N V F.^.(.(.(./.H.] s.U.U.^.U.U.^.U.U.U.U.U.G./.U.H.J.J.F.U.G.J.P.I.I.U.I.I.J.U.U.J.J.U.G.I.U.I.I.I.U./.U.J.U.U.G.T.E.I.D.G.G.I.T.T.I.I.G.G.D.D.d.d.d.G.d.' ) X.f.P.d.D.",
"S >.w.1.e.A , = t t t t t f N f t t t N a , , 5 5 5 5 5 8 p p i p 8 5 i p i M _ w.w.t.w.( A ( w.w.( A A V p O O + & ; - - - - - - - = = - = = = = = = : t t N A A a a _ ( / m m m n n s n s 5 5 5 5 5 5 5 p d d f V C ( 0.0.0.q.e.y.y.i.y.t.w.F.U.^.^.U.U.J.J.H.J.G.G.H.G.H.H.J.H.J.J.J.H.U.^.^./.^.!.U.^.(.(././.(.!.U.d e e i e r a a f f f f N V a N N u.^.^.^./.J.u.u.U.U.!.U.^.W.^.U.!.U.U.U.J.U.U.U.F.F.G.J.J.P.G.J.U.U.J.U.P.U.U.J.U.J.F.F.J.U.U.U.G.G.U.U.U.U.I.U.I.I.I.I.D.G.G.I.T.I.I.I.I.I.D.d.f.d.d.D.T ....d.S.D.D.",
"e.r.w.M = O O O y t t f f f N t t t f t a , 5 5 5 5 5 5 8 8 i p i i p p V ( t.t.t.w.A S w.p.t.w.A A V i O . $ > , , , > - - = = = = = ; ; ; - = = = = = r t t N N Z ` / T T m m m m T Y n s 5 5 5 5 5 5 5 i p d V V C 0.0.0.0.q.e.y.y.y.y.t.w.G.U.!.^.U.^.U.H.H.H.J.J.W.H.J.H.F.H.J.F.H.H.H.H.^.U.!.U.U.^.^.^./.^.U.(.U.a i e r r r a a a a f f a N N N Z U./.(./.H.[ U./.^./.U.U./.U.U.U.U.U.J.H.J.H.J.J.U.J.F.J.U.J.F.U.J.F.P.U.U.I.I.T.U.I.F.U.U.U.U.U.U.U.P.U.U.U.F.G.I.T.I.T.P.P.T.T.I.I.T.T.E.T.S.S.G.d.d.d.m X.] S.S.f.D.",
"w.M O O + O O O t f f N f f t y f S N t N , , 5 , 5 5 5 5 5 8 i 5 i M ( w.w.t.w.A C A y.t.w.w.A V , O o + 2 5 5 5 , , > > - = - > ; > , , , , ; = ; , , e a Z ( w._ m m m T T n n T T T T Y 5 5 5 5 5 5 5 i p d f C C ( 0.0.0.q.y.y.y.y.y.t.w.G.H.^.!.U.U.H.!.U.H.J.F.H.H.G.F.F.G.J.H.H.H.H.U.H.U.U.!.U.U.^.^.U.U./.(.f.i e e e r r a f a a f a a a a N d./.(.@Xf.G././.^.!.^.U.U.U.G.H.U.U.H.U.H.J.H.H.H.U.H.J.G.F.U.U.U.U.J.I.U.U.U.J.d.G.J.U.U.U./.T.I.P.G.P.U.^.U.U.P.I.E.T.T.I.I.I.E.E.I.T.I.T.I.I.I.d.D.G.[ W X.] f.D.S.d.",
"X O O O O O O O t f N f t t t f S S y y a , , , , , 5 5 5 5 , a V ( 0.( w.w.A A A t.w.w.w.w.m , - & ; 8 p 8 8 5 5 , , , > - > , , , , , , , ; , , p M V ( t.t.` / m T T T m T m Y T Y T W T 2 5 5 5 5 5 5 i p d f V C ( 0.q.q.q.q.y.y.y.y.t.w.H.!.!.!.!.U.^.H.!.^.H.H.H.G.G.G.G.F.J.H.H.G.J.H.U.U.U.U.U.U.U.U.U.U.U.U.] e e e r r t a a a a N f a a a ( (.(.d.f.(.#X/.^.^.!.^.U.J.G.H.H.J.U.J.U.J.J.H.J.U.U.U.G.G.J.J.J.J.H.T.U.U.U.U.^.U.I.J.J.U.U.U./.U.U.U.U.I.T.I.U.G.G.I.T.I.I.T.I.I.T.T.T.T.T.T.T.P.d.I.I.) ' ..f.S.S.f.[ ",
"= O O O O O O O t f N t y t a t t t y r a , , , , , , , , i Z ( w.w.w.A A C ( p.w.w.w.` V - + & 4 5 p s s 8 5 5 , > , , , , , , , , , , , , , , p m V t.t.` / m T W T T T n T m T T T T T Y 5 5 5 5 5 5 i i d d f V C ( 0.y.y.q.q.q.y.t.w.w.t.H.!.^.^.U.^.^.H.J.H.H.F.F.F.G.J.F.G.H.G.G.J.J.U.H.H.!.^.U.U.U.U.U.U.I././ e e e r a a a a a a N N a a a ] U.[ P.#X/.(.(./.^.^./.!.J.J.U.U.G.U.U.U.J.J.U.U.U.U.H.J.G.F.F.U.J.J.J.J.U.U.U.U.U.T.U.I.I.U.P./.U.U.T.U.U.T.I.P.G.D.G.G.T.I.P.P.S.I.T.T.T.E.E.T.P.P.I.S.T ....I.P.d.f.' ",
"f = + O O O O O r N f t t t t r e t t a e , , , , , , d V ( ( t.w.A V A w.w.t.A A Z p - - - > 4 9 s s p p 8 > ; - - ; , , > ; ; , , , , ; , , , p Z t.` ( / W W T T T T T T T T T Y T T T T 5 5 5 5 5 5 i i p d f d f ( t.y.y.q.q.q.q.0.0.w.u.!.!.^.U.^.^.H.H.^.H.H.F.J.G.F.G.G.J.F.F.J.H.H.!.U.!././.U.!.U./.!.^./.I.a r e e r a a a a a a N N a a _ / V J.(.#X(.(./.(.U.^.U.U.U.U.U.H.G.J.H.J.^.J.H.J.H.U.J.H.U.F.s.U.F.J.J.J.U.U.U.U.U.T.^.U.U.T.T.^.T.U.U.U.I.I.P.I.G.G.G.G.I.E.T.P.P.T.T.T.T.T.E.T.G.G.U.f.W ..[ I.P.S.d.f.",
",.= O O O O O O e x u f y t t t t N f t a , , , , d Z _ ( t.w.A N A A w.w.( ( M 8 - & - 5 8 9 7 > 5 p 8 5 > ; - - > ; ; , , , , , , : : e p , ; Z ` ` _ / W T Y T m T T T T T m m Y m T T n 5 5 5 5 5 5 i i p d d d V 0.y.y.y.y.q.0.q.0.0.t.g.!.!.U.^.U.^.U.U.J.H.H.J.H.F.F.F.J.F.J.F.H.G.H.^.U.^.^.^./.^.!.^././.I.d.i e r r r a a a a a f f a a a / G.T.J.s.J.#X#X(./.^.^.^.^.U.U.U.U.G.J.H.H.U.U.U.U.H.U.H.U.H.U.F.J.J.P.P.G.F.I.U.U.I.U.U.U.U.^.T.I.I.U.U.I.P.U.I.T.T.I.P.I.I.T.E.I.P.P.T.T.E.T./.I.I.P.I.] / ..f.G.d.S.d.f.",
"u e X X O O O O e N t t y t t f t N t N N e i m ( ( w.t.t.( N V w.t.w.w.( M , & & ; 5 8 p 8 5 5 5 ; - = = - ; ; ; ; ; ; > , , , , , , a a e , / ` / / / W m m m n T m m T Y T Y T T T W T Y 5 5 5 , 5 5 5 i p d d d _ 0.y.y.y.y.y.w.0.0.w.t.G.^.^.U.!.U.!.!.U.J.G.H.G.F.F.G.H.H.F.H.G.H.G.H.U.^.^.^.U.^.!.^.^./././.] r e r a a a a a a a f a f N _ /.#X#X/./.U.u.F.(.(.(.(./.!.H.U.U.U.G.U.U.!.U.U.U.U.J.H.J.J.U.J.U.U.J.U.J.d.J.J.P.P.U.U.I.U.U.I.I.T.U.I.U.I.I.J.J.T.T.T.T.E.G.G.I.I.P.D.T.I.I.I.I.T.I.P.R./ ' ] S.d.d.d.d.d.",
"O f O O O O O O < t t t a N N N t N a C V Z ( ( ( w.w.N a A w.w.w.w.w.V > + & - 2 8 8 8 5 5 5 , ; = = = = - > ; ; > , , , , , , , i a a i m ( / / W / W T T T n Y Y m m T m m Y T W T W / ) s 5 5 5 5 5 5 i p d d f _ t.y.i.l.y.y.y.q.0.t.t./././.!.U.!.U.U.^.U.G.F.H.H.F.H.H.U.F.J.H.H.H.J.U.U.U.^.^.^.!.^.(././.U._ e r a a a a a a a f N f V V s.(.(././././.(.U.] s.^.(.(././.U.U.H.U.U.^.U./.U.H.U.J.H.U.J.U.U.J.U.J.U.I.U.U.P.J.U.U.I.U.T.^.T.T.T.I.I.T.I.U.U.P.G.I.I.I.T.U.P.I.I.S.G.I.I.I.P.I.P.I.P.S.T ' ] P.d.d.S.S.d.",
"O u a O O O O O = t f f f N t t t N a V A ( ` w.( N a N w.t.w.1.w.Z , + + & > 2 5 5 5 , , , ; = = - = - - = ; ; > > ; ; ; , , , i r a V ( / / W W W W W T T T n n Y n n m m T T T T W ' f.] 5 5 5 5 5 5 5 i d d d _ ( q.y.l.l.i.y.y.w.0.t.k.!./.~.~.!.^.H.H.H.H.G.J.J.J.G.F.J.H.F.J.H.F.G.J.U.^.H.^.^.U./.!.J.J.^.P.a e r r a a a a a f a N N N Z !././.!.!.^./.(././.H.] s.U.U././.U.U.U.U.U.U.U.U.U.U.U.U./.U.U.U.J.H.I.U.I.U.J.U.P.U.U.G.U.U./.U.U.U.I.I.I.U.I.T.U.T.I.G.T.T.I.G.P.D.D.S.d.S.I.I.G.P.P.I.f.W ..f.T.S.S.P.K.d.",
"= u ,.< O O O O = t N f f N N t S >.w.w.t.w.( N N Z A w.w.A ` Z , + + & ; > > > > > > > - = = = - = = = - - - = - - - > , , , , : m ( / / / T T T T T T T T Y m n m Y n n n n Y m ) ..d.P.] 5 > , 5 5 , 5 5 p d d _ q.0.y.g.i.g.g.y.w.w.t.F./.(././.!.U.H.H.H.H.H.U.G.H.U.H.F.G.U.G.H.F.F.G.J.H.H.U.^./.U.J.U.U.!.f.i r r r a a f a N f f V V N ] (./.(.(./.U.!./.U./.U.U.F.] s.U.^.^.U.U.U.U.F.^./.U.U.U.^.J.U.U.U.U.U.U.U.J.J.J.J.P.U.J.J.J.J.U.U.P.G.I.U.U.I.I.T.T.I.P.I.I.I.I.I.D.G.D.d.D.D.G.I.P.I.P.P.{ ) ] d.T.P.S.P.d.d.",
"= : ,.N = O O O + t f f a t V 0.w.w.w.t.( N a V A w.w.A S a , O o & ; > > > > ; ; ; - = = = = = = = - - - = = = = - ; , > - - 5 _ / T m T W T m T W T T T T T T m m m n n n T ) ] f.I.T.T./ 5 ; , 5 5 , 5 5 i d d _ ( ( q.y.y.y.y.y.q.w.( !./.(.(.(.^.!.H.^.H.U.H.U.H.H.H.F.G.F.F.H.J.J.G.G.F.H.H.J.^.H.U.U.U.!./._ i e r r a a f f N N N N N N F././././.(././.^.U.^.U.U././.G.] s.J.G.U.H.U.U.!.^.^.U.^.U.U.H.J.U.!.U.U.U.J.G.I.G.G.P.I.U.J.U.I.!.J.J.I.U.I.T.T.U.I.T.G.I.I.T.T.I.G.I.P.I.S.D.d.S.I.P.S.S./ ' ' P.P.I.P.S.K.K.",
"- : e : = = = O O N f t N 0.t.w.w.w.A t f A ( w.w.w.A a ; o o + ; > ; ; - - ; - + O + = - - - - = - = = = = = = ; ; = ; ; 5 m W m T n T m m m m m T T T T T T T m n m m T / ] f.G.U.U.T.R.s 5 ; ; , 5 5 5 5 i d d _ ( ( 0.t.y.t.t.t.0.w.t.(.(./.^.^.^.^.H.J.H.U.H.H.H.H.H.J.J.F.F.H.G.H.J.F.G.G.J.H.U.^./.^./.!./.V e e e r a t f N N N f N N Z H.(./././././././.U.U.H.U.U././.U.F.u.s.H.H.U.U.!./.^./.U.U.U.U.J.G.J.J.U.U.I.P.I.I.I.P.P.T.T.I.G.I.G.P.I.U.J.G.P.U.T.T.T.E.T.T.T.I.T.P.G.P.f.d.S.I.I.S.d.f./ ] ' I.R.T.P.S.d.f.",
", : , , , , ; = = r S 0.w.w.p.w.>.S S S w.p.0.A A a r a O + = - ; = - - - - + + + = - - - - - = = = = = - ; ; , , ; , 5 m m d m m n m n m n m T T T W W T T T T m m T W { f.F.G.H.U./.U.] 5 5 > ; , 5 5 5 5 p d d V _ ( 0.w.t.t.0.0.( ( u./.^./.^.^.^.^.H.H.^.H.H.J.U.U.H.J.J.J.H.H.H.H.J.G.H.H.H.H.H.^.!.^././.P.a e r r a a a f N N N N N V t./././.(./.^./.^./.!.^.U.U.U.U.U.!./.H.F.u.s.H.^.U././.^.U.U.U.U.U.U.U.U.U.U.J.I.U.U.I.P.P.I.I.I.J.G.I.G.U.P.P.P.P.U.I.I.T.I.E.E.E.E.E.T.G.G.G.d.S.P.I.P.K.] / ' f.I.I.T.S.d.S.S.",
", , e e , i i i Z t.t.w.w.e.w.S B w.w.w.w.A C a y r a M > - - = = = = - - + + + - - - - - - - - - - - - = ; , , ; , p p , s n s n m n m m s m T W W T T T T T n m W { [ s.G.H.^.U.U.U.P.T 5 5 > ; > 5 i 5 5 p d f V C C ( q.y.q.0.( ( ( ~./.^.^.^.^.^.H.H.G.H.H.U.^.U.U.H.U.J.^.U./.J.H.U.H.G.H.H.H.H.!.!././.^.t.r r r r r a f f N N N N V V !.(.^./.!./.(././.!.^.!./.!.U.U.H.U.U.U.U.U.F.u.u.F.U.U.U.H.I.U.U.U.U.U.U.U.I.U.I.T.G.I.P.I.P.I.G.d.F.P.G.I.J.I.I.P.G.I.I.G.I.T.T.E.E.E.T.T.I.I.S.d.S.E.R.P./ ) ) P.R.G.I.P.d.S.d.",
"e e , e e a Z t.w.p.i.p.>.S >.e.w.t.w.>.N r g e e t a M , - - = - - - = = + + - - - - - - - - - - ; - = , i 5 ; p p d m p 5 p d d s s n m n m m m n m T W / / ' ] f.s.F.J.H.U.^.U.!.J.d.p 5 5 , , , i i 5 , 5 d f _ C C ( q.t.0.( ( ( w.(.^.^.^.^.^.^.U.H.H.J.H.H.J.U.H.^.H.J.J.H.H.H.H.H.U.H.^.J.H.H.U.U.U./.U.( r a r a t a f N N N N N V ( !././.(.!.^.U././.U./.U.U.U.J.H.J.U.U.U.U.H.J.J.s.u.u.U.U.H.H.F.G.J.J.U.U.U.I.P.I.I.U.I.U.^.J.J.P.P.P.G.P.I.I.J.U.U.T.I.P.T.I.d.G.P.I.T.I.I.I.I.G.d.S.P.P.d.W ..' I.P.P.I.I.S.d.d.",
"e e i a ( w.p.r.r.w.1.B >.r.r.e.e.w.B t t e y y r f a M = = - = = - - + + + - - - - - - - - - - ; ; - ; , p p d m n d s m m p 8 s m s s n s p d T T m / ) ] u.f.D.H.H.J.H.U.H.U.H.U.!.] 5 5 5 5 , , 5 5 5 5 , p d V C C C q.q.( C ( Z H.(.^.^./././.^.^.^.^.H.H.H.U.H.H.U.U.H.G.F.F.G.G.J.G.H.J.H.H.H.J.U.U.U.U.M e r r a a f f N N N V V C u.!.(.!././.^.U.!.(.U.!.H.U.!.U.U.U.U./././.H.F.G.F.U.d.[ u.F.J.J.U.J.J.U.U.J.U.I.P.U.I.P.I.U.J.J.I.I.P.S.P.G.I.I.I.P.I.P.P.I.I.I.P.I.P.I.P.I.T.T.T.d.d.K.P.X.) ' f.R.I.I.P.T.I.K.S.",
"e a _ t.i.i.w.p.1.S B w.i.w.1.1.>.N a t r r e g t A S Z = = = = - + + + = = = = - - - - - ; ; > ; > ; , 8 n m m m n d s n m m n 8 s n n n p s n s n m ) u.s.G.H.G.H.H.H.U.H.H.J.H.!.F./ 5 5 5 5 , 5 5 5 5 5 , i d f f V V _ ( _ Z Z ( !.(.^.^.^././././././.^.!.U.H.H.!.H.U.G.G.F.H.J.G.G.U.U.^.^.U.U.H.!.U.U.U.a i r r a a f N N N S C C C !.^.^.^.!.H.^.^.U.^.^./.^.^.U.U.U.U.U.U.U.U.U.H.H.U.U.U.U.s.s.] J.U.U.U.U.U.U.U.I.I.P.J.J.J.U.U.I.I.G.I.S.I.T.U.G.d.G.T.I.G.G.I.G.I.T.P.I.P.I.T.I.P.d.d.h.K.] ' ' K.T.I.I.I.T.T.P.K.",
"( t.t.i.y.1.S B 1.w.p.p.w.1.A f t f t g y N a V C A S A - = = + + + = - = = = = = - - ; ; > , , , , p m T m m m m n s n n n n n n 8 p n d d n s m m / [ s.H.H.H.F.H.H.H.H.H.H.H.H.U.d.m > , 5 5 5 , 5 5 i 5 5 i a a f N V _ ( C V V u././.(.^./.^.^.^./.!.(./.^.^.H.J.J.H.^.U.J.F.F.J.F.G.H.^.^.!.G.!.H.H.H.U.` r a r r a a f N N V V C C ` (.(.^.^.H.^.U.U.H.U.U.!.^.^.U.U.J.H.H.U.U.J.H.U.H.U.G.G.F.U.F.F.] ] I.U.U.U.I.U.U.I.U.I.P.U.U.G.P.I.I.I.P.P.T.P.I.I.I.T.T.P.G.I.I.P.P.G.T.P.T.I.I.I.S.f.d.j.' ' ' I.R.I.I.I.I.T.P.P.",
"t.p.t.w.A >.>.>.w.w.w.w.A a e r t y t y t C C S B A S A , + + + + = - - = = - - = - ; > ; , 5 , d m W / T m m m m d m m m n s n n m s 5 s m m m / { [ s.G.U.J.H.J.J.F.J.H.H.H.H.H.H.u.p , , 5 5 5 5 , 5 i i 5 , i d d N V _ _ Z V V H./.#X(././.(./.^.^.^.^.^././.(.^.U.H.U.G.H.J.F.G.G.H.H.H.H.H.U.U.U.H.s.` V a a r t t a f N C C S C C w.(.(.(././.!.U.U.^.^.U.U.U.U.U.!.U.F.U.U.U.J.U.U.U.U.F.F.F.G.J.G.U.F.] u.P.U.U.U.U.I.U.U.U.J.I.I.I.I.I.I.I.P.I.T.I.U.P.P.T.G.I.T.T.T.I.T.I.I.P.I.I.G.P.d.f...' ' X.T.I.I.E.T.T.T.T.R.",
"w.0.A A 1.w.w.w.1.>.C a r t r g e t N A B S V S N N A A 8 = - = - - - = - - = - - ; ; = ; i 5 m W / W W m m m m m m m m m n n n n m m n 8 p T ] u.s.F.H.J.H.H.H.J.U.J.H.H.H.H.H.H.U.s.5 , , , , 5 5 5 5 i i i , i d a a N V _ Z V Z ^./.^././.!.(.^./.^./.^.^./.(.^.^.(.^.^.U.H.H.H.J.G.H.H.H.H.G.U.H.!.] [ F.N a a a a t a f N C C C C C y.U.!.^.^.U.U.!./.!.U.U.U.G.F.J.H.^.H.U.U.U.J.U.J.U.U.J.J.G.F.U.J.U.U.I.G.[ ] J.P.U.^./.U.U.J.P.I.T.I.I.T.I.P.P.I.J.G.E.T.I.I.G.I.T.E.I.T.G.I.I.I.I.I.I.f.) 8 W ) j.Y.T.T.E.oXT.T.T.T.",
"B A >.1.>.w.w.1.A N t r t t a e N A A A A C N B A S A A i - - = = - - = - - - - - - - ; p d m T W T T T m m m m m m m m m n d d m n m m / / / s.F.J.H.H.H.^.!.H.H.F.H.H.H.U.U.U.U.H.s., , , , , , 5 i i i i i i i a a a C V Z V m ` U.(.(.(./.(./.^.(.^./.^.(.U.^.^.(.^.^.U.^.U.U.J.H.J.H.U.U.J.G.U.F.] F.J.u.N t r r a f f N C S N C C C t.(.^.^.!.U.!.U.U.U.!.U.H.U.J.U.U.U.U.J.J.U.U.U.J.J.H.H.H.J.G.F.s.U.U.U.G.U.J.u.[ G.I.^./.U.I.I.I.I.I.I.I.I.G.P.G.I.I.I.T.I.I.G.P.P.I.I.I.P.P.P.I.T.I.S.f.m 8 # & s P.R.Y.T.T.oXT.T.Y.",
"w.w.w.w.w.( V , : N t t t t N w.w.A ( A S S A A A A N S e - - = = = = = - - = + ; 5 p s m m m T T m T m m m m m m m m m n n m m m m / { [ u.F.` u.H.H.J.!.H.H.!.H.G.H.U.H.J.U.U.U.U.] , , , , , 5 5 i p i i e e i p a V Z Z V V M u.!./././.^.^.^.(./.^.^.(./.U.^././.^./.^.^.H.U.J.H.G.G.H.J.H.J.] s.H.U.H.Z N a r a a a f S C A C C C A t.^.^.^.U./.U.U.U.U.!.!.U.H.H.U.H.U.U.U.H.U.J.U.U.U.J.J.F.F.H.U.J.U.U.U.U.T.J.U.P.[ ] s.P./.T.T.E.T.I.P.I.U.I.U.I.I.I.I.T.I.I.G.I.I.T.I.I.I.P.I.I.G.T.I.P...3 & & > ..d.K.d.d.d.h.K.P.",
"w.w.w.w.V , O O e V N t N B >.B 1.S C S A 1.w.A B S A A r = = = = - - = = ; 5 p n m m m m m m T T m m T m m m T T T T T m m m m m / ` u.F.J.H.J.u.` J.J.H.H.H.H.H.H.!.U.H.H.U.U.!.U.] , , , , 5 5 5 i p d i i e i d a V V V V V M u.!./././.H.U.^./.^./.(./././.^.^.^././.^.^.J.H.U.H.H.H.G.J.u.] !.!.J.U.s.V N a a a t f N A >.( A C C A A J.(./././.!.!.!.H.^.^.H.U.U.!.H.U.U.U.!.U.G.U.U.H.J.J.F.G.J.U.U.J.U.U././.P.U.I.G.P.] [ D.U.I.T.T.I.I.G.I.U.I.I.U.G.I.I.P.T.I.I.T.E.E.T.I.G.S.I.I.P.I.T.T.K.' ) ) f.f.K.R.I.P.K.K.P.",
"w.w.V ; O = = = e t S A w.>.S B e.B w.S A A >.A A C A A a = = = - - = - 8 s s s n m n n n n m m m m T T T T m m m m m T m m m / t.u.F.H.H.!.H.H.H.H.` u.H.H.H.H.H.!.H.U.!.U.H.^.U.^.( , , , 5 5 5 5 i p d p i i i a a V V V V V V u.^./.U.!.^.^.H.!.^./.^./.U.^.^.^.^./.^.^.U.!./.U.J.J.F.u.` u.H.!.U.H.U.t.V N a a a f N A >.0.0.A A C >.>.w.i.H.!././.^.!.^.^.U.H.U.G.!.!.^.U.U.U.U.U.U.U.H.J.^.U.U.F.U.J.J.U.U./.I.I.U.I.I.P.G.G.f.u.D.I.I.T.I.T.T.I.I.U.I.P.T.I.P.I.I.T.T.T.T.I.P.G.P.I.E.I.I.I.E.T.K.j.j.j.f.f.d.S.R.oXR.T.",
"d + . O = = = e r f S 1.A e.>.>.e.A A B 1.S S A A A A A a ; - = - , s m s 8 p s n s s s n n d n m m m T T T T T T m m T / { ] u.s.J.J.!.!.H.!.!.!.J.H.u.{ H.!.!.!.!.!.U.!.U.U.^.^.U.] , , , , , 5 i i a d d a a a a a V V V V V V s.^./.U.U./.^.U.H.^.U.U.^./.^.^.(.^.U.H.!.!././.U.H.U.u.] J.H.J.H.!.H.H.Z V V a a a N C A 0.w.0.A A A 0.w.>.w.w.t.m n ) U.(.U./.^.!.!.^.H./.U.U.H.H.^.H.U.U.U.J.U.U.J.U.U.F.J.J.I.U.U.I.I.T.T.T.T.G.P.[ ] [ P.I.I.I.I.I.U.P.P.I.T.P.I.I.G.I.P.T.I.T.I.P.P.G.T.G.I.I.R.P.K.K.h.P.P.S.d.d.K.P.R.",
"X X X + + = = < t N S 1.B 1.>.1.e.A w.A A C S A V N Z A e - - > m / m p s s s s s s s s s d d n m m T T m m m m m T T ) [ u.G.G.J.F.J.H.H.H.H.H.H.H.H.J.u./ F.!.!.^.U.H.!.J.G.U.!.!.] 5 , , , 5 5 5 i i a d d a a a a V Z V V V V f.^.^./.!././.^.H.H.G.U.^./.U.!.!.!.!.^.^.U./././.J.] u.G.H.U.F.H.H.J.i.C V N f a f N C A >.w.0.0.0.0.w.0.>.e.w.w.0., O = ) J././.^.U.!.^.H./.H.H.U.U.^.U.U.J.J.U.H.H.U.U.I.U.J.U./.U.I.J.U./.G.I.T.T.P.P.[ / [ P.I.I.T.U.U.T.T.I.P.I.I.I.I.I.G.I.T.T.I.I.P.I.I.I.P.K.R.R.K.d.P.T.R.K.P.d.d.S.",
". . X + + = = < t t x 1.1.>.w.1.1.A 1.S Z C C N N N A Z p i m ) T n d s p s s d s s s s s s n m n m T m m T m m W / ] u.s.J.J.F.F.F.F.J.H.!.H.H.H.^.!.H.H.H.u.` !.!.!.!.^.!.H.H.U.U.f., , , , 5 5 i i i a d a a a a N Z V V V V V u.^.^././.!.^.H.!.U.U.U.U.!./.^./.!.U./.!.^././.s.u.J.U.U.^.!.!.U.H.H.` C C V N f N N N C A 0.0.0.0.0.w.w.>.1.e.e.e.w.Z u.[ T ] U.(./.^.^.^.!.^.U.^.!.!./.U.F.H.U.U./.U.U.U.U.U././.(.U.T.T.I.I.I.I.I.P.T.I.S.[ T f.I.I.I.T.T.T.T.T.E.T.T.I.P.G.I.I.S.Y.P.S.P.P.T.T.P.Y.R.R.K.K.K.R.oXR.Y.R.K.",
"+ O X O + = = < N f N 1.e.w.0.B B S V V V S A V V V N V / ` ) m m m d d p s s s s n s s s s n s d m T T T T T / { u.D.G.G.G.J.J.J.F.J.H.H.!.!.!.J.!.H.!.H.!.H.J.` s.H.!.H.!.U.U.^.U.f.i , , , 5 5 i e i a a a a a f V V V V V V V u.^.U.!.^.!.U.^.!.^.U.U.^././.^.U.^.^.!.U.J.H.t.H.^.^.^.!.H.H.H.^.H.F.A C Z C N f V V V C ( 0.0.0.0.0.w.w.>.w.1.e.e.e.w.w.t.G.n 8 f.(.(./.^././.(./.^./.U.U.U.!./.U./.U.U.(./.U./.U.U.T.T.T.T.T.I.I.I.I.T.I.I.I.S.[ ] d.G.I.E.E.I.T.T.T.E.T.T.I.I.P.P.P.P.P.I.I.T.I.E.R.P.T.P.K.P.K.R.T.T.T.E.",
"O O O O + + = : t t t >.r.A A 1.S A t.Z t A A Z V V ( u.` m m m T m n s s p n n n s d s n n n n m m m T T T { [ d.G.H.J.H.J.F.F.J.J.J.H.!.H.H.H.!.H.!.H.H.!.!.^.U.] ] !.H.U.U.H.U.!.d.5 5 , 5 5 5 i i i a a a a N N V Z V V V V V s.^.^.U.^.^.!.^.!.U.U.^.U.^.!.!.!.U.^.!.U.u.u.H.U.^.U./.^.!.H.J.H.F.] Z C Z Z V N V C A C A ( 0.w.w.w.0.0.w.w.w.e.e.e.w.A >.Z a , , / U.(.(.(././.^././.^.^.^.^./.U.(././././.U./.U.U./.I.T.I.I.T.I.T.T.E.P.I.I.T.T.G.[ ] f.P.I.P.T.E.T.@XE.T.P.I.T.I.I.R.T.T.I.I.R.E.T.R.E.Y.R.K.R.R.R.T.oXE.",
"O O O O O O = : t t N >.1.>.A S 1.w.A A V V A ( ` u.u./ m W T m W m m n n m m m m m s n m n n m m m T / { u.F.G.U.H.J.J.F.F.G.J.J.J.J.H.J.!.H.H.!.!.!.H.J.^.!.H.!.U.I.{ G.^.U.!.U.!.J.p 5 5 5 5 5 i i i i a V N V V V C V V V V ( J.^.^.^.U.!.^.^./.^.!.^.^.U.^.!.!.!.J.s.] s.H.U.U.U.U.^.!.H.H.H.J.f.5 C Z A Z C V V C A A A A A 0.0.w.w.w.w.w.w.w.w.e.w.>.>.0.( , 4 5 m J.J.^.(.^.^././.^.^./.#X#X/.(.U./.U.U.U.U.(.@X^.^./.E.T.T.T.T.T.T.T.T.T.T.T.T.T.P.[ / [ I.T.E.E.E./.E.T.P.I.I.I.T.P.I.T.I.T.R.T.E.T.T.Y.R.R.Y.T.Y.T.R.",
"= + + O O O O = r a a A e.w.w.w.A N C Z _ ( ] f.u./ m / T T T T T T m m n T m m T T T m m m m m m T ) [ u.F.J.H.J.H.H.J.H.H.H.J.J.H.!.H.H.!.!.!.!.!.!.!.!.!.!.^.!.!.!.U.f.u.H.U.U.U.H.m 5 5 5 5 5 5 i i e i M a a N V V V V N V ` ^./.(././.!./.(.!././.!./.!.!.U.U.U.] ] U.!.H.^./.!.J.J.^.U.J.J.J.[ ; V A ( A C Z C C C C A A A A 0.0.e.w.w.w.w.w.w.w.0.0.w.0.0.( > > 5 m i.J.^.^.^.^.^.U.!./.(.(././././.U.(././.(.(./.T./.(./.T.T.E././.E.E.T.T.I.T.E.T.T.T.f.] K.T.T.@X@XT.T.T.T.E.T.T.I.I.I.I.R.Y.T.T.T.T.K.R.Y.R.R.Y.E.T.",
"- = = = O O O = e a t S 1.1.A N Z A A ` u.u.f.) M T m m m m m m T T m m n n m m T T T T m T m W / [ u.s.J.H.H.U.J.H.H.H.!.H.H.F.J.H.H.J.H.H.H.!.!.!.H.H.!.!.!.!.U.^.!.^.!.J.{ P.U.^.^./ 5 , 5 5 5 , e e e a a a a N V V V M M M f././.(.(.!.!.U.U.^.^.U././.U.!.U.s.{ F.U.I.U.H.U.U.G.J.U.U.U.U.G.u.{ > V A ( ( A ( ( C Z A C A A A 0.w.w.w.t.t.w.0.w.( d i , ; , i 5 ; 4 > C e.g.!././.^.^././././.U.T.U.!.U.U.J.(.(.U.T./.U.(.@XE.T.E.T.E.E.T.@XE.T.T./.@X/.T.Y.I.d.[ S.T.I.T.T.T.I.E.E.T.E.I.I.T.I.I.T.T.T.T.T.E.oXR.R.R.T.T.",
"- - = = = + O = e t t V A A N Z ` t.] f.[ ) / T T m m m m T T T T T T T T T m m T T T T T W / ] s.s.G.U.H.H.H.U.H.^.H.U.U.H.U.J.J.!.!.H.H.H.H.^.!.!.!.!.!.H.!.^.U.H.U.!.!.T.U.[ f.^.^.[ , , 5 , , , e e e a a a a N V V N a d m s.@X/./././.U.!.U./.!.!.U.U.U.U.] ] U./.U.J.U.U.U.!.G.H.H.H.H.F.F.u.T 2 d ( ( ( ( ( ( A Z ( A ( 0.( ( ( w.w.t.t.( V i - & % & ; ; > > 4 > > , >.e.i.w.s.(./.U./.^.U.U./.U././.U././.U.T././././.^./.E.T.E.E.T.I.T.T.I.E.T.E.T.T.@XE.E.P.f.[ S.E.E.E.T.@XT.T.E.T.E.E.Y.T.T.T.E.T.T.@XoXXXR.P.P.R.",
", - = = = = + O < t t S N A w.u.] f.f.( T T T T m m m T W W T T W / W W T W T T T T T T / ] u.F.G.F.H.J.G.G.U.H.H.^.U.U.^.^.^.J.H.H.U.^.U.H.^.!.!.^.H.!.^.!.!.!.^.^.!.U.U.T.T.T.I.] U.S.5 , , , , , e e i i a a a V V V N a d ( /./././././.U.U.(./.^.J.U.U.s.` U./.^.!.!.!.U.J.H.G.F.G.F.J.H.H.H.F./ > - C 0.w.t.w.( ( ( ( ( ( 0.( ( ( ( _ Z d ; & & & & ; ; > , i d 5 ; ; > e >.e.i.w.] /.U.U./././.^.(.(.(.U.U././.T././.(.T.T./.@XE.E.E.T.@X(.E.E.E./.E.E.E.@XE.@XE.@XI.d.[ d.E.@XE././.E.E.E.oXT.E.T.R.T.T.T.oXE.T.T.R.R.R.",
", , , , , , , , : e t C ` u.k.f.f.] / / / T m m m T T m T W T W T / / W W W T W W T / ] [ s.J.G.J.H.G.H.U.U.H.U.J.H.H.U.^.U.^.U.U.^.U.H.^.^.U.H.H.^.!.H.^.^.^.^.^.^.U.U.^.W.E.T.T./.f.[ p , , , , , , e i i i a f N a V M d M f./.(.(./.(.(.(./.!.(.^./.!.u.s.!.U.U.!.H.U.U.F.F.s.F.U.U.J.H.F.J.!.U.[ > & ; Z w.t.y.t.` ` ( ( ( _ _ m p , = + & & & + + & ; M Z ( ( ( w.M 5 o ; N >.e.r.).` Y.U./.(.(./.U./.(./.I.I.T././.U.U.I./.U./.E./.T.E./.(./.E.E.E.E./.@X/.E./.E.T.@X#XT.f.[ P./.@X@XE.@X@X@X@X@X@X@X@X@XoXE.oXT.oX@XoXT.",
", , , , , p i , , e Z t.u.t.] { / / / T m T m T T T / W T W W T T / W W T W W T ) ) ] u.s.J.U.H.H.H.H.G.U.U.H.U.U.H.H.^.!.^.^.^.U./.^.U.H.!.!.U.H.!.^.^.H.^.^.(././.!./.^.U.(.U./.S.E.G.p , , , , , e e i i i a a a a V M d V J.(.@X(.(.(.#X/.(./.(./.G.u./.U.^./.U.H.J.J.F.F.U.H.G.J.U.H.H.J.^.!.U.D.W - + - d _ ( ( ( / V d 5 > + . o o o o $ $ + + 8 / ( w.w.w.w.w.w.0.Z p - C >.w.e.i.` / I.U.^./.(.U./././.I.T././.^.T././.I.I./.@X#X/.E././.T./././.@X/.E./.E./.E.E.T.E.@X@XE.d.[ f.E.@X#X#X#X#X@X#X#X@X@X#X@X#X@X#X#X@XoX",
", , 5 i 8 , , , i ` s.u.t.( ) { { / / / / / T T T T T W T T T T T W T T W / ) ' [ X.d.D.J.G.G.H.H.H.U.G.J.J.H.H.H.H.U.U.U.H.U.^.!./.^.^.^.H.^.^.!.U.^.(.^.^.!./.^./.U.U.U././.(.#XT./.T.[ 5 , , , e e e e i e a f f N V V M / (.#X@X(.#X#X#X/././.!.u.s.(.T.T.U.!.U.F.J.U.^.!.^.^.^.^.^.U.^.^.U.^.U.J.D.{ p - + + + + + o o o o o o o . . . o o o ; n / ` w.w.0.0.w.y.e.w.w.t.Z a e.>.e.e.l.m ) /.U.^.U.U.T./.T.U.T./././.T././.T.@X/.E.@XE.T.E.I./.E./.E.@X/.E./.E.T.@X/.T.@XE.@X@XE.T.f.] f.I./.#X#X#X#X#X#X#X@X#X#X#X#X@XoXoX",
"8 i 8 , ; , p m ] f.u.] _ ) { / ) ) ) / / / T T T T W T T T m T T W W / ) ] f.d.G.J.J.F.U.U.U.H.F.D.J.J.J.G.G.J.F.U.H.U.U.!.F.U.!./.!.U./.^.^.^././.^.!.^.U.!.!.(.!.!.U.U././.(./.E.@XT.f.5 5 , , e e e e i i a N N V V V m ] /.(.#X(.U./.U.U.U.s.u.H././.^./.U.H.U.U.!.J.U.U.H.^.^././.!.(.^.^./.U.U.H.F.u.' W 8 2 ; - # $ o o o o o o o o o . . . & p _ ( t.w.( 0.w.y.e.w.A C A 0.A 0.i.).m m d./././././.(.(.U./.T.T././.I.T./.(./.@X/.E.E./.E.@X/./.E.E./.@X/.@XE./.@XE.E.T.E.T.E.E.@X#XP.{ X.#X#X#X#X#X@X#X#X#X#X#X#X@X@Xf.",
", , - = , m ] f.u.] { ` ( { / ) { / ) / / T W W W W W T s s T W T / { ] f.D.G.J.U.H.F.J.J.U.U.U.F.G.F.G.F.J.G.F.H.U.^.U.U.^.U.U.U.J.(./.^.U./.(.(./.^.^.U.^./.!.!.!.U.U./.U././.T.E./.@XP., 5 , e e i i e e a a N N V V V m d././.U./.@X/.!.J.] s.U.(.H.U./.^.U././.U.^.U.!.U.!.^.^.^.^.U.^.^.^./.(.U.H.U.s.d.d.f.] / W T n n n 9 7 6 2 % @ o . o o o . > V t.t.t.( 0.w.y.t.A A A w.>.i.l.)._ n / U.^././.U.(./.(./.@XI.I.U.U./.@X(.@X/.E.E./.@XE.@X@X@XE././.T.I.@X@X/.@XE.E.T.T.T.I.T.E./.@XE.S.) f.I.E.@X#X#X#X#X@X@X#X@X[ { ",
"- - - 8 ` f.f.[ ] { ] ] ) { { ) ) ) / / / T T / T W W T m T W / / ] [ f.D.J.G.U.U.U.U.J.J.J.G.H.H.G.G.s.s.J.F.F.U.U.U.U.U.!.^.U.(./././.!.U./.!.U.U./././.!./.^.U./.!././.U.U.T.P.E.@X@XT.m 5 5 i i e e e e a a N V V V m T #X/.T././.^.U.s.f.U.J.U./.^.!.!.!.^.!./.^.U.U.U.U.^.!.^.^.^.^.^././.^.(.F.J.U.G.s.G.u.s.f.f.u.] / / W T W T Y s s 7 ; o o o o o s ( t.t.0.0.t.t.w.w.w.w.w.l.l.).t.Y s F.I.U./.U././././././.T.^.@X/./././.E./.E.T.T.T./.T.T.E.@X@XE.P./.E.E.E.E.E.E.@X/.E.E.T.T.E.@X@XI.P.{ f.E.#X#X#X@X@XT.I.] X.T.",
"- i / f.f.f.' { { { { / ) ] ) ] { ) / ) / / / T / T W W W / / ] ] f.s.G.U.U.U.H.U.H.F.J.J.J.G.G.G.^.G.F.J.J.s.J.U.U.U.U.^.^.U.U.U.!.^.U.U.^.^././.^.^.^./.U./.U.!./.!./././.T.T./.@X#X#X/.] 5 5 5 e , e e e a f V N V V M ] #X#XT./.U.s.( U.J.U./././.!.^././.^././.(.^.^./.!.!.H.!.U.H.^.^.(./.^.^.J.U.J.U.f.s.s.s.s.u.s.s.f.u.] { / / W / W W Y 9 4 + o o o ; d _ ( _ d m _ w.w.w.y.y.g.z._ n n s.F.I.U./.T.@X^.T./.T.T.@XT./.(./.E.E.T.T.P.T.T.E.T./.E.T.T././.@XE././.@X/.E.T.@X@X@X/././.#X#XE.E.#XI.] [ @X@X/.T.E.) f.#X#X",
"/ [ [ ) ] ] ' ` { { { { / { ) ) { ) ) / / / / W W T W / / ) ] [ [ D.J.H.U.J.H.H.H.U.H.H.J.H.G.J.G.U.F.J.U.F.s.H.H.H.U.U.H.U.^./.U.U.U.U.^.U./.U./././.^./.(.(././.U.!././.U./.@XE././.@X@Xf.i i , , , , e e i a V V V V V P.#X#XT.T.u.f./.U.I.U.U.U./.U.!./.J.U.^.!.U.(.U.U.U.^.U./.^./.^.^.^./.^.^.H.U.J.J.F.s.s.s.u.s.s.s.D.u.f.f.] ) / { ) ) ) / W Y 9 ; $ + + + ; ; + X + d q.t.y.y.t.] s n n f.G.J.U.J.I.I.T.T.^.T.I.U.I.T.E.T.I./.E.E.T.I.T.T.T.E.T.T.I.E.E.I./.E.T./.@X/.E.@X@X@X@X@XE./.@X/.E.T.T.T.R.] ] I.f./ P.#X@X#X",
"[ [ ] { { ) { { { / { { / ) { ) { ) / / W W / W ) / W / ] [ F.F.U.J.U.U.J.H.G.H.J.F.G.H.U.F.F.J.G.F.F.F.J.F.F.F.J.G.U.J.J.U.U.U.J.F./.U.U.U.(./././././././.#X/./.(.J./.U.I.I.f.G.E.@X#X@XT.i i , , e e e e a a a V V V Z T.@X#XP.] ^.T.P.U.J.F.U.U.J.U.U.U.U.!.^.!.^.!.^././.^.^.^./.!.!.^./.^././.J.U.H.U.U.G.s.s.s.f.f.f.d.f.f.S.f.f.] ] { { { ] ' ' ) W n 3 ; & & & + & # o > d m d , + > p W u.d.G.G.d.F.F.G.G.I.I.I.T.T.T.E.T.T.T./.T.T.E.I.I.T.E.T.T.T.T./.T.E.E.E.T./.@X@X@X/.@X/./.@XE.E.T.E.I.T.I.T.T.S.T p [ @X#X@X#X",
"] ] { { ) { ) { ) / { { { { ) ) ) ) / ) / / W W / ' { [ D.U.H.W.H.G.J.J.U.G.H.G.s.F.J.J.s.J.U.F.u.H.F.J.U.J.d.J.J.J.U.J.J.J.U./.U.U././.(.U.^.^./.U.U./.@X/.@X/.(.#X/./.T.I.I.P.E./.@X/./.@Xm i e i i e e e a f f V V Z u./.#X] f.(././.@X/.I.I.T.I.U.I.U.U.!./.!.U.U.U.U.!.H.H.^.H.U.U.^.H.U.^.^.U.U.U.U.J.J.F.s.s.s.f.s.f.s.s.d.D.f.f.f.f.[ ] ] ] ] ] ] ] ..' W T s 7 4 % & & - & + # # - 2 W { u.s.P.d.d.G.I.G.G.P.P.I.I.I.S.P.I.I.I.I.T.E.E.I.T.T.T.T.E./.E.T.T.E.T.T.T.T./.T.T.E.E.E./.@XE.T.E.T.I.T.T.E.T.f.m X.[ ] T.@X#X",
"' ' ) / { { ) ) { ) ) { ) { ) ) / ) ) / ' / W / ] ' ] f.I.U.G.H.J.G.G.s.H.H.G.G.J.F.H.G.s.s.s.F.F.G.s.s.H.J.F.U.J.F.J.U.U.P.U.U.I.U././.U.^.!.^./.U././././././.^.^./.T.U././.T.E.T.E.@X@X@X] i i i i e i e i f V C V V u.f.f.@X@XT.(.(././././.U.I.I.I.J.U.U.J.U.U.H.^.H.H.H.J.!.J.U.H.H.G.H.^.U.U.U.U.J.U.!.J.G.s.u.s.s.f.s.f.f.f.d.d.f.f.d.d.d.f.[ ] ] ] ] ) ' ' ' ' ) ) T Y s s s s s T / { f.D.d.d.P.P.P.P.S.d.d.S.f.S.P.P.D.G.P.P.I.I.T.I.I.T.T.E.E.E.T.I.E.T./.E.I.T.T.E.T./.E.E.T.E.@XE.P.T.E.E.E.T.T.S.T I.@X@XK.{ / f.",
"/ / / / ) ) ) ) ) ) / / ) ) / ) ) ) / / ) ) ] [ [ / [ f.F.F.G.F.U.F.J.H.H.F.G.G.G.F.F.J.F.s.J.F.U.J.s.d.s.U.U.U.U.F.U.J.U.F.T./.T.P.T.U.T.T.(.T.I./.^././.@X^./.U.I.T././././.@XY.T.T.I.E./.] p i i i i i i a N V A A V m Z P.@XoXE.G.E././.I.I.T.U.d.F.J.F.F.s.F.G.U.G.J.H.H.H.^.J.H.H.U.U.U.^.^.H.H.H.U.U.U.U.J.d.u.s.s.s.f.u.f.f.f.d.d.f.f.f.d.d.f.f.f.[ [ ] ' ] ] ' { ' ' ' ' ' ' ) ' ' ] s.d.P.d.d.S.d.S.S.S.d.f.S.S.P.f.S.S.d.d.d.d.S.S.d.S.D.I.I.E./.T.E.E.I./.E.T./.T.T.I././.E.T.E.T.E.T.E.E.E.E.T.S.T R.E./.#XoX@XR./ ",
"/ / T / / / / / / ) ) { / ) ) { ) / / / ] [ d.F.S.T.D.[ u.s.J.J.G.F.J.J.J.H.F.F.G.F.F.F.J.U.J.G.F.F.F.F.I.U.U.P.P.G.U.J.J.I./.U.J.U./.U./.U././././.T.U.^.T.^.T./././././.@XT.@XT.I.P.T.E.E.I.p i i i i i a a N C C ( _ V V P./.@X@XT.P.U.U.T.I.P.U.U.H.U.J.F.F.F.U.G.H.J.J.G.H.H.J.U.H.J.U.!.!.U.U.J.H.U.U.U.U.U.U.s.s.s.u.s.d.d.d.s.f.u.[ f.f.d.f.G.P.P.P.I.d.X.[ ] [ X.f.f.f.f.f.f.f.f.f.K.S.G.P.P.P.P.d.S.d.S.S.d.d.d.D.d.d.d.d.d.S.f.d.d.d.S.d.P.P.S.I.T.E.T.I.s.S.T.E.I.T.T.@XE.T.T.T.T.T.T.E.E.@XE.K.) T.T.E.#X#X@X@X#X@X",
"T / / / / / / ) ) { / / { { { / / ) { ] u.D.D.U.H.U.D.G.G.H.J.H.F.U.H.G.F.J.G.H.H.G.G.F.F.G.F.s.s.F.F.F.U.U.U.I.J.G.J.U.U.U.G.U.U.U.U.U.^.U.U.T.^./.T.U.I.T.^.@X/./././.@X@X@XT.T.I.I.T.@X@X#Xm i e e i i a a V Z ( ( u.#Xf.f.#X#X#X@X^././.T.P.I.P.J.U.U.J.F.J.H.U.U.^.G.H.H.H.H.J.U.H.G.H.U.U.U.U.U.H.I.J.U.U.U.U.d.s.s.s.G.D.P.G.f.f.d.d.f.f.d.f.f.D.I.T.T.U.T.I.d.f.s.f.f.d.d.d.d.P.P.K.S.d.d.S.S.S.P.P.d.S.S.S.P.P.S.S.P.d.f.d.d.d.d.K.P.P.P.S.d.S.P.S.G.P.T.I./.T.E.I./.@X/././.E.E.I.I.E.E.@XE.@Xd.{ #X@X@X#X#X#X@XT.oX@X",
"/ / / / / / ) ) / / ) ) { ) / ) ) [ u.D.H.H.^.U.W.U.J.U.J.H.H.J.U.H.F.G.G.F.J.H.U.G.J.F.H.U.U.G.(.#XU.U.J.J.I.I.I.U.U.U.U.T.U.T.U.P.J.T.T.T.U.U.I.U.U.U././.U./.^./.@X(.@X@X@XT.T.T.I.T.E.E.T.] i i i i i a f C C ( ( f.#XE.R.[ T.@X#X#X#X(./.T.T.U.U.U.J.s.F.U.F.F.U.G.J.J.H.H.F.G.^.U.U.H./.U.H.G.G.!.U.J.d.U.U.I./.d.s.d.F.f.S.S.D.d.d.f.f.[ [ [ f.d.S.I.I.P.I.E.T.I.P.P.P.P.I.S.P.P.P.P.P.P.P.P.P.S.S.S.S.G.G.G.P.P.P.d.S.S.d.d.S.S.d.S.d.P.I.P.G.S.d.d.P.S.G.I.T.S.I.I.I./././.@X@X@X/.E.E.E.T.T.u.{ @X#X#X@X/.E.E.@X@X/.E.",
"/ / / / / / / / T / / / / / { ] [ D.F.J.H.H.H.H.J.U.U.U.U.J.W.H.G.F.G.U.H.F.F.F.F.J.J.J.F.U.U.J.U.J.J.J.U.U.G.U.U.U.U.U.I.T.T.T.I.P.I./.Y.I.I.I.U.I.I.I.U.T./.(.U.(.(./.@X^./././.E.T.E.#X@XE.R.d i i i i a f C A ( _ ] T.T.#X@X{ f.T.#X#X/././.T.^.U.G.F.s.F.G.s.J.U.U.U.!.H.U.U.^.!.H.^.!.^.H.!.U.J.U.U.U.J.T.U.^.^.I.J.G.d.d.f.d.[ f.f.f.f.u.f.f.d.d.d.P.T.T.T./.U.E.E./.T.E.I.I.I.P.I.G.G.S.S.P.S.S.d.G.P.S.S.f.S.G.S.d.d.d.S.P.S.S.d.S.d.d.P.P.d.P.S.d.R.P.S.S.R.R.K.R.T./.(.E.E.@X#X@XE./.E.P.[ ) E.@X/.E./.E.@XE.E.oXE.E.",
"/ / / / m / m T / / / / / { ] ] F.F.H.H.H.H.^.^.H.H.U.H.^.H.^.F.F.F.G.D.s.F.G.G.J.s.s.s.J.J.G.F.J.J.I.U.J.F.U.J.U.J././.U.I.U./.T.U.U.U.I.U.I.T.T.I.U.U.I./.(./.T./.@X/.@X@XT.T.@XT.T.@X@X#X@XT.m p i i i a N C ( ( ( u.#X#X#X#XY.[ { T.I.T.T.U.I.I.U.U.J.J.J.U.G.U./.!.^.U.H.H.H.H.H.H.J./.!.U.U.U.U.F.J.U.U.T.P.^.T.T.I.G.f.S.d.S.f.d.f.S.d.f.f.f.f.d.d.S.P.T.T.T.U././.@XE.@XE.T.I.I.P.P.P.S.P.S.d.S.d.P.G.d.d.d.P.P.d.d.d.d.f.d.S.S.S.K.S.S.P.P.P.P.P.P.R.K.G.P.I.I.P.T.I.I.T.T.G.P.I.T.E.T.T.] / I./.E./.@X@XT.@XT.E.E.@XT.",
"m T W W / / / / / / / { [ s.s.G.J.F.^.F.J.F.H.H.H.H.H.H.H.H.U.H.J.H.G.s.s.G.J.U.G.G.J.J.U.H.F.s.U.U.U.U.U.J.U.U.U.U.U./.U.U.U.U.T.^.^.T.U.^.^.T.T.T.^.^.I.T./.^././.(.@X/.@X/.(.@X/.I.I.E.E.E.U.a p i e i a V C ( ( A ( #X#X@X#X@X@XE.] d.@X/.T.T././.(././.^.U.(./.!./.U.!.H.H.F.H.^.U.U.H.H.U.J.F.s.s.f.J.T.U.T.I.I.G.P.d.f.f.[ d.d.d.G.G.d.u.u.d.f.d.d.P.P.P.P.I././.@X#X@XE.#X@XT.T.P.S.P.P.P.d.S.S.P.S.S.f.S.G.S.S.S.d.S.S.S.d.d.S.S.S.S.S.P.S.P.P.K.S.P.R.I.Y.R.P.P.Y.I.I.S.P.P.T.P.T.I.f.{ [ @XE.@X@X#X/.E.T.E.E.T.E.E.Y.",
"W / W / / Z T / / / ] u.D.J.F.J.H.H.H.H.H.J.F.J.H.H.U.J.F.J.U.U.J.H.s.F.G.F.G.G.s.G.s.J.J.F.H.F.U.F./.U.U.F.J.U.U.U./.U.T.U.U./.^.T./././.U.T.U.U.I.U.T./.T.T.T.^./.^././.@X@X/.#X(.I.I.@XT.@Xs.a i i i a a V A 0.( ( A /.#X#X@X/./.#XI.[ ] ^.I.T.T./.^.(.(.U./.U.U.^./.^./.!./.U.U.H.G.U.U.J.H.U.U.U.U.U.U.T././.^.T.T.P.d.d.f.f.S.S.S.S.S.d.d.f.d.S.P.G.G.P.P.I.E.(./.@X@XT.E././.@X@X@XI.T.I.P.P.S.S.P.d.d.d.P.P.d.S.S.d.d.R.P.G.d.d.d.P.d.d.P.P.S.P.S.d.I.R.XXY.R.P.P.R.I.R.R.R.R.R.P.d.f.Z / E.E./.@X/.@X@XT.E.@XE.E.E.E.T.",
"T m T m n m / ) ] u.u.F.J.H.H.F.F.H.J.J.!.H.F.H.H.G.F.H.W.^.U.H.J.F.F.H.U.G.s.F.J.U.J.U.U.J.J.F.F.U.U.P.U.F.U.I.U.U.U.T.U.I.U.^.U./.(.^.T.I./.U.P.I.I.T.T./.T.I./.T.T.U.T./.T./.(.@X@X@X/.T.T._ a i i i i a f A ( ( 0.A s.#X#X@X#X/.T.^.(.F.) [ P.T./././.!./.(./././.(.H.^.U.^./.!.J./.H.J.!.F.U.J.J.P.U.T.I.U.P.^.I.I.I.d.d.d.S.d.S.P.S.d.S.G.d.S.d.d.I.P.P.S.S.G.I.^./.E.@X/./.#X@X@XE.T.T.@XT.I.S.S.S.P.I.d.d.d.f.d.d.S.P.P.d.d.I.P.K.P.S.S.d.I.S.d.d.d.S.I.R.Y.R.P.P.R.K.P.K.S.P.K.K.f./ ] d.I.E.E.T.T./.E.T.E.@XoXE.E.T.R.",
"/ T T n m / ] u.u.F.F.J.H.J.F.F.F.H.J.F.J.H.J.J.J.J.J.H.G.G.F.U.H.H.U.U.F.s.F.F.H.U.J.U.H.s.F.G.U.U.J.G.J.U.U.U.^.U.U.U.U.U.T.P.P.T./.I.T.U.I.U.I.T.^./.I.T.T.U./.I.T.T./.I.T.T././.@X@XE.J.f.m a i i e i a f C A ( ( ( t.#X#X(.(.(.@X/.(.(.@Xf.] /.(.(.(./.(./.(.(./././.^.U././.U.J.^.^.U.U.U.U.J.I.I.I.U.U.I.I.T.I././.I.T.S.G.S.I.P.P.S.S.S.P.P.S.d.P.S.d.d.S.P.G.T.P.T.@X@XE./.E.#X#X#X@X@X#X#XI.I.I.d.P.d.d.f.d.S.d.d.d.d.S.d.P.S.K.d.P.d.P.P.S.d.f.f.f.P.R.P.h.h.K.K.K.j.h.d.h.K.f.) ] K.d.P.T.T.oXT.T.E.T.T.R.T.T.oXR.Y.",
"T m m / / ] u.F.J.J.H.H.H.H.J.F._.H.F.H.J.F.F.J.J.H.H.H.H.U.H.H.H.G.F.s.{ { J.J.H.J.G.F.J.J.s.J.U.J.U.P.U.J.J.U.U.I.I.I./.I.T./.I.T.I./.T.^.U.U.I.P.T.T.T.I.T.I./.^.U.^.U.U.T.T.@X@X/./.d.P.#Xd a i i e i a a C 0.0.0.0.w.#X#X#X(.@X(./.#X#X/./.s.) P./.(./.#X(.#X(.(.(.!.(.^.!.^.^.!.U.U././.!.U.U.P.I.I.U./.T.T.I.T.I.R.P.I.G.P.P.P.P.S.S.G.S.S.P.P.S.S.S.S.S.P.I.I.T.T.T.T.@X@X/.@X@X@X#X@XE.#X#X@XT.T.I.S.G.P.S.S.K.d.d.d.S.P.K.S.S.d.d.d.d.S.d.S.d.S.d.K.P.d.P.K.P.d.f.h.d.d.d.j.d./ X.h.h.R.K.P.R.I.R.I.P.I.T.R.I.P.R.T.E.",
"T m m [ u.u.D.J.H.H.!.H.J.F.F.F.F.J.J.H.F.F.J.J.H.H.U.J.U.W.H.u.s.s.F.u.{ u.G.F.H.J.J.G.G.H.H.G.s.J.J.U.P.U.U.G.U.P.J.U.U.J.I.P.G.I.P.U.I.I.T.T.U.P.U./.U./.T./.T.U./.^.^.T.U.U.T.I.d.d.@X#X@X/ a a i e i a a C 0.0.0.( p.(.(.#X(.@X/.(./././.#X/.U.( [ P.I./.#X(./.(./.(.(.!.U.U.!.^.U.!./.T./.T.U.I.d.d.T.^.I.J.T.I.I.T.T.T.T.P.P.P.P.I.d.P.P.P.S.d.d.d.I.P.S.P.P.P.R.T.E.T.E.#X@X@X@XE.@XE.@X@X@X@X#XE.R.R.I.P.G.P.K.d.P.P.P.P.P.S.S.d.S.S.d.d.d.d.d.d.S.d.d.S.f.d.K.K.h.d.f.j.f.f./ X.j.j.h.h.K.h.d.d.K.K.K.K.P.T.P.K.P.I.K.",
"/ / ] u.F.F.J.H.J.H.J.J.J.F.J.J.J.J.J.H.J.G.H.J.H.J.F.H.F.F.u.s.G.u.s.u.u.G.H.J.G.J.J.G.H.F.F.H.J.F.J.U.F.J.U.F.U.G.G.G.G.F.f.f.G.P.P.U.U.U.U.I.U.I.U.U.U./.I.U.U.I.P.T.I.U.T.T.P.f.I.T.T.@X@Xu.a a i i i i f C 0.0.0.( i.#X#X(.(./.(.(.^.^.(.(.#X(.U.] / T./.#X@X/.(./.#X/./.^.U.U.!.U.U.^.U.U./.U.T.G.P.I.I.T.I.P.U.Y.I.T.T.T.T.T.P.P.I.P.P.S.P.S.d.d.d.d.P.S.P.S.I.I.P.P.P.I.@X@X#X#X@X@X@XE./.E.@X@XT.E.T.T.T.I.I.P.P.S.d.d.d.d.S.S.S.d.K.S.d.S.S.d.S.d.d.d.h.d.d.f.f.d.f.j.j.X./ X.j.X.K.h.P.d.d.d.h.h.d.d.d.d.P.d.d.K.R.P.",
"` [ s.J.J.H.W.H.W.H.F.H.J.J.F.J.F.F._.F.F.H.J.F.H.J.J.W.F.u.F.F.u.F.H.U.F.U.J.F.F.F.F.H.G.J.F.G.U.H.J.J.J.J.J.G.J.J.s.s.s.] F.U.U.H.J.U.T.P.I.I.U.I.U.U.I.P.P.I.^.U.P.U.I.I.I.d.u./.@XT.' W n p i p i i i a f ( w.w.0.0.J.#X(.^./.(././.(.#X(.#X(./.U.U.P./ s.#X/.(./.^./.^.(./.(./.(.(./.U.U.U.^.T.G.I.T.T.T././.T.^.T.T.T.T.T.T.I.P.I.S.P.S.S.P.P.d.P.d.f.G.S.I.T.K.P.R.@XP.I.T.T.E.E.@XT.@XE.E.T.T.E.E.I.I.T.E.Y.I.I.P.P.P.d.d.S.K.S.K.K.K.K.K.d.S.K.K.K.d.d.f.f.f.j.f.d.j.f...W ' j.h.j.K.K.K.j.j.h.P.K.K.h.j.d.f.S.d.d.K.R.",
"s.F.J.H.W.H.H.H.H.J.F.F.W.F.F.F.F.F.J.J.F.J.J.H.H.H.J.u.F.F.F.J.U.^.U.J.U.U.U.^.U.!.U.J.H.G.H.U.J.J.F.J.U.J.I.J.F.J.U.J.G.F.J.J.U.U.J.J.I.I.I.I.U./.!.U.I.U.U.T.T.T.I.P.U.s.] U.T.E.d.2 - - - d a i i i i a V 0.y.e.w.w.g.#X(.(././.(.^.(.#X(.#X#X/.!./././.d.{ U././.T./.(.(.^././.(././.^.T.T.U.I.G.I.I.T././.T.T.U././.T.T.T.T.T.I.I.P.P.P.d.P.R.S.S.f.S.P.P.P.P.P.P.P.I.I.P.R.I.T.E.E.E.E.T.P.@XE.@X@XT.T.T.E.T.T.I.T.P.P.d.P.I.I.I.P.P.S.d.d.d.P.P.K.h.d.h.j.f.j.X...X.f...W X.j.j.j.h.K.K.j.j.K.h.K.K.K.K.h.K.j.d.d.f.j.d.",
"J.H.H.J.H.H.F.F.H.H.J.J.^.J.F.F.J.H.J.J.F.U.^.F.F.J.F.D.H.H.J.H.H.U.H.H.!.U.U.U.^.U.U.^.H.J.H.J.U.J.H.J.U.U.U.J.U.P.U.G.J.J.J.J.I.J.U.U.P.I.I.U.U.I.U.U.U.U.T./.T.U.I.P.u.u.!.U.I.P.> - - ; > _ V V a a i a f ( e.y.w.w.~.#X#X#X^.(.(././.(./.#X#X#X(./././.@XU./ f././.(.@X(./.@X/././././././.I.P.P.P.I.I.T.T./.T.T.I.T.E.E.T.E.I.T.I.P.I.P.S.P.P.P.S.P.d.P.P.P.S.S.P.S.R.I.P.P.I.I.T.T.Y.E.@X@X@X/.E.T.@XE.T.T.T.T.E.E.Y.I.T.T.T.R.I.P.S.K.P.d.d.f.f.K.d.d.K.j.f.j.X.X...] T ..h.j.h.h.j.j.h.h.h.j.j.K.K.K.K.K.h.K.d.d.j.K.h.",
"J.J.F.J.J.J.J.W.J.F.F.J.J.F.F.F.F.H.J.J.J.H.F.F.J.H.H.H.H.U.J.F.J.H.H.H.H.H.U.!.^.^.^.U.U.U.U.U.U./.f.U.U.^.U.U.J.U.J.J.J.I.J.d.G.G.I.U.I.U.J.I.T.I.U.U.T.U.T.I.J.J.f.u.d.J.d.d.D.{ > > > > m _ Z _ V d a a f C w.w.t.w.(.#X#X#X#X/.^./.(.(.#X/.#X#X#X#XT.@X@X(./.f.] /./.@X#X@X@X#X@X/.U.I.T./.T.P.P.G.P.T.Y.Y.T.T.T./.R.I.T.E.@XE.T.T.P.d.S.P.P.S.d.S.P.d.K.P.S.P.P.d.d.d.S.I.R.P.T.T./.E.T.@X@X@XE.T./.E.E.T.T.E.I.I.Y.R.T.E.oXoXT.T.R.P.I.T.P.P.K.P.P.R.T.j.h.j.j.X.] ) T ..X.j.j.K.j.h.j.j.h.h.j.h.j.j.j.K.K.h.K.h.K.h.K.K.",
"J.J.F.J.F.J._.H.J.J.H.H.J.J.J.F.F.u.J.H.H.J.F.J.H.H.H.u.W.H.H.J.G.H.^.^.H.H.^.^.^.^.U.^.U.U.U.U.^.U.J.U.U.U.U.U.U.U.U.U.U.J.F.s.U.U.U.U.U.U.U.U.U.G.J.G.s.G.P.d.f./ f.J.F.F.s.F.G.T > 2 2 5 Z ( ( C V V V C C A 0.w.w.w.(.#X#X#X(././.(.(.(.U.^.#X#X#X#X/.#X(.(.@X#XI.) P.#X/.(.@X(.@X/.T.T.U.U.I.I.U.I.P./.I.T./.T.R.T.T.T.I.E.I.@XE.E.E.T.d.P.P.P.f.d.d.R.K.P.S.K.d.I.K.P.P.K.P.K.P.P.I.P.I.T.@XT.T.T.T.E.T.E.@XE.T.T.T.T.E.@XE.R.E.T.E.E.I.E.oXT.P.P.T.R.h.h.K.j.f.f.' T X.j.f.d.j.j.j.h.d.h.K.K.K.K.K.h.h.K.h.R.K.K.P.R.L.j.",
"J.F._.F.F.H.H.^.J.F.H.J.F.F.F.F.F.J.^.H.H.J.J.F.F.J.H.F.^.U.U.^.F.F.G.^.H.^.G.H.H.U.H.U./.U.J.J.F.s.G.G.U.U.U.U.U.H.U.U.J.I.F.J.J.G.G.I.J.G.J.F.F.d.G.d.J.F.s.u.` F.F.F.F.F.s.d.F.n > > > , _ A C C C V C C A 0.0.w.w.w.(.(./.^./.^.(.(.(.(.#X(.(.#X/.#X/.@X(.#X/.@X(./.[ ] T././.#X@X/./.@X/./.I.I.I.P.P.I.I.P.Y.I.I.T.T.T.T.@XI.T.@X@XE.I.P.I.I.P.S.S.f.K.P.G.P.G.S.K.P.I.P.P.G.R.S.S.P.R.R.P.I.T.Y.I.P.I.E.#X@X#XE.I.Y.oXT.T.E.T.E.T.E.E.@XoXoXoXT.I.P.K.K.P.h.j.j.] / X.j.j.d.d.K.j.f.h.K.K.K.h.h.j.K.K.h.K.h.K.K.K.P.R.K.j.",
"F._.J.J.J.H.H.H.J.J.J.F.J.J.J.J.F.J.J.F.J.F.J.J.J.F.H.J.G.W.^.H.G.F.F.F.F.F.J.U.F.H.U.U.U.U.H.F.J.J.J.H.J.H.U.W.U.U.J.U.J.H.I.J.J.J.U.I.F.G.J.J.U.U.U.U.F.u.{ [ F.G.J.F.s.F.s.s.F.s 2 5 8 d _ C C C C V C C 0.0.e.w.w.w.#X#X(.(.(.(.(./.(.#X(.(././.(./././.(.(.#X(.#X/./.d./ P.@X/.@X@X@X/./.@X/.T.T.I.P.T.T.I.T.Y.P.I.I.T.I.E.E.@X@XT.E.T.I.T.R.I.I.P.P.d.d.P.d.S.R.I.P.P.P.S.d.P.P.P.G.S.S.P.P.I.P.I.T.T.T.E.@XE.E.T.@X#X@X@X/.@X#X@X@X@X#X@X#X@XE.I.I.R.Y.R.h.j.' / j.j.j.K.h.j.j.K.K.K.K.K.K.j.j.j.h.K.h.K.K.K.K.K.h.h.j.j.",
"H.H.H.J.J.J.F.H.F.J.F.J.F.F.J.J.F.J.F.F.F.F.F.F.J.s.J.F.F.G.H.F.G.G.U.H.G.U.U.U.U.U.U.H.J.U.U.J.J.G.U.J.G.U.U.U.J.J.F.H.J.J.F.U.I.P.I.J.P.I.J.F.J.I.J.J.u.] P.U.G.J.s.F.F.F.s.s.s.s > > , d A C C C C C C >.0.e.e.w.w.w././.(./.#X(.(.#X(.#X(./././././.@X(./.(.#X/.#X@X/./.Y.] ] /./.@X@X@X#X@X@XT.I.I.T.T.T.T.I.T.I.I.I.I.I.P.T.@X@XE.T.R.I.Y.I.I.I.P.I.K.S.d.P.P.P.P.f.S.P.P.S.S.K.S.P.S.d.P.I.K.I.T.T.T.@XT.E.@X@XE.@X#XoX@X#X@X@X@X#X#X#X@X#XoXT.T.T.R.K.h.f.) { K.K.K.j.K.K.K.j.K.K.K.K.K.h.h.j.K.j.h.K.K.K.K.K.j.h.j.j.h.",
"J.J.J.J.F.u.F.H.J.J.J.J.F.F.F.F.F.F.F.F.F.F.F.F.G.F.F.D.F.F.G.J.J.H.G.U.U.U.J.G.U.U.U.U.J.U.J.F.G.U.U.F.s.U.U.U.J.J.F.F.F.F.J.P.F.I.U.G.I.U.G.U.P.P.s.` s.H.U.^.I.U.G.J.U.U.F.G.f.s 5 p p V Z C C A C C C 0.0.e.e.e.w.e.).~.(.(.#X(.(.^.^./.#X(.!.U./.(.(.@X#X@X#X(./.^.I././.I.d./ P.T.T.@X@X/./.T.T.T.T.T.T.E.P.Y.I.T.P.E.E.E.E.E.T.E.E.T.I.T.P.I.P.d.P.P.R.P.d.I.R.I.I.P.P.S.R.P.K.P.d.P.d.d.f.S.I.I.T.T.E.E.T.@X@X@X/.T.@X@X#X#X#X#X#X#X@XoXT.E.T.oXR.R.P.j.] ) j.K.h.K.K.K.K.j.j.j.j.j.h.K.K.j.X.j.K.K.K.h.K.j.j.j.K.h.j.K.",
"J.J.J.J.H.H.F.F.F.J.F.F.F.F.F.F.F.u.u.F.F.F.F.F.F.s.F.u.F.F.G.G.H.H.J.U.H.J.G.H.H.U.J.G.J.F.J.H.F.F.U.U.J.U.F.J.U.J.J.J.U.U.G.I.F.J.F.U.G.U.F.J.J.u.] s.s.s.U.U.U.I.U.U.J.G.F.u.[ p 2 5 5 A C C C A 0.C A 0.e.e.e.w.0.t.J.(./.(./.#X(.#X(.!.(.(.@XU.T./.#X/.(./.^./././.^.^.T.@X/.T.{ f.T.@X@XT.T.T.T.T.T.I.I.I.T.T.I.I.I.E.T.E.E.T.@XE.T.E.T.T.R.Y.K.S.S.S.I.T.P.I.P.R.T.P.I.S.I.R.R.P.P.S.d.d.f.K.P.P.P.T.T.T.E.E.T.E.@X@XE.#X#X@X#X#X@X@XE.T.T.XXE.R.P.I.P.' ] P.K.j.K.K.K.K.R.j.j.h.j.j.j.h.j.j.X.j.K.K.K.K.K.j.j.j.K.j.K.h.",
"J.F.J.J.F.F._.F.F.F.F.i.F.J.F.u.u.u.i.F.F.F.F.J.F.F.F.F.u.F.F.J.J.G.F.U.U.H.G.H.F.J.J.H.U.G.F.J.U.U.J.J.I.F.J.J.F.H.U.U.U.U.I.J.G.J.U.J.J.U.J.u.` u.J.G.U.J.F.H.J.U.U.U.J.G.F.u.] s 5 p i _ A N C C 0.>.0.0.0.e.e.w.0.t.g.U.(./.(.(.^.(.#X/./.U.@X/.@X#X@X@X#X@XT././.^.U./.I.I.T.T.T.f./ P./.T.P.P.T.T.T./.T.P.@XT.I.T.T.I.P.T.P.T.@XT.Y.E.R.P.R.I.I.P.P.f.S.K.R.R.R.P.P.I.P.R.R.T.I.S.K.d.d.f.d.P.P.K.I.T.E.I.P.T.T.E.@X@X#X#X@X@XE.@X@X@XE.oXR.Y.T.Y.T.K./ ] P.R.Y.R.R.K.K.R.K.K.K.L.L.K.j.h.j.j.j.j.L.j.K.h.j.j.K.h.K.K.K.K.",
"F.F.J.F._.F.J.H.F.F.J.F.F.J.u.F.u.F._.F.F.F.s.u.s.F.u.G.s.F.F.F.G.J.F.G.J.U.J.G.H.U.G.F.F.H.G.G.J.J.P.J.P.U.U.U.U.U.U./.U.U.J.J.G.U.J.F.J.s.] u.I.I.U.G.J.U.J.J.U.U.!.J.F.F.F.u.[ n 5 , a A V V C C A >.0.0.0.e.e.w.w.t.F.H.H.!.(.(.(./.(././.U././.T./.@X(.@X#XI.T.T.T.T.T.I.T.I.I./.T.Y./ f.T./././.I.I.T.I.P.I.T.I.E.I.I.I.P.Y.T.T.E.T.T.T.P.P.K.S.K.P.S.P.P.P.I.R.P.P.P.T.P.P.I.P.P.S.f.S.S.K.S.S.K.T.I.P.T.T.I.T.I.@X#X#X#X#X@X@XE.E.T.T.Y.K.P.P.R.P.' ..P.P.R.R.Y.R.K.K.K.K.K.K.K.K.j.K.j.j.h.j.j.j.K.K.j.j.j.K.K.K.K.K.K.",
"_.u._._.F.J.F.F.u._.J.J._.F.F.u.D.u.F._.` [ u.u.u.F.F.s.u.F.G.F.G.G.G.F.F.F.F.G.J.J.G.F.s.J.G.s.F.J.I.d.H.U.J.U.^.T.U.J.G.U.J.U.J.U.s.G.s.` s.G.J.J.G.G.H.!.H.H.H.U.H.J.F.u.F.s.[ 5 + + M Z V C C A 0.0.0.0.0.0.e.e.w.t./ J.F.F.U.!.(.(././.!.U.(./.@XT./.(.@X/.T.T.T.T./.P.T.T.P.T.T.T.I.I.[ / I.T.T./.I.I.I.I.P.P.I.I.I.I.Y.P.Y.T.R.T.T.oXR.P.R.K.P.I.I.S.d.I.K.S.S.P.P.S.K.R.P.P.P.I.P.S.K.K.P.P.K.S.I.I.T.E.T.I.@X@X@X@X#X#X@XT.T.R.T.T.R.P.P.T.R.T.' ..oXR.R.R.XXR.R.R.R.R.K.K.j.K.K.h.j.j.K.K.h.L.K.h.K.h.j.j.j.K.K.K.K.j.",
"F.F._._.F._._._._.u.F.F.u.u.u.u.u.u.u.` u.F.F.F.u.F.s.F.F.J.J.F.F.F.U.G.F.F.s.U.J.U.F.G.H.J.F.s.F.U.I.J.H.H.J.U.U.U.U.U.U.U.I.J.J.J.s.` u.J.G.F.F.F.J.J.U.U.H.U.H.U.H.J.J.F.G.u.{ 5 + + d M V C C 0.0.0.0.0.0.0.i.e.w.( i s.s.F.U.!./.#X(.(./.U./././.P.T.@X@X@X/.T./.T./.F.U.@XT.T.^.T.T.T.I.P.) f.Y.T.T.Y.I.I.P.s.P.T.I.P.I.T.E.T.T.I.I.@XE.T.T.I.P.S.S.P.P.P.P.S.d.P.S.P.P.T.P.K.d.I.Y.R.P.P.S.P.R.d.P.R.Y.E.#XE.@XE.T.@X#XE.oXT.R.P.P.P.P.K.P.R.K.] d.T.R.Y.XXY.XXR.R.K.L.K.R.Y.Y.L.K.K.K.j.j.L.Y.R.K.K.K.j.h.h.j.j.K.K.L.R.",
"_.F.F._.F.F.F.F.u.u.p.` ` ` ` ` ` ` u.s.u._.F.F.F.F.s.J.F.G.J.F.F.G.s.F.F.F.F.J.F.F.G.G.F.s.J.F.d.U.G.J.F.G.J.U.U.U.^.P.J.J.U.U.F.s.] u.J.F.J.J.J.J.U.J.J.G.U.U.U.U.J.G.H.F.s.] [ 7 o 3 + ; a V S 0.>.0.0.0.A 0.y.e.0.p i s.s.F.F.s.^./.(./.^.U./.@XU.I.T.@X/./././.#X/././././.T.@X@XT././.T.T.I.] { R.P.I.I.E.T.P.T.T.E.T.I.E.T.T.I.P.I.R.E.E.T.S.S.I.K.P.P.P.d.f.d.P.f.R.T.I.I.P.P.P.S.I.P.P.P.P.R.R.P.T.E.I.T.T.E.E.T.E.#X@XT.T.I.d.R.Y.R.K.K.P.) f.K.P.T.T.oXT.XXT.Y.K.L.XXR.L.L.L.L.K.K.K.h.j.h.L.K.L.L.K.K.Y.K.h.h.j.j.j.",
"i.u.J._.F.F.F._.u.u.F.u.` ` ` ` ` ` [ s.u.D.F.F.F.G.F.G.J.J.F.G.G.G.G.G.J.s.F.G.F.G.G.J.U.H.G.P.G.F.F.F.G.G.U.U.U.U.U.U.I.U.U.F.u.s.J.H.J.J.F.J.G.G.U.J.U.U.H.H.J.F.J.F.F.u.s.u.[ 7 n ..5 & - , V 0.>.0.0.0.A 0.r.e.Z > 5 s.s.s.F.s.F.J.^.!./.U./.I.T./././.U./.#X@X#X@X/.^./.(./././././.T.T.T.T.P.f./ s.I.I.E.I.P.P.T.T./.E.E.T.P.T.T.@XE.T.E.T.P.P.P.P.P.S.S.P.K.S.P.f.K.P.I.I.I.S.P.P.P.d.P.P.P.P.R.K.P.I.R.T.R.T.Y.E.oXE.T.T.Y.R.T.R.R.R.R.K.) d.R.R.P.oXT.oXoXXXR.T.R.K.R.K.L.L.L.L.K.R.R.L.L.K.K.h.K.K.L.h.j.j.h.K.h.j.K.",
"_._.F.F._.u.u.u.u._.D.` ` ` ` ` ` ` u.u.F.F.G.u.u.J.F.F.J.F.G.F.H.G.G.G.J.G.G.s.s.J.F.U.U.P.J.F.F.d.d.F.J.P.U.U.U.^.^.U.I.F.u.u.U.U.J.H.U.G.s.F.] u.F.H.U.!.H.H.J.F.U.s.s.s.u.u.[ 7 7 ; ..L.W ; ; a w.0.0.e.0.0.e.t., > , F.F.s.s.F.s.F.J./.@X/./.T./.U.I.^.U./.^././.@X@XT./.#X/.#X(./.I./.T./.U.T.I.I.] ] G.I.@XI.I.P.P.T.I.T.T.E.T.T.@X#X@X@X@XE.I.d.P.K.d.P.P.K.P.P.d.d.K.R.P.S.K.P.P.P.d.R.R.R.Y.R.h.h.h.R.T.T.K.R.T.T.R.R.R.T.T.T.Y.R.R.f.' h.T.R.R.T.T.T.@XoXY.XXP.XXR.R.R.L.K.K.K.j.K.Y.K.K.Y.R.K.K.K.L.j.K.L.K.h.K.j.j.",
"F._._._._._.F.u.u._.F.` ` u.p.` ` u.u.F.F.F.F.F.J.F.G.H.J.F.J.J.H.F.F.J.F.G.G.F.s.J.F.F.I.F.d.d.J.d.d.J.U.U.U.T.U.U.U.U.d.] d.G.P.I.I.J.J.F.U.U.I.I.H.J.U.U.U.H.H.J.U.F.s.u.u.u.[ 7 - > & 9  .s ; ; p A 0.e.w.0.w.V - ; 2 f.d.s.s.s.F.d.s.U./.^./.T.U.U.I.I.I.T.^.T./.T.T.T.T.(./.T./.@X#X/.I.P.P.I.G.P.I.d./ S.I.T.T./.T.E.E.I.P.E.@X@X#X@X@X/.@X@XE.P.P.S.P.S.d.P.P.K.K.P.P.P.K.d.P.I.R.P.P.d.K.P.R.P.P.R.R.K.Y.P.R.T.Y.P.K.h.K.Y.R.T.R.P.h./ X.T.oXoXY.T.T.T.T.XXoXoXY.Y.XXXXL.Y.R.L.K.j.L.L.L.L.K.K.h.K.K.L.K.h.j.j.K.K.L.K.",
"_.J._._.F._.u.F.F.u.D.u.u.F.F.D.F.F.F.F.F.F.u.J.F.F.G.H.G.F.J.F.G.J.F.J.F.F.s.G.J.I.U.J.P.s.s.F.U.G.P.F.U.U.U.U.U.J.F.u.u.J.P.U.U.U.U.U.U./.!.U.U.J.H.J.U.J.H.G.J.F.F.H.F.u.u.u.[ , p d 5 > ; ; 4 ; ; , ( e.e.w.w.; ; ; 5 s.s.s.s.s.s.F.d.s.I.T.^.^.J.U.T.T.T.P./.T././.T.P.I.U.U.^.@X/.@X@X/./.I.P.I.P.P.D.d.m ] T.I.T.E.Y.I.Y.T.T.T.@XE.#XE./.E.E.@XP.P.P.S.S.P.K.d.K.P.K.K.K.R.P.P.S.K.P.h.h.h.K.K.P.P.R.R.K.R.R.P.K.T.P.P.K.R.R.R.R.K.d.) R.T.T.R.XX@XoXoXT.T.R.XXY.XXR.XXT.XXY.L.L.K.K.Y.Y.L.Y.L.K.h.K.L.K.K.K.j.j.h.j.h.K.",
"F.J._._._._.F.u.u.F.F.D.F.F.F.F.F.F.F.F.F.F.G.G.F.G.G.G.F.F.G.G.J.H.s.F.J.F.U.U.I.U.U.J.d.J.J.F.J.F.I.U.U.P.I.J.I.d.] P.U././.U.J.(.#X(././.U.G.J.J.H.U.U.J.H.G.G.G.s.F.F.s.s.u.] - Z V d s 5 ; > > > > , w.e.0.a & ; 7 m s.s.s.d.s.s.u.u.s.d.I.I.U.T.T.I.T.^./.U.^.^.T.I.P.I.@X/./././.@X@X/./.E.I.E.T.I.P.P.d.] / I.I.T.T.T.E.T.I.E.I.I.E.T.@X@XE.@XR.P.I.d.P.I.I.f.R.K.P.R.P.P.P.P.P.K.P.P.P.h.h.j.h.K.R.L.R.R.P.K.R.Y.K.K.P.K.K.d.R.K.' P.XXXXT.R.oXXXXXT.XXY.T.Y.Y.XXY.Y.oXL.K.Y.Y.Y.R.R.Y.R.L.K.K.K.h.j.K.L.L.K.h.L.j.K.K.",
"J.H.J.F.F.F._.i.u.u.F.J.H.J.F.F.F.F.J.F.J.F.F.G.F.F.F.G.F.F.F.F.H.H.U.J.J.U.U.U.G.I.U.U.J.J.F.F.U.J.U.J.U.U.U.T.[ s./.(.(.(.@X(.^././.(./.U.U.^.^.U.F.J.U.H.G.F.F.F.J.s.F.J.s.u.] + ( A w.( p 5 2 ; > > > 5 ( ( ; & 4 8 p.i.F.d.F.s.s.s.s.f.d.d.P.U.I.P.I.T.T.^.T.^.T.T./.T.I.^././.T./.#XT./.@X/.T.I.P.I.I.R.S.S.[ T f.I.T.E.T.E.T.E.T.T.@XI.#X#X@X@XE.T.T.I.I.P.K.P.K.K.K.R.T.d.K.K.P.K.R.P.P.h.d.h.R.R.K.h.P.K.h.K.P.P.K.h.h.K.d.h.j.{ Y.L.XXoXXX@XT.XXR.Y.T.XXR.Y.XXXXoXoXY.oXY.Y.L.Y.Y.R.Y.Y.L.j.L.L.Y.L.K.K.L.K.K.j.K.h.h.",
"H.J.H.J.F._.F.F.F.F.F.F.J.J.F.F.F.F.J.J.J.F.u.] G.G.G.s.F.F.s.F.J.J.U.F.U.U.U.U.G.G.I.I.U.U.J.U.I.T.T.I.U.U.s.f.I.^.(.@X(././.^.@X/././.U./.(./.J.F.F.H.G.F.F.F.H.F.s.F.J.G.u.u./ , w.w.p.w.( d i 5 2 ; 5 5 5 p $ % > ( i.i.s.s.s.G.d.s.s.s.d.d.F.P.U./.^.T./.^./.T.U.U.T.U./.I.T./.T.@X/.I.T.T.T.T.U.I.U.U.I.G.P.d.S.[ { I.T.E.T.T.T.T.Y.oXoX#X@XE.R.Y.T.I.K.P.S.K.P.S.P.K.P.Y.P.K.K.K.K.d.j.K.h.d.K.K.h.K.K.K.h.j.h.h.K.K.R.K.P.R...' P.oXoX@XXXXXoXT.XXXXT.oX@XY.XXP.Y.XXXXoXR.R.XXXXY.R.Y.K.Y.L.K.R.K.K.K.h.K.L.R.L.K.K.K.L.",
"_.J.F.J.F.F.J.F.F.F.F.u.J.J.F.F.J.F.H.H.F.F.G.G.F.F.s.U.F.s.s.J.F.G.J.H.U.U.U.T.^.I.I.U.U.J.J.T.T.I.P.U.U.u.F.P././.#X@X(.#X(./.(.(././.U.U./.U.U.U.J.U.U.U.U.F.U.F.s.U.J.J.s.[ T a A 0.e.w.0.( _ m d 2 > 7 7 ; & ; a i.i.i.u.F.d.G.s.f.F.s.s.d.d.d.T.U.I./.^.T.T.U.U.T.^.I.T.U././././.(.U.I.J.J.T.T.U.I.U.I.U.I.I.T.T.f./ f.S.T.E.E.T.T.R.@X#XoXE.@X@XE.I.Y.T.P.P.I.P.R.P.K.P.P.P.K.K.K.K.h.d.h.h.h.h.h.K.K.K.K.j.j.j.K.K.R.K.K.f.' Y.Y.R.oXoXXXR.T.P.Y.@XXXoXXXY.T.XXXXR.XXoXY.Y.Y.Y.XXR.R.Y.K.XXXXY.L.L.h.j.j.R.K.h.K.j.j.K.",
"J.F.J.J.F.F.F.F.F.H.W.H.J.J.J.H.H.F.G.F.F.F.G.G.s.G.J.U.J.G.F.F.F.H.F.F.U.U.U././.T.U.^./.(./.T.d.U.d.s.f.U.I.I./.T.(.(./.(.(.^./.(.^./.^./.U.U.^.U.J.U.U./.J.F.U.G.F.F.J.s.s.[ T M A >.e.e.w.0.0.0.Z p 5 > 7 4 & - w.i.l.y.s.F.d.F.J.s.F.J.d.d.d.d.I.T.T.I.F.U.(./.I.U.J.J.s.P.P.^.^./.T.I.U.P.I.I.I.U.T.T.I.I.I.T.I.T.P.P.) { I.E.E.E.T.R.E.@XE.E.@X#X@XE.T.E.S.K.R.P.P.R.K.d.P.K.K.K.K.K.h.d.h.h.P.j.h.h.h.K.h.h.h.L.h.K.j.j.] ' R.Y.Y.R.Y.XXY.Y.oXY.R.Y.P.XXXXT.oXXXoXXXXXXXXXoXL.Y.XXY.Y.Y.L.XXY.K.j.Y.L.h.j.L.L.L.K.K.K.j.",
"F.F.J.J.F._.F.F.F.J.J.J.H.J.F.G.H.F.u.F.F.J.U.J.G.J.J.J.F.J.J.J.J.H.U.U.U.!.U.U.U.U.U././././.I.I.d.[ u.I.I.U.I.U.U./././././.@X/.@X(.(.U./.U./.U.!.U.U.J.U.!.U.J.J.J.s.s.s.u.[ T V C >.e.y.w.0.0.w.w.V d 5 3 0 % 5 y.i.l.i.g.F.u.F.G.s.d.G.d.d.d.d.d.P.I.P.^.T.P././.I.P.U.J.P.U.^.U.T.T.I.I.I.I.I.I.U.I.U.I.I.I.I.I.I.I.P.S.f.Z S.T.E.E.T.E.T.E.T.@X@X#X@XE.@XT.T.R.P.P.P.P.d.d.K.h.d.K.j.K.K.f.h.K.h.h.K.h.K.L.h.j.h.K.j.j.X.] h.Y.XXT.XXY.R.R.R.Y.oXXXXXR.Y.XXR.R.oXoXY.K.R.XXXXY.XXXXXXY.Y.K.Y.K.R.h.R.K.K.L.R.K.R.R.L.j.j.",
"u.u._.F.F.F.H.F.G.J.H.F.F.F.G.F.G.F.J.G.J.G.F.F.G.F.F.F.F.F.H.u.G.s.H.G.U.U.U.U.U.U.T./.U./.U.I.s.F.U.I.U.U.I.U.P.I./.U./././.@X@X@X/./.J.J.^.U.^.J.U.F.s.H.U.U.^.G.J.F.d.s.u.[ m d C C r.y.w.0.0.w.t.0.( M ; 3 ; m e.a.l.i.i.s.F.F.F.d.d.s.G.d.d.f.d.d.d.I.I.I.U.I.T.I.U.G.G.I.J.U.U.I.I.U.P.J.P.P.I.U.U.G.I.G.d.P.I.P.T.K.I.R.P.{ ] E.I.I.E.E.E.@X@X@X#XT.E.T.T.P.R.R.R.P.R.K.j.P.h.h.h.h.R.h.h.K.h.h.h.h.K.h.h.h.j.L.K.K.....j.L.R.XXR.T.Y.K.R.Y.Y.XXXXXXXXY.Y.R.R.XXY.R.L.K.XXoXoXY.XXXXY.R.L.Y.Y.Y.R.Y.Y.Y.L.h.L.K.Y.R.R.XX",
"e u.F.J.u.J.J.F.G.J.H.G.H.F.G.H.G.G.H.H.U.s.H.H.F.H.F.H.J.J.J.J.U.U.H.F.U.U.U.U.U.^.U.U.U.^.I.f.P.F.I.I.P././.T.T.@X#X(.#X(.#X#X/./.U.U.U.U.J.J.U.J.(./.H.U.U.U.J.F.U.U.J.F.f.] m 5 Z A r.i.C >.w.w.y.e.t._ p 1 4 Z w.a.a.i.g.F.J.F.d.d.d.G.d.d.P.G.d.s.d.P.P.P.U.I.P.I.U.I.I./.T././.U.G.I.I.G.U.I.d.P.F.F.I.T.G.P.P.I.R.P.T.T.I.I.f.) d.R.I.I.@X@XT.I.E.T.E.T.@XY.P.R.R.P.h.P.d.h.j.j.d.h.j.j.K.h.h.h.K.K.K.h.h.h.h.R.L.....h.L.Y.XXR.Y.Y.Y.K.T.Y.R.Y.T.Y.T.XXL.R.T.T.K.R.K.K.Y.oXY.Y.XXoXXXR.K.XXXXY.Y.XXL.Y.R.Y.Y.K.K.K.L.R.",
"Z Z u.F.F.F.F.J.H.U.U.H.H.J.H.U.H.G.H.J.H.G.H.H.G.G.F.G.J.J.U.G.U.U.U.U./.U.U.U.U.^.U.P.G.u.d.I.I.U.U./.U./.T./.(.@X#X@X@X@X#X/.J.U.J.U.U.J.U.^./.U.U.G.!.H.J.J.U.U.H.U.U.F.f.[ m > d A r.a.N S 0.A w.y.y.t.m > 5 V 0.a.i.i.t.F.G.s.d.f.s.G.P.I.d.P.S.S.P.d.G.T.^.I.T.P.U.I.U.U.U./.^.T.T.I.U.I.I.I.P.I.J.F.T.I.I.I.I.T.I.d.T.E.I.I.T.P.{ [ d.I.@X@X@XE.@XI.E.#X@XT.T.T.T.P.h.K.K.h.h.d.h.K.K.j.K.h.h.h.j.L.j.h.h.K.K.K...] j.h.L.K.L.Y.XXXXR.R.XXY.R.Y.XXT.T.Y.Y.R.Y.Y.R.Y.XXR.K.Y.Y.XXoXoXY.R.L.XXXXY.L.Y.XXXXY.XXY.L.L.Y.K.j.",
"u.m m F.F.J.H.H.U.W.H.F.H.H.H.H.G.J.J.H.H.H.G.G.H.^.U.J.U.U.U.J.U.s.J.P.U.U./.U.I.G.J.d.[ G.T.T.U.I.T./.I./.(.T.^.(./.#X(./.#XT.P.U.U.F.U.U./.U.^.T.U.^./.U.J.H.J.J.U.J.F.F.s.[ m 5 ; C e.a.C C >.N A w.w.t.( 8 4 d >.e.e.0._ G.d.s.F.G.d.s.d.P.S.S.d.P.P.G.d.R././.U.T.U.U.P.U.U.I.I.P.P.G.P.U.I.G.[ P.T.^././.T.T.I.I.I.T.E.T.T.E.@XE.I.d.{ R.E.E.@XE.@X@XE.#XE.T.T.R.K.P.R.K.K.d.h.K.f.R.K.h.h.h.h.d.h.j.j.j.j.K.j.] ] j.L.K.j.K.L.R.L.L.R.Y.oXXXR.Y.Y.Y.R.K.Y.R.R.K.R.oXY.XXY.Y.XXXXY.L.K.XXY.XXoXL.L.L.Y.Y.L.L.oXY.L.XXL.K.",
"u.] n Z F.J.J.J.U.H.H.G.!.U.U.U.H.H.G.U.U.U.H.J.H.U.J.J.J.U.U.P.F.F.U.I.T.I.G.J.P.s.u.P./.U.T./.^./.@XU././.T.I./.(.(././.E././.T.T./.U./.(.U./.U.U.T.U.!.U.J.J.U.U.H.H.F.s.s.f.T 7 = V e.r.A A e.f C C N S A m ; d >.e.>.A a I.s.s.u.d.d.d.d.P.P.d.S.S.S.d.d.I.P.U.I.T.Y.^.P.U.E.T.I.P.I.I.G.P.J.I.d.P.U.U.T.I.I./.U.P./.T.@X@XE.E.E./.T.T.I.{ ] E.@XT.@XE.@X#X#XE.P.R.R.R.R.h.h.h.K.K.j.h.K.h.h.d.f.h.f.j.h.K.K.j.' f.h.R.R.L.K.K.L.L.R.Y.R.Y.XXK.K.Y.R.R.Y.R.K.Y.Y.Y.R.Y.Y.L.Y.XXY.Y.XXY.K.R.Y.Y.R.Y.oXXXL.Y.Y.XXY.Y.XXXXXXXX",
"u.s.u.n { F.F.H.^.U.H.!.^.H.H.U.U.G.U.U.U.U.J.U.J.G.H.H.U.U.U.E.J.J.J.G.U.J.F.F.u.] I.^.T./.T./.@X/.T./././.T.T././.I.#X/.U.I././.^./.T.U.U.s./.U.U.U.U.!./.U.G.J.J.U.U.s.s.d.f.T 8 > 5 C ( A w.i.f A >.t C w.` + V >.e.e.w.V I.F.U.s.s.s.d.d.d.S.d.d.S.d.K.d.d.P.P.I.T.I./.U.U.W./.T./.^.T.P.I.P.I.P.P.U.U.I.U.P.I./././.T./.E.I.I.T.T.T.P.Y.Y.d.) T.@XT.T.E.@X@X@XT.P.R.R.K.K.h.h.K.P.R.R.K.P.d.K.f.h.K.h.h.j.f.' X.h.L.R.L.L.K.L.L.L.h.K.XXXXXXY.XXY.R.XXoXR.K.Y.oXY.Y.Y.R.XXXXL.Y.R.XXoXR.R.R.XXR.XXoXoXoXXXR.XXL.L.Y.XXXXL.",
"F.s.D.u.p ` u.H.^.H.J.U.^.H.U.J.W.G./.H.J.H.F.U.U.H.J.U.F.I.U.U.J.F.G.G.G.I.u.{ d.T.T.U.T.U./.@X@XT././././.T.T.@XT.T.#X/.T.@X@XT.@XU.U.U./.(./.^.T.(.!.U.U.U.J.J.H.U.U.J.F.d.f.W 8 5 - d V A y.).N >.r.C >.w.w.5 w.>.e.i.i.( u.s.G.s.G.G.G.d.d.d.d.d.K.S.P.P.P.d.S.G.P.T.I.U.U.I.T.^.T./.T./.I.G.G.G.G.J.J.G.U.P.I.T./.U./.T.@XI.I.E.T.I.E.E.T.T.T.{ f./.E.I.#X@X@XE.P.E.R.R.Y.P.h.K.R.R.R.R.h.h.h.h.h.K.R.K.f.' j.L.K.L.j.L.XXL.L.oXXXL.L.Y.oXR.XXY.T.Y.R.T.XXY.Y.oXY.XXXXY.Y.K.K.Y.Y.R.Y.R.Y.Y.Y.R.Y.Y.XXXXY.oXXXoXXXK.oXoXoX",
"F.F.F.D.u.e ] J.^.H.H.J.J./.^.u.U.G./.^.U.U.U.U.U.J.H.U.U.U.U.^.U.F.U.J.s.[ ] I.U.T.I.T.T.T./.^./.^./.U./.I./.T.T.T.T./././.U./.I./.T.U.J./././.U.^.(./.U./././.U.U.H.U.P.G.d.d.) 8 8 & + i 0.e.i.C e.a.A 1.e.>.( r.>.w.y.i.t.] F.s.d.P.I.d.f.P.S.S.P.P.d.f.P.d.d.d.d.P.P.T.I././.T.T./.T.I.T.I.U.P.G.P.I.G.I.I.U.I.Y./.P./.(.T.T.T.I.T.T.E.E.E.E.E.P.[ ) T.I.E.#X@X@XoXXXY.R.Y.K.R.R.h.h.R.P.R.Y.Y.K.K.K.h.f.' f.L.L.L.R.XXXXXXL.K.R.oXR.R.XXXXXXoXXXXXY.Y.R.P.T.oXY.R.Y.oXY.R.R.Y.R.L.R.L.Y.oXK.R.XXXXXXoXXXoXY.XX#XoXXXXXXXL.",
"H.U.H.U.J.u.p u.G./.U.^.W.U.G.D.U.G.G.W.U.U.!.H.J.F.J.F.I.^.U.F.P.U.I.u.u.F.I././.^.@X/.T.T.U.U././.U.^.T.I.P.I.P./.T.T././.T.P.T.P./.E./.T.#XT././.U.U.!./.^.U././.U.J.J.F.d.d.' p s > + s t.).y.0.w.a.>.e.a.>.i.a.y.l.l.i.y.u.d.s.G.d.P.P.I.I.K.S.P.S.S.P.d.d.d.d.S.d.d.P.S.P.Y.P.I.T.T./.T.I.I.I.I.I.I.U.I.T.U.I.I.T.I././.I.U.P.I.I.I.I.E.E.T.E.@X@XE.{ ] R.E.oX@X@XoXXXR.R.R.R.K.K.R.R.R.R.R.R.R.h.h...) j.j.L.j.L.L.Y.XXL.L.R.XXXXXXL.K.K.Y.XXoXoXoXoXXXY.Y.oXY.XXXXXXXXR.Y.XXY.R.XXXXY.Y.Y.Y.Y.Y.XXXXXXoXoXoXoXoX#XoXoXXX",
"H.J.H.H.H.J.[ p s.^.^.^.^.H.G.U.U.H.U.^.U.U.H.J.U.H.F.F.U.U.U.U.U.d.] s.U./.(.(.(.@X/./././.T.T./.T.I.I.^.T.I.U.T.T.(.T.I./.U.I.(././.T.U.(./.@XU./.U././.(.^./.!.U.^.U.U.G.P.s.f.W > 8 > 5 t.).t.y.l.a.>.e.e.e.q.a.z.).).).i.` s.s.d.d.G.P.P.I.P.P.S.d.d.P.K.d.d.S.S.P.P.P.P.I.T.P.T.T.U./.I.I.^.U.G.G.T.U.U.T.U.U.P.T.P.J.U.I.U.I.I.T.Y.I.@XE.#XT.@X@X@XT.f.] Y.T.T.T.XXXXR.R.R.R.K.K.R.R.Y.Y.R.R.Y.j.f./ d.Y.R.L.XXL.XXR.R.XXL.L.XXL.XXL.K.j.L.Y.XXXXoXXXR.K.R.Y.Y.K.oXoXXXY.oXL.XXY.Y.Y.K.Y.Y.oXXXXXR.R.XXoXoXY.oX#X#X@XoXXX"
};
