/* XPM */
static char *c990fff845f14969c1a0520b1d2e532ds3SSCv0bKqxY3Zgo[] = {
/* columns rows colors chars-per-pixel */
"256 455 256 2 ",
"   c #09060B",
".  c #0C090C",
"X  c #090506",
"o  c #140C0A",
"O  c #1A120C",
"+  c #120D11",
"@  c #1A0F11",
"#  c #151214",
"$  c #1D1A1C",
"%  c #1B1617",
"&  c #0E0C11",
"*  c #25160C",
"=  c #261C16",
"-  c #331B0D",
";  c #28231C",
":  c #37261B",
">  c #3B270E",
",  c #221D22",
"<  c #261E26",
"1  c #361E20",
"2  c #2B2A24",
"3  c #2A2727",
"4  c #372B24",
"5  c #33322C",
"6  c #3B3428",
"7  c #343532",
"8  c #3B3B34",
"9  c #393936",
"0  c #302C34",
"q  c #1D1B22",
"w  c #573909",
"e  c #482B19",
"r  c #563818",
"t  c #4B2E11",
"y  c #663A13",
"u  c #442C26",
"i  c #473728",
"p  c #573927",
"a  c #473C34",
"s  c #553B32",
"d  c #623D27",
"f  c #6C3D2C",
"g  c #481D09",
"h  c #3B413C",
"j  c #5C4316",
"k  c #5C430C",
"l  c #684707",
"z  c #795708",
"x  c #654917",
"c  c #775916",
"v  c #6F5010",
"b  c #7C6314",
"n  c #5A432B",
"m  c #4A4337",
"M  c #564738",
"N  c #554C36",
"B  c #674629",
"V  c #734C28",
"C  c #78552A",
"Z  c #684A35",
"A  c #734D37",
"S  c #6A533A",
"D  c #785638",
"F  c #6B5226",
"G  c #7C632A",
"H  c #3B3647",
"J  c #433C4E",
"K  c #3D4C4B",
"L  c #3F4452",
"P  c #3C496B",
"I  c #464A49",
"U  c #574B44",
"Y  c #45524E",
"T  c #5C5348",
"R  c #484657",
"E  c #445351",
"W  c #4A5652",
"Q  c #4B5954",
"!  c #4D5A59",
"~  c #555B58",
"^  c #544C57",
"/  c #675848",
"(  c #775A45",
")  c #665B54",
"_  c #6C534B",
"`  c #56615D",
"'  c #7A634A",
"]  c #6B6359",
"[  c #776857",
"{  c #7C735B",
"}  c #6C614D",
"|  c #4E546B",
" . c #5B6566",
".. c #766C64",
"X. c #7B7368",
"o. c #787A79",
"O. c #6A6C6D",
"+. c #6A5D67",
"@. c #923812",
"#. c #835C05",
"$. c #8A5416",
"%. c #B35316",
"&. c #896509",
"*. c #936C08",
"=. c #9A7409",
"-. c #876615",
";. c #997616",
":. c #926D15",
">. c #A37C0A",
",. c #A37C15",
"<. c #B96610",
"1. c #835C38",
"2. c #8B542C",
"3. c #88643A",
"4. c #936C31",
"5. c #A87636",
"6. c #AE752F",
"7. c #B05626",
"8. c #CF651C",
"9. c #D56C26",
"0. c #D26E2C",
"q. c #E4752B",
"w. c #CA5F1B",
"e. c #855C46",
"r. c #895B4D",
"t. c #896648",
"y. c #936B48",
"u. c #97734A",
"i. c #886955",
"p. c #946A55",
"a. c #86775C",
"s. c #987557",
"d. c #8B734B",
"f. c #A77950",
"g. c #8B7D64",
"h. c #8B7D6B",
"j. c #847867",
"k. c #877D73",
"l. c #947965",
"z. c #A67A65",
"x. c #A35C41",
"c. c #CE784D",
"v. c #78827C",
"b. c #7C8204",
"n. c #AB830A",
"m. c #AA8416",
"M. c #B58C16",
"N. c #BB9318",
"B. c #B58B0B",
"V. c #B78830",
"C. c #8C8521",
"Z. c #C49918",
"A. c #C5980B",
"S. c #CD9235",
"D. c #ECA938",
"F. c #E09B39",
"G. c #B1854E",
"H. c #8E826C",
"J. c #8C8165",
"K. c #938365",
"L. c #94846B",
"P. c #9A8A6D",
"I. c #97886B",
"U. c #8D8274",
"Y. c #8A847B",
"T. c #938573",
"R. c #968975",
"E. c #9C8C73",
"W. c #958A7B",
"Q. c #9B8D7A",
"!. c #938679",
"~. c #9E917D",
"^. c #9D9174",
"/. c #9C916F",
"(. c #A18E75",
"). c #A29275",
"_. c #A4947B",
"`. c #AA997D",
"'. c #A8977B",
"]. c #A9886B",
"[. c #978660",
"{. c #CD9148",
"}. c #E8A949",
"|. c #DB9D52",
" X c #6F758C",
".X c #576890",
"XX c #827D87",
"oX c #7B8787",
"OX c #7B86A7",
"+X c #878985",
"@X c #958D83",
"#X c #9B9386",
"$X c #8E9494",
"%X c #A39582",
"&X c #AB9B83",
"*X c #A69A88",
"=X c #A79C93",
"-X c #98A599",
";X c #AAA597",
":X c #B4AA94",
">X c #9A9CAD",
",X c #9699A8",
"<X c #9C9DB3",
"1X c #969BB1",
"2X c #8C92A5",
"3X c #A49DB4",
"4X c #A89EA7",
"5X c #9EA1B4",
"6X c #9EA2B9",
"7X c #9EA3AC",
"8X c #ACAAAD",
"9X c #A7A4A8",
"0X c #B4ACA8",
"qX c #BAB4AA",
"wX c #A3A4B4",
"eX c #ACACB3",
"rX c #A4A5B9",
"tX c #ABACBB",
"yX c #A8A8B8",
"uX c #B3ABB5",
"iX c #B3B2B5",
"pX c #BAB5B4",
"aX c #B4B4BB",
"sX c #BBB9BA",
"dX c #ACB2B6",
"fX c #C4BAAA",
"gX c #C3BCB6",
"hX c #C5A9B5",
"jX c #C9B296",
"kX c #C9C3BA",
"lX c #D5CAB7",
"zX c #D4CBB1",
"xX c #E4D6BB",
"cX c #E5D3B1",
"vX c #E3D2AC",
"bX c #AAAEC1",
"nX c #ADB3C6",
"mX c #B3B5C3",
"MX c #B8B8C7",
"NX c #B5B5CA",
"BX c #C4B9C4",
"VX c #C9C5C4",
"CX c #D3CCC3",
"ZX c #DBD3C7",
"AX c #D4D8D0",
"SX c #E6DBC8",
"DX c #E5DDD2",
"FX c #F5EBD6",
"GX c #FBF4DA",
"HX c #F0E5CC",
"JX c #FCF9E7",
"KX c #FDFBFC",
"LX c #FCFBF4",
"PX c #EFECE6",
"IX c #D4E2C8",
"UX c #B8C6B1",
/* pixels */
"2 5 8 5 5 2 2 2 2 3 $ 3 3 $ . # # + # + ; 2 2 2 3 5 5 2 9 2 5 2 2 ; 3 $ % % $ 3 + O . # % O O % $ ; ; 2 ; ; 4 8 a m m 8 m m m m a a m a 8 2 ; ; 2 4 7 ; 4 8 ; 4 4 5 : : a 6 : a i 4 m m m m m T N N N N N N } } S m 6 6 m 6 a 6 i 4 : i m m } { /.P.P.I.H.a.J.I.R.H.Q.R.E.L.L.P.J.J.L.I.H.J.I.R.L.J.H.L.h.H.g.H.L.R.R.R.H.H.H.H.H.g.J.g.H.j.g.a.g.j.g.H.J.L.L.H.H.J.{ j.a.j.a.{ } } / / } U / / [ ..X.k.k.k.k.X.+.~ U U U ^ ^ ^ U ^ U ^ U U U I I I U T ) ) ) ) ] +.+.+.+.+.+.] ] +.....+.+.] ] ..] ) ~ I I I m a 8 8 7 8 8 9 9 ",
"3 8 m 8 7 2 2 5 5 2 3 3 2 $ # + % $ $ % 3 $ 3 2 2 5 5 5 2 2 2 5 5 2 3 ; $ # % $ # + o % % % # $ $ ; % ; 4 4 m m m m 8 M m 8 m m m m : ; ; ; ; ; = ; 2 2 5 6 ; 2 6 6 : 4 6 4 4 6 6 a m m m m m N m N N N N S N m i m 6 6 4 : 4 6 i 6 4 i i i N n n S [ a.H.E.^.I.H.J.I.I.L.E.I.E.R.R.R.L.H.g.H.T.L.J.L.L.H.j.h.j.g.g.g.R.R.H.g.R.L.g.g.a.a.a.g.j.g.J.J.H.g.j.J.J.g.g.g.j.a.j.j.a.{ [ [ } / / U / / U / ) ..X.k.U.k.k.o...) ^ U U U ^ ^ ^ ^ ^ U U U U I I I U T ) ) ) +.+.+.+.] ] ] ] +.+.+.+.] ] ......O.] ] ~ T U I I a I I I ^ ",
"$ m m 8 7 2 2 2 5 2 3 3 3 $ 3 % $ $ 3 ; ; $ ; $ ; 2 2 2 2 2 2 2 2 2 ; $ % . # % + o % + # $ # % ; ; ; ; a m m m m a m m 6 m m 5 ; ; % $ % % ; $ 2 ; 5 2 5 6 4 ; 6 8 6 6 6 4 m 6 6 M N m N N N m m N N m N N m i i a a i 6 6 4 6 i 6 6 6 m N N N N N S / S S { H.H.R.R.Q.Q.^.E.I.I.R.R.I.L.I.L.H.H.g.g.g.j.{ { g.g.H.g.j.L.R.T.J.T.H.L.g.{ { j.g.{ a.g.g.g.g.g.a.a.a.j.j.j.j.j.g.a.j.a.[ { / N N N / } } U / / } [ k.k.k.k.k...) ^ U I U ^ ^ ^ ^ ^ U U U U U I I U ^ ) ) ] ] ] ] ] ] ] ] ] ] ] ] +.+...O.O.O.O.] ] ~ I ^ ~ ) ] ] ",
"$ m I 5 5 2 5 3 3 3 3 3 3 ; % $ $ ; 2 ; 2 2 2 ; 3 2 2 2 2 5 5 2 2 5 2 ; % + # # # + # o # ; $ % ; 5 2 ; 4 a a 8 m m m m 4 4 ; % = % % % # $ % ; ; = 4 4 5 5 4 2 6 8 6 6 4 i m 8 m T N N N N N m 6 m 4 m 6 i i m m i i 6 4 : 6 6 6 i i m N N N N N S S N S } S S / S m m T j.J.J.^.E.L.I.R.I.R.H.g.g.H.H.g.h.H.J.L.E.I.H.J.g.H.j.j.g.H.g.a.{ j.h.g.j.g.g.g.J.H.a.a.{ j.{ { { a.{ j.j.a.{ [ [ / / / } T / } } } / / / / ] X.Y.Y.k.k.X.+.~ ^ U ^ ^ ^ ^ ^ ^ U ^ U U I I I U T ) ) ) ] ] ] ] ] ] ] ] ] ] +.....+.] ) ~ T ) ] ] ] ] ] ",
"3 5 8 5 2 3 2 3 3 $ 3 ; 3 ; % ; 3 2 5 2 3 2 5 2 2 2 2 2 2 5 2 2 ; 2 2 ; $ % # & % # % # + # $ % 2 5 2 8 5 5 8 a 6 a m 5 ; $ $ % % # $ % O % % % % ; ; 2 4 4 8 2 6 5 6 m a m m m U T m N N N 6 m 6 6 i m m 6 m 6 i 6 i 4 : 4 6 i i N N N / / / N N N S / S / N m : : i 6 6 6 6 6 S { g.I.R.^.R.R.I.L.R.R.T.h.H.g.g.H.R.R.I.L.H.a.j.j.j.H.H.H.H.j.H.j.J.H.H.g.J.g.J.a.j.{ { { { { { j.j.j.{ [ [ [ } } } } } } [ } [ / U U M U T ..h.U.U.Y.k...] ^ U U U ^ ^ ^ ^ ^ ^ U U U I m I U ] ] ] ] ] ] ] ] ] ] ] ) T T ~ ] ] ] ] ] ] ] ] ] ",
"3 3 5 8 3 2 2 3 $ % ; # $ 3 % $ 2 2 2 5 5 5 2 2 2 2 2 5 5 5 5 5 2 2 2 2 ; % # & # # # % # $ $ ; 5 5 3 5 5 5 8 5 5 2 ; ; ; $ % % % # O ; % % $ % ; ; 2 4 5 5 m 6 5 6 m m m M m T N m m M 6 i 4 4 8 6 6 6 6 6 : : 6 i 4 6 6 m 6 m m m N N S / S S S N N S S m : 6 : 4 6 6 6 4 i 6 i i i N N R.^.R.^.^.R.E.E.H.H.H.H.j.a.h.g.H.T.{ g.g.{ { g.g.g.g.a.H.g.j.a.} { a.a.a.{ [ { [ [ [ { { { g.J.g.J.g.{ [ [ { [ [ { } } [ } U / / M ] T T ..k.Y.Y.Y.k.X.+.T U U U ^ ^ ^ ^ ^ ^ U U U a ) ] ] ] +.....+.] ] ~ ) ] ] ] ] ] ] ] ] ] ] ] ] ",
"2 3 7 7 3 3 3 3 3 $ 3 3 ; $ % $ $ ; 2 5 5 2 2 2 2 2 2 5 5 5 5 2 5 2 2 2 2 % # + & # o $ $ ; $ $ 8 5 5 5 8 7 2 2 2 ; ; % $ $ % # % O $ ; $ % $ ; ; ; 5 7 6 6 m 8 8 a m N m m m m m 6 a ; ; 6 : 5 8 4 m 6 : 5 6 6 i a : i i m m N N m / S N S N N N T N m 4 4 : : ; i i 6 4 6 i i m m m N m { g.a.E.^.R.H.H.E.R.I.L.R.H.H.L.H.j.H.H.j.g.g.g.g.g.j.j.h.g.g.{ g.a.{ a.a.} [ { [ [ [ [ { { a.g.H.H.J.J.J.h.j.g.a.{ [ [ [ T } } / } } ] / ] T U ) X.k.Y.Y.Y.k...) ^ U U U ^ ^ ^ ^ T ) ..................+.+...] ] ] ] ] ] ] ] ] ] ] ) ",
"2 2 2 7 2 5 2 5 3 3 3 2 5 5 2 3 # + $ 2 $ ; 2 2 2 2 2 2 2 2 5 7 5 5 5 5 2 $ # # % # % $ ; ; ; ; 5 2 5 5 5 2 ; 5 2 2 2 $ % # # # $ % % % % $ ; ; ; ; 4 6 8 a m m m M m m m N 8 6 ; % = = ; ; ; 6 6 4 6 6 : 6 m i 4 i i m N m N m / N N / S / m m i i i 4 : 4 4 4 6 m i i 6 i i m m N N N S S N N S } H.R.I.R.L.J.L.I.I.H.J.R.H.I.L.g.j.a.j.H.J.g.a.a.H.j.J.J.g.a.{ g.[ [ { { [ a.{ j.g.g.g.J.J.J.g.{ g.H.g.j.{ j.{ [ { { [ { { X.{ { [ ) ) } } / T ] X.k.Y.k.k.X.+.~ ^ U U ^ T ] ................+.] ] ..] ] ] ] ] ) ) ) ) ] ] ] ",
"5 7 2 7 9 2 5 5 3 2 5 2 2 2 5 5 ; 2 ; 3 ; $ 3 3 2 ; ; ; 2 3 5 5 5 5 2 2 5 2 % % % % # % ; ; $ $ 5 5 8 2 5 ; 5 5 5 ; ; % # O # % $ % # % % $ ; % ; ; 8 7 7 m M U m m m m m 2 = = = = $ = % = ; 5 5 : 6 6 4 m m m M m N N N N T m N N N T m m : : 6 6 6 : : 6 i 6 N m m i 6 m m m m N N S / S S S } S / N N [ L.H.^.R.I.I.E.I.H.L.H.I.R.g.J.g.g.a.j.H.a.a.a.a.g.a.J.J.g.{ { a.a.{ j.j.a.a.a.{ { { j.[ { a.g.g.g.J.J.g.a.J.J.J.J.{ { { { { ] ] } ] } ] ] } } ..X.k.Y.k.k...) T ) ] ) T T T T T ) ) ) ) ) ~ ~ ~ ~ ) ] ] ) ] ~ ] ] ] ",
"7 7 7 3 7 7 5 7 5 5 3 5 2 5 7 5 2 5 5 2 3 3 ; 3 2 ; 2 ; 5 3 2 2 3 5 5 2 5 7 3 3 2 $ % $ ; $ $ ; 5 5 4 2 7 5 2 5 5 2 2 $ % # O % % $ # ; $ % ; $ ; 4 8 8 8 m m m m m a m ; = $ ; = = % = ; ; ; ; : 6 8 a a m m T N N M m N N N N N m m i : 6 : 4 : 4 6 i : m m i i m m i m m T N N N N S / S / N N m : i i i i i N g.^.I.I.I.L.L.I.I.g.H.J.g.g.g.g.H.J.J.J.J.J.J.J.I.L.J.a.{ { a.a.[ { { { [ { { [ { a.a.j.g.g.g.J.J.a.j.j.J.g.H.j.X.j.{ { [ [ { { [ } [ { ] ] T / { X.k.k.k.k.k.X.X.X.X.....] ] ] ] ] ] ] ] ) ~ T T ~ ~ T ~ ) ] ",
"5 7 5 3 5 5 5 5 7 7 2 5 5 7 7 5 2 2 8 7 9 7 2 2 3 2 2 $ 3 3 2 2 3 3 2 2 2 2 3 2 5 ; $ ; 2 2 2 5 5 5 5 5 5 5 5 5 5 5 2 $ % # o + $ ; # % % $ 2 ; ; 5 8 5 7 7 a a 5 ; ; ; % % = % % ; = ; = ; ; ; 5 8 8 m a M N N m N m m N N T m 6 : : 4 ; 6 : : : 6 i i : N m i m N m S N S N S S S S / / N m i 6 6 6 m i i i i i i N j.^.R.R.I.P.^.P.I.R.H.g.J.J.H.g.g.H.J.L.J.J.J.H.L.J.a.g.g.a.a.[ } } a.{ { [ { { g.j.j.j.a.a.g.g.j.{ j.a.g.g.J.g.h.J.j.{ { [ { [ } [ [ [ [ } / T / ) [ X.k.k.X.X.X.X.X.X.....] ) ~ T T T U ~ T T T T T ~ T ",
"5 7 7 $ 7 5 5 5 5 7 2 5 5 5 5 5 5 2 5 2 7 5 2 2 7 2 5 ; 3 2 2 2 5 2 2 3 3 2 ; 2 3 2 2 2 5 5 2 2 2 5 5 5 5 5 2 2 2 2 2 ; # # % + % $ $ $ ; 2 5 2 5 5 2 5 2 4 4 ; % % % % O O % % = ; ; ; ; ; = ; 6 a m m m M N N m T N m m N a : 6 : : : 6 6 ; : : m 6 i 4 m m m S N S / N N / S / S N N i i i i 6 6 i i i i i 6 6 m n N } H.^.R.J.I.I.I.~.R.L.H.J.g.g.g.H.g.J.J.g.J.J.g.J.J.L.H.g.L.a.a.g.H.H.g.j.g.g.j.j.a.g.j.{ j.j.g.g.J.J.L.H.J.g.H.J.j.J.a.{ { X.X.X.[ { { { [ [ } / / N U ] [ ........] ) U m I U U U U T ~ T ~ T T T T T ",
"7 7 5 3 2 7 5 5 5 7 5 7 7 5 5 7 5 2 5 5 5 5 2 2 9 7 7 5 3 2 5 2 2 2 5 2 5 2 ; 3 2 2 2 ; 2 2 2 2 2 5 5 5 5 5 5 ; 2 5 5 2 # + # # % 2 = % ; ; 5 5 2 ; ; 7 5 4 2 $ % = O = % # O ; ; 2 ; ; ; ; = : 4 : N N m m N m m m m 6 ; 4 6 : : ; 4 : 6 6 ; 4 6 m i m N N N N S S N S T T / N m i 4 i i m 6 6 6 6 i 6 6 i m M i m N N N S S [ a.J./.I.g.R.I.I.J.a.a.a.g.J.g.J.a.J.g.L.J.J.g.I.I.L.J.H.L.L.J.H.g.J.H.g.J.g.g.g.j.g.g.{ a.a.a.I.J.J.J.J.{ j.g.g.a.{ X.X.X.X.{ { X.} [ [ } [ } T [ } a U m a M U m m I I m I U T U T T T U ~ T T ",
"7 7 7 3 3 5 5 2 7 5 5 7 7 7 7 9 7 2 5 5 7 7 7 5 7 5 7 7 5 5 7 9 7 7 2 2 2 2 2 2 2 3 2 2 3 2 ; 2 ; 2 2 2 2 5 5 2 2 5 2 2 ; ; $ $ % ; $ $ ; ; ; 2 5 5 5 5 4 2 2 $ O $ % ; % % O ; 2 ; ; ; = % ; 5 a 6 T m m m m a m 5 4 4 4 4 6 4 4 ; : 6 6 5 4 : : N m S S / M N S / T N N m i 6 6 6 ; a i i 6 i m i m i m i M M m T N S N } / / N S ' P.I.I.g.a.I.H.g.j.g.a.J.a.a.g.g.J.a.a.j.j.g.j.j.g.j.j.a.a.a.{ J.H.H.J.J.g.a.J.J.g.H.J.g.a.J.J.H.L.g.J.g.a.{ a.j.J.J.J.{ [ { [ [ } [ { } { [ [ ] / T U U T U U m I I m U U I U U U I T T T ",
"5 5 7 7 3 5 7 7 7 7 7 5 7 7 5 5 5 2 5 5 7 5 2 5 5 2 2 7 2 5 5 2 2 7 7 5 7 5 2 2 5 2 2 3 3 2 ; 2 5 2 5 2 2 2 5 5 2 2 2 5 5 2 2 ; ; ; ; 2 2 2 5 5 5 7 5 5 5 5 3 2 % % $ $ $ % $ ; ; ; ; ; % ; 6 m N m m m a m 8 5 : 4 2 4 2 5 7 ; 6 4 6 6 6 i a m a T S T / / T T / N N m i 6 4 : 6 6 4 6 6 m m i i i i i N i M N N N N / N / / / N N i N } [ H.K./.P.L.J.H.H.J.I.J.a.g.g.a.{ { { j.a.j.a.j.{ a.{ { { j.g.J.J.H.H.J.g.J.g.J.j.a.a.J.J.a.J.H.j.g.g.{ a.j.g.j.a.{ { { { { { { { { [ [ } [ ] ] / ] [ ) U m 8 I m I I U U T U U I U U ",
"5 7 7 7 ; 5 7 7 7 2 2 5 7 7 7 5 5 7 7 7 7 7 5 5 9 7 5 7 5 5 9 8 5 7 7 5 7 9 5 5 2 2 5 5 2 2 2 2 5 2 2 2 2 2 2 5 2 2 2 5 2 2 2 ; 3 2 2 2 2 8 5 5 5 7 5 5 5 2 2 ; % % = ; $ $ $ ; ; ; ; ; ; 2 m T m 6 8 5 4 4 5 5 2 = ; 2 ; 4 2 ; 5 4 4 m m m m N U T N N / T N N m 6 6 6 : 4 6 6 6 6 6 4 M m m m m m m i N N S / N N S / N N N i i 6 6 6 6 i i n N } / } [ [ } } [ J.J.L.H.I.a.j.J.J.a.a.j.j.j.j.j.g.g.g.a.g.J.g.g.j.j.a.g.j.j.a.g.g.g.g.H.H.L.J.g.j.a.j.g.{ { { { j.{ j.[ { { X.[ { { [ { [ [ [ [ [ T m T I h I I U T U U m U U ",
"5 5 7 7 $ 9 9 7 7 5 9 7 7 7 7 5 7 7 7 7 7 2 2 5 7 7 5 7 7 2 7 7 5 9 9 5 7 7 7 5 7 5 5 5 5 5 5 5 5 2 5 5 2 2 2 2 2 2 3 2 2 3 2 ; ; ; 2 2 2 5 5 8 5 8 5 7 5 2 2 3 ; % % $ ; ; = ; ; ; ; 5 4 2 a N 5 5 5 2 = 5 ; ; ; ; ; 8 ; 2 4 4 5 6 i 6 N m m N N m S S m m N a i 6 6 6 a 4 4 2 a 4 : i a m m m m N S N N / / T / N m i i 6 i i i i i 6 i a i i m m m N N S S S S } S } { P.^.E.P.I.g.j.g.j.{ j.g.g.j.g.J.H.J.J.g.g.g.J.g.j.j.a.a.a.a.j.h.j.H.H.L.H.h.H.H.g.J.g.j.J.J.{ { j.j.{ X.{ { { { { { { [ { [ ] T ] ) I m M U I I m U U ",
"7 2 7 2 $ 7 7 7 3 5 9 9 7 5 7 7 7 7 5 5 7 7 5 5 9 7 7 7 7 2 7 7 7 7 7 7 7 5 9 7 7 7 5 7 5 8 8 5 5 5 5 7 5 5 5 5 5 5 2 7 5 2 5 2 3 ; ; $ 3 2 2 2 2 2 5 5 5 5 7 7 2 $ $ $ $ ; ; 2 ; ; 4 5 5 8 a N 4 8 5 2 ; ; ; % ; ; ; 2 4 4 4 6 6 m m m m N m T N i m a 4 4 5 m 6 6 2 6 6 6 6 6 6 6 m 6 6 i m / m N / / / } / / m 6 6 6 6 i 4 i m i 4 6 i i M m M N N S N N S / / / S N i m N I.P./.I.L.H.j.j.g.L.H.H.J.J.H.J.L.H.J.J.J.J.g.a.a.a.{ { j.j.a.a.J.H.j.J.H.I.L.g.g.g.g.g.g.g.j.g.H.j.X.{ { { { X.{ { { [ } [ { [ [ ] I 8 m m M U I ",
"7 2 2 3 q 7 7 7 5 5 7 7 5 5 7 5 7 7 3 5 7 9 7 5 7 7 7 7 5 5 0 7 7 7 5 7 7 7 9 9 7 5 7 7 2 5 7 7 7 7 8 5 9 5 7 5 5 5 2 5 5 5 9 9 5 5 ; ; 3 2 2 ; ; ; 2 2 ; ; 2 7 2 $ ; ; ; $ ; ; 2 5 8 5 6 8 7 a 5 5 5 ; ; ; % = $ ; ; 2 4 6 : a m m N m m m U m 6 : ; ; ; 4 ; 6 6 2 4 : a 6 6 i m m m 6 M m m / T T N / / N m a i 6 6 6 6 m 6 6 m i i N M N N N N / / / N N S S N i m m i m m i m S a.I.I.H.H.L.^.I.R.R.E.E.E.E.I.H.L.K.L.J.J.J.g.{ a.J.a.H.J.g.g.J.J.a.g.J.H.H.J.g.J.J.H.J.g.J.{ a.j.h.j.j.j.[ [ X.{ { [ { [ [ { ] ) ] U I U I ",
"3 3 3 3 q 5 5 7 0 5 0 0 3 3 5 5 7 5 5 5 7 9 7 7 9 7 9 7 7 5 0 5 3 7 5 9 9 7 7 7 5 2 5 5 5 7 7 5 7 5 5 5 5 8 9 7 5 5 2 7 7 5 8 9 5 9 5 5 7 9 2 2 2 2 2 $ % ; ; 3 2 2 2 ; ; ; 2 5 7 5 8 5 4 7 6 m 7 5 8 2 ; $ ; ; 3 2 ; 5 4 8 5 a m m m m M U a ; 5 ; ; ; ; 2 = 6 i 4 4 6 m a a a 6 m N i N / N M N U N N 6 6 6 6 m 6 a 6 m i i i N m M S S S N N S N N N N m 6 6 i i i m i i m m i N N N { S } J.P.^.~.L.I.R.H.g.H.J.I.I.J.I.J.P.I.J.J.g.[ a.g.g.H.J.L.J.g.g.H.H.H.J.J.J.J.J.J.H.H.J.J.a.a.{ j.X.{ X.X.{ { { [ [ [ } [ { } ] [ U ",
"I K 9 9 0 7 0 3 0 2 2 5 2 3 5 5 5 2 5 5 7 3 2 5 7 7 7 5 7 7 7 5 7 7 2 7 7 7 7 7 7 2 5 9 5 7 7 7 8 7 5 9 8 8 9 7 5 5 5 8 7 9 9 9 7 8 9 7 8 m 8 8 5 5 5 2 2 2 ; ; % ; ; ; 2 2 5 ; 7 5 8 8 5 8 5 a a m m 7 ; = ; ; 2 4 5 5 7 8 4 4 m m m a m 2 ; ; 7 2 ; ; ; 6 ; 6 m a 5 i m i m i m m m N U N N 8 6 : 5 : : : 6 i 6 6 a a m 6 N N / S N S S N S S N N m 6 4 i 4 m i m i m i m i N N N N N N S / S S } a.L.E.^.R.R.R.I.J.J.J.g.{ P.L.j.g.j.j.g.J.J.J.J.g.g.g.g.H.H.H.J.J.J.H.J.L.L.J.J.J.g.g.g.H.j.j.{ g.j.j.{ { { { { { X.X.j.X...",
"Y Y Y Y Y K I K K 9 0 5 2 5 0 2 3 3 5 2 2 3 3 0 5 7 2 7 7 7 7 7 7 7 2 5 7 9 7 7 7 7 7 5 5 8 5 7 7 8 5 5 8 8 7 5 5 5 7 7 5 9 7 9 7 7 9 9 8 8 8 9 8 5 5 5 5 5 8 2 2 ; ; % $ 2 2 2 5 5 7 8 7 5 5 m m 7 m 5 ; 5 ; 4 8 5 2 ; 8 8 8 8 a 8 a 8 5 ; ; ; 5 ; ; ; ; 6 4 4 m m 5 m U m M m N m m a 6 ; ; 4 ; : 6 6 6 6 6 6 : m m a m N T / N N N } N m M m 4 6 i i 6 a i i i m i m i N N N S N N / S S / N m i 4 6 / } [ { I.I.I.P.J.J.{ J.H.R.H.g.{ { a.{ g.a.a.j.a.j.j.J.J.J.J.J.g.g.J.L.H.H.L.L.J.J.J.j.g.a.g.J.g.g.g.g.g.j.j.j.j.j.{ { ",
"Y Y Y Y E Y Y Y Y K Y I K K K 9 0 0 3 3 2 3 5 3 3 5 3 5 5 7 0 7 7 0 5 5 5 9 7 7 5 9 9 5 7 7 5 7 7 7 5 5 5 7 7 9 9 9 9 7 7 7 7 9 9 9 9 9 8 7 8 8 8 5 5 5 5 5 5 2 5 5 5 8 5 5 4 2 ; 2 2 2 8 5 8 m 8 7 8 5 4 4 ; 7 7 5 5 5 7 a 8 m a a 8 7 5 ; ; 5 5 ; 2 ; 6 4 6 6 a a 8 m m m m a 6 4 ; ; ; ; ; 2 ; 6 4 : i 4 6 6 6 m N m N N N N N N i i 6 : ; : : 6 a a i m 4 m 6 i N N N N S S N S T N m m i 6 6 i i i i m m i m } I.P.I.L.I.J.J.H.L.g.J.{ { a.{ { a.{ { a.a.g.{ j.a.a.g.a.{ g.J.H.I.H.H.L.g.H.J.g.g.J.J.g.H.H.L.H.H.g.H.J.j.j.",
"K K Y Y Y Y Y E E K K K K Y Y Y Y K K K 9 7 0 7 5 3 2 3 7 3 2 3 3 2 3 5 7 7 7 2 5 7 9 2 9 5 9 7 7 7 7 5 7 8 9 5 9 9 9 7 9 7 8 7 7 9 9 9 8 8 8 8 8 5 2 5 h 9 5 7 7 5 7 7 7 8 5 5 7 5 5 2 5 5 5 8 5 5 7 5 4 5 5 7 5 4 8 m 7 7 m a 8 m 8 6 5 = ; 7 4 ; 5 4 8 7 6 a a a 8 m 8 8 5 ; ; 4 ; ; 2 2 ; 4 4 5 i 6 m a a m a m m m N m m 6 4 : 4 6 : : ; 8 : a i a m m i m m N N N S N S S N m 6 N 6 i i i 6 i 6 i i m N m N N n { J.^.I.K.I.I.I.K.I.{ { { j.j.j.{ j.J.J.g.g.{ a.{ J.J.J.J.J.j.J.a.L.J.J.L.L.g.a.J.j.g.j.g.g.g.a.g.H.J.L.J.",
"Y Y Y Y Y E Y Y E Y Y Y K Y Y Y K Y Y K Y Y K K K 9 9 7 0 3 3 2 3 3 3 3 0 5 5 3 5 5 7 2 7 5 5 7 7 5 7 9 7 7 5 5 5 5 7 7 5 8 9 9 9 7 9 8 8 8 8 9 h 5 5 5 9 7 5 9 9 7 5 8 5 8 7 7 5 5 5 8 7 7 7 5 5 5 7 2 ; 5 5 8 5 5 5 7 8 a a a a m m 7 5 2 ; 6 4 4 8 5 7 7 5 8 a 8 4 ; ; 2 ; = ; 5 4 ; 2 4 2 5 8 6 i m m m m m N i M M 6 ; 8 : 4 4 6 6 4 6 5 a i i i m M T N m N N / / N N m i i 4 i i 4 i 6 : 6 4 m N N N N N N N S S S } [ a.I.^./.I.P.J.H.J.J.g.g.J.L.H.J.g.a.j.a.a.g.g.J.J.J.L.J.J.H.H.g.J.H.J.g.J.{ a.a.a.a.a.a.j.g.J.H.L.",
"K K K I Y Y E E E Y K K Y K K K K E Y K Y E E E Y Y Y Y Y I K K 9 7 5 0 5 3 2 2 2 7 7 5 5 7 7 7 5 5 5 7 5 5 7 7 7 5 9 7 5 7 7 9 7 9 8 9 9 9 9 8 5 7 8 8 9 9 9 9 8 9 7 7 5 5 m m 7 8 8 m m m m 7 8 m 7 7 8 4 2 5 5 7 5 4 2 7 8 8 8 8 a a 5 7 2 5 5 2 5 8 a 8 7 7 7 8 2 ; ; ; % ; 5 2 2 ; 2 2 5 5 8 a 6 a i 8 a m m 2 4 ; 4 ; ; 4 4 2 6 a 6 4 6 6 m m N N N T N N N N m 6 a : 6 a 6 : i m 6 i 6 i m m N N S N n N S N N N N m n i n } /.I.I.K.H.I.I.P.H.I.I.I.j.{ { a.a.a.g.g.H.J.J.J.g.J.J.J.a.a.g.a.a.a.a.a.a.a.a.a.a.a.{ g.a.g.",
"Y K K K K K K Y K K K K Y K K K K Y Y K K E Y Y K Y Y Y Y E E E E E E Y K h 9 7 5 5 5 2 2 7 7 7 5 2 7 5 7 7 7 7 5 2 7 7 9 9 9 5 9 8 9 9 5 9 8 7 8 5 7 5 8 8 9 5 7 8 8 8 9 5 8 8 a m 8 8 m m a 5 m m 8 a a 5 8 m 7 7 8 8 5 5 7 2 5 5 8 8 7 7 4 5 5 5 5 7 5 8 8 8 7 8 5 = = = = $ 2 5 5 ; ; 2 5 ; 4 6 4 a m 5 4 8 ; ; 4 7 2 ; ; 4 ; 4 5 m 6 6 m m N N m N N N i i i 4 6 6 6 : 6 i m 6 i N m N N N T N N N N N N N N N i i i m i i m N n } a.a.} } S / g.R.P.P.I.J.J.J.L.H.J.J.H.I.J.J.I.K.J.I.K.L.g.J.g.J.g.J.a.a.a.a.a.{ a.J.g.H.",
"K K K K K K K K K K K K K K K K K K K K K K K K Y Y Y K K E E Y E E E E E E Y Y Y Y K 9 9 7 9 5 2 2 5 2 5 7 7 7 5 2 7 5 9 9 7 9 h 9 8 8 9 h 8 7 7 8 5 8 8 7 8 9 7 h m 8 h 8 m 8 8 m 8 8 8 8 8 7 m m 8 8 8 5 m 8 m 8 m m 8 5 m 8 7 5 5 2 5 5 5 5 5 5 5 7 5 5 8 8 8 8 5 2 ; = $ ; 2 ; 4 5 4 4 5 4 5 ; 7 m = 2 ; ; = 5 5 7 2 2 5 2 ; 8 5 m m m U m m N m a ; 4 ; 4 i 4 6 i 4 6 4 a m 6 m N N N N m N S N N m m m : 6 N i 6 m N i n n N i m N N N S N S S / } [ { L.Q.R.I.I.I.L.H.H.I.H.L.J.J.J.J.L.a.g.J.I.J.J.g.a.g.a.a.{ a.a.a.g.",
"K K K K K K K K K K K K K K K K K K K K K K K K K E E Y E E E E E E E E E E E E E E E E Y Y Y Y K 9 7 2 2 2 7 5 5 2 5 5 9 5 9 9 9 9 9 9 8 8 7 7 8 8 5 5 m m m 9 7 7 9 5 8 8 m 7 7 8 8 m 8 8 8 7 m m 8 8 8 8 8 a m m m m 8 m m m 8 8 8 7 5 7 5 5 5 5 5 5 5 2 8 8 8 5 8 5 2 3 = ; 4 ; ; ; 5 5 7 5 5 2 5 7 $ 2 ; $ ; ; 4 2 2 ; 4 7 5 8 8 m a m m 8 5 8 ; 2 ; ; ; 5 6 a 6 a 6 i m N m N N m N M M M m i 6 4 6 a a 4 m N i i m m m m N m N N N S N S / / S } N N i m m S N a.I.R.R.I.P.I.J.g.g.a.a.g.a.{ { a.a.a.a.a.g.g.a.g.a.a.{ { ",
"K K K K K K K K K K K K K K K K K K K K K K Y Y K E E E E E Y Y Y E E E E E E E E E E Y Y Y E E E E E Y Y I K 9 7 2 9 7 7 7 7 7 5 5 7 7 9 9 9 8 8 8 5 5 9 8 8 9 8 9 7 9 m h 8 5 5 9 8 8 8 m 8 7 m m 9 h m 8 m a m m m m 8 m 8 8 m m m m a 8 8 8 8 8 5 5 2 ; 2 4 5 5 5 2 5 2 ; 5 5 2 ; 2 2 2 5 5 5 2 5 2 ; % ; ; ; $ 8 ; 5 5 7 5 a 6 5 8 a 7 2 ; 3 2 2 2 2 2 4 6 8 a 6 a i m N N N N m i m i : 4 6 4 : 4 a a i 6 N i i m m m N N N N N S T S N m N m m m m m m m m m N m N } { g.P.Q.a.a.{ a.j.a.a.a.{ { { [ a.a.a.g.a.g.j.a.{ a.",
"K K K K K K K K K K K K K K K K K K K K K K K Y K K E E E Y Y Y Y Y E E E E E E E E E E E E E E E E E E E E E W E Y Y K K 9 7 5 5 7 7 7 5 5 9 9 5 5 9 9 9 7 7 9 7 m m h 8 8 7 8 8 5 8 8 8 9 m 8 a m 8 8 8 m m 8 m m 8 m 8 8 8 m m a a 8 8 m 8 8 m 8 5 8 5 5 5 2 2 2 2 2 3 ; 2 2 2 2 5 5 5 7 5 5 5 5 2 3 2 $ = ; ; 2 5 2 2 5 5 4 5 2 2 ; ; 2 2 ; ; 2 2 2 2 6 5 6 8 8 m m M U U N m m 4 a : 4 6 6 4 4 6 m 6 : 5 i m i N N N N N N S N N N m m m i a i m m m m m m m N N N M N m i i { J.J.a.g.a.g.a.{ { a.{ { a.a.g.g.a.a.g.g.a.a.",
"K K K K Y K K K K K K K K K K K K K K K K K K K K K K Y Y Y Y Y Y K Y E Y E E E E E E E E E E E E E E E E E E E E Y E E E E E Y I I K 9 9 7 7 7 5 7 9 7 9 8 9 7 5 h 9 9 8 m m m 9 7 7 m m m m m 8 m m m 8 m m m m 8 m h m 8 m m m 8 m m a 8 9 m m 7 5 8 8 8 7 7 8 5 5 2 3 2 2 2 5 2 2 2 5 4 5 2 7 5 2 2 ; = $ ; ; 2 2 ; 2 5 4 5 2 = ; ; $ 3 3 2 $ 5 2 2 2 6 5 6 a a m m m M m 4 6 2 4 6 : 4 a 4 8 6 6 i m 6 N N m N N N N m N N N m 6 : m m i m m m m m N m m m m m a i 4 ; % % % ; / [ { g.J.I.I.J.K.J.{ { a.a.a.a.J.a.g.g.g.a.",
"K K K K K K K K K K K K K K K K K K K K K K K K K K K K K K K Y K K K E E E E Y Y Y E Y E E E E E E E E E E E E E Y E E E E E E E E E E E Y I I h 9 9 5 7 7 7 9 7 7 9 9 7 9 m 8 m 8 h I I m m m 8 8 m m 8 m m m m m m 9 9 m m m 8 8 m m m m 5 a a 5 5 8 8 8 8 8 8 8 5 7 7 5 5 4 5 5 5 2 2 ; ; ; 2 5 ; 2 ; 3 3 2 3 2 2 2 2 2 2 5 2 3 $ = ; $ ; 3 ; 5 2 ; ; 4 5 5 5 8 8 5 5 ; 2 2 7 2 4 8 4 5 i 5 8 6 6 m N m m N m m T m N a 4 6 6 i 6 6 m m a m m m m m a a i 6 ; ; = % % % % O ; 6 a m m m N S K.I.J.J.J.a.a.J.a.a.J.g.a.a.a.a.",
"K K K K K K K Y K K K K K K K K K K K K K K K K K K K K K K K K K Y E E E E Y Y Y Y Y Y E E E E E E E E E E E E E E E E E E E E E E E W E E E E E W W Y I I h 9 9 9 7 7 8 9 7 8 h a m m 8 m I m m I m m 8 m I m m 8 m 8 m m m m 8 8 8 m m m 9 8 8 8 7 7 5 8 8 8 8 8 8 8 8 9 7 7 5 7 5 5 5 5 2 2 3 3 ; 3 2 2 3 2 2 5 2 5 7 5 5 5 5 3 ; % ; ; ; 2 3 2 ; 2 2 2 ; 2 5 4 ; ; ; = $ 6 8 ; 5 4 4 2 i m m m U a m m 6 m a 6 4 6 6 6 4 6 a a 6 m m a a m a 6 6 5 6 ; = ; ; = = = % % % % 6 a N N N N N m N J.I.I.J.J.K.J.J.K.a.a.a.{ a.{ ",
"K K K K K K K K K K K K K K K K K K K K K K K K K K K K K K K K K Y K Y K K Y Y E E E E E E Y E E E E E E E E E E E E E E E E E E E E E E E E E E E W W W W W W W Y I h h h 8 m 8 8 h h h h 8 m 9 8 m m m m m 8 I m I m m m 8 m m m 5 8 a a 8 7 8 8 8 9 9 8 8 8 5 8 9 5 7 5 7 7 5 5 7 7 5 5 5 7 7 5 3 2 2 3 ; 2 3 2 2 2 5 5 5 5 7 5 2 3 3 2 3 2 3 3 ; 5 5 2 3 3 2 3 $ = 2 = $ 5 5 ; 5 5 4 6 m N m m m m a 4 = ; 8 5 4 6 5 8 7 i m m i a m i 6 6 ; ; = ; ; = ; ; ; ; = = % % O O = 6 m N S N N m m 6 [ [ J.J.} [ I.I.J.I.J.J.a.{ ",
"Y K K K K K K K K K K K K K K K K K K K K K K K K K K K K K K K K Y K K K K K Y E E Y E Y K Y E Y E E E E E E E E E E E E E E E E E E E E E E E E W W W W W W W W W W W Q W W Y I I h 9 9 9 8 8 9 m h 8 8 m 8 m m 9 8 m m 8 8 m m m 8 8 8 8 8 8 8 8 8 7 8 8 8 8 7 9 8 7 7 7 5 5 7 7 7 7 5 5 5 7 7 5 2 2 5 2 2 5 2 2 3 2 2 3 5 2 5 2 2 2 2 5 2 2 5 2 5 2 2 2 3 = ; $ 3 ; ; $ 2 5 7 4 % 5 4 m U 8 8 5 ; = 4 ; ; 8 4 6 5 8 6 6 7 8 i a a 4 4 = = ; = = = = ; ; = = = = % % % O o o % 4 N N N N N N m i 6 ; g.X.% X N [ { J.I.I.J.g.",
"K K K K K K K K K K K K K K K K K K K K K K K K K K K K K K K K K Y E Y K K K K K Y Y E Y Y E E E E K E E E E E E E E E E E E E E E E E E E E E E E E E W E W E W E W W Q Q Q Q W Q Q Q W I I I h h h m 8 5 7 8 8 h 8 8 m m m 8 8 8 8 8 9 8 9 8 8 8 9 8 5 8 8 9 8 7 5 9 9 7 5 7 9 9 7 7 7 7 5 7 7 7 5 2 5 7 5 5 2 2 2 2 2 5 5 2 2 3 2 2 2 2 2 2 5 5 5 2 5 2 3 = 3 = $ 3 $ $ = = = = ; 2 a M ; = 4 = 2 ; 2 ; 2 7 4 6 7 a a 7 7 4 5 ; 2 ; ; = ; = ; ; = ; ; = = % % % % O + o . . ; m N N S N U N m 6 ; O m 5 X X X X X % } P.J.J.",
"K K K K K K K K K K K K K K K K K K K K K K K K K K K K K K K K K K Y K K K K K K K K K K K E E E E Y E E E E E E E E E E E E E E E E E E E E E E E E E W E E W W E E W Q Q Q Q Q ! Q ! ! Q Q Q Q W W Y I h 8 8 7 8 9 7 8 8 8 8 7 h h h 8 h 8 m 8 8 8 8 9 9 h 7 m 9 5 9 9 7 7 9 9 9 7 5 7 9 9 7 7 7 7 2 5 5 5 5 7 7 5 2 2 2 2 5 2 2 2 2 2 3 3 3 3 2 2 2 2 2 3 = $ = % = $ 3 = 3 3 3 2 2 U m % % ; ; 2 ; 5 2 ; 4 5 6 6 5 4 2 ; = ; ; ; ; ; 2 ; ; ; ; ; = % % % # # # o o . . . X % m N N N T N N m 6 : O . X X X X X X X X N a.J.",
"-X+Xv. .Q K K K K K K K K K K K K K K K K K K K K K K K K K K K K K K K K K K Y K K K K Y K E E E E E E E E E E E E E E E E E E E E E E E E E E E E E E E E E E E E E E Q Q E Q Q ! ! Q Q ! ! Q Q Q Q ! ! Q Q ~ W Y I m h 9 8 8 9 8 m 9 8 m h 8 8 m 8 8 8 9 8 9 m 9 8 8 9 9 7 9 9 9 8 8 5 7 7 7 7 7 7 3 7 7 7 5 2 7 5 2 2 5 5 5 5 2 2 5 5 2 2 3 2 3 3 2 3 2 3 ; = = = 3 3 3 3 3 2 2 ; ; m 7 % = ; ; 2 ; ; ; 2 ; ; ; ; % % % = = = ; 2 2 ; 2 ; = $ $ $ % # o o o . . o X . . . X # m N m T / N N m a ; O O . X X X X X X X X X m ",
"8X8X8X9X9X-X$X+Xv.O. .E K K K K K K K K K K K K K K K K K K K K K K K K K K K K K K K K Y K Y Y E Y E E E E E E E E E E E E E E E E E E E E E E E E E E E E E E E E W E Q W W Q Q Q ! Q Q ! ! Q Q Q Q Q Q Q ! ~ Q ! ! ~ ~ Q W Y I I m 9 9 9 h m 7 9 8 9 9 9 8 8 9 2 9 8 8 8 8 9 8 9 9 8 7 7 5 7 7 5 9 2 9 7 9 7 5 5 7 5 5 5 5 5 5 7 5 2 5 2 5 2 2 3 3 2 = 3 3 $ 3 3 ; 3 3 3 3 = ; ; ; ; 8 ; = ; ; = = 2 ; = = = % % % = % = = = = = ; = = = $ % % # o o o o o o o o o o . . . X O 6 N T / / / N m a ; % % % + . . X . X X X X X ",
"8X8X9X-X-X-X-X-X-X-X-X-X-X$X+Xv.o. .! Y K K K K K K K K K K K K K K K K K K K K K K K Y Y Y E Y Y E K E E K E E E E E E E E E E E E E E E E E E E E E E E E E E E E E Q E E E ! ! ! ! ! ! Q Q Q Q Q Q ! Q Q ! ! ! ! ! ! ~ ! ! ! ! ~ ~ Q W Y I I 7 9 9 9 9 9 9 8 9 9 8 7 7 h 8 8 9 5 9 9 9 9 9 7 5 7 7 3 9 7 7 7 7 5 7 7 5 2 5 5 5 7 5 5 5 7 5 5 2 2 2 5 2 3 2 2 2 3 3 3 3 3 3 3 ; ; ; ; 8 ; ; = = = % $ $ = $ % % % % = = = = $ % = $ $ # # O O o o o o o o o o o o o . X X X . % m N / / } T m M a 2 ; % ; % + o . . . X X X X ",
"0X8X8X-X-X-X-X-X-X-X-X-X-X-X-X-X$X$X$X$X$X$XoXo.O.` Q K K K K K K K K K K K K K K K K Y K K E K K Y K E E E E E E E E E E E E E E E E E E E E E E E Y E E E E E E E E E E W E ! ! ! ! ! ! Q Q Q Q Q Q Q Q Q ! ! ! ! ! ! ! ~ ! ! ! ! ~ ~ ! ! ~ ~ ~ W W I I 8 9 9 9 9 9 8 7 9 9 7 7 5 7 7 9 9 7 9 7 9 7 2 7 5 9 2 5 7 7 7 5 7 5 5 5 2 5 7 7 5 3 2 2 2 2 2 5 2 3 3 2 2 3 2 3 3 3 ; 3 ; % ; 9 3 ; ; ; = $ = $ = % % % % % % % % % $ % % O # o O o o O O O + o o o o o o . X X X X X . a N T T / / N m a 4 ; $ ; ; # # # + . X X X X ",
"8X8X8X-X-X-X-X-X-X-X-X-X-X-X-X-X$X$X$X$X$X$X$X$X$X$X$X$XoXoXo.O. .! E K K K K K K K K Y K K E E Y K Y E E Y Y E Y Y Y Y Y E E E E E E E E E E E E E E E E E E E E E E E Q Q Q Q E Q Q ! ! ! Q W Q Q Q ! Q Q ! ~ ! ! ! ! ! ! ! ! ! ! ! ! ! ! ` ` ~ ! ! ` ` ` ~ W I I h 9 7 7 7 9 7 7 7 9 7 7 9 8 7 7 7 7 7 7 9 7 7 7 7 7 7 7 7 5 5 5 5 7 7 7 5 5 2 2 2 2 2 3 2 2 3 3 2 3 3 3 3 2 3 3 ; ; 7 = = = = $ $ $ = = % % % % % O O O O % # # o # O o o O + + + + + . . . . . X X X X X X X 2 N N T / T N m 8 ; ; = 3 $ # # # . . . . . . ",
"8X8X8X-X-X-X;X;X-X-X-X-X-X-X-X-X-X$X$X$X$X$X$X$X$X$X$X$X$X$X$X$X$X$X$XoXoXo.O. .! E K K K K K K K K Y K Y E E E Y Y Y K Y E E E E E E E E E E E E E E E E E E E E E E E E Q Q ! W Q ! ! ! Q Q Q Q Q Q ! Q ! ! ! ! ! ! ! ! ! ! ! ! ! ! ! ~ ! ~ ` ~ ~ ~ ` ` ` ! ` ` ` ~ ~ W I I h 9 7 7 7 7 5 7 7 7 7 7 5 2 7 7 5 7 7 9 9 7 7 7 7 7 0 7 5 7 5 5 5 5 2 5 2 5 2 2 2 3 3 3 3 3 3 3 3 2 3 ; ; 5 $ $ = = $ $ % $ % % % % % % # # # O # # # + # o o o o o o o . . X       X X   X X X X X % m N T T U m m 7 2 ; ; 2 % # # + . . o . . . ",
"8X8X-X-X-X-X-X-X-X-X-X-X-X-X-X-X-X$X$X$X$X$X$X$X$X$X$X$X$X$X$X$X$X$X$XoX$X$X$XoX$X$XoXoXo.O. .! E K K K Y Y K K K Y Y K Y E E E E E E E E E E E E E E E E E E E E E E E Q Q Q Q E Q ! ! ! ! ! Q Q Q Q Q Q ! ! ! ! ! ! ! ! ! ! ! ! ! ~ ! ~ ~ ~ ` ` ` ~ ~ ~ ! ! ` ! ! ! ` ` ! ~ ` ~ W W I I 9 9 7 7 5 2 5 2 5 5 5 5 2 7 5 7 7 7 5 7 5 7 5 5 7 5 2 7 7 5 2 5 2 2 3 3 2 3 3 2 2 2 2 3 2 2 2 5 3 $ $ = $ $ $ % % % % % % # # # # # # # o o o o o o . . . . X     . . . . . . . . . . X . 8 N N N m m m 5 2 3 2 ; % + + + . . + . . . ",
"-X-X-X-X-X-X-X-X-X-X-X-X-X-X$X$X$X$X$X$X$X$X$X$X$X$X$X$X$X$X$X$X$XoXoXoXoXoXoXoX+XoX+X+XoXoXoXoXoXoXo.O.O.` ! E K Y E K K Y E E E E E E E E E E E E E E E E E E E E E E E E Q Q E E Q ! ! ! ! Q Q Q ! ! ! ! ! ! ! ! ! ! ! ! ` ` ! ` ~ ~ ~ ` ` ` ` ` ~ ~ ` ` ` ! ! ~ ` ! ` ! ! ! ! ! ~ ~ ! ! ~ Q Y I K 9 3 3 2 5 5 2 2 2 7 7 7 5 2 2 5 5 5 2 7 5 3 7 5 5 5 3 2 2 2 2 5 5 2 2 2 2 2 2 3 3 5 ; ; ; ; $ $ $ = % % % % % % # # O # O # + # O o . X X X X . . . . . . . . . . . . . . . X ; a m m m m a 5 2 2 2 ; # # + + . . . . . . ",
"$X-X-X-X-X-X-X-X-X-X$X$X$X$X$X$X$X$X$X$X$X$X$X$XoXoXoXoX$XoXoXoXoXoXoXoXoXoXoXoXoXoXoXoXoXoXoXoXoXoXoXoXoXoXoXoXoXo.O. .! W Y K K K K K E E E E E E E E Y E E E W W E E E E E Q E Q ! ! ! Q Q W Q Q Q Q ! ! ! ~ ! ! ! ! ! ! ` ` ~ ` ` ` ` ` ` ` ` ` ` ` ` ` ~ ! ! ! ! ! ` ` ` ` ! ! ! ~ ~ ~ ! ! ! ! ! ~ Q Q Y I K 9 2 2 5 5 2 2 2 2 2 2 2 5 7 5 3 5 2 2 2 2 5 5 5 2 5 5 5 2 2 2 2 2 3 3 5 ; 3 ; $ $ = $ $ $ $ % % % % % # + o o o O # . o o o o o o o o o . . . . . . . . . . . . . o ; 5 8 8 7 5 2 ; ; ; % # + + o . . . . X . ",
"K Y !  .O.v.v.oXoXoX+X+X+XoX$X$X+X+XoXoXoXoXoXoXoXoXoXoXoXoXoXoXoXoXoXoXoXoXoXoXoXoXoXoXoXoXoXoXoXoXoXoXoXoXoXoXoXoX+X+X+X+XoXoXv.o.O. .~ E Y Y Y Y Y E Y Y Y Y E E E E E E E E E E ! E ! Q Q Q Q Q Q Q Q ! ! ! ! ! ! ! ~ ~ ` ` ` ` ` ` ` ` ` ` ` ` ` ` ` ` ` ~ ~ ` ` ! ` ` ! ! ! ! ! ~ ! ! ! ! ! ! ! Q ! Q ! ! Q Q Q W Y I 9 9 0 2 3 2 3 2 2 3 3 5 2 3 2 2 2 2 2 2 5 5 5 2 2 2 2 3 3 3 5 3 3 ; ; ; ; $ $ $ $ % % % % # # # # o o . O o + + # # o o o + + o o . o . . . . . . . . . X X % ; ; ; ; ; ; $ % # + . . . . . . . X ; ",
"+Xv.o. .~ Y H 7 7 K W !  .O.o.o.v.oXoXoXoXoXoXoXoXoXoXoXoXoXoXoXoXoXoXoXoXoXoXoXoXoXoXoXoXoXoXoXoXoXoXoXoXoXoXoXoXoXoXoX+X+X+X$X$X$X$X$X$X$X+XoXv.o.O. .Q Y Y Y E E E E E E E E E E E E Q Q Q Q Q W Q Q Q ! Q Q ! ! ! ! ~ ` ` ` ` ` ` ` ` ` `  .` ` ` ` ` ` ` ` ` ` ! ` ` ! ! ! ! ! ` ! ! ! ! ! ! ! ! ! ! ! ! Q Q Q ! ! ! ! ! Q Q W Y Y h 9 0 2 2 3 3 3 3 2 2 3 3 2 3 3 3 2 5 2 2 3 ; ; 2 = ; $ = ; = $ $ $ $ % % % % % # # # # # o o # # # # O o o o + # o + o o . . . . . . X . . X X X + % % $ $ % # + + . . X X X . . X . 2 ",
"$X$X$X+X+X+X+XoXo.o.O.` ~ I 9 3 0 H I W !  . .O.o.o.o.o.o.o.o.v.oXo.o.o.v.oXoXoXoXoXoXoXoXoXoXoXoXoXoXoXoXoXoXoXoXoXoXoXoXoXoX+X+X+X$X$X$X$X$X$X$X$X$X-X-X-X$X+Xv.o.O.! E Y E E E E E E Q Q Q Q Q Q Q ! ! ! ! ! ! ! ! ! ~ ` ` ` ` ` `  . . . . .` ` ` ` ` ` ` ` ` ` ` ! ! ! ! ! ! ! ! ! ! ! ! ! ! ! ! ! Q Q ! ! Q Q ! ! ! ! Q Q Q Q Q Q Q Q Q Y I I K 9 7 5 2 3 3 3 3 3 3 3 3 3 3 3 ; ; 2 = $ $ $ $ $ $ $ $ $ % % % % # # # # # # # # # # # # # o # o o o o o o . . . . . . . X X X X X X X & # % % & . . . X X X X X X . $ 5 h ",
"-X-X-X$X$X$X+X+X+XoXoXoXv.v.v.oXo.o. .` Q I 7 3 3 7 K Y Q ~  . .O.O.O.O.o.o.o.o.o.o.o.o.o.o.o.o.o.o.o.v.oXoXoXoXoXoXoXoXoXoXoXoXoXoXoXoX+X+X$X$X$X$X$X$X-X-X-X-X;X;X0X0X0X;X-X#XY.o.` E E E Q Q Q W Q Q ! ~ ! ! ! ! ` ` ` ` ` ` `  . . . . . . . . . . . .` ` ` ` ` ` ! ` ! ! ! ! ! ! ! ! ! ! Q Q Q Q Q Q Q Q Q Q Q Q Q Q ! Q Q Q Q Q Q Q Q Q Q Q Q Q W Q W W I I K 9 0 3 3 3 3 3 3 ; = 5 $ $ $ $ $ $ $ $ $ % % % % % # # # # # # # # # # # # # # # + o . . . . . . . . . . . . . X X X X X X X X X X X X X X + 3 7 h I Y W Q Q ",
"O.o.oX+X$X$X$X$X+X+X+X+X+X+XoXoX X X X Xo. X XoXo.O. .~ W K 7 3 3 7 K Y E !  . . .O.O.O.O.O.o.o.o.o.o.o.o.o.o.o.o.o.oXoXoXoXoXoXoXoXoXoX+X+X+X+X+X$X$X$X$X-X-X-X-X-X;X:X0XqXqXfXkXzXzXzXkXqX;X@Xv. .W Q ~ Q Q ~ ! ! ` ` `  .`  . . . . .O.O. . . . . . . . . .` ` ` ` ! ` ! ! ! ! ! ! ! ! Q ! Q Q Q Q Q Q Q Q Q Q Q Q Q Q ! Q Q Q Q Q Q Q Q W Q Q Q W Q Q Q W W Q Q Q W W I I K 9 7 2 ; 2 % $ $ $ $ $ % % % % % % % % % # # # # # # # # # # # # # # . o . . . . . . . . . . . . . X X X X X X X X X # 3 7 h I Q Q W W W Q Q Q Q ",
"| ! | R R R R ` ` O.O.o.o.oX+X+X+X+X+X+X+XoX X X X Xo.o.o.o. Xo.o.O. .~ R K 0 q 3 0 9 K E W  . . . .O.O.O.O.o.o.o.o.o.o.o.o.v.v.oXoXoXoXoXoX+X+X+X$X$X$X$X$X$X-X-X-X;X;X:X:XqXfXkXzXzXzXzXzXxXxXxXSXSXlXkX:X#XY.] ~ ! ~ `  . .O.O.O.O.O.O.O.O.O.O.O.O. . . . .` ` ` ` ` ` ! ! ! ! ! ! ! Q Q ! Q Q Q Q Q Q Q Q Q Q Q Q Q Q Q Q Q Q Q Q Q Q W Q W W W W W W W W Q W W Q W W W W W W W W W Y I 9 9 2 3 $ $ % % % % % % % % # % # # # # # # # # # + # # + . . . . . . . . . . . . . . . X X X % 2 9 K I W W W W W W W W W Q Q Q Q Q ",
"| | ! | ! | | ! ! ! ! ! R R R R ! `  .O.O.O.o. XoXoX XoXoXoX+X Xo. Xo.o.o.o. X Xo.O. .~ R K 0 , 3 0 9 K Y !  . .O.O.O.O.o.o.o.o.o.v.oXv.oXoXoX+X+X+X+X+X$X$X$X-X-X-X-X;X;X:XqXqXkXzXzXzXzXzXxXxXxXSXSXHXHXHXHXHXHXxXzXqX;X#XY.o.O.O.O.o.o.o.o.o.o.O.O.O. . . . . . .` ` ` ! ! ! ! ! Q Q Q Q Q ! Q Q Q Q Q Q Q Q Q E Q Q Q Q Q Q W W W W Q Q Q W W W W W W W W W W W W W W W W W W W W W W W W W W W Y I h 7 2 ; % % # % % # # # # # # # # # # # # # # o + . . . . . . . . . . . % 3 7 h I W Q Q W E W W W W W W W W Q Q Q Q Q Q ",
"O.O. .` ` ! ! ! | | | ! ! ! ! R R R R R R R L L R R ! `  .O.O.O.o.o.o.o.o.o.o.o.o.o.o.o.o.o.o.o.o.O.~ O. .~ ! I K 9 9 K E !  . .O.O.o.o.o.v.oXoXoXv.+X+X+X$X$X$X$X-X-X;X;X;X:X0XqXqXkXzXzXzXzXxXxXxXSXHXHXHXHXHXHXHXHXHXHXFXGXLXPXPXAXkXqX;XY.o.o.o.O.O.O. . . .`  .` ` ! ! ! ! ! ! Q Q Q ! ! ! Q Q Q Q Q Q Q Q Q E W Q Q Q Q Q W W W W W W W W W W W W W W W W W W W W W W W W W W W W W W W W W Q W W W W W W Y I I 7 2 $ % # # # # # # # # # # # # # . + . . o . . $ 2 7 h K Y W E Y E E E E W W W W W W W W W W W Q Q W Q W ",
"=X*X#X@XY.k.o.X.O.+.` ~ | R R R ! W R R R R R R R R R R R R L L R R W ! ~  .O.O.o.o.o.o.o.o.o.XXo.o.X.o.o.o.o.o.o.o.o.O. .~ W I 9 9 h I W ` O.o.o.v.v.v.+X+X+X$X$X$X-X-X-X;X;X:X:XqXkXkXzXzXzXcXxXxXSXHXHXHXHXHXHXHXHXHXFXGXJXKXKXKXKXKXLXJXGXFXSXzXqX;XW.o. . .` ` ` ! ! ! ! ! ! Q Q Q Q Q Q Q Q Q Q E Q Q W Q W W W Q Q Q E W W W W W W W W W W W W W W W W W W W W W W W W W W W W W W W W W W W W W W W W W W W W W W W Y I h 7 2 $ % # # # # # # . . + % 3 2 9 h K K K I Y Y E E E E E Q Q W W W W W W Q Q Q Q Q W Q W Q Q ",
"qX:X:X:X=X*X#X#X@X@XY.k.o.X.O.O.+.` ~ ! ! R R R R R R R R R R R R R L L L L L H H L R ! ~  .O.O.o.k.o.o.o.o.o.o.o.o.o.o.o.o.o.o.o.o.o.O. .~ Y I 9 9 I W `  .O.v.oX+X+X$X$X-X-X;X0XqXqXfXzXzXzXzXxXxXSXHXHXHXHXHXHXFXHXFXGXJXLXKXKXKXKXKXKXKXJXJXFXHXHXSXxXlXkXqX;X$Xv.O. .Q Q Q ! Q Q Q Q Q Q E Q Q Q W Q Q Q E E E E E Q Q E W W W W W W W W W W W W W W W W W W W W W E W W W W W W W W W W W W W Q W W W W W W Q W Q W W W W W W W Y I K 9 0 3 $ q 3 5 7 h h K K K K K Y Y Y Y Y E E E E E Q W W W W W W Q W Q W W W W Q Q Q ",
"fXfXfXqX:X:X;X;X=X*X#X#X@X@XY.Y.Y.Y.o.o.X.O.O.+. .~ ! ^ R R R R R L L L L R R L L L L L L L H L L I R W ! `  .O.O.o.o.o.o.o.o.o.o.o.o.o.o.o.o.o.o.o.o.O. .~ W I h K W ~ O.o.+X+X$X-X;X0XqXUXkXzXzXxXxXSXHXHXHXHXFXFXFXGXJXLXKXKXKXKXKXKXKXKXKXJXGXGXFXHXSXxXlXkXkXUXUXUXUXdX-X$Xv.O.` Q E E E E E E E E E Q E E E E E E E E E E W W W W W W W W W Y Y Y W W W W W W W Y W W Y W W W W W W W W W W W W W W Q W Q Q W W W W W W W W W W W Y Y Y K K 7 7 7 7 9 h h K K K K K K Y Y E E Y E E E E W W W W W W Q Q Q W Q W Q Q Q Q Q ",
"zXzXfXfXfX:X:X:X;X=X=X=X*X#X#X#X@X@XY.Y.Y.Y.Y.k.o.X.X.O...O.+.] ` ~ ! ^ R R R R R L L R R R R R I L L L L L L L L L R W ~  . .O.O.o.o.o.o.o.v.v.v.oX+Xo.o.o.v.v.v.o.o.O.] ~ W Y Y Q ` O.v.+X-X;XqXUXkXlXZXSXHXFXFXGXGXJXLXKXKXLXKXKXKXKXKXKXKXKXLXJXJXGXHXxXlXlXkXUXUXUXUXUXdXdXdX8X8X8X7X-X$XoXv.O. .E E E E E E E E E E E E E E W W W W W W W W Y Y Y Y Y W W W W W W W W W W W W W W W W W W W W W W W W Q Q Q W W Q W W W W W W W W Y Y Y I K 7 7 7 7 9 h h K K K K Y Y Y Y E E Y E E W W W W W W W W W Q Q Q W Q Q Q Q Q W ",
"zXzXzXfXfXfXqX:X:X:X;X;X=X=X*X*X#X#X#X@X@X+X+XY.Y.Y.Y.Y.k.o.k.o.X.X.X.....O.O. .) ~ ~ ^ R R I I I I L R R R R R L R R R R R R R R R ^ !  .O.O.o.o.v.+X+X+X+X+X+X+X+X+X+X+X+XY.+X+X+Xv.o...O.` ~ ` ] X.Y.$X0XUXCXDXFXJXLXKXPXPXLXKXKXKXKXKXKXKXKXKXKXKXKXKXJXxXkXkXkXUXUXUXUXUXdXdXdX8X8X7X7X9X9X7X7X7X-X$X$XoXo. .` Q E E E E E E W W W Q W W W W W W W E Y Y W W W W W E W W W W W W W W W W W W W W W W W Q Q Q Q Q Q Q W W Q W W W W Y Y Y K K 7 7 7 9 h K K K K K Y Y Y Y Y E E W E E W W W W W E E W Q Q Q Q W W Q Q Q Q Q ",
"lXzXzXzXzXfXfXqX:X:X:X;X;X;X=X=X#X#X#X@X@X@X@X@X+X+X+X+XY.Y.Y.Y.Y.k.k.k.o.o.o.o.X.X.....O.O.O.+.] ~ ~ ~ W R R R R R R R R R R R R W ! ! ! ` ` ` ~ ~  . .O.o.o.Y.+X$X$X$X#X#X$X$X$X#X$X#X#X-X-X;X;X;X-X-X9X9X9X#X$X-XqXCXPXKXKXKXKXKXKXKXKXKXKXKXKXKXKXKXKXJXHXIXIXCXUXUXUXUXUXUXdXdX8X8X9X9X-X7X7X-X-X-X-X-X-X-X-X-X$X$X+XoXo.O.` Q E E E Y Y Y E Y Y E Y Y Y Y W E Y Y W W W W W W W W W W Y W W W W W W Q Q Q Q ~ Q Q Q Q Q Q Q Q Q W E Y E K K 7 7 9 9 h K K K Y Y Y Y Y Y Y E E W E E E E W W Q W W E Q Q W Q Q Q Q Q Q Q ~ ",
"xXcXzXzXzXfXfXfXqXqX:X:X:X;X;X;X=X=X#X#X#X@X@X@X@X@X@X+X+X+XY.Y.Y.Y.Y.Y.Y.Y.Y.Y.k.k.o.o.o.o.o.X.X.X.X.X.X...O.O.+.+. .~ ~ ! ! W ^ R R ^ ^ ! ! ` ` `  . .O.O.o.o.o.o.o.Y.Y.Y.W.#X;X;X:X:X:X0XqXqXkXlXZXPXJXLXKXKXKXKXLXPXPXLXKXKXKXKXKXKXKXKXKXKXKXKXKXLXJXFXIXIXkXUXUXUXUXUXdXdX8X9X-X7X7X-X-X-X-X-X-X-X-X-X$X$X$X$X$X$X$X$X$X$X$X$X$XoXv.o.O. .~ W Y Y Y Y Y Y Y Y Y Y Y Y Y Y W E W W Y W W W W W W W Q Q Q Q Q ~ ~ ~ ~ ~ ! ~ Q Q Q W E Y Y K K 7 7 9 h h K K Y Y Y Y Y Y Y Y Q Q W E W W W W W W Q Q Q Q W W W W Q ` ] ] { { ",
"xXxXcXzXzXzXzXfXfXqX:X:X:X:X;X;X;X=X=X#X#X#X#X#X#X@X@X@X+X+X+X+X+X+XY.Y.Y.Y.Y.Y.Y.Y.Y.Y.Y.Y.Y.Y.k.k.k.k.k.k.k.k.o.o.o.o.o.X.X.X.X.O.O.O.+. .~ ~ ~ ~ ~ ~  .` +.O.O.o.v.@X#X;X0XqXqX:X;X;X;X;X;X:XqXzXxXDXPXLXLXKXKXKXKXKXKXKXKXKXKXKXKXKXKXLXPXHXSXlXzXkXUXqXqXdXdX9X9X7X-X-X-X-X-X-X-X-X-X-X-X-X$X$X$X$X$X$X$X$X$X$X$X$X$X$X$X$X$X$X$X$X+X+X+X+X$X$X$X+XoXv.o.O.` ~ Y Y I Y Y Y Y Y E Y Y W Y W W W W W Q Q Q Q ~ ~ ~ ~ ~ ~ ~ ~ ! ~ Q Q Q E E K K 7 7 h h K K Y Y Y Y E E Y Y Y W W Q W E W Q W W W W Q Q ~ ] ] { X.j.j.j.X.{ { ",
"SXxXxXcXzXzXzXzXfXfXqX:X:X:X:X;X;X;X=X=X=X#X#X#X#X#X@X@X@X+X+X+X+X+XY.Y.Y.Y.Y.Y.Y.Y.Y.Y.Y.Y.Y.Y.Y.Y.Y.Y.Y.Y.Y.Y.Y.Y.Y.Y.Y.Y.Y.Y.Y.Y.U.U.Y.Y.Y.Y.k.k.k.o.X.X...O.O.........X.k.U.W.*X:XqXzXlXlXlXkXqX;X;X:X0XgXCXDXPXPXLXKXKXKXKXKXKXKXKXKXKXKXLXLXFXSXzX:X#Xo.] ` ~ `  .O.O.v.v.oXoXoXoX+XoXoXoX+X+X$XoXoXoXoXoXoXoXoXoXoXoXoXoX+XoXoXoXoXoX+X+X+X+X+X+X+X$X$X$X$X$X-X$X+XY.v.X. .Q I I I Y E W W W W Q Q ~ ~ ~ ~ ~ ` ` ` ` ` `  .` ` ~ ! W E Y K 9 9 K K Y Y Y E E Y E E E W W Q Q Q W W W W ~ ] ] { j.J.g.g.g.g.a.j.a.{ { { { ",
"SXxXxXxXlXzXzXzXfXfXqXqX:X:X:X:X;X;X;X=X=X#X#X#X#X#X@X@X@X@X@X@X+X+X+X+X+X+XY.Y.Y.Y.Y.Y.Y.Y.Y.Y.Y.Y.Y.Y.Y.Y.Y.Y.+X+XY.Y.Y.+X+X@X@X@X@X@X@X#X#X@X#X#X#X#X#X#X*X*X*X*X*X*X#X~.~.R.T.Y.U.T.R.R.W.~.#X;X;X;X;X;X#X#XW.Y.@X;X0XkXPXKXKXKXKXKXKXKXKXKXKXLXLXFXSXlXkXqX;X-X$XY.o. .~ Y 9 9 K E ~  .O.O.O.o.o.o.o.o.o.o.o.o.v.o.o.v.v.v.v.v.v.oXoXv.oXoXoX+X+X+X+X+X+X$X+X$X#X$X-X;X;X;X:XqXqX0X:X;X#XY.X.~ T W ~ ~ ~ ~ ~ ` `  . . . . . . . .` ! ! Q Y K 9 K K Y Y E E E W W E E E W W Q ~ ] { X.g.H.L.L.K.K.J.J.g.g.g.g.a.a.{ { { X.X.",
"HXSXxXxXcXzXzXzXzXfXfXfX:X:X:X:X:X:X;X;X=X#X#X#X#X#X#X#X@X@X@X@X@X@X+X+X+X+XY.Y.Y.Y.Y.Y.Y.Y.Y.Y.Y.Y.Y.Y.+XY.Y.Y.+X+X+X+X@X@X@X@X@X@X#X#X#X#X#X*X*X*X*X=X=X=X:X:X:X:XqXjXjXfXzXzXzXzXzXzXzXzXfXqXqX:X;X*X#XW.Y.Y.Y.Y.Y.Y.Y.JXKXKXKXKXKXKXKXKXKXKXLXPXPXDXZXkXqX0X0X0X;X;X-X$X$X+X+X+Xo.O.O. .~ I I K K K W ! `  . .O.O.O.O.O.O.o.O.o.o.o.o.o.o.v.v.v.v.v.v.+X+X+X+X+X+X@X$X-X-X;X;X:X:XqXzXzXcXcXxXHXHXSXlXsX8X$XY...] ] O.O.O.O.O.O. .` ` ! Q W K h K Y Y W Q W W E Y Q ] { j.H.I.P.P.P.K.L.K.K.K.K.K.J.J.g.a.a.a.a.a.{ { { { { ",
"HXHXxXxXxXlXzXzXzXfXfXqXqXqX:X:X:X:X;X;X;X=X=X#X#X#X#X#X#X@X#X@X@X@X@X@X+X+X+X+X+X+X+X+XY.Y.Y.Y.Y.+X+X+X+X+X+X@X+X@X@X@X@X@X@X#X@X#X#X#X*X#X*X=X=X=X;X;X:X:X:XqXqXjXfXzXzXzXvXcXxXxXSXHXHXFXGXJXJXJXJXJXJXPXPXDXZXzX:X*X;XKXKXKXKXKXKXKXKXKXKXKXKXKXKXKXJXJXFXZXkXqX;X#X#X+X+X+X+X+X+X+X+X+X+X+X+X+Xo.O.O.~ ~ I I 9 9 K Y Q ~ `  . . .O.O.O.O.O.O.o.o.o.v.v.oX+X+X+X+X+X#X#X*X;X;X;X:XqXkXzXzXxXxXHXGXJXLXKXKXKXKXLXPXDXzXqX*XW.X...O.] ` ~ Q W K K Y Y W Q ] X.H.T.Q.^.^.)./././././.P.P.I.K.K.I.K.K.J.J.g.a.a.a.a.a.a.{ { { { ",
"HXHXxXxXxXcXlXzXzXzXfXfXfXqX:X:X:X:X:X;X;X;X=X*X#X#X#X#X#X#X@X@X#X@X@X@X@X+X+X+X+X+X+X+X+X+XY.Y.+X+X+X+X+X+X@X@X@X@X@X@X@X#X#X#X#X#X#X*X*X*X=X=X;X:X:X:X:X:XjXfXfXzXzXzXvXcXxXxXSXHXFXGXJXJXLXLXKXKXKXKXKXKXKXKXKXLXJXcXcXKXKXKXLXHXFXPXPXPXPXPXPXPXPXPXPXFXFXDXZXlXlXkXpX0X9X;X$X+X+Xo.o.o.O.O.O.o.o.o.oX XXXo.o.o.o.o.O. .~ ^ I I K K W Q ~  . .O.O.O.O.O.o.o.v.v.Y.+X+X#X#X*X;X;X:XqXzXzXzXxXSXFXGXLXKXKXKXKXKXKXKXLXJXGXHXSXxXzXzX:X*XY.X.] ` O.U.Y.^.~.`.'.'.).).).).).)./././././.P.I.I.I.I.K.J.J.J.a.a.a.a.a.a.{ { { { { ",
"HXHXSXSXxXxXlXzXzXzXfXfXfXfXqX:X:X:X:X:X;X;X;X=X#X#X#X#X#X#X#X@X#X@X@X@X@X@X@X+X+X+X+X+X+X+X+X+X+XY.+X+X@X@X@X@X@X@X@X@X#X#X#X#X#X#X*X*X=X=X=X;X:X:X:X:X:XjXjXfXzXzXzXvXcXxXxXHXHXFXGXJXLXKXKXKXKXKXKXKXKXKXKXKXKXKXKXHXSXKXKXKXKXSXlXzXfX:X:X+Xo.+X$X$X$X$X$X=X=X;X9X9X;X9X;X9X;X=X-X$X$X$X@X+X+X Xo.O.O.O.O.O.O.O.O.o.o. X X Xo.o.o.o.O.O.` ~ W I K I W ~ `  .O.o.o.v.v.Y.+X#X#X;X;X:XqXzXzXxXSXFXJXKXKXKXKXKXKXKXKXKXLXGXFXHXSXxXzXzXzXkXqX:X;X*X*X&X`.`.`.`.`.`.'.'.'.'.'.^./././.P.I.I.I.K.J.J.J.J.g.a.j.a.a.a.a.a.d.d.( d.",
"FXHXHXSXxXxXxXzXzXzXzXfXfXfXqXqXqX:X:X:X;X;X;X=X=X#X#X=X#X#X#X#X@X@X@X@X@X@X@X@X+X+X@X+X+X+X+X+X+X+X+X+X@X@X@X@X@X@X#X#X#X#X#X#X#X*X*X*X=X=X;X;X:X:X:X:X:XjXfXfXzXzXzXcXxXxXHXHXFXGXJXLXKXKXKXKXKXKXKXKXKXKXKXKXKXKXKXJXSXKXKXKXKXLXLXJXPXAXZX9X+X Xo.O.O. . .| | |  .O.O.O. X X X X XoX+X+X+X+X+X+X+X+X+X+X+X+X Xo.o.O.O.+.O.O.+.+.O.O.o.o.XXo.o.o.o.o.X.O.] ) ~ ~ ~ ~ ~ ] O.o.Y.+X#X-X;XqXzXxXSXFXJXKXKXKXKXKXKXKXKXKXLXLXJXJXGXFXHXxXzXzXUXqX:X:X:X:X&X&X&X`.`.`.`.'.'.'.).^././.P.I.I.K.J.J.J.a.a.a.{ } d.t.3.4.4.4.4.4.D u.",
"FXHXHXHXSXxXxXcXzXzXzXzXfXfXfXqXqXqXqX:X;X;X;X;X=X=X#X=X#X#X#X#X@X@X#X@X@X@X@X@X@X@X@X@X+X+X+X@X+X+X+X@X@X@X@X@X@X@X@X#X#X#X#X#X#X*X*X=X=X=X;X:X:X:XqXjXjXfXfXzXzXzXzXcXxXSXHXFXGXJXLXKXKXKXKXKXKXKXKXKXKXKXKXKXKXKXKXLXFXKXKXKXKXKXKXKXKXKXKXKXKXLXPXAXVXiX,XoXO. .| | | | | | | | | | | |  .O.O. X X X X X Xo.o.o.o.o.k.o.o. Xo.o.o.o.O.+.+.+.+.O.O...X.o.k.Y.Y.Y.Y.Y.v.o.X...] ] ] ] ..Y.#X0XzXHXJXKXKXKXKXKXKXKXKXKXKXKXKXKXLXLXLXJXHXzXkXUXqX:X:X:X:X:X&X`.`.`.'.'.).^.^./.I.I.K.K.K.a.a.d.d.D 3.t.D n 4.4.4.4.5.5.4.5.3.5.",
"GXFXHXHXSXSXxXxXlXzXzXzXzXfXfXfXfXqX:X:X:X;X;X;X;X=X=X=X=X#X#X#X#X@X@X@X@X#X@X@X@X@X@X@X+X+X@X@X+X@X@X@X@X@X#X#X#X#X@X#X#X#X#X#X*X=X=X=X=X;X;X:X:X:XqXjXfXfXzXzXzXzXcXxXSXHXFXGXGXLXKXKXKXKXKXKXKXKXKXKXKXKXKXKXKXKXKXKXKXKXKXKXKXKXKXKXKXKXKXKXKXKXKXKXKXKXKXKXLXPXAXkXiX9X$X XO.| | | | P P | P P P P | | | | O.O.O.O.o.o.o.o. Xo.o. Xo.o.Y.k.k.Y.Y.k.o.X.....X.X.X.X.o.Y.@X#X#X*X;X;X;X:X;X0X0X0XpXVXDXPXKXKXKXKXKXKXKXLXKXKXKXKXKXLXHXzXkXUXqX:X:X:X*X&X&X`.'.'.'.^./.P.K.[.a.d.u.u.4.u.3.5.4.4.5.u.3.B 5.5.5.5.5.5.4.5.3.u.",
"GXFXFXHXHXSXSXZXxXlXlXzXkXkXkXfXfXfXqXqX:X:X;X;X;X;X=X=X#X#X#X#X#X#X@X@X@X#X#X@X@X@X@X@X@X@X@X@X@X@X@X@X@X@X@X@X#X@X@X#X#X#X#X#X*X=X;X;X;X;X:X:X:X:XjXfXfXzXzXzXzXvXcXxXHXHXFXGXJXKXKXKXKXKXKXKXKXKXKXKXKXKXKXKXKXKXKXKXKXKXKXKXKXKXKXKXKXKXKXKXKXKXKXKXKXKXKXKXLXJXGXFXHXSXxXxXlXkXsX8X-X$X+X X.X| | | | | | | | | | | | | | |  .O.O.O. Xo.o.o.o.o.o.o.k.+X+X+X+X@X#X#X@X#X@X@X#X#X=X;XqXZXPXLXKXKXKXKXKXKXKXKXKXKXKXKXKXLXJXJXJXPXFXZXzXUXqX;X-X*X*X*X#X^.^./.I.[.[.s.d.4.4.4.C 5.5.6.5.5.4.5.4.5.V.V.5.C 5.5.5.5.6.5.4.5.3.5.",
"GXGXFXHXHXSXSXSXZXlXlXlXlXlXkXkXgXgXgXqXqX0X0X0X9X;X;X;X=X=X=X#X#X#X#X#X#X#X@X#X@X@X@X@X@X@X@X@X@X@X@X@X@X@X@X@X@X#X#X#X#X*X*X*X=X=X;X;X;X:X:X:X:X:XjXfXfXzXzXzXzXcXxXxXHXHXFXGXJXKXKXKXKXKXKXKXKXKXKXKXKXKXKXKXKXKXKXKXKXKXKXKXJXHXHXHXFXFXFXFXPXFXPXPXPXPXPXFXFXHXHXxXxXxXcXlXzXzXzXzXfXqX:X:X9X;X;X-X$X+X X X.X .| | | | | | | | | | | |  . .O.o. X X X X Xk.o.Y.+X@X#X=X;X;XqXkXlXZXSXFXPXLXKXKXKXKXKXKXKXKXKXKXKXKXKXJXSXzXjX&X^.T.J.U.Y.Y.Y.H.J.j.{ t.3.3.4.4.;.5.5.6.6.5.4.V.;.V.6.V.5.G.5.5.S.G.V.3.V.6.5.6.V.V.5.5.4.5.",
"GXGXFXHXHXDXSXSXZXZXlXlXlXlXkXkXkXgXgXpXqXqX0X0X0X9X9X;X9X;X;X;X=X=X-X=X$X$X#X$X#X@X#X#X@X@X#X@X@X@X@X@X@X@X#X@X@X#X#X#X#X*X*X=X=X=X;X;X;X:X:X:X:XqXfXfXfXzXzXzXzXcXxXSXHXHXGXGXJXKXKXKXKXKXKXKXKXKXKXKXKXKXKXKXKXKXKXKXLXLXJXHXvXjXjXjXjXjXjXjXjXjXjXjXjXjXjXjXjXjXjXjXjXjXjX:X:X:X:X:X:X:X:X;X=X=X=X=X#X#X#X#X#X$X$X+X+X X X X X XO.O.O.O.O. . .O.O.O.O.o. X X XoX+X+X@X#X#X#X=X;XqXzXSXPXLXKXKXKXKXKXKXKXKXKXKXKXKXKXKXLXGXHXxXzX:X=X~.U.X.[ / i t B B 2.:.;.6.6.V.V.V.V.V.V.;.V.6.6.V.V.f.5.5.G.{.{.V.4.V.V.V.V.V.V.5.V.4.5.",
"GXGXFXFXHXDXDXSXZXZXCXlXlXlXlXkXkXkXgXsXpXqX0X0X0X0X0X9X9X9X9X9X;X;X;X,X,X,X-X$X$X#X$X$X$X$X#X#X$X#X@X@X#X@X@X#X#X#X#X#X#X#X#X=X;X;X;X;X:X:X:X:XqXfXfXzXzXzXzXzXcXcXxXSXHXFXGXJXLXKXKXKXKXKXKXKXKXKXKXKXKXKXKXKXKXKXKXKXJXHXHXvXjXjXjXjX:X:X&X&X&X%X~.Q.Q.Q.Q._.%X*X*X*X*X*X*X*X*X*X%X%X%X%X%X#X#X#X#X#X#X#X@X@X@X@X@X@X@X@X@X+X+X+X+X+X+X+X+X+X+X+X+X+X+X+X+X+X+XY.Y.+X@X@X#X#X=X=X=X;X:XfXZXPXLXKXKXKXKXKXKXKXKXKXKXKXKXKXLXFXlXzX:X*X_.R.T.U.h./ C 4.2.5.6.6.V.V.S.S.V.S.S.S.6.V.6.V.S.S.5.{.S.{.{.{.S.4.S.V.V.V.V.V.V.V.4.V.",
"GXGXFXFXHXHXDXSXSXZXZXlXlXlXkXkXkXkXgXgXpXpXqX0X0X0X8X0X9X9X9X9X9X;X;X,X,X-X-X-X-X-X$X,X=X$X$X=X$X$X$X-X-X=X=X=X=X=X=X=X=X=X;X;X;X;X;X:X:X:X:X:XqXfXfXzXzXzXzXzXcXxXxXHXHXFXGXJXLXKXKXKXKXKXKXKXKXKXKXKXKXKXKXKXKXKXKXKXJXHXFXLXJXFXHXSXxXzXfX:X&X_.Q.Q.W.@XW.W.W.W.!.!.!.U.Y.k.k.Y.U.U.!.!.!.!.!.!.W.!.!.!.!.!.!.!.U.Y.!.!.U.U.!.!.Y.!.@X@X@X@XW.@XW.@X#X#X#X*X=X;X;X:X:X:X:X;X;X*X#X@X@XW.W.Y.Y.#X0XsXCXDXPXPXLXKXKXLXLXLXLXJXJXHXxXzXjX:XE.Z M B 4.6.4.V.V.S.S.S.S.F.S.S.S.S.V.V.S.V.S.{.5.V.{.|.|.|.{.5.S.S.V.S.V.V.V.V.5.V.",
"GXGXFXFXHXHXDXSXSXZXZXZXlXlXkXkXkXkXkXgXsXpXqX0X0X0X8X8X9X9X9X9X9X9X9X,X;X;X;X;X,X-X$X,X-X-X-X-X-X-X-X-X=X-X=X4X;X;X;X=X;X;X;X;X;X;X:X:X0XqXqXqXfXfXzXzXzXzXzXzXxXxXxXHXHXFXGXJXLXKXKXKXKXKXKXKXKXKXKXKXKXKXKXKXKXKXKXKXJXHXFXKXKXKXKXKXKXLXLXJXGXSXxXfXqX:X*X%X#X@X@X!.!.U.Y.Y.k.k.k.k.k.k.k.k.k.k.k.k.k.k.k.k.k.k.k.k.U.U.U.U.U.U.Y.U.U.U.U.!.!.!.W.Q.Q.#X%X&X&X:X:X:XjXzXzXcXxXxXHXFXPXDXAXAXVXVXgXqX0X;X;X#X@X#X=X=X;X;X;X=X=X;X=X*X:X`.:Xi i V ;.V.6.S.S.S.F.F.F.}.S.F.F.S.V.S.F.S.S.{.5.S.|.|.|.|.{.5.{.S.S.S.{.S.V.G.5.V.",
"GXGXFXFXHXHXDXDXSXZXZXZXCXlXlXkXkXkXkXgXgXsXpXpX0X0X8X8X8X9X9X9X9X9X9X9X9X4X4X;X4X,X$X,X,X-X,X,X,X,X,X,X4X4X4X4X4X9X9X9X;X;X;X9X9X:X0X0XqXqXqXfXfXfXzXzXzXzXzXzXxXSXSXHXHXFXGXJXKXKXKXKXKXKXKXKXKXKXKXKXKXKXKXKXKXKXKXKXLXHXGXKXKXKXKXKXKXKXKXKXKXKXJXJXFXHXSXxXzXzXfX:X=X=X#X@X@XY.U.Y.k.k.k.k.k.k.k.k.k.k.k.k.k.k.k.k.k.k.k.k.k.k.k.k.k.k.k.k.T.U.T.T.T.T.T.E.Q._.'.&X:X:XjXzXzXxXHXGXLXKXKXKXKXKXKXKXKXKXKXKXLXPXDXCXqX=Xk.) T M ) Y.:XcXxXu s C 6.V.6.S.S.F.F.F.F.D.F.F.F.{.V.F.F.}.S.|.4.|.}.}.}.|.S.5.{.S.S.S.{.{.S.{.5.V.",
"GXGXFXFXFXHXDXDXSXZXZXZXCXCXlXkXkXkXkXkXgXsXpXpXpXiX8X8X8X9X9X9X9X9X9X9X9X4X4X4X4X4X,X,X,X,X,X,X,X,X,X4X;X;X4X4X9X9X9X9X;X9X9X9X9X0X0X0XqXqXqXfXfXfXzXzXzXlXlXlXxXSXHXHXFXGXGXLXKXKXKXKXKXKXKXKXKXKXKXKXKXKXKXKXKXKXKXKXLXFXGXKXKXKXKXKXKXKXKXKXKXKXKXLXLXJXGXFXHXSXxXlXlXzXfXqX:X:X=X=X#X#X@X@X@X@X@XY.Y.Y.k.k.k.k.k.k.k.k.k.k.k.k.k.j.j.j.k.j.k.k.h.h.h.h.T.T.T.R.E.Q.(._.'.&X&X:XjXvXxXFXJXLXKXKXKXKXKXKXKXKXKXKXKXKXKXKXKXLXPXDXCXlXHXFXvXi Z 2.6.S.6.F.F.F.D.D.D.D.F.F.}.|.6.D.S.S.|.{.5.}.}.}.}.|.S.5.{.S.S.S.|.{.S.G.5.S.",
"GXGXFXFXFXHXDXDXSXZXZXZXCXCXlXlXkXkXkXkXgXgXsXpXpXiXiX8X8X8X8X9X9X9X9X9X9X9X9X4X4X,X,X,X,X,X,X,X,X,X,X,X,X4X4X9X9X9X9X9X9X9X0X8X0X0X0XqXqXqXfXfXgXkXkXkXlXlXlXxXSXSXHXHXFXGXJXJXKXKXKXKXKXKXKXKXKXKXKXKXKXKXKXKXKXKXKXKXKXJXJXKXKXKXKXKXKXKXKXKXKXKXKXKXKXLXJXJXGXFXHXSXxXxXlXzXzXfXqX:X:X;X;X;X;X=X*X*X#X#X#X@X@X@X@X+XY.Y.k.k.k.k.k.k.k.k.k.h.k.k.k.k.h.k.h.h.h.h.h.h.T.R.E.(._.`.&X:XjXjXzXzXSXFXPXJXLXKXKXKXKXKXKXKXKXKXKXKXKXKXKXJXGXFXxXp C 4.S.S.6.F.F.D.D.D.D.D.F.D.D.}.S.S.F.F.S.|.5.}.}.}.|.}.F.5.F.S.S.{.|.S.S.{.5.S.",
"GXGXFXFXFXHXDXDXDXSXZXZXZXCXCXlXkXkXkXkXgXgXsXpXpXpX0X8X8X8X8X8X9X9X9X9X9X9X9X9X4X,X,X,X>X,X4X4X,X4X4X,X4X4X9X9X9X9X9X9X9X0X8X0X0X0XqXqXqXqXgXgXgXkXkXkXlXlXxXSXSXSXHXFXFXGXGXLXKXKXKXKXKXKXKXKXKXKXKXKXKXKXKXKXKXKXKXKXKXLXJXKXKXKXKXKXKXKXKXKXKXKXKXKXKXKXLXJXGXFXHXHXSXxXxXlXlXzXfXfXqX:XqX0X:X:X;X;X=X=X=X=X*X#X#X#X@X@X@X@X@X@X@X!.@X@X!.!.U.U.U.U.U.U.T.h.h.h.k.h.h.T.L.T.T.E.(.(.).'.`.:X:XjXfXzXzXxXHXFXFXJXJXJXPXPXPXPXFXFXFXHXcXcXxXn 1.6.S.S.6.F.D.D.D.D.D.D.F.D.D.}.S.D.D.D.F.}.V.}.}.|.|.}.F.5.F.S.S.{.|.S.S.{.5.S.",
"JXGXFXFXFXHXDXDXDXSXZXZXZXCXCXCXkXkXkXkXgXgXsXsXpXpXiXiX8X8X8X8X8X9X8X9X9X9X9X9X4X;X,X,X,X,X,X,X4X4X4X4X9X9X9X9X9X9X9X9X8X8X8X8X0XqXqXqXqXpXgXgXgXkXkXkXlXCXZXSXSXSXHXFXFXGXJXLXKXKXKXKXKXKXKXKXKXKXKXKXKXKXKXKXKXKXKXKXKXKXJXKXKXKXKXKXKXKXKXKXKXKXKXKXKXKXKXLXJXGXFXHXHXSXSXxXlXzXzXfXfXfXqXqXqX0X:X;X;X;X=X=X=X=X=X=X=X#X#X#X#X#X#X#X#X#X*X*X%X#X%X%X%X%X*X&X&X%X%X%X%X%X%X_.%X%X&X&X`.'.'.'.`.`.`.&X:X:X:X:X:X:XjXjXjXjXjXjXjXjXjXjXjXcXvXr 1.6.S.F.6.F.D.D.D.D.D.D.D.D.D.D.S.D.D.D.D.F.V.}.}.}.}.}.F.6.F.F.S.{.|.{.S.S.6.S.",
"JXGXFXFXFXHXDXDXSXSXZXZXZXCXCXCXkXkXkXkXgXgXgXsXpXpXiXiXiX8X8X8X8X8X8X9X9X9X9X9X9X9X;X,X4X4X,X9X9X9X4X4X4X9X9X9X9X9X9X9X8X8X0X0X8X0XqXqXqXpXgXgXgXkXkXkXkXlXxXSXSXHXHXFXGXGXJXJXKXKXKXKXKXKXKXKXKXKXKXKXKXKXKXKXKXKXKXKXKXKXJXKXKXKXKXKXKXKXKXKXKXKXKXKXKXKXKXLXJXGXGXFXHXSXSXxXxXlXzXzXzXfXfXfXfXqX:X:X;X;X;X;X=X=X=X=X=X=X=X=X=X=X=X=X=X=X=X=X=X=X=X=X;X:X:X:XjXjXjXjXfXzXzXzXcXxXxXHXFXHXSXSXSXxXlXzXzXzXjXjX:X`.`.`.'.'.).).].].].s.`.GXxXp 2.6.S.F.6.D.D.D.D.D.D.D.F.D.D.D.S.D.S.D.D.F.V.}.}.}.}.}.F.6.S.F.F.F.|.|.S.V.6.S.",
"JXGXFXFXHXHXDXDXDXSXZXZXZXZXCXCXkXkXkXkXkXgXgXsXsXpXiXiXiX8XiX8X8X8X9X9X9X9X9X9X9X9X4X,X4X4X9X9X9X9X9X9X9X9X9X9X9X9X9X8X8X8X8X0X0XpXpXpXpXfXgXgXgXkXkXgXgXlXlXSXSXHXHXHXFXGXJXJXLXKXKXKXKXKXKXKXKXKXKXKXKXKXKXKXKXKXKXKXKXKXLXKXKXKXKXKXKXKXKXKXKXKXKXKXKXKXKXLXJXJXGXFXHXHXSXSXxXlXlXkXkXkXkXgXgXfXqX0X0X0X;X;X;X=X=X=X=X=X=X=X=X=X=X=X=X=X;X;X;X;X:X:X:X:XjXfXzXzXzXzXvXvXcXxXHXFXGXJXLXLXLXLXKXKXKXLXLXLXLXLXLXJXFXSXcXzXjX:X&X`.`.s.vXzX&Xd 4.6.F.F.S.D.D.D.D.D.D.D.D.D.D.D.F.F.S.F.D.F.S.}.}.}.}.}.F.6.S.F.S.S.|.|.S.V.6.{.",
"JXGXFXFXFXHXDXDXDXSXZXZXZXZXCXCXCXkXkXkXkXkXgXsXsXpXpXiXiXiX8X8X8X8X9X9X9X9X9X9X9X9X4X,X4X9X9X9X9X9X9X9X9X9X9X9X9X9X9X8X8X0X8X0XiXpXpXpXgXgXgXgXkXkXkXgXgXkXlXSXSXHXHXFXGXGXJXJXLXKXKXKXKXKXKXKXKXKXKXKXKXKXKXKXKXKXKXKXKXKXLXKXKXKXKXKXKXKXKXKXKXKXKXKXKXKXKXLXLXJXGXFXHXHXSXSXZXlXlXlXkXkXkXkXgXfXqXqX0X0X0X;X;X4X=X=X=X=X=X=X=X=X=X=X=X;X;X;X:X:X:X:X:XjXjXzXzXzXvXvXcXxXxXHXFXGXLXKXKXKXKXKXKXKXKXKXKXKXKXKXKXKXKXKXLXJXGXFXHXcXvX' :Xa.`.B 4.6.F.F.S.D.D.D.D.D.D.D.D.D.D.D.F.Z.S.F.D.F.S.}.}.}.}.}.F.5.S.F.S.S.|.|.S.V.6.S.",
"GXFXFXFXFXFXDXDXDXSXZXZXZXZXCXCXCXkXVXkXkXkXkXsXsXpXpXiXiXiXiXiX8X8X8X8X8X9X9X9X9X9X9X,X9X9X9X9X9X9X9X9X9X9X9X9X9X9X9X8X8X0X8XiXpXpXpXgXgXgXgXgXgXgXgXgXgXgXlXZXSXHXHXFXGXGXJXJXLXKXKXKXKXKXKXKXKXKXKXKXKXKXKXKXKXKXKXKXKXKXLXKXKXKXKXKXKXKXKXKXKXKXKXKXKXKXKXLXJXJXGXGXFXHXSXSXZXZXlXlXlXlXkXkXkXgXfXqXqX0X0X0X;X;X4X=X;X;X=X=X=X=X=X=X;X;X;X:X0X:X:X:XqXjXfXzXzXvXcXcXcXxXHXHXGXGXLXKXKXKXKXKXKXKXKXKXKXKXKXKXKXKXKXKXKXKXLXJXGXHXHX' :XJ._.B 4.6.F.F.V.D.D.D.D.D.D.D.D.D.D.D.F.F.Z.D.D.F.S.}.}.}.}.}.}.5.S.F.S.F.|.|.S.V.V.S.",
"GXFXFXFXFXHXDXDXDXSXZXZXZXZXCXCXCXkXkXkXkXkXgXsXsXsXpXiXiXiXiXiX8X8X8X8X8X9X9X9X9X9X9X4X9X9X9X9X9X9X9X9X9X9X9X9X9X9X8X8X8X8X0XiXpXpXpXgXgXgXgXkXgXgXgXgXgXkXlXlXSXSXHXFXGXGXJXJXLXKXKXKXKXKXKXKXKXKXKXKXKXKXKXKXKXKXKXKXKXKXJXKXKXKXKXKXKXKXKXKXKXKXKXKXKXKXKXLXJXJXGXGXFXHXSXSXSXZXlXlXlXlXkXlXkXgXgXqXqX0X0X0X9X;X;X;X;X;X;X;X;X;X;X;X;X;X:X0X0X0X0XqXfXfXfXzXzXcXcXxXxXHXHXHXGXJXKXKXKXKXKXKXKXKXKXKXKXKXKXKXKXKXKXKXKXKXKXLXJXGXHX' jXL._.2.V.6.F.F.V.D.D.D.D.D.D.D.D.D.D.D.F.D.S.D.F.}.S.}.}.}.}.}.}.5.S.F.S.F.|.|.S.V.V.{.",
"FXFXFXFXFXHXDXDXDXSXSXZXZXZXCXCXCXCXVXkXkXkXkXgXgXsXpXpXiXiXiXiXeX8XeX8X8X8X9X9X9X9X9X4X9X9X9X9X9X9X9X9X9X9X9X9X8X8X8X8X8X0X0X0XiXpXpXgXgXgXgXkXgXgXkXkXkXkXkXlXZXDXHXFXGXGXJXJXLXLXKXKXKXKXKXKXKXKXKXKXKXKXKXKXKXKXKXKXKXKXJXKXKXKXKXKXKXKXKXKXKXKXKXKXKXKXLXLXJXJXGXGXFXHXHXSXSXZXlXlXlXlXlXlXlXkXgXfXqXqX0X0X0X9X;X9X;X;X;X;X;X;X;X;X;X:X0X0X0XqXqXqXfXfXzXlXzXxXxXxXxXHXHXHXGXJXKXKXKXKXKXKXKXKXKXKXKXKXKXKXKXKXKXKXKXKXKXKXLXGXGX[ jXE.`.5.{.V.F.D.V.D.D.D.D.D.D.D.D.D.D.D.|.}.}.}.F.}.S.}.F.F.F.}.}.5.S.F.S.S.}.F.S.V.V.S.",
"FXFXFXFXFXDXDXDXSXZXZXZXZXZXCXCXCXkXkXkXkXkXkXgXgXsXsXpXiXiXiXiXiX8XeX8X9X8X9X9X9X9X9X9X9X9X9X9X9X9X9X9X9X9X9X9X8X8X8X8X8X0X0XpXpXpXpXgXgXgXgXgXkXkXkXkXkXkXlXlXZXSXHXHXGXGXGXJXJXLXKXKXKXKXKXKXKXKXKXKXKXKXKXKXKXKXKXKXKXKXJXKXKXKXKXKXKXKXKXKXKXKXKXKXKXKXKXLXJXJXGXGXFXHXHXSXSXZXZXlXlXlXlXlXkXkXgXgXqXqX0X0X0X9X9X9X9X9X;X9X9X;X;X;X:X0X0XqXqXqXqXfXfXfXzXlXlXxXxXxXxXHXHXFXGXJXKXKXKXKXKXKXKXKXKXKXKXKXKXKXKXKXKXKXKXKXKXKXLXGXGXa.jX'.`.{.{.V.F.D.S.D.D.D.D.D.D.D.D.D.D.D.F.}.}.}.F.F.S.}.D.}.}.}.}.6.S.F.S.S.F.S.S.V.V.S.",
"FXFXFXFXHXDXDXDXSXZXZXZXZXZXCXCXCXkXVXVXkXkXkXgXgXsXsXiXiXiXiXiXiXeX8X8X9X8X9X8X9X9X9X9X9X9X9X9X9X9X9X9X9X9X8X8X8X8X8X8XiX8XiXpXpXpXpXgXgXkXgXgXgXkXkXkXlXkXlXlXZXSXDXHXFXGXGXJXJXJXKXKXKXKXKXKXKXKXKXKXKXKXKXKXKXKXKXKXKXKXJXKXKXKXKXKXKXKXKXKXKXKXKXKXKXKXLXJXJXJXFXGXFXFXHXSXSXZXZXlXlXlXlXlXkXkXkXgXgXqX0X0X0X0X9X9X9X9X9X9X9X9X;X0X0X0X0XqXfXfXfXfXfXfXzXzXlXxXxXxXxXHXHXFXGXJXLXKXKXKXKXKXKXKXKXKXKXKXKXKXKXKXKXKXKXKXKXKXLXJXGXi.jX'.|.S.{.S.F.D.S.D.D.D.D.D.D.D.D.D.D.D.S.}.}.F.F.}.S.}.}.}.}.}.}.6.S.F.S.S.F.S.S.6.S.S.",
"FXFXFXFXFXDXDXDXSXSXZXZXZXZXCXCXCXCXVXVXVXkXkXgXsXsXpXpXiXiXiXiXiXeX8X8X8X8X9X8X9X9X9X9X9X9X9X9X9X9X9X9X9X9X9X8X8X8X8X8X8X0XiXpXpXpXpXgXgXgXgXgXkXkXkXlXlXlXlXlXZXZXSXHXFXGXGXJXJXJXLXKXKXKXKXKXKXKXKXKXKXKXKXKXKXKXKXKXKXKXPXKXKXKXKXKXKXKXKXKXKXKXKXKXKXKXLXJXJXJXFXFXFXHXHXSXSXZXZXlXlXlXlXlXkXkXkXgXgXpXqX0X0X9X9X0X0X0X0X9X0X9X9X:X0X0X0XqXfXfXfXfXfXfXzXlXlXxXxXxXSXHXHXFXFXGXLXKXKXKXKXKXKXKXKXKXKXKXKXKXKXKXKXKXKXKXKXKXLXJXGXi.jX`.|.S.{.S.F.D.S.D.D.D.D.D.D.D.D.D.D.D.S.}.}.F.}.}.S.}.}.D.D.}.}.6.S.F.S.S.F.S.S.6.S.{.",
"FXFXFXHXFXDXDXDXSXSXZXZXZXZXCXCXCXCXVXkXVXVXkXgXgXsXsXsXsXiXiXiXiXiX8X8X8X8X8X8X9X9X9X9X9X9X9X9X9X8X8X8X8X9X8X8X8X8X8X8X8X0XiXpXqXpXpXgXgXgXgXgXkXkXkXkXlXlXlXlXZXZXSXDXHXFXGXJXJXJXJXKXKXKXKXKXKXKXKXKXKXKXKXKXKXKXKXKXKXKXFXKXKXKXKXKXKXKXKXKXKXKXKXKXKXKXLXJXJXGXGXFXHXHXHXSXSXZXZXlXlXCXCXCXlXkXkXgXgXpXpX0X0X0X0X0X0X0X0X9X0X0X0X0X0X0XqXqXfXfXfXfXfXfXzXlXlXxXxXxXSXSXHXHXFXGXJXKXKXKXKXKXKXKXKXKXKXKXKXKXKXKXKXKXKXKXKXKXLXGXGX{ jX`.|.S.{.S.F.D.S.}.D.D.D.D.D.D.F.D.D.D.|.S.S.}.}.|.S.}.}.S.D.}.}.6.S.F.S.S.F.S.S.6.S.{.",
"FXFXFXHXDXDXDXDXSXZXZXZXZXZXCXCXCXCXCXkXVXVXVXgXgXgXsXsXsXpXiXiXiXiXiX8XeX8X8X8X9X9X9X9X9X9X9X9X8X9X9X9X8X8X8X8X8X8X8X8X0X0XpXpXpXpXgXgXgXgXkXkXgXkXkXkXlXlXkXlXCXZXSXDXHXFXGXGXJXJXJXLXKXKXKXKXKXKXKXKXKXKXKXKXKXKXKXKXKXKXFXLXKXKXKXKXKXKXKXKXKXKXKXKXKXLXLXJXJXGXGXFXHXHXSXSXSXZXZXlXCXCXCXCXlXkXkXkXgXpXpX0X0X0X0X0X0X0X0X0X0X0X0X0X0X0XqXfXfXfXfXfXfXfXzXzXlXxXxXxXxXSXHXHXFXGXJXKXKXKXKXKXKXKXKXKXKXKXKXKXKXKXKXKXKXKXKXKXLXGXGXi.jXjX|.S.|.{.F.D.S.D.D.D.D.D.D.D.F.D.D.F.{.F.F.}.}.|.S.S.S.}.}.}.}.6.S.F.S.S.F.S.S.6.S.{.",
"FXFXFXHXDXDXSXDXSXZXZXZXZXZXCXCXCXCXVXVXkXVXkXkXgXgXsXsXsXpXiXiXiXiXiXiXeXeX8X8X8X9X9X9X9X9X9X8X8X8X8X8X8X8X8X8X8X8XiX8XiXiXpXpXpXpXgXgXkXgXkXkXkXkXkXkXlXlXlXlXCXZXSXSXHXFXFXGXJXJXJXLXLXKXKXKXKXKXKXKXKXKXKXKXKXKXKXKXKXKXFXLXKXKXKXKXKXKXKXKXKXKXKXKXKXLXJXJXGXGXGXFXHXHXSXSXSXZXZXCXCXCXCXCXlXkXkXkXgXsXpX0X0X0X0X0X0X0X0X0X0X0X0X0X0X0XqXqXfXfXfXfXfXzXzXzXlXxXxXxXxXxXSXHXFXGXJXLXKXKXKXKXKXKXKXKXKXKXKXKXKXKXKXKXKXKXKXKXJXGXGX{ zXjX|.{.|.{.F.D.S.}.D.D.D.D.D.D.F.D.D.F.S.}.}.F.}.|.S.F.}.D.D.}.}.6.S.S.S.S.S.S.S.6.S.S.",
"FXFXHXHXDXDXDXDXSXZXZXZXZXZXCXCXCXCXVXVXkXkXkXgXgXgXsXsXpXpXpXiXiXiXiXiXiXiXiX8X8X8X9X9X9X9X8X9X8X8X8X8X8X8X8X8XiX8XiX8XiXiXpXpXpXpXgXgXkXkXkXkXkXkXkXVXCXCXlXlXCXZXZXSXDXHXFXGXGXJXJXJXLXKXKXKXKXKXKXKXKXKXKXKXKXKXKXKXKXKXFXLXKXKXKXKXKXKXKXKXKXKXKXKXLXJXJXJXGXGXHXHXHXHXSXSXSXZXZXCXCXCXCXCXCXCXkXkXkXgXpXqX0X0X0X0X0X0X0X0X0X0X0X0X0X0XqXqXfXfXfXfXfXgXzXlXlXxXxXxXxXxXSXHXHXFXGXLXKXKXKXKXKXKXKXKXKXKXKXKXKXKXKXKXKXKXKXLXJXGXFX[ zXjX|.{.{.S.F.}.S.}.D.D.D.D.D.D.F.D.D.F.S.}.}.F.F.|.{.}.D.D.}.}.}.6.S.S.S.S.S.S.S.6.S.S.",
"FXFXFXDXDXDXDXSXZXZXZXZXZXZXZXCXCXCXCXkXkXkXkXgXgXsXsXsXpXpXsXaXiXiXiXiXiXiX8X8X8X9X8X9X9X9X9X8X8X8X8X8X8X8X8X8X8X8XeXiXiXiXiXpXpXpXgXgXgXkXkXkXkXkXkXkXCXCXCXCXCXZXZXSXDXHXFXFXGXGXJXJXJXLXLXKXKXKXKXKXKXKXKXKXKXKXKXKXKXLXFXLXKXKXKXKXKXKXKXKXKXKXKXKXLXJXJXJXFXFXHXSXSXSXSXSXZXZXCXCXCXCXCXCXCXCXkXkXkXgXsXpX0X0X0X0X0X0X0X0X8X0X0X0X0XqXqXqXfXfXfXfXfXfXzXlXlXlXxXxXxXSXSXHXHXFXGXJXKXKXKXKXKXKXKXKXKXKXKXKXKXKXKXKXKXKXKXLXJXGXFX[ zXjX|.{.{.S.F.}.S.D.}.D.D.D.D.D.F.D.D.F.|.S.F.}.}.|.{.}.F.F.D.}.}.6.Z.S.S.S.S.S.S.6.S.S.",
"FXFXDXDXDXDXDXSXSXZXZXZXZXZXCXCXCXCXCXVXkXkXkXgXgXsXsXsXsXsXaXiXiXiXiXiXiXiX8X8X8X9X8X9X9X9X8X8X8X8X8X8X8X8X8X8XeX8XiXiXiXiXpXpXpXpXsXgXgXkXkXkXkXkXkXkXCXCXCXCXZXZXZXSXSXHXHXFXFXGXGXJXJXJXLXKXKXKXKXKXKXKXKXKXKXKXKXKXKXLXHXPXKXKXKXKXKXKXKXKXKXKXLXLXJXJXGXFXFXHXSXSXlXlXlXkXlXCXlXlXlXCXCXCXCXCXkXkXgXgXgXpX0X0X0X0X0X0X0X8X0X0X0X0X0XqXqXqXfXfXfXfXfXfXzXlXlXlXlXxXxXxXSXHXHXHXGXGXLXKXKXKXKXKXKXKXKXKXKXKXKXKXKXKXKXKXKXJXGXGXHX[ jXjX|.{.{.V.F.}.S.D.D.D.D.D.D.D.F.D.D.F.}.S.S.}.}.{.{.}.F.D.}.}.}.6.S.S.S.S.S.S.S.V.{.{.",
"FXDXDXDXDXDXSXSXZXZXZXZXZXZXCXCXCXCXVXkXkXVXgXgXgXsXsXsXsXsXsXiXiXiXiXiXiXiX8X8X8X9X9X9X9X9X8X8X8X8X8X8X8X8X8X8XiXiXiXiXiXpXpXpXpXsXsXgXgXgXkXkXkXkXkXkXCXCXZXZXZXZXZXSXSXHXHXFXFXFXGXJXJXJXJXLXLXKXKXKXKXKXKXKXKXKXKXKXKXLXDXPXKXKXKXKXKXKXKXKXKXLXLXJXJXJXGXFXHXHXSXlXzXfX;X*XW.fXfXqXgXgXlXCXCXCXCXkXkXgXgXpXqX0X0X0X0X0X0X0X0X0X0X0X0XqXqXqXfXfXfXfXfXfXlXlXlXlXlXxXxXxXSXSXHXHXGXGXJXLXKXKXKXKXKXKXKXKXKXKXKXKXKXKXKXKXLXJXGXGXHX[ jXjX|.{.{.V.F.}.S.}.}.D.D.D.D.D.F.D.D.F.|.|.F.}.}.S.{.}.F.D.}.}.}.6.S.S.S.S.S.S.S.V.{.{.",
"HXDXDXDXDXSXSXSXZXZXZXZXZXZXCXCXCXCXVXkXkXkXkXgXgXsXsXsXsXsXsXsXiXiXiXiXeXeXeX8X8X9X8X9X9X9X8X8X8X8X8X8X8X8X8XeXiXiXiXiXiXpXpXpXpXpXpXgXgXgXkXgXkXkXkXkXCXCXZXZXZXZXZXSXSXDXHXFXFXFXFXGXJXJXJXJXJXLXKXKXKXKXKXKXKXKXKXKXKXLXDXPXKXKXKXKXKXKXKXLXJXJXJXJXJXGXFXHXSXzXlXzXfXjXT.j.) j.=X;XqXqXfXCXCXlXlXkXkXgXgXpXpXqX0X0XiXiXiXiX0X0X0X0XqXqXqXqXqXfXfXfXfXfXzXzXlXlXlXxXxXxXxXSXHXHXFXGXGXJXKXKXKXKXKXKXKXKXKXKXKXKXKXKXKXKXJXGXGXFXHX] jXjX|.{.{.G.|.}.S.}.D.D.D.D.D.D.F.D.D.F.S.}.}.}.}.S.{.}.F.D.}.}.}.6.S.S.S.S.S.S.S.5.{.S.",
"DXDXDXDXDXDXSXZXZXZXZXZXZXCXCXCXCXCXkXVXVXVXVXkXgXsXsXsXsXsXsXaXiXiXiXiXeXeX8X8X8X8X8X9X9X9X8X9X8X8X8X8X8X8X8XiXiXiXiXiXiXpXpXpXpXsXpXpXgXgXkXkXkXkXkXkXCXCXCXZXZXZXZXSXSXSXDXHXFXFXFXFXGXJXJXJXJXJXLXKXKXKXKXKXKXKXKXKXKXLXDXPXKXKXLXLXLXLXJXJXJXFXHXHXHXFXHXSXxX&X:XfXfX:X!./ / ) k.=X=X:X0XkXkXlXkXkXkXgXgXgXpXqXpXpXiXpXiX0X0X0X0X0X0XqXqXqXqXfXfXfXgXfXkXzXzXlXlXlXxXxXxXSXSXHXHXGXGXJXJXKXKXKXKXKXKXKXKXKXKXKXKXKXLXLXJXGXGXFXHX[ jXjX|.{.{.V.|.}.{.}.}.D.D.D.D.D.F.D.D.F.S.}.}.F.}.{.{.}.F.}.}.}.|.6.S.S.S.S.S.S.S.V.{.{.",
"DXDXDXDXSXSXSXZXZXZXZXZXZXCXCXCXCXkXkXkXVXkXgXgXgXsXsXsXsXsXsXaXiXiXiXiXiXiXeX8X8X8X8X9X9X9X8X8X8X8X8X8XeX8X8XiXiXiXeXiXiXpXpXpXsXsXpXpXgXgXkXkXkXkXkXkXkXlXCXCXZXZXZXZXSXSXDXHXHXFXFXFXGXGXJXJXJXJXJXLXLXKXKXKXKXKXKXKXKXLXDXPXLXLXLXLXLXJXJXJXGXHXzXfXzXzXxXlXfX%Xk.:XfX=XT.) ) ) [ W.*X=X;XqXgXkXgXgXgXgXgXgXpXpXpXpXpXpXpXpXiX0X0X0X0XqXqXqXfXfXfXfXgXfXkXzXlXlXlXlXcXxXxXxXSXHXHXFXGXGXJXJXLXKXKXKXKXKXKXKXKXKXKXLXLXJXGXGXFXHXHX..jXjX{.f.{.f.|.}.{.}.}.D.}.D.}.D.F.D.D.F.{.}.}.S.F.S.{.}.F.F.}.F.|.6.S.S.S.S.S.S.S.V.S.V.",
"DXDXDXDXDXSXZXZXZXZXZXZXCXCXCXCXCXVXkXVXkXkXkXBXgXsXsXsXsXsXsXaXiXiXiXiXiXeXeX8X8X8X9X9X9X9X8X8X8X8X8XeXeX8X8XiXeXeXiXiXiXpXpXpXpXsXsXgXkXkXkXkXkXkXkXlXkXlXCXCXZXZXZXZXSXSXDXDXHXFXFXFXFXGXGXJXJXJXJXJXLXLXKXKXKXKXKXKXKXJXDXFXJXJXJXJXJXGXGXHXHXSXzX_.Q.%X:X:XT.k.!.=X:X#Xj.] ..U T X.W.#X=X;XqXgX0X0XqXqXpXsXpXpXpXpXpXpXpXpXpX0X0X0XqXqXqXqXqXfXfXfXgXfXkXlXlXlXlXlXlXxXxXxXSXHXHXFXGXGXGXJXJXLXLXKXKXKXKXKXKXLXLXLXJXGXGXGXFXHXxX..jXjX{.f.{.5.|.}.V.}.}.}.F.D.D.D.F.D.D.|.|.F.F.|.F.S.{.}.F.F.|.F.|.6.S.S.S.S.S.S.S.V.S.V.",
"DXDXDXDXSXSXZXZXZXZXZXZXCXCXCXCXCXCXkXVXkXVXkXgXgXsXsXsXsXsXaXaXiXiXiXiXiXiXeX8X8X8X8X9X9X9X8X8X8X8X8XeX8X8X8X8XeXiXiXiXiXpXpXpXpXsXsXgXgXkXkXkXkXkXkXkXkXlXCXCXCXZXZXZXSXSXSXDXDXHXFXFXFXFXGXGXJXJXJXJXJXLXLXKXKXKXKXKXKXJXDXHXJXJXJXGXGXGXHXHXxXxXzXE.[ [ [ { / M h.U.@Xj.] T m ) / j.k.#X=X=X;X0X;X=X*X=X;X9X9X0X0X0XpXpXpXpXpXqXqXqXqXqXqXqXqXfXfXgXgXgXkXzXlXlXlXlXlXlXxXxXSXSXHXFXFXGXGXGXJXJXJXLXLXLXLXLXLXJXLXJXGXGXGXGXHXHXxX..jXjX].G.{.5.{.|.V.}.}.}.F.}.D.D.F.D.F.F.|.V.V.}.F.{.{.}.F.F.F.|.|.6.S.S.S.S.{.S.S.V.S.S.",
"DXDXDXDXSXZXZXZXZXZXZXZXCXCXCXCXCXVXVXkXVXVXkXgXgXgXsXsXsXsXsXaXiXiXiXiXiXiXiX8X8X8X8X8X9X9X8X8X8X8X8XeXeX8X8X8XiXiXiXiXiXpXpXpXsXsXsXsXgXgXkXkXkXkXkXkXkXkXkXCXCXZXZXZXZXSXSXDXDXHXHXFXFXFXGXGXGXJXJXJXJXJXJXLXLXLXKXKXKXJXDXDXGXGXGXGXGXFXHXxXzXfXjXL./ T T a M a U U X.] T a a ) X.k.k.@X=X*X@X=X=X@Xk.k.@X@X@X9X0X0XpXpXpXpXpXqXqXqXqXqXqXpXfXfXfXfXfXgXkXkXkXlXlXlXlXlXxXxXxXSXSXHXHXFXGXGXGXGXJXJXJXJXJXJXJXJXJXGXGXGXGXFXHXHXxX..jXjXG.f.{.G.{.|.V.}.}.}.F.}.D.F.D.D.|.S.{.|.|.}.F.{.{.F.F.F.F.|.{.6.S.S.S.S.{.S.S.V.{.S.",
"DXDXDXDXZXZXZXZXZXZXZXCXCXCXCXCXCXVXVXkXkXkXkXgXgXgXsXsXsXsXaXaXiXiXiXiXiXiXiXiX8X8X8X8X8X9X8X8X8X8X8X8XeXeXeXeXiXiXiXiXiXiXpXpXsXsXsXgXgXkXkXkXkXkXkXkXkXkXCXCXCXZXZXZXZXSXSXDXDXDXHXHXFXFXFXGXFXGXGXGXJXJXJXJXJXLXLXKXKXJXDXDXGXGXGXFXFXHXSXzXjXT.L.[ T m U 6 4 7 9 6 M ) a a T T X.X.X.j.!.k.X.X.Y.k.] ] ) j...#X9X9XqXpXpXpXpXpXqXqXqXqXqXfXfXfXgXfXfXfXzXkXkXlXlXlXlXlXlXxXxXSXSXHXHXFXFXGXGXGXGXGXJXGXGXGXGXGXGXGXGXFXFXHXHXHXcX..jXjXG.f.{.f.{.F.V.}.}.F.F.}.}.F.}.}.}.6.S.}.}.|.{.{.{.F.F.F.{.|.{.6.S.S.S.S.{.V.S.V.{.{.",
"DXSXSXSXZXZXZXZXZXZXZXCXCXCXCXCXkXVXkXkXkXkXgXgXgXsXsXsXsXpXsXaXiXiXiXiXiXeXiXiX8X8X8X8X8X8X8X8X8X8X8XeX8X8XeXeX8XiXiXiXiXiXpXpXsXsXsXgXgXgXkXkXkXkXkXkXkXkXCXCXCXZXZXZXZXSXSXDXDXDXDXHXHXFXFXGXGXGXGXGXJXJXJXJXJXJXLXLXLXJXDXDXGXFXFXHXxXzXfX&Xh.} / U a 6 m 6 < 3 0 4 4 a I I ) T ] ) ) ) ) U m a T ) U U ) ) ) X.#X=X0XpXpXpXpXpXpXpXqXqXpXfXfXfXfXfXfXfXfXkXkXzXlXlXlXlXlXlXxXSXSXHXHXHXHXFXFXGXGXGXGXGXGXGXGXGXGXGXGXFXFXHXHXHXxX..jXjX].f.G.f.{.|.6.|.}.F.F.}.}.F.}.}.}.S.S.}.}.S.S.|.{.F.F.F.F.{.{.6.S.S.S.S.{.V.S.5.{.S.",
"DXSXSXZXZXZXZXZXZXZXCXCXCXCXCXCXkXVXkXkXkXkXgXgXgXsXsXsXpXiXaXaXiXiXiXiXiXiXiXiX8X8X8X8X8X8X8X8X8X8X8XeXeX8XeXiXiXiXiXiXiXiXpXpXpXsXsXsXsXgXgXkXkXkXkXkXkXkXkXCXCXCXZXZXZXZXSXDXDXDXDXDXHXHXFXFXFXFXGXGXGXGXJXJXJXJXJXJXLXJXDXSXHXHXxXzX&X(.h.[ / U m i 4 4 6 5 , $ = 3 = 3 7 J U I T a a a 2 3 3 = 3 4 3 6 U / U ) o.@X9XpXpXpXpXpXpXpXpXqXpXfXpXfXfXfXfXfXgXkXkXkXlXlXlXlXlXlXxXxXSXSXHXHXHXHXFXFXGXGXGXGXGXGXGXGXGXFXFXHXHXHXHXHXlX..jXjXz.f.f.f.{.{.6.|.|.F.}.}.}.}.}.}.}.{.{.}.}.{.S.{.{.F.F.F.F.{.{.6.S.S.S.S.S.V.S.6.S.S.",
"SXZXSXZXZXZXZXZXZXZXCXCXCXCXCXVXVXkXkXkXkXgXkXgXgXsXsXsXsXpXiXaXiXiXiXiXiXiXiXiXiX8X8X8X8X9X8X8X8X8XeXeXiXeX8X8XiXiXiXiXiXpXpXpXpXsXsXsXsXgXgXkXkXkXkXkXkXkXkXkXCXCXCXZXZXZXZXSXDXDXDXDXHXHXFXFXFXFXFXFXFXFXGXGXJXJXJXJXLXJXDXZXHXxXfX_.} _ [ M a a 4 3 < , , , $ % # % % $ , , , 3 3 = 3 3 % % # # % = = 3 6 M ) a X.X.=X0X0XqXqXpXpXpXpXqXqXpXfXfXfXgXgXfXgXkXkXkXzXzXzXlXlXlXxXxXSXSXHXHXHXHXHXFXFXFXFXFXFXFXFXFXFXFXFXHXHXHXHXHXlX..jXjXz.f.f.f.{.{.5.|.}.}.F.}.}.F.}.}.{.{.|.6.S.|.S.{.{.F.F.F.F.S.{.5.S.S.S.S.S.V.S.5.{.V.",
"ZXZXZXZXZXZXZXZXCXCXCXCXCXCXCXVXVXVXkXkXkXgXkXgXsXsXsXsXsXpXaXaXaXiXiXiXiXiXiXiXiX8X8X8X8X9X8XeX8X8XeXiXiXiXiXeXiXiXiXiXiXpXpXpXpXpXsXsXsXsXgXkXkXkXkXkXkXkXkXCXCXCXCXZXZXZXZXSXSXDXDXDXDXHXHXFXFXFXFXFXFXFXFXFXGXGXGXJXLXPXDXZXxXzX*X] M / T.U 6 3 , , = , , $ $ # # # # + # # # + + # # % # # + # # # % % = 4 U a X.o.@X=X;X9X4X9XpXpXpXpXpXpXfXgXfXfXfXfXfXgXkXkXzXzXzXzXlXlXlXxXxXSXHXHXHXHXHXHXHXFXFXFXFXFXFXHXHXHXHXHXHXHXSXSXzXO.jXjXz.f.f.f.{.{.6.|.|.F.|.|.}.F.}.|.|.G.|.6.6.|.S.{.{.F.S.F.S.S.{.5.S.S.S.S.S.V.{.5.{.V.",
"ZXZXZXZXZXZXZXZXCXCXCXCXCXCXVXVXVXVXVXVXkXkXgXgXsXsXsXsXsXpXsXsXaXiXiXiXiXiXiXiXiX8X8X8X8X8XeXeX8X8XeXeXeX8XeXiXeXiXiXiXiXiXpXpXpXpXsXsXsXgXgXgXkXkXkXkXkXkXkXkXCXCXCXZXZXZXZXSXSXSXSXDXDXDXHXHXHXHXFXFXFXFXFXFXFXFXFXFXFXFXZXlXzX:Xj.[ [ j.!.) 4 , = % $ , $ $ $ # # # # # + + + + + + + + + + + + + + + # % $ 0 U k.k.Y.@X@X@X#X#XqXpXpXfXpXpXpXgXfXqXfXfXgXgXgXgXkXkXkXkXzXlXlXxXxXSXSXSXHXHXHXHXHXHXHXHXHXHXHXHXHXHXHXHXHXxXxXxXzX+.jXjXf.f.f.f.{.{.6.|.|.|.|.{.}.F.|.{.{.G.{.|.S.|.{.V.{.F.F.F.S.S.{.5.S.S.S.S.S.V.{.5.S.{.",
"ZXZXZXZXZXZXCXCXCXCXCXCXCXCXVXVXVXVXkXVXkXVXgXgXsXsXsXsXsXsXsXsXsXiXiXiXiXiXiXiXiX8X8X8X8X8X8XeX8X8X8XeX8X8X8X8XiXeXiXiXiXiXpXpXpXpXsXsXsXgXgXgXgXkXkXkXVXkXkXCXCXCXCXCXZXZXZXZXSXSXSXSXDXDXDXHXHXHXHXFXFXFXFXFXDXDXSXSXSXZXkXfX:Xj.[ / ) j...U 4 = $ , = , $ $ % # # # # # + + + + + . & + + + + + + + + + $ 3 I U X.k.k.X.X.+Xk.@X0XpXpXfXpXpXfXfXfXpXfXgXgXgXgXgXkXkXkXzXkXlXlXxXxXSXSXSXSXSXHXHXHXHXHXHXHXHXHXHXHXHXHXHXHXxXxXxXzXO.jXjXf.G.f.f.{.{.5.|.|.|.|.{.}.F.|.{.{.G.S.}.}.{.|.V.{.S.S.S.S.S.{.5.V.S.S.S.S.V.{.4.V.{.",
"ZXZXZXZXZXZXCXCXCXCXCXCXCXVXVXVXVXkXkXkXkXgXgXsXgXsXsXsXsXsXsXaXsXiXiXiXiXiXiXiX8X8X8X8X8X8XeX8X8X8XeX8X8XeXeXeXiXiXiXiXiXiXpXpXpXsXsXsXsXsXgXgXgXkXkXkXkXVXkXkXCXCXCXCXCXZXZXZXSXSXDXDXDXDXDXDXDXDXHXHXHXFXHXHXSXlXzXzXlXqX;XQ.Q./ M a 6 m a 3 = , $ $ $ $ $ % # # # # # # + + + + . . + + + + + + + o & + = < U T ) ~ +.k.) X.o.@X8XpXpXgXfXfXfXgXfXpXfXfXgXfXgXgXgXkXkXgXkXlXlXlXxXxXSXSXSXSXSXSXHXHXHXHXHXHXHXHXHXHXHXHXxXxXxXxXfX+.jXjXz.].f.f.{.{.5.|.|.|.|.S.}.S.|.{.S.G.V.}.}.V.|.6.{.S.S.S.S.S.S.5.V.V.S.S.{.V.{.4.V.{.",
"ZXZXZXZXZXCXCXCXCXCXCXCXVXVXkXkXkXkXkXkXkXgXgXsXsXsXsXsXsXsXsXaXsXsXiXiXiXiXiXiX8X8X8X8X8X9XeXeX8X8X8X8X8XeXeXeXiXiXiXiXiXiXiXiXpXpXsXsXsXsXgXgXgXkXkXkXkXVXVXkXCXCXCXCXCXZXZXZXZXSXSXDXDXDXDXDXDXDXHXHXHXHXHXSXlXfX:X%X@XW.j.) / a 6 4 3 3 = , % $ % % # % % # + + # # # # + . . . . . . . + + + + + + & + # % 5 m ) I U ......X.@X=X0XgXpXfXfXfXfXgXfXfXfXgXgXfXfXgXgXgXgXkXlXlXlXlXxXxXSXSXSXSXSXSXSXSXSXHXHXHXHXHXSXSXxXxXxXxXxXfXO.jXjXz.G.f.u.{.{.5.|.|.{.|.S.}.S.|.S.{.G.6.|.F.6.|.6.{.S.S.S.S.S.{.5.V.V.S.S.{.V.{.5.V.{.",
"ZXZXZXZXZXCXCXCXCXCXCXCXVXVXVXkXVXVXVXkXgXgXgXsXsXsXsXsXsXsXsXaXsXiXiXiXiXiXiXiXiX8X8X8X8X8X8X8XeX8X8X8XeXeX8XiXiXiXiXiXiXiXiXiXpXpXsXsXsXsXgXgXgXgXkXkXkXkXVXkXVXCXCXCXCXZXZXZXZXZXSXSXDXDXDXDXDXDXDXDXDXSXSXZXzX=XQ.{ ) T m i 6 4 3 , $ , $ $ % # # # # + # + + + + + + + + . . . .     . + + + + + & . & & + + % I U a ^ ....X.k.@X8XqXqXpXqXpXpXgXpXqXgXgXfXfXfXgXgXgXgXgXkXlXlXlXxXxXSXSXSXSXSXSXSXSXSXSXSXSXSXSXSXSXxXxXxXxXxXfXO.jXjXs.f.f.u.{.{.5.{.{.{.|.S.|.S.|.S.{.G.6.S.S.6.|.5.{.S.S.S.S.S.{.5.V.V.V.S.{.V.{.5.5.S.",
"ZXZXZXCXCXCXCXCXCXCXCXCXVXkXkXkXkXkXgXkXgXsXsXsXsXsXsXsXsXsXsXaXaXiXiXiXiXiXiXeXiXiX8X8X8X8X8X8X8XeXeXeXeXeXeXiXeXeXiXiXiXiXiXiXpXpXpXpXpXsXsXgXgXgXgXkXkXkXkXkXCXCXCXCXCXCXZXZXZXZXZXSXSXSXDXDXDXDXDXSXSXSXlXfX:Xh.[ / a i 6 4 4 3 , $ % % % # % # + + + + + + + + + + + + + + . . .     . . & & + + . . . . . + # = 3 3 a U ] ..] k.#X=X0X0X0X0XqXpXpXfXfXgXgXfXgXfXgXfXfXgXkXkXlXlXxXxXxXSXSXxXSXSXSXSXSXSXSXSXSXxXSXxXxXxXxXxXxXfXO.jXjXs.f.f.u.{.{.5.{.{.{.|.{.|.S.{.S.{.G.6.6.6.6.{.5.{.S.S.S.S.S.{.5.V.V.V.S.{.V.{.5.6.S.",
"CXZXCXCXCXCXCXCXCXCXVXCXkXkXkXkXVXVXkXkXVXBXBXsXsXsXsXsXsXsXsXaXiXiXiXiXiXiXiXiXeX8X8X8X8X8X8XeX8XeX8XeX8X8X8XiXeXiXiXiXiXiXiXpXsXsXsXsXsXsXsXgXgXgXgXkXkXkXVXVXkXkXCXCXCXCXZXZXZXZXZXZXSXSXSXSXDXSXSXSXSXSX:Xj.X.] M m a 4 3 3 3 , $ $ % # # # # + + + + . . . . + + + + + + . . . .       . . . + + & . . . & + + + + % = 0 I U I ) X.k.#X=X;X0X0XpXpXgXgXgXgXgXgXgXgXgXfXfXfXkXlXlXlXxXxXxXSXxXxXSXSXSXSXxXSXSXSXxXxXxXxXxXxXcXcXfXO.jXjXs.f.f.u.G.G.4.{.{.{.{.{.|.S.{.S.{.V.6.6.;.{.S.f.{.S.S.S.S.S.G.5.6.V.V.S.{.V.{.5.6.S.",
"CXCXCXCXCXCXCXCXCXCXVXVXkXVXVXkXVXVXkXkXgXgXBXsXsXsXsXsXsXsXsXaXiXiXiXiXiXiXiXeXeX8X8X8X8X8X8XeXeX8X8XeXeX8XeX8XiXiXiXiXiXiXiXpXsXsXsXsXsXsXsXgXgXgXkXkXkXkXkXVXkXCXCXCXCXCXCXZXZXZXZXZXSXSXSXSXDXSXSXxXlXfXk.U M M 6 4 4 3 = % $ % % % # + + # + + + + . . . . . + + + + + + + . . . .       . & & . . . . . . & & + & + # = 4 3 a U ) ..+X#X=X;X0XqXfXfXfXgXgXfXgXgXgXfXgXfXgXkXlXlXlXxXxXxXxXxXxXxXxXSXSXSXSXxXxXxXxXxXxXxXxXcXcXfXO.fXjXs.f.f.u.G.f.4.{.{.{.{.{.{.S.{.{.{.5.G.6.:.{.6.G.{.S.S.S.S.{.G.5.5.V.V.S.{.V.{.4.6.S.",
"CXCXCXCXCXCXVXVXVXVXkXVXVXVXVXVXkXkXgXgXsXsXsXsXsXsXpXpXaXsXaXaXiXiXiXiXiXiXiXeXeX8X8X8X8X8X8X8XeXeX8X8X8X8XiXiXiXiXiXiXiXiXiXiXpXpXsXsXgXgXsXsXsXgXgXgXkXkXkXkXkXCXkXCXCXCXCXZXZXZXZXZXZXZXSXSXSXSXlXfX;XU.U 4 4 4 3 , = # + + # # # # # + + + + + + + . . . . . . + + + + + + . . . .       . . . . . . . . . . & & & + + % 3 < 9 U ) ..k.@X=X;X0XqXfXfXgXgXgXgXgXgXgXfXgXgXgXkXzXlXlXxXxXxXxXxXxXxXxXxXxXxXSXxXxXxXxXxXxXxXxXcXcXqXO.jXjXs.f.f.u.G.f.4.{.{.{.{.{.{.{.{.S.{.5.{.6.;.|.6.G.{.S.S.S.S.{.G.5.5.6.V.S.{.V.G.4.6.V.",
"CXCXCXCXCXCXCXVXVXVXkXVXkXkXVXVXkXVXgXsXsXsXsXsXsXsXpXpXsXsXaXiXiXiXiXiXiXiXeXiXiXeX8X8X8X8X8X8X8X8XeXeXeX8X8XeXiXiXiXiXiXiXiXiXpXsXsXsXsXsXgXgXsXgXgXgXkXkXkXkXkXVXVXCXCXCXCXCXZXZXZXZXZXZXZXSXSXSXfX@X] m 3 3 < , $ # + + + & + + # # + + + + + + . . . . . . . . + + + + + + . . . .   .     .   . . . . & . & . & + + + # = 8 8 U ) ....k.#X;X0X0XpXfXgXgXgXfXgXgXgXfXfXfXgXgXlXlXlXlXlXxXxXxXxXxXxXxXxXxXxXxXxXxXxXxXxXxXcXcXlX0XO.jXjXs.f.f.y.G.f.4.{.{.{.{.{.{.{.{.S.{.5.|.6.6.|.6.G.{.S.S.S.S.{.G.5.6.6.V.V.{.V.G.4.6.V.",
"CXCXCXCXCXCXVXkXVXCXVXVXkXkXVXVXgXgXsXgXVXsXsXsXsXsXsXsXsXsXsXiXaXiXiXiXiXiXeXiXiXeXeXeX8X8X8X8X8X8XeXiX8X8X8XeXiXiXiXiXiXiXiXiXiXpXsXsXsXgXsXsXgXgXgXgXkXkXkXVXkXVXVXCXCXCXCXCXZXZXZXZXZXZXZXZXZXfX@XU a % = = , , # + + . . . + + + + + + + & + & . . . . . . . . . . + + . + + . . . .       . . . . . . & . & & o + + + + # 7 7 U U ) ....k.@X;X9XpXgXgXgXfXgXgXgXgXqXqXqXfXgXkXlXlXlXlXlXlXlXxXxXxXxXxXxXxXxXxXxXxXxXcXxXcXcXlX0XO.:XjXs.s.f.y.G.f.4.{.{.{.{.{.{.{.{.V.{.5.|.5.V.{.6.G.{.{.S.S.S.S.G.5.6.6.6.V.{.V.{.4.6.V.",
"CXCXCXCXVXkXVXkXVXkXVXkXkXkXkXkXgXgXgXsXgXsXsXsXsXsXsXsXsXsXaXaXiXiXiXiXiXeXeXeX8X8X8X8X8X8X8X8X8X8X8XeXeXeX8XeXiXiXiXiXiXiXiXiXpXsXsXsXsXsXsXgXgXgXgXgXgXkXgXkXkXkXVXCXCXCXCXCXCXCXCXZXZXZXZXZXlX=X) a 7 3 3 = = = # + . + . . + + + + + . . . & . . . .   . . . . . . . + . + . . . & & .   . .     . . . & & . & o + + + o o = = 3 4 I ] +.X.X.#X=XqXqXgXgXfXfXfXgXfXqXqX0XqXfXkXlXlXlXlXlXlXlXxXlXlXxXxXxXxXlXxXxXlXcXcXcXcXlXzX0XO.0XjXs.s.f.y.f.f.3.G.{.{.{.|.|.{.{.V.{.5.|.{.{.{.5.G.{.{.S.S.S.S.f.5.5.5.6.V.{.5.V.1.6.V.",
"CXkXCXkXVXkXkXkXkXkXkXkXkXgXkXkXgXgXgXsXsXsXsXsXsXpXsXsXsXaXaXaXiXiXiXiXiXiXeXeXiX8XeX8X8X8X8X8X8X8X8XeX8XeX8XeXeXiXiXiXiXiXiXiXiXiXaXsXsXsXsXsXsXgXgXgXgXkXkXkXkXkXVXCXCXCXCXCXCXZXCXZXZXZXCXlXfX*XU a 7 5 7 , $ % # + + + . & + + + + . . . . . . . . . . . . . . . . . . . + . . . . . .     .       . & + & & & & + # + + + # # % = 3 I ) ....@X;X0XqXgXgXfXfXfXgXfXqXqX0XqXfXkXzXlXlXlXlXlXlXlXlXlXlXlXxXlXlXlXlXlXlXlXlXlXlXzX0XO.0XjXs.s.f.y.f.f.3.G.{.{.{.|.|.{.{.V.{.5.|.|.|.{.5.G.S.{.S.S.S.S.f.5.5.5.6.5.{.5.G.1.V.V.",
"kXVXVXkXkXVXkXkXkXkXkXkXgXkXgXgXgXgXsXsXsXsXsXsXsXsXsXsXsXsXaXaXiXiXiXiXiXiXiXiXiXiX8X8X8X8X8X8XeXeX8XeXeXeXeXeXiXiXiXiXiXiXiXiXiXsXsXsXsXsXsXsXsXgXgXgXgXgXVXVXVXVXVXVXCXCXCXCXCXZXZXCXZXZXgX0X:XU.U i 4 3 3 , # # + + + & . . . & + . . . . . . . . . . . . . . . . . . . . . . .   .   .   . .       . . . & + o o + + + + o + + + = = 9 ) +...+X4X0XpXpXgXgXfXfXfXfXqX0X0XqXfXgXkXlXlXlXzXlXlXlXlXlXlXlXlXlXlXlXlXlXlXlXlXlXlXlX;XO.0XjXp.p.s.t.z.f.3.G.{.{.|.|.|.|.{.V.G.5.|.|.|.G.5.G.{.{.S.S.V.V.5.5.5.6.6.5.{.5.G.1.V.6.",
"kXCXVXkXkXkXkXkXkXkXkXgXgXgXkXgXgXsXsXsXsXsXsXsXsXsXsXsXaXsXaXaXiXaXiXiXiXiXiXiXiXiXeX8X8X8X8X8XeXeX8XeXeX8XeXeXeXiXiXiXiXiXiXiXiXsXsXsXsXsXsXsXsXsXgXgXgXkXVXVXVXVXVXVXCXCXCXCXCXZXZXZXZXCX0X=XU.[ / 6 3 % = $ + # # + + . . . . . . + & . . . . . . . . . . . . . . . . . .   . . . . .               . . . & + & + + & + . + o & o % , a T ^ ..+X9X0XpXpXpXgXqXqXfXgXgXqXqXqXgXgXgXkXlXlXlXlXlXlXlXlXlXlXlXlXlXlXlXlXlXlXlXlXlXlX;XO.0X:Xp.p.s.t.f.f.3.G.{.{.|.|.|.|.{.V.{.5.{.{.{.V.5.G.{.{.6.6.6.5.f.5.5.5.V.5.{.5.G.1.V.6.",
"kXkXkXkXkXkXkXkXgXkXkXkXgXgXgXgXgXsXsXsXsXsXsXsXsXsXsXsXsXsXsXiXaXiXiXiXiXiXiXiXiXiX8X8X8X8X8XeXeXeXeXeXiXeXeXeXiXiXiXiXiXiXiXiXiXsXsXsXsXsXsXsXsXsXgXgXgXgXVXVXVXVXVXVXVXCXCXCXCXZXZXZXZXCXqX@Xk.T U 5 = # # # + + + + + . . . . . . . . . . . . . . . . . . . .   .     . .       . . .               .   . . & & & o . . . + & & & # % 7 U a ) k.9X0XpXsXpXpXpXqXpXpXkXkXgXgXgXgXkXkXlXlXlXlXlXlXlXlXlXlXlXlXlXlXlXlXlXlXlXlXlXzX;X X0X:Xl.p.s.t.G.f.3.G.{.{.|.|.{.|.G.G.G.5.{.{.{.6.6.f.{.{.6.6.6.5.f.5.5.5.6.5.{.6.G.1.5.V.",
"kXkXkXkXkXkXkXkXgXgXgXgXsXgXsXsXsXsXsXsXsXsXsXsXsXsXsXaXsXaXaXaXaXiXiXiXiXiXiXiXiXeX8X8XeXeX8XeX8XeXeXeXiXiXeXeXiXiXiXiXiXiXiXiXiXaXaXsXsXsXsXsXsXMXsXgXgXVXVXVXVXVXVXVXVXCXCXCXCXCXZXZXZXCXgX=Xk.] 4 3 = # + & + + . . . . . . . .     . . . .     . . . .   . .             .       .                   . . . & . & . . . . . & & & + % = 4 8 U X.=XiXpXsXsXpXpXpXpXpXkXkXgXgXgXgXkXlXlXlXlXlXlXlXlXlXlXlXlXlXlXlXlXlXlXlXlXlXlXlX4X X0X:Xl.p.p.e.].f.3.G.G.G.{.{.|.|.G.5.G.5.{.{.{.6.V.5.{.{.6.6.6.5.f.5.5.5.V.6.G.6.V.C 6.5.",
"kXkXkXkXgXgXkXgXgXgXgXgXsXsXsXsXsXsXsXsXsXsXsXsXsXsXaXaXsXsXaXaXaXiXiXiXiXiXiXeXeXeXeX8XeXeX8XeXeXeX8XeXeXeXiXiXiXiXiXiXiXiXiXiXaXaXaXsXsXsXsXsXsXMXMXMXgXVXBXVXVXVXVXVXVXVXCXCXCXCXZXZXZXCXkXpX=X] a = % + + . + + . . . . . . . . .       . . . . . . . . . . . .     . .       . . .                   . . . & & + & . . . . . & & o # # % = a X.=X0XpXpXpXpXpXpXpXgXkXkXkXgXgXgXgXkXlXlXlXlXkXlXlXlXlXlXlXlXlXlXlXlXlXlXlXlXlXlX4X X:X:Xl.p.p.e.].f.3.f.G.G.G.G.f.f.G.5.G.4.{.{.{.6.{.5.G.{.6.6.6.G.5.5.5.5.V.6.V.6.G.C 6.5.",
"kXkXkXkXkXkXgXgXgXgXgXgXsXsXsXsXsXsXpXsXsXsXsXsXsXsXaXsXsXsXaXaXaXiXiXaXiXiXiXiXeXiXiXeXeXeXeX8XeXeXeXeXiXiXeXiXeXiXiXiXiXaXiXiXaXaXaXaXsXsXsXsXsXsXsXsXsXVXkXgXkXVXVXVXVXVXCXCXCXCXCXCXCXCXCXpX0XY.m = # + + . . . . . .   & & + . . .     . . . . . . . . . . . .       . .       . .       . .       .     . . & & . . . . . . . & o o o o = a k.9X0XpXpXpXpXpXpXpXsXgXkXgXgXgXgXgXkXlXlXlXkXkXkXkXlXlXlXlXlXlXlXlXlXlXlXlXlXzXlX4X X0X:Xl.i.p.e.].f.3.f.G.G.G.f.2.3.G.5.V.4.{.{.V.6.{.5.G.{.6.6.6.V.5.5.4.6.5.6.V.V.G.F 5.5.",
"kXkXkXgXgXgXgXgXgXsXgXgXsXgXsXsXsXsXpXsXsXsXsXsXsXsXsXsXaXsXaXaXaXaXaXiXiXiXiXiXiXiXiXeXeXeXeXeX8X8XeXeXeXiXeXiXiXiXiXaXaXaXaXaXaXaXsXsXsXsXsXsXsXsXsXMXsXVXVXVXVXVXVXVXVXVXVXVXVXCXCXCXCXCXCXsX;X=XU 3 % + + . . . . . .   & & # + . . . . . . & . . . . . . . . .           . . .   .     . . . .       . . . . & + . . . . . . . o & & & & % m +X9X0XpXsXpXpXpXpXpXpXsXgXgXgXgXgXgXkXkXlXkXlXkXkXkXkXlXlXlXlXlXlXlXlXlXlXlXlXkXzX,XO.0X:Xl.i.p.e.f.f.1.G.G.G.G.G.y.y.f.5.V.4.{.{.6.6.{.4.V.{.6.6.6.6.5.5.4.5.5.5.5.V.G.r 4.G.",
"kXkXgXgXgXgXgXgXgXgXgXgXsXsXsXsXsXpXpXsXsXsXsXsXsXsXsXsXsXsXaXaXaXaXiXaXiXiXiXiXiXiXiXeXeXeX8X8X8X8X8XeXeXeXeXiXiXiXiXaXaXsXaXiXaXaXaXsXsXsXsXsXsXsXMXMXsXMXVXVXBXVXVXVXVXVXVXVXCXCXCXCXCXCXCXgX#Xk.U 5 $ # + . . . . . .   + + # # . . & & . . & .       . . . . .   .     . . .   . . .       . .       . . . . & + + . . . . . . & & & + + % 4 k.9X0X0XpXpXpXpXpXpXpXpXgXgXsXpXgXgXkXkXlXlXkXkXlXkXkXlXlXlXlXlXlXlXlXlXlXlXlXlXzX4XO.0X:Xl.i.i.e.f.f.1.G.G.G.G.G.G.u.f.5.G.4.V.V.5.5.{.4.f.G.6.6.6.6.5.5.5.5.5.5.5.V.G.e 2.G.",
"kXgXgXgXgXgXgXgXgXsXsXgXsXpXpXsXsXsXsXsXsXsXsXsXsXiXsXsXsXsXsXsXaXaXaXaXiXiXiXiXiXiXiXiXeXeXeX8XeXeXeXeXeXeXeXiXiXiXiXiXiXaXiXiXaXaXaXsXsXsXsXsXsXsXMXMXsXsXBXVXVXVXVXVXVXVXVXVXVXCXCXCXCXCXkXqX@XU 4 = # # + . . . . . . + # & + # . . . . . . . .   . . . . . . .         . .     . . .           .       .   . & & + & . . . . & + & o # # = = ^ +X,X4X9XsXpXpXpXpXpXpXpXsXpXpXsXgXkXkXlXkXkXkXkXkXkXlXkXlXlXlXlXlXlXlXkXkXkXkXkX,XO.;X:Xh.i.i.e.f.f.1.f.G.G.G.G.G.G.f.f.G.4.V.6.6.5.{.4.5.G.5.6.6.6.u.5.5.6.5.5.5.V.5.e u.G.",
"gXgXgXgXgXsXsXsXsXsXsXsXpXsXpXsXpXpXpXpXpXsXsXsXsXsXsXaXsXaXaXiXiXaXaXaXaXaXiXiXiXiXiXiXeXeXeX8X8XeXeXeXeXeXeXeXiXiXiXiXiXaXiXaXsXsXaXaXsXsXsXsXsXsXMXBXMXMXVXVXBXBXVXVXVXVXVXVXVXCXVXCXCXCXkX;XX.7 4 8 # # + & . . . . . # $ + . + &     . . . .         . . . . .       . . . .     . . . .     . .     . .   . . . + . . . . . + + o + # % 5 3 3 ) o.+X$XsXpXpXpXpXpXpXpXpXpXpXpXpXgXkXkXkXkXkXkXkXkXkXkXlXlXkXkXlXlXkXkXkXkXkXzX,XO.0X;Xj.i.i.( z.f.1.G.G.G.G.G.G.G.f.f.G.4.5.5.5.5.{.4.V.V.6.6.6.5.u.5.5.6.5.G.5.G.4.B G.V.",
"gXgXgXsXsXsXgXgXsXsXsXsXsXpXpXpXpXiXsXsXpXsXsXsXsXsXaXaXaXaXiXiXiXiXaXiXiXaXiXiXiXiXeXeXeXeXeX8XeXeXeXeXeXeXeXeXiXiXiXiXiXiXaXaXsXsXsXsXsXsXsXMXsXMXMXMXMXBXBXVXMXBXVXVXVXVXVXVXVXVXVXCXVXkXgX#XT = = I # # + o . . . . + $ $ # + .       . . .           . . . . .         . .       . . . . .     . . . . . . . . . & . . . . . & + o o + % a 5 4 a O.+X,XsXsXpXpXpXpXpXpXpXpXpXpXgXgXkXkXkXkXkXkXkXkXkXkXlXkXkXkXkXkXkXkXkXkXkXkX,X X0X;Xj.i.i.( z.f.1.f.f.G.G.G.G.G.f.f.G.y.5.5.5.f.S.4.5.G.5.6.6.6.4.5.5.5.6.G.5.G.4.C {.V.",
"sXgXsXsXsXsXgXsXsXsXsXpXpXpXpXiXpXiXiXiXiXiXaXaXiXaXaXaXiXiXiXiXiXiXiXiXiXiXiXiXiXiXeXeXeXeXeXeXeX8XeXiXeXiXiXeXeXiXiXiXiXaXaXaXaXsXsXsXsXsXsXMXsXMXBXBXBXVXBXVXVXVXVXVXVXVXVXVXVXVXVXVXVXpX0Xo.8 = = 3 # % + & . . . . + # % # + .                       . . . . .       . . .     . + +   . . . . . . . . o . . . . . . . . . . o + + o o # 3 a U U k.,XeXsXsXsXpXpXpXpXiXpXpXpXpXgXgXkXkXgXgXgXgXgXkXkXkXkXkXkXkXkXkXkXkXkXkXkXgX2X X9X;Xj.i.i.( s.f.1.f.f.G.G.G.f.G.f.f.G.y.5.4.4.G.{.2.V.G.5.6.6.6.4.4.4.4.5.5.5.f.4.V 5.V.",
"sXsXgXsXsXsXsXsXpXpXpXpXpXiXiXiXiXiXiXiXaXaXaXaXaXaXiXaXiXiXiXiXaXiXiXiXiXiXiXiXiXiXiXeXeXeXiXeXiXiXiXeXiXiXiXiXiXiXiXiXiXaXaXaXaXsXsXsXsXsXsXsXsXMXMXBXBXBXBXgXBXBXVXVXVXVXVXVXVXVXVXVXVXuX8Xo.8 3 = $ + # # o . . . . + # # + + .                   . . . . . . .     . . + .   .   + . . . . . . . . . . + +   . .   . . . . . + + + + + + % 8 o.o.$X9XaXsXsXsXsXsXpXpXiXiXpXpXpXpXgXgXgXgXgXgXgXkXkXkXkXkXkXkXkXkXkXkXkXkXkXgXgX2X X9X;Xh.i.i.( s.f.D f.G.G.G.G.f.G.f.f.G.4.5.4.5.G.{.2.5.G.6.6.6.6.4.4.4.4.4.5.5.5.4.B 5.V.",
"gXgXgXsXsXsXsXpXpXpXpXpXpXiXsXpXpXsXsXaXsXsXiXiXaXaXiXaXiXaXaXaXiXaXiXiXiXiXiXiXiXiXiXeXeXeXiXeXeXeXeXeXiXiXiXiXiXiXiXiXiXaXaXiXaXaXaXsXsXsXsXsXsXMXMXsXMXMXBXBXMXBXVXVXVXVXVXVXVXVXVXVXVXpXpX@XT 6 = # + . . . .   . . & # + . .                     . . . . . . .     . & + .             . + . . . + . & + + .   .     . . . . + + + o # o # 0 +X=X8XeXaXsXsXsXsXaXiXpXiXpXpXpXpXpXgXgXgXgXgXgXgXgXgXgXkXkXkXkXgXkXkXkXkXkXkXgXgX2X X9X;Xk.i.i.( s.s.D f.f.G.G.G.f.G.u.f.G.4.5.5.5.G.V.2.5.G.6.6.6.5.4.4.4.4.4.4.5.4.f.C 5.5.",
"gXgXgXgXsXsXsXpXsXsXsXpXpXpXpXsXiXsXsXaXaXaXaXiXaXaXaXiXiXiXiXiXiXiXiXiXiXiXiXiXiXiXeXeXeXeXeX8XeXeXeXeXiXiXiXiXiXiXiXiXiXaXaXaXaXaXaXaXsXsXsXsXsXsXsXsXsXMXBXBXBXVXVXVXVXVXVXVXVXVXVXVXVXsXpX0X] 4 % & . . + + . . . + . + .                     X       . . .         . + + + .           . . .   . + + + + + .           . . . + + & & % $ # 3 o.iXaXaXsXsXsXsXaXaXiXiXpXiXiXpXpXpXsXgXgXgXgXgXgXgXgXgXgXkXkXkXgXkXkXkXkXkXkXgXgX2X X9X;Xk.i.i.( s.f.( f.f.f.G.G.f.G.4.f.G.3.4.4.5.G.G.1.f.G.5.6.6.6.4.4.4.4.4.4.f.5.5.C 5.4.",
"sXsXsXsXsXsXpXpXpXpXpXsXiXiXiXiXiXiXsXaXiXiXiXiXaXiXiXiXiXiXiXiXiXiXiXiXiXiXiXiXiXeXeXeXeXeXeX8X8XeXeXeXiXiXiXiXiXiXiXiXiXaXaXaXaXaXsXsXMXMXMXsXsXsXsXMXMXMXMXBXMXMXBXVXVXVXVXVXVXVXVXVXVXVXgX0X] ; # + . . + # # .   . . . .   .         X                             . & + & .             . . . . . + . o + & .           . . + + & & % 3 % 3 O.aXaXsXsXsXsXsXaXaXiXiXiXiXiXiXpXpXpXpXgXgXgXgXgXgXgXgXgXgXgXgXgXgXkXkXkXkXgXgXgX2X X9X;Xk.i.i.( s.s.( f.f.G.G.G.f.G.3.G.G.y.4.4.5.G.G.1.f.V.5.5.6.6.3.4.4.4.4.5.5.f.u.V 5.4.",
"sXpXpXsXsXpXpXpXiXiXpXpXiXiXiXiXiXiXiXiXiXiXiXiXiXiXiXiXiXiXiXiXiXiXiXiXiXiXiXiXiXiXeXeXeXeXeXeX8XeXeXeXeXiXiXiXiXiXiXaXaXaXaXaXaXaXsXsXMXsXsXsXsXsXsXMXMXMXMXsXMXBXBXVXVXVXVXVXVXVXVXVXVXVXsX9X) = + & .   + % % . .   .                 X         X                     . . . .                 . . . o & & & & .             . + + & & = 7 5 9 O.iXsXMXMXsXsXaXaXiXiXiXiXiXiXiXpXpXpXpXgXgXgXgXgXgXgXgXgXgXgXgXgXgXgXgXgXgXgXgXgX2X X9X;Xk.i.i.( l.z.( f.G.G.G.G.f.G.4.f.G.3.4.4.4.5.5.2.5.5.6.6.6.6.3.4.4.4.4.f.5.f.C x 5.4.",
"sXsXsXpXpXpXpXpXiXiXiXiXsXiXiXiXiXaXiXiXaXiXiXiXaXiXiXiXaXiXiXiXaXaXaXiXiXiXiXiXiXeXeXeXeX8X8X8XeXeXeXeXeXiXiXiXiXiXaXiXaXaXaXaXaXsXsXsXsXsXsXMXsXsXsXsXMXsXsXsXsXMXBXBXBXVXVXVXVXVXVXVXVXBXsX@X] 3 # +   . % % # . .                                                       . . .         X X         . o o & & & . .           . & + o + % 7 ~ ^ o.8XsXsXsXsXsXaXaXaXiXiXiXiXiXiXpXpXpXsXsXsXsXgXgXgXgXgXgXgXgXgXgXgXkXgXgXgXgXgXgX2X X9X;Xk.i.i.( z.z.' s.f.f.G.G.f.G.3.G.G.3.4.4.4.f.6.2.5.5.5.5.6.5.3.4.4.5.4.5.5.f.r x 5.4.",
"sXsXsXsXsXiXiXiXiXaXaXaXaXiXiXiXiXiXiXaXiXiXiXaXiXiXiXiXiXiXiXiXaXaXaXaXiXiXiXiXeXeXeXeX8X8X8X8XeXeXeXeXeXiXiXiXiXiXaXaXaXaXaXaXaXaXsXsXsXaXaXsXMXsXsXsXsXsXsXsXMXMXMXMXBXVXVXVXVXVXVXVXVXVXsXk.+.8 + . . + # + + . .                                                 .     . . . .         X         . . . . . . .           . . & & + # # 3 o.O.$XeXMXsXaXaXsXaXaXaXiXiXiXiXiXpXiXpXpXpXpXsXsXgXgXgXgXgXgXgXgXgXgXgXgXgXgXgXgXgXgX2X X9X9Xk.i.i.i.z.].( p.f.f.G.f.u.G.3.G.G.t.4.4.4.f.5.2.5.5.5.5.6.5.3.4.4.4.4.5.5.5.e x 5.4.",
"sXsXsXsXsXiXaXiXiXaXsXsXsXiXiXiXiXiXiXaXiXiXiXaXiXaXiXiXiXiXiXiXaXiXiXiXiXiXeXeXeXeXeXeXeXeXeXeX8XeXeXeXeXeXiXiXiXiXaXaXaXaXaXaXsXsXaXaXaXaXaXsXsXMXsXsXsXsXsXsXMXBXMXMXMXBXVXVXVXVXVXVXVXVXgX8XO.I 9 % # # # . + & . .     X                                         . .   . . . .               X X   . . . . . .       X   . + + & + 3 9 ~ +X$X4XaXsXsXaXaXaXaXaXaXaXiXiXiXiXiXiXpXpXpXpXsXsXsXpXgXgXgXgXgXgXgXgXgXgXgXgXgXgXgXgX+X X9X;Xk.i.i.( l.].( s.f.G.G.f.f.G.3.G.G.t.u.4.4.5.6.2.5.5.5.5.6.5.3.4.4.4.5.4.5.5.i F 5.5.",
"sXsXaXaXsXaXiXiXiXiXiXiXiXiXiXiXiXiXiXiXiXiXiXiXiXiXiXiXiXiXiXiXaXiXiXiXiXeXeXeXeXeXeXeXeX8X8XeXeXeXeXeXeXeXeXeXiXiXaXiXaXaXaXaXsXsXaXaXaXaXaXaXMXsXsXsXsXsXsXsXsXsXMXMXMXBXVXVXVXVXVXVXVXVXVXsX-X~ a 3 # & + . + & . .       X                                       . .     . . .     .         X X       . . . .   . .   . & + + + = ^ k.+X4X8XiXMXMXsXaXaXaXaXiXiXiXiXiXiXiXiXiXiXpXpXpXpXpXpXpXgXgXgXgXgXgXgXgXgXgXgXgXgXgXgXgXoX.X4X;Xj.i.i.( s.].( s.f.G.G.f.f.f.4.G.G.t.u.4.2.5.5.C 5.5.5.6.6.5.2.4.4.4.4.4.5.5.S x 5.4.",
"sXsXiXiXiXiXiXiXiXiXiXiXiXiXiXiXiXiXiXiXiXiXiXiXiXiXaXiXiXiXiXiXiXiXiXiXiXeXeXeXeX8XeXeXeXeX8X8XeXeXeXeXeXeXeXiXeXeXiXaXaXaXaXaXaXaXsXaXaXaXaXaXsXaXsXsXsXsXsXsXsXMXBXMXBXVXVXVXVXVXVXVXVXVXVXpX@X^ 7 $ # + . . . + &                               X   X             . .     . . .   . .                   . . .     . .   . . & + # 4 T 4X9XiXaXMXMXMXMXsXaXaXaXaXaXaXiXiXiXiXiXiXiXiXpXpXpXpXpXpXsXsXsXgXgXgXgXgXgXgXgXgXgXgXgXgXoX X4X;XX.i.i.( s.s.D p.f.f.G.f.f.f.3.G.G.y.5.4.2.5.f.1.5.5.5.5.6.6.1.4.4.4.5.4.4.v 3.x 4.4.",
"sXsXaXiXiXiXaXiXiXiXiXiXiXiXiXiXiXiXiXiXiXiXiXiXiXiXiXiXiXiXiXiXiXiXiXiXiXeXeXeXeX8XeXeXeXeX8X8XeXeXeXeXeXeXeXeXeXeXiXaXiXaXiXaXaXaXaXaXaXsXaXaXaXaXsXsXsXsXsXsXsXsXsXMXMXBXBXVXVXVXVXVXVXVXVXiXo.4 0 # + # . . . # .                                 X                       . . .   . . .           .     . . & .           . & + # u _ 9XiXaXMXMXMXMXMXsXsXaXaXaXaXaXiXiXiXiXiXiXuXiXpXpXpXpXpXpXsXgXsXgXgXgXgXgXgXgXgXgXgXgXgXgX X X4X4Xj.i.i._ a.l.( s.s.f.G.f.f.f.3.G.G.y.4.2.4.5.5.1.5.5.5.5.$.2.V 4.4.4.4.c k b 4.F 4.3.",
"sXaXaXaXaXiXiXiXiXiXiXiXiXiXiXeXiXiXiXiXiXiXiXiXiXiXiXiXiXiXiXiXiXeXeXeXeXeXeXeXeXeXeXeXeXeXeXeX8X8X8XeXeXeXeXeXeXeXiXaXiXiXaXaXaXaXaXaXaXaXaXaXaXaXsXaXsXsXsXsXsXsXMXMXMXBXBXVXVXVXVXVXVXVXBXiX@X~ 3 + . +     + +                             X X X X   X                   . . . . . . . . + .     . .   & & .         .   + o + @ u ' 9XsXMXMXMXMXMXMXaXaXaXaXaXaXaXaXiXiXiXiXuXiXiXiXpXiXpXpXpXpXpXsXgXsXgXgXgXgXgXgXgXgXgXgXgXoX X4X=Xj.i.i.( l.s.( s.f.G.G.s.f.f.3.G.u.3.3.2.4.5.5.C u.5.5.2.V V d 2.4.u.4.k k 4.u.x 4.C ",
"iXaXaXiXiXiXiXiXiXiXiXiXiXiXiXeXiXiXiXiXiXiXiXiXiXiXiXeXiXiXiXeXiXeXeXeXeXeX8XeXeXeXeX8XeXeXeXeXeXeXeXeXeXeXeXeXeXeXeXiXaXiXaXaXaXaXaXaXsXsXaXaXsXsXaXsXsXaXsXsXsXsXMXMXMXBXBXVXBXVXVXVXVXVXBXBX9X-Xo.8 $ + .   # . .                               X X                           . . . . . + # o .   . . . & & .       . . o $ = + % u i.8XMXMXMXMXMXMXMXaXaXaXaXaXaXaXiXaXiXiXiXiXuXuXiXiXpXpXpXpXpXpXsXgXsXpXgXgXgXgXgXgXgXgXgXgX X X>X=XX.i.i._ l.l.( s.s.G.G.s.u.f.y.G.3.D 3.4.4.4.5.V f.5.5.4.4.4.r 2.4.4.G G.G.5.4.x 3.C ",
"aXiXaXiXiXiXiXiXiXiXiXiXeXiXiXeXeXiXiXaXaXiXiXiXiXiXiXiXiXiXiXeXeXeXeXeXeXeXeXeXeXeXeXeXeXeXeXeX8XeX8X8XeXeXeXeXeXeXeXiXeXeXiXaXaXaXaXaXaXaXsXsXaXaXaXaXMXMXMXMXMXsXMXMXMXBXBXBXBXBXVXVXVXVXVXVXsX8X9X+XX.3 o   . . .                               X X                       .   . . . . o = 6 = # o + . & + & .       . & # 6 3 % = u i.iXMXMXsXaXMXmXmXmXaXaXaXaXaXiXiXiXiXiXiXuXuXuXuXiXiXpXpXpXpXpXpXgXgXgXpXpXpXgXgXgXgXgXfXpX X X,X4Xo.i.i._ l.s._ s.s.f.G.f.u.u.y.G.1.V 2.4.4.4.5.V G.5.f.5.6.5.V 2.4.4.V.G.G.5.3.x 2.c ",
"iXiXiXiXiXiXiXiXiXiXiXiXiXiXeXiXeXiXeXiXiXiXiXiXiXiXiXiXaXeXeXeXeXeXeXeXeXeXeXeXeXeXeXeXeXeX8X8XeXeX8XeXeXeXeXeXeXeXeXeXeXeXiXiXaXaXaXaXaXaXaXsXsXaXaXsXsXsXMXMXsXMXsXMXMXMXMXBXVXVXVXVXVXVXVXVXVXsXpX9X$XI . . . .                             X     X         X X   . . + % % # . + & o = i M a = = 4 = & o .   . & & . + = s s 4 1 s ' sXMXMXsXaXaXaXaXmXaXaXaXaXaXaXiXiXiXiXiXiXiXuXiXiXiXpXiXpXpXpXsXsXsXsXsXpXpXgXgXgXgXgXfXfX X X,X4XX.i.i._ a.s.( s.s.[.[.s.u.u.3.f.1.D 3.4.4.4.4.B G.5.f.4.4.5.1.2.u.f.G.5.G.V.G x 3.2.",
"iXiXiXiXiXiXiXiXiXiXiXiXiXeXeXiXiXeXiXiXiXiXiXeXeXeXeXeXeXeXeXeXeXeXeXeXeX8XeXeXeX8XeXeX8XeXeX8X8XeXeXeXeXeXeXeXeXeXeXeXiXiXiXiXaXaXaXsXaXsXaXsXsXaXsXsXsXsXMXMXsXsXsXsXMXMXMXMXMXBXVXVXVXVXVXVXVXVXpX4XX.3 . . 2 # .                   X         X X X               . & % 4 6 4 @ # % = p A ( ( s i M M = * o . . + @ + @ 4 s / M M _ i.sXMXMXMXsXaXaXmXmXaXaXaXaXaXaXiXiXiXiXiXiXiXuXiXuXiXpXiXpXpXpXpXsXsXsXsXsXpXpXpXpXpXsXpXpX X X>X-Xo.i.i._ l.l.( s.f.f.f.f.u.s.y.u.1.1.1.4.4.4.4.V G.u.f.4.4.5.1.4.f.f.G.G.b ;.C.G 4.2.",
"iXiXiXiXiXiXeXiXeXiXeXeXeXeXeXeXiXiXiXaXiXiXiXeXeXeXeXeXeXeXeXeXeXeXeXeXeX8X8XeX8XeXeXeXeX8XeXeXeXeXeXeXeXeXeXeXeXeXeXeXeXeXaXaXaXaXaXaXaXaXaXsXaXaXaXaXsXsXsXMXsXsXMXsXsXMXMXVXMXBXVXVXVXVXVXVXVXVXo.+.9 . . . 5 3       . & . .                 X X X   .   . .   . & + 4 s M u @ % = 4 A ( p.p.( Z ( i._ i 4 = = 4 u 4 4 M ( ( ' e.i.h.MXMXMXMXsXsXsXmXmXaXaXaXaXaXaXiXiXiXiXiXiXiXiXiXiXiXiXiXpXpXpXpXpXpXpXpXpXpXpXpXpXpXsXpXpX X X,X-Xo...i._ l.l.( s.s.f.f.f.u.u.y.u.y.1.1.4.4.2.4.V G.u.5.4.4.5.D 4.G.V.C.C.b b b x 4.4.",
"iXiXiXiXiXeXiXiXiXiXiXiXeXeXeXiXiXiXaXaXaXaXiXiXeXeXeXiXiXeXeXeXeXeXeXeXeXeX8XeX8XeXeXeXeXeXeXeXeXeX8XeXeXeXeXeXeXeXeXeXeXeXeXeXtXaXaXaXaXaXaXaXaXaXaXsXsXsXsXMXMXMXsXMXMXMXBXVXBXBXVXVXVXVXVXVXVXVX+.7 = % + $ $ %       % # . .     .         X X X     . o & # + & & % i U _ i = = u u ( r.s.z.i.( p.s.p.A S M s Z U Z _ ( i.i.p.p.p.k.MXMXMXMXMXMXMXaXaXaXaXaXaXaXaXaXiXiXiXiXiXiXeXiXiXiXiXiXiXpXpXpXpXpXpXpXsXsXsXpXsXpXpXpXpX X X,X=Xo.i.' _ l.l.( s.s.f.f.[.u.u.y.y.t.D 2.u.4.4.5.G G.[.-.4.4.5.C C.C.C.b.b.b.b v C 4.4.",
"iXeXeXiXiXeXeXiXeXeXeXiXiXeXiXiXiXiXaXiXiXiXiXiXeXeXeXeXeXeXeXeXeXeXeXeX8XeX8X8X8X8XeXeXeXeX8X8X8X8X8XwX8XeXeXeXeXeXeXeXeXeXeXiXiXiXaXaXaXaXaXaXaXaXaXsXsXsXMXMXMXMXsXsXMXBXBXBXBXBXVXVXVXVXVXVXVXVX~ 8 3 = 9 8 2 $ .     3 # . + .   .         X X X X   + % + + # o o = s _ _ u % 4 u s ( p.z.].p.r.p.z.].t.t.i.A e.s _ i.i.p.p.s.s.p.@XMXMXMXMXMXMXMXmXaXaXaXaXaXaXaXaXiXiXeXeXeXeXeXiXiXiXiXiXiXpXpXsXpXpXsXsXpXsXsXpXpXpXpXpXpX X X,X=Xk.i.' _ l.l.( s.s.f.z.f.u.u.y.t.y.D u.[.].G.3.].[.4.4.4.4.5.G -.-.C.b b.b.b x C 4.4.",
"iXiXiXiXeXiXiXiXiXiXeXiXeXiXiXiXeXiXiXeXeXeXeXeXeXeXeXeXeXeXeXeXeXeXeXeXwXeXeX8X8X8XeXeXeXeXeX8X8X8X8XwXeXeXeXeXeXeXeXtXeXtXeXiXaXaXaXaXaXmXaXaXaXaXaXsXsXMXMXMXMXMXMXMXMXBXBXBXBXVXVXVXVXVXVXVXVXVX^ I 7 , 0 5 3 q +   O a 2 3 = + + + &         X   o = = 2 = @ @ @ @ 6 U U U 4 = u u Z ( p.s.].p.p.s.s.].p.z.].i.i.s A i.p.p.s.z.s.p.#XMXMXMXMXMXMXaXmXmXaXaXaXaXaXaXaXtXiXeXeXeXeXeXeXiXiXiXiXsXsXsXpXpXpXpXpXpXpXpXpXpXpXpXpXpX.X X,X$Xo...[ _ a.l.( s.s.s.s.f.u.s.y.t.d./.' d.[.3.3.F u.u.4.2.4.5.C V.G.G.G.4.C.-.B c 4.4.",
"eXiXeXeXeXiXiXeXeXeXeXeXeXeXiXeXeXeXeXeXeXeXeXeXeXeXeXeXeXeXeXeXeXeXeXeX8XeXeX8X8X8XeXeX8XeXeX8X8XeXeXeXeXeXeXeXyXeXeXeXeXeXeXtXiXaXaXaXaXaXaXaXaXaXaXaXaXaXMXMXsXMXMXMXMXMXBXVXMXBXVXVXVXVXVXsXMXsX^ 7 3 , , 3 $ $ # . X 6 a a 6 = % # # + . & o o o * 2 u u 4 = # # @ s _ U M 4 u i u Z ( e.p.z.p.p.s.s.z.z.z.].z.s.( A i.p.i.p.z.p.p.=XMXMXMXMXMXMXmXmXmXaXaXaXaXaXaXaXaXeXtXiXeXeXeXiXiXiXiXiXsXsXsXpXpXpXpXpXpXpXpXpXpXpXpXiXpX.X.X,X$Xo...' _ a.l._ s.s.s.s.f.u.u.u.d.d.D 3.G.G.3.y.D 4.u.4.2.4.5.D 5.5.5.G.4.u.4.B c 4.4.",
"eXeXeXeXeXiXeXeXeXeXeXiXeXeXeXeXeXiXeXiXeXeXeXiXeXeXeXeXeXeXeXeXeXeXeXeXeXeXeXeX9XeXeXeXeXeXeX8X8XeXwXeXeXeXeXeXeXeXeXeXeXeXeXeXeXiXiXaXaXaXaXaXaXaXaXaXaXaXMXsXsXsXsXMXMXMXMXMXMXVXVXVXVXVXeXo.o.o.7 8 5 3 3 3 3 , % . X O i U a 2 = = % = = = = = = 4 u s s i 4 < & % M _ U s 4 i i p Z ( ( p.s.p.p.s.s.p.z.z.].].].s.Z p.p.t.i.z.s.p.=XMXMXMXMXMXMXmXmXmXaXaXaXaXiXaXaXaXeXeXiXiXeXiXeXiXiXiXiXaXaXpXpXpXpXpXpXpXpXpXpXpXpXpXiXiX.X X,X$X....' _ a.l._ s.s.u.s.s.u.u.u.t.3.C f.G.G.4.y.D 4.4.4.2.4.u.D u.u.u.f.4.u.5.B C 4.3.",
"eXeXeXeXeXeXeXeXeXeXeXeXeXeXeXeXiXiXeXeXeXeXeXeXeXeXeXeXeXeXeXeXeXeXeXeXeXeXeXeX8XeXeXeX8X8XeX9X9XeXeXeXeXeXeXeXeXeXeXeXeXeXeXeXeXeXtXiXaXaXaXaXaXaXsXaXmXaXMXsXsXsXMXMXMXMXMXMXBXVXVXVXVXiXO.+ . . # 2 2 $ % % $ 3 $ + . X O i 6 4 4 < = = = = ; 4 6 u s s s s s 4 = = s _ U s i s s s f A ( p.p.t.p.s.s.p.s.s.z.z.].z.Z p.s.p.t.s.s.p.=XMXMXMXMXMXMXmXmXmXaXaXaXaXaXaXaXaXiXtXiXeXeXeXeXiXiXiXaXiXiXiXiXsXpXpXpXsXpXpXpXpXpXpXiXpX.X X-X#X..[ ' _ i.l._ s.s.s.u.s.s.u.d.3.y.D G.y.u.f.y.1.u.4.4.4.4.u.D u.5.u.4.4.5.4.D C 4.1.",
"iXeXeXeXeXeXeXeXeXeXeXeXeXiXtXtXiXiXiXiXeXeXeXeXeXeXeXeXeXeXeX8XeXeXeXeXyXeX8X8XeXeX8XeX8X8X8X9X9XeXeXwXeXeXeXeXyXyXyXeXeXeXeXeXtXtXtXiXaXaXaXaXaXaXaXaXmXmXMXMXMXMXMXMXMXMXMXMXBXVXVXVXVXY.i : = O = ; ; % + . . . + # . X X * 1 4 4 3 < < = = 2 u i i s s s s s s 4 4 4 M M s s s s s d A ( p.p.t.p.s.s.p.s.s.z.z.z.z.Z t.s.z.s.s.s.p.#XMXMXMXMXMXMXmXmXmXmXaXaXaXaXaXaXaXiXiXeXeXeXeXeXeXiXiXaXiXiXiXiXsXpXsXsXsXsXpXpXpXpXpXiXpX|  X,X$XX.[ ( _ a.l._ s.s.s.s.u.u.u.u.3.y.1.f.C 2.f.1.t.u.4.4.4.4.u.D u.u.u.4.4.4.4.G C 4.1.",
"eXeXeXeXeXeXeXeXeXeXeXeXeXeXtXeXeXeXeXeXtXeXeXeXeXeXeXeXyXeXeXwX8XeXeXeXwXwX9X8X8X8X9X9XeX8X8XeXeXeXeXwXeXeXeXeXeXtXyXeXeXeXeXeXtXtXtXiXaXaXaXmXmXaXaXaXmXmXMXMXMXMXMXMXMXMXMXVXVXVXeX8X;X' j j p 4 i M i : : = # . . . . X   o = = 4 4 3 4 < = 2 u i u u s s s s s u 4 4 i s s i s s s Z A ( p.p.t.p.p.p.s.s.z.z.z.].s.f ( s.].s.p.s.y.j.#XiXMXMXMXmXmXmXmXmXaXaXaXaXaXiXtXiXiXeXeXeXeXeXeXiXiXiXiXiXaXaXsXiXiXpXpXpXpXiXpXsXpXiXiX| .X,X$XX.[ ( _ i.s._ s.s.s.u.s.s.u.u.3.u.3.3.3.1.4.3.( u.4.4.4.4.u.D u.y.4.4.3.4.4.3.C 4.C ",
"eXeXeXeXeXeXeXeXeXeXyXeXeXeXeXtXtXtXtXeXtXeXeXeXeXeXwXyXeXeXeXeXwXeXeXeXwXwXeXeX8X8X8X8X8X8X8XeXeXeXwXeXwXeXeXeXeXyXtXeXeXeXtXtXtXtXtXiXaXaXaXaXaXaXaXmXmXmXMXMXMXMXMXMXMXMXMXMXBXVXO.I S F j j n r n n j t > e e : : : : : : @ * = 4 6 ; 4 4 = = u u u u u i s s s s 4 = 4 s s s s s s s Z ( p.p.t.p.p.s.z.z.z.z.z.].t.d D p.].l.p.p.i.Z M o.iXMXMXMXmXmXmXaXaXaXaXaXaXtXaXiXiXeXeXeXeXeXiXiXaXiXiXiXiXaXiXiXiXiXiXpXiXpXsXsXpXiXiX| .X,X$XX.[ ( _ a.a._ s.s.s.s.s.s.u.y.t.u.D 3.G.f.4.u.D u.3.4.4.4.4.C 4.3.3.3.3.4.4.D 4.4.1.",
"eXeXeXtXeXeXeXeXyXyXeXtXeXtXtXtXeXtXtXeXtXtXtXeXeXeXeXeXyXyXwXeXeXeXeXeXeXeXeXeX8X9X8X8X8X8X8XeXwX9XwXwXwXeXeXeXeXeXyXeXeXeXyXtXtXtXtXtXaXaXaXaXmXmXmXmXmXmXMXMXMXMXMXMXMXMXMXMXMXMX7 : j G 3.G F j j t j j r > t r j j j j r r = = : u 4 4 4 = = 4 u u 4 u u s s i u 4 = : u i i i p s s Z A r.p.t.p.p.s.z.z.z.z.z.s.n p D i.l.l.i.p.t.M * - X.MXMXMXMXaXaXaXaXaXaXaXaXtXtXiXaXtXeXwXwXeXeXiXaXaXaXaXaXaXiXiXiXiXiXiXpXpXpXpXpXiXpX| .X>X+X....( _ a.a._ s.p.s.s.s.s.u.u.t.u.D G.4.u.4.u.A u.3.3.4.4.4.C 4.3.3.3.3.4.4.Z 4.4.2.",
"tXeXtXtXyXyXeXeXeXtXeXeXeXeXtXeXtXtXeXeXtXtXeXeXeXeXeXeXeXeXeXeXeXeXeXeXeXeXwXwXwXwX8X8XeXeXeX9XwXwXwXeXeXeXeXeXeXeXeXeXeXeXyXeXtXtXtXtXtXaXaXmXmXmXmXmXmXmXmXMXsXMXMXMXMXMXMXVX-XO.F 3.4.-.4.4.4.C t > t n x t > g w j j x x B p = = 4 s = 4 4 = : u : 4 u u 4 : : 1 : = : 4 u u u i p s Z A r.p.t.p.p.s.z.z.z.z.z.i.e p A t.s.l.p.i.t.M   o : eXMXmXmXaXaXaXaXmXaXaXaXtXtXiXaXyXwXwXeXeXeXiXaXaXaXaXaXaXiXiXiXiXiXiXaXpXiXpXiXiXiX| .X4XXX..[ ' _ i.i._ i.d.s.s.u.s.u.u.3.u.D u.f.4.u.y.D u.3.1.4.2.4.G 3.4.3.4.3.4.4.B C 4.1.",
"tXtXtXeXeXyXeXeXeXeXeXeXyXtXeXeXeXeXtXtXtXtXtXeXeX9XeXeXwXyXwXyX9XeXeXeXwXeXwXwXwXwXeXwXeXeXwXeXwXwXeXeXwXeXeXeXeXeXeXeXeXyXyXtXtXtXtXtXaXaXaXmXmXmXmXmXmXmXmXMXMXMXMXMXMXBXVXVX=XD 4.4.4.4.4.4.4.G j t - > B x j t g w w k x x B p = 1 i u : 4 = = : = : e : 1 = = = = : u 4 : u u u p d B Z t.y.r.p.p.s.z.z.z.z.z.( - p Z e.s.l.i.t.( M X   t =XMXMXmXaXaXaXmXmXaXaXaXaXtXtXtXwXwXwXeXtXeXeXiXaXaXaXaXaXaXaXiXiXiXiXiXiXpXsXaXpXiX| .X>XXXX.[ [ _ i.p./ d.i.s.s.y.s.d.y.t.d.t.f.u.u.5.4.D u.3.3.4.3.3.C 4.4.3.3.3.4.3.B V 4.3.",
"tXeXyXeXyXyXyXyXyXyXeXeXeXeXeXeXeXeXtXeXtXtXeXeXeXeX9XwXwXwXwXwXeXeXeXeXeXeX9XwXwXwXeXeXeXeXwXwXeXeXeXeXeXeXeXeXyXeXwXeXeXeXtXtXtXtXtXtXtXmXmXmXaXmXmXmXmXmXmXMXMXMXMXMXMXBXVXgX).3.C G :.-.b c c c x j t > t x c v t t w w x x x x n * : i 4 : = = 4 = : e 1 1 = = 1 1 1 u u : 4 u u s B f Z r.t.y.p.p.s.s.z.z.z.z.M - p Z ( i.i.t.e.( e X - -.P.MXMXmXmXaXaXmXmXmXmXmXaXaXtXtXyXwXwXeXtXeXeXiXiXaXaXaXaXaXaXaXiXiXiXiXiXiXaXaXiXiX| .X>XXX....[ U i.i._ i.i.p.s.u.s.d.y.3.u.D f.f.y.u.4.A u.3.1.3.3.3.D 4.4.4.3.3.3.3.B V 4.G ",
"eXtXtXeXyXyXyXyXyXyXyXyXeXeXeXyXyXeXyXyXeXtXeXeXeXeXeX9XwXwXyXwXwXwXyX9XwXwXwXeXwXwX9XeXeXwXwX9XwXeXeXeXyXyXyXyXyXyXyXeXeXyXtXtXtXtXtXtXtXaXaXaXaXmXmXmXmXmXMXMXMXMXMXMXMXMXsX&XG G c c b b c v c v x x x j g t v c x w t w k x x x j r u : u = = * : = : 4 1 : 1 = = 1 1 1 u : : u u s B B Z t.t.p.p.p.s.s.z.z.z.s.i - e p Z ( ( ( D B > > x 4.4.MXMXmXmXmXmXmXmXmXmXmXaXaXtXtXwXwXwXwXeXtXeXeXiXaXaXaXaXaXaXaXiXiXiXiXiXiXiXiXiXiX| .X>XXX....} U i.a./ t.i.u.s.y.s.d.d.t.u.D y.u.G.u.u.A u.3.2.4.2.3.A 3.4.4.3.3.3.3.n V 4.G ",
"eXyXeXeXyXyXyXyXyXyXyXyXyXyXyXyXyXyXyXyXtXtXeXyXyXeXeXeX9XyXwXwXwXwXwXwXwXwX8XeXeXeXwX9XeXwXwXwXeXwXeXwXeXyXyXyXyXyXyXeXeXeXyXtXeXtXtXtXtXaXaXaXaXmXmXmXMXMXMXMXMXMXMXMXMXsX&Xd.3.3.G G c c c c v v v v x x v w w v v x x w t j F x x B p 1 4 4 * O = = * : u : : = = = 1 u 4 = 1 4 u s d d A t.t.p.p.p.s.z.z.].].' - - t e p B Z Z B x x v :.m.4.sXMXmXmXmXmXmXmXmXaXaXaXaXtXtXyXwXwXeXyXeXeXeXiXaXaXaXaXaXaXiXiXaXiXiXiXiXiXiXiXiX| .X>XXXX...[ U i.i._ i.i.s.p.d.u.d.d.d.d.D y.3.C u.4.A u.3.2.4.3.y.A 4.3.3.C 3.3.3.n V C G ",
"yXyXyXyXyXyXyXyXyXyXyXyXyXyXyXeXyXyXyXtXtXtXeXyXyXyXeXwXyXyXwXwXwXwXwXwXwXwX8X8XwX9X9XwXwXwXwXwXwX9XeXyXeXyXyXyXyXeXeXyXeXeXyXyXtXtXtXtXtXbXtXaXaXmXmXmXmXMXMXMXMXMXMXMXBX:X[.4.G G v v v l v v v v v x l l v v v l v c c G x t w x x j n : = 2 = O O = O : u u 4 4 1 1 1 i u o 1 : s Z s B D e.t.i.y.p.s.z.].z.l.n - > t r r B B x C c &.:.,.,.6.0XMXMXmXmXmXmXmXmXmXmXmXaXtXtXtXyXyXyXeXeXeXeXiXiXaXaXaXaXaXaXaXaXiXaXaXiXiXiXiXiX|  X>XXXO...[ U i.i.( i.d.s.p.d.u.y.y.d.u.t.u.f.3.t.3.B u.3.2.4.3.y.A 3.3.1.D G 3.G n B C 4.",
"yXwXwXyXwXwXyXyXyXyXyXyXyXyXyXeXyXyXyXtXtXyXeXyXyXyXyXwXwXyXyXyX9XyXwXwXwXwX8X8X9XwXwXwXeX9X8X8X9X9XwXwXeXyXyXyXyXyXyXyXyXtXyXtXtXtXtXtXtXtXaXaXmXmXmXmXMXMXMXMXMXMXMXBXqX[.4.3.G c c c v l l v v v v v v l l l x c v c c -.G x t t j B j p : O * * o = O = 4 u 4 4 4 4 4 n F X = 1 s Z d ( e.e.t.t.y.p.s.z.].z.( : - > g w k l c v -.&.=.=.,.,.m.%XMXMXmXmXmXmXmXmXmXmXmXtXtXtXtXtXyXyXeXeXeXeXtXiXaXaXaXaXaXiXiXiXeXeXiXiXiXaXiXiX| .X,X+XX.+.[ T i.a._ i.i.s.p.s.s.t.d.t.u.D u.s.y.D 3.B u.3.1.4.3.y.A 3.3.1.C D G 3.B V C 4.",
"wXwXwXwXwXwXyXeXyXyXyXwXyXyXyXyXtXyXyXyXeXtXyXyXyXyXyXyXwXwXyXwXyXyXwXwXwXwX8X8X9X9X9XwXwX9X9X9XwXwXwXwXwXeXyXyXeXeXyXyXyXtXtXtXtXtXtXtXtXmXmXmXmXmXmXmXMXMXMXMXMXMXMXMX`.4.G G G G G c v l l v v v c v v v l l w l c c c -.-.b F r t r x j r = O * * * * * = : 4 4 1 = @ e G X = = u Z A t.t.e.t.t.p.p.s.].].i.p - - - t w w w z z -.&.=.=.=.,.m.].MXMXMXmXmXmXmXmXmXmXmXaXtXtXtXtXyXyXyXtXtXtXtXtXaXaXaXaXaXaXiXiXeXeXiXaXaXaXiXiX| .X,XXXo...} U i.a._ t.i.p.p.p.s.d.d.u.p.' s.f.u.1.3.B u.3.2.4.3.y.A 3.3.D D D C 3.n V 1.G ",
"yXyXwXwXwXwXwXwXwXyXyXyXyXyXyXyXyXyXyXyXyXyXyXyXyXwXwXwXwXyXwXwXwXwXwXyXyXwXwX9X9XwXwXwXwXwX9XwXwXyXwXwXwXyXyXyXyXyXyXyXyXyXtXtXtXtXtXtXbXtXmXmXmXmXmXmXMXMXMXMXMXMXMX:Xu.G G 3.G G c c v l l v v v v v v c c v l w r c c z b b c c x t t j j e o * = 1 : : : : : * o   X O C O . & = u n A A A A e.i.p.].].z.D > * - - t w w l z l -.#.=.&.*.*.;.u.=XaXMXmXmXmXmXmXmXmXmXaXtXtXtXtXyXyXyXyXtXtXtXiXiXiXaXiXaXaXaXaXiXiXiXaXaXaXiXtX| .X,X XO.+.[ _ i.i._ i.y.s.i.p.s.i.d.u.u.t.f.f.y.t.3.B u.3.2.4.3.y.V 3.3.C D 3.1.3.F V 1.C ",
"wXwXwXwXwXwXwXwXwXyXyXwXwXwXwXyXyXyXyXyXeXyXyXyXwXwXwXwXwXwXwXwXwXwXwXwXyXyXwXwXwX9XwX9XwXwX9XwXwXwXwXwXyXwXyXyXyXeXeXyXyXyXeXeXtXtXtXtXmXaXmXmXmXmXmXmXmXMXMXMXMXMXqXP.4.3.4.4.G c v v l l l v v z v v v c c c c v r w c b b b b c b c r t j r > O 4 s p p s i : & X X X X d ; .   . o = : : : : i M S i.].t.B t * - - g w w l v l -.z *.&.&.&.=.:.u.Q.aXMXmXmXmXmXmXmXmXtXtXtXtXtXyXyXtXtXtXtXtXtXtXtXaXaXaXaXaXaXaXiXiXaXiXaXiXtX| .X,X XO.+.} U i.i._ i.i.p.p.s.s.d.t.u.u.S y.f.1.t.1.B u.3.2.4.1.y.A 3.3.1.1.D 1.4.G C 1.D ",
"wXwXwXwXwXwXwXwXwXwXwXwXwXwXwXyXyXyXyXeXyXyXyXyXwXwXwXwXwXwXwXwXwXwXwXwXeXyXyXwXwXwXwXeXwXwXeXeXwXwXwXwXwXwXeXyXyXyXeXyXyXyXeXtXtXtXtXmXaXaXmXmXmXmXmXmXmXmXMXMXMXsX'.u.3.4.4.3.F x x l l v z z z z z z z c c b b c c r w c -.c b -.c c c w r x t * * M A Z Z p = X X X X X e * o o o % # o o o O % = ; i a.F n t - * - t w w w l l v z #.z &.*.,.&.&.-.;XmXmXMXmXmXmXmXmXtXtXtXtXtXtXyXyXtXtXtXtXtXtXaXaXaXaXaXaXaXaXiXiXiXiXiXiXtX| .X2X XO.[ [ U i.i.T i.p.s.p.s.s.d.t.d.u.( D D B t.3.Z u.3.2.4.1.3.V 3.3.3.3.1.1.3.B G 3.D ",
"wXwX9XwXwXwXwXwXwXwXwXwXwXwXwXwXyXyXeXyXyXyXeXeXeXwXyXwXwXwXwXwXwXwXwXwXeXeXyXwXyXwXwXwXwXwXwXwXeXwXwXyXwXwXeXeXeXyXyXyXyXyXtXtXtXtXaXaXmXmXmXmXmXmXmXmXmXmXMXMXMX0Xs.3.4.4.3.C x k l k l v v z z z z c c c c c b b c c x w c -.c c c c c C w r r - o 4 ( ( D B * X X X X X e > : : 4 s i 2 % # o o # # O S r r t > * > w w l w z z l l z z =.=.=.=.*.:.=XMXmXMXmXmXmXmXmXtXtXtXtXtXtXyXwXtXtXtXtXtXaXaXaXaXaXaXaXaXiXiXiXiXaXtXiXtX| .X2X XO.+.[ U a.i.T i.p.s.p.s.s.d.t.u.d.D s.A D t.3.B u.3.2.3.3.3.V 1.1.3.3.3.3.4.B 3.4.D ",
"wXwXwX9XwXwXwXwXwX9X9XwXwXwXwXwXwXyXwXyXyXyXyXeXeXyXyXyXeXyXyXwXwXwXwXwXwXwXwXwXwXwXwXwXwXwXwXwXwXwXwXwXwXyXyXeXyXyXyXyXtXtXtXtXtXtXtXaXmXmXmXmXmXmXmXmXmXMXMXMXMX%X3.3.3.3.G F k k k k l v v z c c c c -.-.-.-.b c -.c c j r -.b b b c c C C w w t * o s ( ( d o X X X X o r x F x V A A Z M s 6 3 = % % i e > t - * > w l l w z z z #.#.*.=.=.*.*.,.,.;XmXmXMXmXmXmXmXmXmXtXtXtXtXtXyXtXtXtXtXtXtXtXtXtXaXaXaXaXiXaXiXiXiXiXiXiXtX| .X2X XO.] ] U a.a._ i.i.s.p.s.s.u.t.p.d.S t.[.u.3.D B u.3.2.1.1.t.B 1.1.1.3.3.3.4.B C 3.3.",
"wX9XwXwXwXwXwXwXwXwXwXwXwXwXwXwXwXwXwXyXwXyXyXyXyXyXyXeXyXyXyXwXwXwXwXwXwXwXwXwXeXwXwXwXwXwXwXwXwXwXwXwXwXyXyXyXyXyXyXtXtXtXtXtXtXtXtXaXmXaXmXmXmXmXmXmXMXMXMXMXsXs.3.3.3.G F x k k k k l v v z z c c c c c -.-.-.c -.-.c C t x b -.-.-.c c c C x w > O o p Z e X X X X X = x v c c -.2.1.D ( ( ( / / / a > > - t t - g t w w w w l z *.*.=.*.*.&.&.;.6.8XmXMXMXmXmXmXmXmXmXtXtXtXyXyXyXyXtXtXtXtXtXtXtXtXtXtXiXiXaXaXiXtXiXiXiXtXtX|  X2X XO.+.] U j.a./ i.p.p.s.s.s.p.t.p.u.( D 3.D 3.D Z u.3.2.1.1.3.V 1.3.D 3.3.3.3.B C 1.C ",
"wXwXwXwXwXwXwXwXwXwX9XwXwXwXwXwXwXwXwXwXwXwXwXwXwXyXyXyXwXyXyXyXyXyXwXyXwXwXwXyXwXwXwXeXwXwXwXyXwXwXwXwXwXwXyXyXyXyXyXyXtXtXtXtXtXtXtXtXmXmXmXmXmXmXmXMXMXMXMXMX0X3.3.3.3.C F x k k k l l v c z z c c c b -.-.-.-.-.-.-.b b c t c -.-.-.-.c v c c v t : o O - o X X X X . e x c c -.4.4.4.4.4.y.t.t.i.l.' : - - - w w t t t t w w w #.*.*.=.*.#.#.&.,.5.aXmXmXmXmXmXmXmXmXmXtXtXtXtXyXyXtXtXtXtXtXtXtXtXtXtXtXaXaXaXiXiXtXtXtXtXtXtX| .X2X XO.+.[ U { i._ i.s.p.s.s.s.i.t.p.u.Z y.V 1.3.3.B u.3.2.2.1.3.V 1.3.1.3.3.3.3.B C C 3.",
"wXwXwXwXwXwXwXwXwX9X9XwXwXwXwXwXwXwXwXwXwXwXwXwXwXwXyXwXwXwXyXwXyXyXwXyXyXyXyXwXwXwXwXeXwXwXwXwXwXwXwXwXwXwXyXyXyXyXyXyXtXyXtXtXtXtXtXtXtXaXmXmXmXmXmXMXMXMXMXMX*XG 3.-.G F x x k k l l l l v c c c c c &.-.-.-.-.-.-.-.b b c c t c b -.-.-.c v c c x r > .   X X X X X * j v v v c -.-.:.4.4.4.4.y.p.z.t.r - > t w w w w w w w l l z #.#.#.#.z #.=.>.;.9XMXmXmXmXmXmXmXmXmXtXtXtXtXtXyXtXtXtXtXtXtXtXaXtXtXtXaXaXaXiXaXtXtXtXtXtXyX| .X2X XO.+.] M [ i./ i.p.s.s.z.s.i.t.d.s.Z t.s.u.D 3.B y.3.2.1.1.3.V 1.3.1.1.1.3.3.B C 1.B ",
"wX5X9X9XwX9XwXwXwXwXwXwX9XwXwXwXwXwXwXwXwXwXwXwXwXwXwXwXwXwXyXwXwXwXyXyXwXwXwXwXwXwXwXwXwXwXwXwXwXwXwXwXwXyXyXwXyXyXyXtXtXtXyXtXtXtXtXtXtXtXmXmXmXmXmXMXMXMXMXMXg.G G G C x F F x x l l l l v z c -.-.-.-.-.-.-.-.&.-.-.-.-.c c x w c -.-.-.-.c v c x x j * X X   X X X > j l l v c $.-.-.:.;.;.;.;.5.f.D r - w w w w w w w w w w l z z z z #.&.=.=.=.&.%XMXMXMXmXmXmXmXmXmXtXtXtXtXtXyXtXtXtXtXtXtXtXaXtXaXaXaXaXiXiXiXtXeXtXtXtXyX| .X,X XO.) ] U [ i./ i.i.p.s.l.' d.t.p.a.( D s.t.D 3.B u.3.1.2.C 3.V 3.3.1.3.1.3.4.n C 1.D ",
"5X7X9X9XwXwXwXwXwXwXwXwX9XwXwXwXwXwXwXwXwXwXwXwXwXwXwXwXwXwXwXwXwXwXwXwXyXwXwXwXwXwXwXwXwXwXwXwXwXwXwXwXwXwXyXyXyXyXyXyXtXtXyXtXtXtXtXtXtXtXaXaXmXmXmXMXMXMXMX9XG G G G C F C C x x v v v v v z c c -.-.-.-.-.-.-.&.-.-.-.-.-.c -.w v c -.:.-.-.c w x v v t O .   X X X > w l l c $.-.-.#.-.-.:.;.,.,.6.4.C - w k w w w w w w w l z #.z z #.*.*.=.=.*.#.(.MXMXMXmXmXmXmXmXmXtXtXtXtXtXyXtXtXtXtXtXtXtXtXtXtXaXaXaXiXiXiXiXeXeXtXtXwX| .X,XXXO.) ] M [ [ T i.i.s.s.s.A t.t.s.s.D V y.V D 3.B y.3.C C C D V 3.3.3.3.3.3.u.t.s.s.a.",
"5X7X7X7XwXwXwXwXwXwXwXwXwXwXwXwX9X9XwXwXwXwXwXwXwXwXwXwXwXwXwXwXwXwXwXwXwXwXwXwXwXwXwXwXwXwXwXwXwXwXwXwXwXyXyXyXyXyXyXyXyXtXtXtXtXtXtXtXtXmXmXmXmXmXmXMXMXMXMX#XC G G F x x x j k k x l l l v c c c b -.-.-.-.-.-.-.-.&.&.&.b z -.c w z &.:.-.-.-.c t x x w t .   X X * j x v v c -.:.:.-.-.-.-.,.n.n.=.m.,.c t t w w l l l l l -.#.#.#.*.*.=.*.*.&.#.&._.MXMXMXmXmXmXmXmXmXbXtXtXyXyXyXtXtXtXtXtXtXtXtXaXaXtXaXtXaXaXaXiXiXeXtXtXwX|  X,XXX+.+.] U [ [ U i.i.i.s.i.D ' t.d.s.Z D A d 1.3.B y.1.C C C D V 1.1.C 1.1.3.' [.i.i.S ",
"wXwX7X7XwXwXwXwXwXwXwXwXwXwXwXwXwX9XwXwXwXwX9XwXwXwXwXwXwXwXwXwXwXwXwXwXwXwXwXwXwXwXwXwXwXwXwXwXwXwXwXwXwXwXyXyXyXyXyXyXtXtXtXtXtXtXtXtXbXtXbXmXmXmXmXmXMXMXMXH.G G F x x j x j j x x l l l l l v c -.-.-.:.-.-.-.&.-.-.-.-.&.z c -.r v c -.:.:.:.-.F * t k w *     X j C c c -.-.-.*.:.;.:.-.:.m.n.>.>.>.M.m.j > g w l l l l z ;.*.z #.=.=.*.&.#.#.&.*._.MXMXMXmXmXmXmXmXmXbXtXtXtXyXyXtXtXtXtXtXtXtXtXtXtXaXaXtXaXtXaXaXtXeXtXtX5X|  X,X X+.+.) U [ [ U i.i.i.s.i.' D t.s.s.n D d A e.D B y.1.C C D D B C C C C V C p B t.i.g.",
"wXwXwX7X5XwX9X9XwX9X7X9X9X7X7X9XwX9X9XwXwXwX7X9XwX5XwXwXwX9X9XwXwXwXwXwXwXwXwXwXwXyXwXwXwXwXwXwXwXwXwXwXwXyXyXyXyXtXtXtXtXtXtXtXtXtXtXtXtXtXbXmXmXmXmXmXmXMXMX' C C x x F j x x x x x l l v c c v l b c b :.:.:.-.-.&.&.-.-.-.c c c v w z b -.-.-.b b r O - t t o X * G 4.c c -.&.*.*.=.;.;.*.=.n.n.>.>.>.B.m.x g g w l l z z z &.;.*.*.=.*.*.#.#.*.=.>.].MXMXMXmXmXmXmXmXmXbXtXtXtXtXyXtXtXtXtXtXtXtXtXtXtXaXaXtXtXtXaXaXtXeXyXtX5X|  X,Xo.+.] ) U [ [ _ i.i.a.s.t.i.D i.s.s.n 1.r t.D D Z t.1.C C A D B D C 1.1.C D B r t t t ",
"wXwX9X9X>X7XwXwXwXwXwXwX9XwXwX9XwX9X7X7X5XwX9X9X7X>X9X9X9XwX9XwXwXwXwXwXyXyXyXyXwXwXyXyXyXyXyXwXwXwXwXwXwXyXyXyXwXyXyXtXtXtXtXtXtXtXtXtXtXtXbXmXmXmXmXmXmXMXMXD F C x F F j r k k k k l v b :.-.-.c l z l z c -.:.:.&.z b &.-.&.c c c r v z -.-.b c b C t o * > = * F 4.4.-.c #.&.*.*.=.=.=.=.>.n.M.n.n.n.B.=.w g g w z z z z z z &.*.>.>.,.=.=.=.=.,.m.G.MXMXMXmXmXmXmXmXbXbXtXtXyXtXyXtXtXtXtXtXtXtXtXtXaXaXtXtXtXtXtXtXtXeXyXeX>X|  X,Xo.+.j.) U [ [ Z i.i.s.s.t.i.D i.s.s.n t.B u.D D Z 3.1.C C C D V 1.1.1.D V A V V B j x ",
"wX5X7X7X7X5XwXwXwXwXwXwXwXwXwXwXwX5XwXwX5X9X>X7X>X7X7XwXwXwXwXwXwXwXwXwXwXwXwXyXyXyXwXyXyXyXyXyXwXyXwXyXyXyXyXyXyXwXyXyXtXtXtXtXtXtXtXtXtXtXtXmXmXmXmXmXmXMXMX' F F j F F B w w k k k k v c b -.:.-.-.z z l l l z -.&.z z z b &.&.z c x w v b -.c c c c c > o O * r 4.4.-.c c z *.*.*.=.>.>.m.n.n.B.B.B.B.B.=.x g g l z z z z z #.#.#.*.*.=.=.=.=.=.>.m.[.MXMXMXmXMXmXmXmXmXbXtXtXtXtXtXyXyXtXtXtXtXtXtXtXtXtXtXtXtXtXaXtXtXeXeXtX<X| .X2Xo.+..._ U ' [ U i.i.s.s.' i.D a.s.s.s d.A t.C V B 3.1.C C C D V D D D C C B V C C V V ",
"wXwX7X7X7X5XwXwXwXwXwXwXwXwXwXwXwX>X>X9XwXwX7X7X7X9X9XwXwXwXwXwXwXwXwXwXwXwXwXwXwXwXwXwXwXwXwXwXwXwXwXwXwXyXyXyXyXyXyXtXtXtXtXtXtXtXtXtXtXtXtXmXmXmXmXmXmXMXMXi.F F j G F j w w k k l l l v v c -.-.-.-.-.-.z c z z z z l l z z c c z v g x c b v v c c b x * o o j -.c v z z #.=.,.,.>.>.n.m.n.n.B.B.B.B.M.m.m.t g z #.z #.#.#.#.#.#.&.&.&.*.*.*.*.*.m.).MXMXMXMXMXmXmXmXmXtXtXtXtXtXtXyXtXtXtXtXtXtXtXtXaXtXtXtXtXaXaXtXtXeXtXtX1X| .X$Xo.+...U M ( [ U i.i.i.s.' i.S s.s.s.n d.u.1.D Z Z t.C C D C D V 1.1.D 1.3.3.3.C C C V ",
"wXwX5X5X>X>XwXwXwX7XwXwXwXwXwXwXwX5XwXwXwXwXwXwXwXwXwXwXwXwXwXwXwXwXwXwXwXwXwXwXwXwXwXwXwXwXwXwXwXwXwXwXwXwXyXyXyXyXyXtXtXtXtXtXtXtXtXtXtXtXbXmXmXmXmXmXmXMXMX' x F F G F k w w k k l l v v v z c c -.-.:.:.:.:.:.&.&.&.&.z z z c c c l w g l c v v v v b b t O O t x w l l z &.*.;.,.>.m.m.m.n.n.M.B.B.B.B.N.Z.j g z &.&.*.*.*.=.=.=.=.=.=.=.*.*.*.*.m.9XMXMXNXNXmXmXmXmXbXtXtXtXtXtXtXtXtXtXtXtXtXtXtXtXtXtXtXtXtXtXaXtXtXtXtXtX1X| .X$Xo.) ] _ U ] [ U i.i.i.a.t.i.( i.( s.n u.s.1.1.Z Z 3.C C C C D V D D 1.C 3.C 1.2.2.2.2.",
"wXwXwX>X7X>X<XwXwXwXwXwXwXwXwXwXwXwXwXwXwXwXwX7X7X>X7X7X7X7X7XwX>X>XwXwXwXwXwXwXwXwXwXwXwXwXwXwXwXwXwXwXwXwXyXyXyXwXtXtXtXtXtXtXtXtXtXtXtXtXtXbXmXmXmXmXmXMXMXS F F G 3.F r w w k k l x v v z c c c -.-.:.:.:.:.:.:.:.-.-.-.-.-.-.-.c c w g t l v l l v c -.v - * t x v l z z z &.&.;.*.m.m.n.n.M.M.B.B.B.B.N.N.x > l z #.*.=.=.>.>.>.>.>.>.=.=.=.=.*.V.aXMXMXNXNXmXmXmXmXbXtXtXtXyXtXtXtXtXtXtXtXtXtXtXtXtXtXtXtXtXtXtXtXtXtXtXyX1X|  X$X X) ) _ M ] [ M i.i.t.i.i.i.( D Z a.Z u.y.3.D B Z 1.C C C C D A D D D D 3.C 3.C 2.2.C ",
"wXwXwX5XwX5XwXwXwXwXwXwXwXwXwXwXwX5XwXwXwX9X9X>X>X7X>X>X>X9X9X9X9XwXwXwXwXwXwXyXyXyXwXwXwXwXwXwXwXwXwXwXwXwXwXwXtXtXtXtXtXtXtXtXtXtXtXtXtXtXtXtXbXmXmXmXMXMXaXx C C 4.4.F r w w k k l l v z v c c b b &.-.-.-.:.:.:.:.:.-.-.-.-.-.-.&.z z v - w l l l l v c -.t > r x :.-.&.#.z z #.#.z *.,.m.B.M.M.B.B.B.B.M.M.t t g w l z *.>.>.>.>.m.>.>.>.>.>.>.=.[.MXMXMXMXmXmXnXnXnXbXtXtXtXtXtXtXtXtXtXtXtXtXtXtXtXtXtXtXtXtXtXtXtXtXtXyXwX,X|  X2X X+._ _ U [ [ U i.i.i.i.i.i.' i.( i.D D B t.D Z Z t.D C C C D V D 1.D D 3.C 1.V V v v ",
"wXwXwXwXwXwXwXwXwXwX7XwXwXwXwX5X>X>X7X7X>X>X>X>X>X7X>X>X>X9XwXwXwXwXwXwXwXwXyXwXwXwXyXyXwXwXwXwXwXwXwXwXwXwXwXwXwXyXtXtXtXtXtXtXtXtXtXtXtXtXtXmXbXbXmXmXMXMXiXF C C 4.G x j r k k k l v c c c z c c -.-.-.:.:.:.:.:.:.:.-.-.-.-.&.b z z b c l t w k k w l v v c > t t c z #.&.&.&.&.z z z *.=.M.M.M.n.B.B.B.M.m.- w t g w l #.=.=.>.>.>.>.m.>.>.>.>.>.G.MXMXMXNXmXmXmXmXnXbXtXtXtXtXyXtXtXtXtXtXtXtXtXtXtXtXtXtXtXtXtXtXtXeXeXtXyX,X|  X2X X+.) _ U [ [ M i.i.i.t.i.t.' a.i.' D r p 3.D Z S D C V C C D A D D D D 1.C 1.C V V V ",
"wXwXwXwXwX5X7X7X7XwXwXwXwXwX5X7X7X>X>X>X>X>X>X7X>X>X<X>XwXwXwXwX9XwXwXwXwXwXwXwXwXwXwXwXwXwXyXwXwXwXwXwXwXwXwXyXwXtXtXtXtXtXtXtXtXtXtXtXmXtXmXmXbXbXmXmXmXMXaXC G -.4.G j r w k k k l v c c b c c -.-.-.:.:.:.:.-.&.&.-.-.-.-.&.z z z z z z c w g w w w w v w C r w t w w k v z =.;.&.#.z z #.m.M.M.B.B.B.B.N.,.> k w w w w *.*.*.*.=.=.>.>.>.>.>.=.>.5.0XMXNXmXmXNXmXmXmXbXbXtXtXyXyXyXtXtXtXtXtXtXtXtXtXtXtXtXtXtXtXtXtXtXeXeXeX,XP  X2XXXO.) _ M [ [ M i.i.i.i.i.i.' a.i.D p d p 3.D Z Z D C C V C Z V C D C D 1.C C V V x x ",
"5XwXwXwXwX<X>X>X>X>XwXwXwXwXwX7X7X>X>X>X7X9X7X>X>X7X5X5X7X7X>X9X9X9XwXwXwXwXwXwXwXwXwXwXwXwXwXwXwXwXwXwXwXwXwXyXtXtXtXtXtXtXtXtXtXtXtXtXtXbXmXmXmXbXmXmXmXMXMX' C 4.3.F j r w k j j l v v v c z c c c c -.-.-.-.&.&.&.&.-.&.b z z z z z z c c x > g w r t r w k x c x w x w w w z ;.,.=.*.&.z &.>.M.M.B.B.B.N.:.t w w w w l &.*.&.*.=.=.>.>.=.>.>.=.>.,.].aXNXNXmXNXNXnXmXbXbXtXtXyXrXrXyXtXtXtXtXtXtXtXtXtXtXtXtXtXtXtXtXtXeXeXwX2X|  X2XXXO.) _ M [ [ M t.i.i.t.i.i.' a.i.( e D d e.D Z A 1.C C V C D A D D C C 3.u.f.V x r y ",
"5X5XwXwXwX5X5X5X7X7X5XwX5X5X7X>X9X7X9X>X>X7X>X>X>X>X7X>X7X>X9X9XwXwXwXwXwXwXwXwXwXwXwXwXwXwXwXwXwXwXwXwXwXwXwXwXyXtXtXtXtXtXtXtXtXtXtXtXbXbXbXmXmXmXmXmXmXNXMXa.C 3.G F r w r k k l x l v v v v c c z z z b &.&.z &.&.z &.&.z z z z b z z c c w t - t w w g r t v -.v w c c x r t v ;.m.n.=.*.&.&.>.M.N.B.B.N.-.w t l w w l z &.&.*.*.>.>.=.=.>.>.>.>.,.m.;XNXNXmXmXnXnXmXbXtXtXtXtXtXtXtXtXtXtXtXtXtXtXtXtXtXtXtXtXtXtXtXyXyXwXwX2X| .X2X+XO.) _ U [ [ M ' t.i.' i.i.' i.i.' p u.D ( D Z A D C C V A A B 1.f.G.|.|.|.|.V t t t ",
"5X5XwXwXwX5X5XwX9XwXwXwX5X5X9X>X7X>X>X>X>X>X>X>X,X>X>X>X>X>X9X9XwXwXwXwXwXwXwXwXwXwXwXwXwXwXwXwXwXwXwXwXwXwXwXwXtXtXtXtXtXtXtXtXtXtXtXtXbXbXbXbXmXmXmXmXmXmXMXi.C G C F r w r k k l l l l l l l c z b c z z z z z &.&.&.-.-.b b z z z z z z l w t * - t r > t > l :.b l x c F r w l z ;.M.m.n.>.*.&.n.N.N.B.N.c w t v l l w l z #.*.=.>.n.>.*.=.>.>.>.=.;./.MXNXmXmXmXnXmXbXtXtXtXtXtXtXtXtXtXtXtXtXtXtXtXtXtXtXtXtXtXtXtXyXwXwXwX2X| .X2X+XO.) _ U ..[ U ' ' i.' p.p.' i.i.t.Z d.t.D A Z Z D C V 2.y.f.G.{.{.{.{.G.G.G.G.f.G.G.",
"wXwXwXwX5X5X5X5XwXwXwXwX5XwX>X7X7X>X>X>X,X>X>X>X>X>X>X7X>X7XwXwXwXwXwXwXwXwXwXwXwXwXwXwXwXwXwXwXwXwXwXwXwXwXwXwXyXtXtXtXtXtXtXtXtXtXtXtXbXbXbXbXbXmXmXmXmXMXMXD F F F x r r r j j k l k v c v l v z c c z z z -.&.&.:.;.:.-.b &.-.-.b z z l v j t * * > t t t t t b &.c k j j x c z v &.n.m.M.B.n.*.>.N.N.N.N.v t w l z z z l l l #.>.n.n.n.=.=.>.>.>.,.,.G.MXNXNXNXmXnXmXbXtXtXyXyXyXtXtXtXtXtXtXtXtXtXtXtXtXtXtXtXtXtXtXwXwXwX9X2X| .X2X$X+.^ T M [ [ U [ i.l.' i.i.' ( i.' ( d.t.S A B D G.|.|.|.|.|.|.|.|.{.{.{.{.{.{.{.{.{.",
"5XwXwXwXwX5X5X5X5XwX5X<X5X<X>X>X>X>X>X>X>X>X>X>X>X>X7X>X>XwXwXwXwXwXwXwXwXwXwXwXwXwXwXwXwXwXwXwXwXwXwXwXwXwXwXyXyXyXyXtXyXyXtXtXtXtXtXtXbXmXbXmXbXmXmXmXNXmXMXN n r r j j j j j j j l l c c c v v z c -.z b -.-.c -.;.:.-.-.-.-.-.-.-.-.&.z c l > * * * > t t t t w &.&.x r t c z z z #.>.m.M.N.M.,.>.B.N.N.M.l t w w z z z z z l l *.>.n.n.>.>.>.>.>.m.m.G.MXNXmXmXnXnXnXbXtXyXrXrXyXrXrXtXtXtXtXtXtXtXtXtXtXtXtXtXtXtXyXwX9X9X>X2X| .X2X+X+.) T M ..[ U i.i.i.' p.i.' ' t.' Z Z t.Z D B f.{.{.{.{.{.|.|.|.|.|.|.|.|.|.|.|.|.|.",
"5XwXwXwXwX5X5X5X5X5XwXwXwXwX<X>X>X>X>X>X>X>X>X>X>X>X>X>X7X9X5X5XwXwXwXwXwXwXwXwXwXwXwXwXwXwXwXwXwXwXwXwXwXwXwXyXwXwXyXtXtXtXtXtXtXtXtXbXbXbXbXmXbXmXmXmXmXmXMXU r r r r j j j j j x v v c c c c c c c b z z c c v -.;.-.-.-.-.:.-.-.-.-.-.&.c v r > - * > w w r k w l *.c x t x z z #.&.=.>.>.M.M.M.B.B.N.Z.,.w w t w l z z z #.z #.*.=.>.>.>.>.>.n.m.m.m.G.MXNXNXmXnXnXbXbXtXtXrXrXyXrXtXtXtXtXtXtXtXtXtXtXtXtXtXtXtXyXyXwX9X7X>X2X| .X2X+X+.) U m ....U i.t.i.t.i.i.t.i.i.' e r ( D D B f.{.{.{.{.{.{.{.{.{.{.{.{.{.{.{.{.{.{.",
"5X5X5X5X5XwXwX<X5X5X5XwX5X5X<X>X<X>X>X>X>X>X>X>X>X>X>X>X7X9X>X7XwXwXwXwXwXwXwXwXwXwXwXwXwXwXwXwXwXwXwXwXwXwXyXwXwXyXtXtXtXtXtXtXtXtXbXbXbXbXbXmXmXmXmXmXNXNXMXX.t r j j j j j j k k v v v c c c c v v v z z v z v :.:.-.:.:.:.:.-.-.&.z &.-.&.b v t > - t l w x v x w &.c x j w c &.&.*.=.>.>.n.B.B.M.N.B.M.-.w y t l z l z z z z &.*.=.=.>.n.n.m.m.m.m.m.).NXNXmXmXnXnXbXbXtXrXrXrXrXrXtXtXtXtXtXtXtXtXtXtXtXtXtXtXtXtXtXwX9X7X>X2XP .X2X$X+.) U a ] [ M ' ' ' i.p.i.t.' i.' i B Z D A Z f.{.{.{.{.{.{.{.{.{.{.{.c.c.{.{.{.{.{.",
"5X5X5X5X5XwXwX5X>X>X5X5X5X<XwX<X>X>X>X>X>X>X>X>X>X>X>X>X5X5X>X>X5X7XwXwXwXwXwXwXwXwXwXwXwXwXwXwXwXwXwXwXwXwXwXwXwXyXyXtXtXtXtXtXtXtXbXbXbXbXmXmXmXmXmXNXNXNXMX!.t t t r r j r j k k l v v c c c v l v v v v v z c :.:.:.:.:.:.:.&.b z z &.&.-.b c w - - k v l c c x w z -.C c r l -.&.*.*.=.>.n.B.B.M.N.N.=.l w l w w z z z z z z &.*.>.=.n.m.m.n.m.m.m.m.&XNXNXmXnXnXnXbXbXtXtXyXyXrXyXtXtXtXtXtXbXtXtXtXtXtXtXtXtXtXtXyXwX9X>X,XOXP .X2X$X+.^ T a ..] M ( ' t.i.' ' t.' i.' Z t.Z D Z B f.{.{.{.{.{.{.{.{.{.{.{.G.c.{.{.c.{.{.",
"5X5X5X5X5XwXwX5X>X5X5X5X<X5X5X<X<X>X5X>X>X>X>X>X>X>X>X>X>X>X<XwX5X7XwXwXwXwXwXwXwXwXwXwXwXwXwXwXwXwXyXyXwXwXwXyXtXtXtXyXyXtXtXtXtXtXtXbXbXbXmXmXbXmXmXmXmXNXMX@Xr t > e r j r k k k x x v v x F k k l v l v v z c :.:.;.:.-.:.-.&.z z z *.&.-.c v t - - v z c c c c x l :.:.-.x w -.-.*.*.=.>.n.B.B.B.N.N.z w w l l w l #.&.z z z #.=.n.n.n.m.m.m.n.m.m.m.;XNXNXNXnXnXmXnXbXtXtXyXrXrXrXyXtXtXtXtXtXtXtXtXtXtXtXtXtXtXyXyXwX9X>X,XOXP .X+X2X+.) _ J ..] U ( i.i.i.( ( t.( i.' S d.( A Z B f.{.{.{.{.{.{.{.{.{.{.{.{.c.{.{.{.{.{.",
"5X5X5X5X5XwXwX5X5X5X5X5X5X5X5X>X>X5X>X>X>X>X>X>X>X>X>X>X>X>X>XwX5XwXwXwXwXwXwXwXwXwXwXwXwXwXwXwXyXyXyXyXwXwXyXyXyXtXtXtXtXtXtXtXtXtXtXbXbXbXbXmXbXbXmXmXmXNXNXQ.F e > > > t r w k k x c v x x j w j x x l v c z c :.;.;.:.-.-.c z z z &.;.*.-.-.l - - t c -.-.c c c c l -.,.*.c w v :.:.*.=.>.n.B.B.B.M.M.w w w l l l w l &.&.z l l *.n.M.M.M.m.m.m.m.m.,.8XNXNXmXmXnXmXbXtXtXtXtXrXrXrXtXtXtXtXtXtXtXtXtXtXtXtXtXtXtXyXyXwX7X>X,XOXP .X+X2X+.) T U ..] U ( ' t.i.' ( t.( ' ' S t.t.Z B B f.{.{.{.{.{.{.{.{.{.{.{.{.f.c.f.f.f.f.",
"5X5X5XwX5X5XwX5X5X5X5X<X>X>X>X>X7X>X>X>X>X>X>X>X>X>X>X>X>X>X>X<X5XwX5XwXwXwXwXwXwXrXwXwXyXyXwXyXyXyXyXyXwXwXyXyXrXyXtXtXtXtXtXtXtXtXtXtXbXbXmXbXbXbXmXmXmXNXNX%XF r e > > > r r r k k v x x j r r r j x l v c v c :.;.;.-.-.c z z z z *.;.:.-.-.w > > t -.c -.-.-.-.-.z -.m.=.z l l &.;.=.>.>.n.B.M.B.M.;.g g l l l l l w #.:.&.#.z z =.n.M.M.m.m.m.n.>.,.mXNXNXNXnXnXnXbXbXtXtXtXrXrXtXtXtXtXtXtXtXtXtXtXtXtXtXtXyXyXyXyXwX>X,X,XOXP .X$X$X+.) T I ..] U ( ' ' i.( ( ' ( ' ' u n ' A B n f.{.{.{.{.{.{.{.{.{.{.{.{.{.c.f.f.{.{.",
"5X5X5XwXwXwX5X5X5X5X7X<X>X>X>X>X7X>X>X>X>X>X>X>X>X>X>X>X>X>X<X<X<XwX5XwXwXwXwXwXyXyXyXwXyXwXyXyXwXyXwXwXwXwXwXyXyXwXtXtXtXtXtXtXtXtXbXbXbXbXmXmXbXmXmXmXmXNXNX0XD r e e > > e j j j k x F F j j r w j k l x c l c ;.;.:.z -.z z z &.&.;.;.:.b l w w w t -.c c -.:.b -.&.;.,.m.&.v w z ,.m.m.n.n.B.B.N.N.-.w w w l l l l l l -.*.&.#.z z *.>.m.m.n.n.>.m.G.MXNXNXNXmXnXnXbXbXtXtXyXrXrXrXtXtXtXtXtXbXtXtXtXtXtXtXtXtXtXyXyXwX7X,X,XOXP .X+X$X+.) ) I ..] U ( ' ( i.' ( ( ( ( ' e r D D Z n f.{.{.{.{.{.{.{.{.{.{.{.{.{.c.{.{.{.{.",
"5X5X5XwXwX5X5X5X5X5X5X>X5X>X>X>X>X>X>X>X>X<X>X>X>X>X>X<X>X<XwXwXwXwXwXwXwXwXwXwXrXrXwXwXyXwXyXwXwXwXwXwXyXwXwXyXwXyXyXtXtXtXtXtXtXtXbXbXbXbXbXbXbXbXmXmXmXNXNXMXX.n r e > > > e j k k x F F j j k r r k j x c l -.;.:.c z b c z z &.;.m.;.-.l t x w k w -.-.z :.;.&.z &.m.*.m.=.b l l ;.m.n.n.B.B.B.B.M.c w w w l l l l z l z *.*.&.#.z z &.*.>.>.m.,.,.'.NXNXNXNXmXnXnXbXbXtXtXtXrXrXrXtXtXtXtXtXbXtXyXyXtXtXyXtXyXyXyXyXwX7X>X,XOX| .X+X$X+.) T I ) ] U ' [ ' i.' ( ( D ( ' M B n D Z B f.{.{.{.{.{.{.{.{.{.{.{.{.{.c.{.{.{.{.",
"<X<X5X5X5X5X5X5X5X5X5X<X5X5X5X>X>X>X>X>X>X5X>X>X>X>X>X>X<X<X5X<X<XwX5XwXwXwXwXwXwXrXwXrXyXyXyXwXyXwXwXwXyXwXwXwXwXyXtXtXtXtXtXtXtXtXtXbXbXbXbXbXbXbXmXmXmXmXNXMX9XN r r e > > : t w w x x x j j j r r k x x x l :.:.b z b -.c z l &.,.m.&.l w > c w w k c ;.&.&.m.;.-.&.m.:.&.m.*.z l z M.M.B.M.n.n.B.M.x w w w l z l z z z z ;.:.*.&.&.z #.&.*.>.m.,.5.8XNXNXNXmXnXnXnXbXtXtXtXtXrXrXrXtXtXtXtXtXtXtXtXyXtXtXyXwXwXwXwXwXwXwX>X>XOXP .X+X$X+.^ T a ) ] U ' [ ' [ ' ' ( D ( ' S ' p D A n C C 2.2.3.x.f.f.G.G.{.{.{.{.{.{.{.{.{.",
"<X5X5X5X5X5XwXwX5X5X<X5X5XwXwXwX>X<X>X5X5X<X<X>X>X5X5X5X>X<X<X<X<X5X5XwXwXwXwXwXwXrXwXwXrXwXwXrXwXwXwXwXwXwXwXwXwXtXtXyXtXtXtXtXtXtXbXbXbXbXbXbXbXbXmXmXmXNXNXNXMXk.r t t t > > > t k x x j x j j r r w j x k v :.c z c -.-.v v l :.m.;.v l l > c v w w l ;.:.&.m.m.;.:.,.,.#.:.,.&.l l m.B.B.N.n.n.M.N.r k l w w z z z z z z *.;.;.;.=.*.#.#.&.*.=.,.[.MXNXNXmXmXnXnXnXbXtXtXtXtXtXrXrXtXtXtXbXtXtXtXyXyXyXwXwXwXwXwXwXwXwXwX>X>XOXP .X+X2X+.^ U J ) ) U [ [ ( [ [ i.( ( ( ( i t.Z S S n Z V V d d V Z D D A C C 1.3.1.4.5.5.f.",
"<X<X5X5X5X5XwXwXwXwXwX5X5XwXwX5X>X>X>X>X5X5X>X>X>X<X5X5X>X<X<X>X<XwX5XwXwXwXwXwXwXrXwXyXwXwXwXwXwXwXwXwXwXwXwXwXrXyXrXyXtXtXtXtXtXtXtXbXbXtXtXtXbXbXmXmXmXNXNXNXNX9Xn r r t e > > > r j j r x j j j j w j j k l -.v c -.-.-.c x l ,.>.&.l -.v w x -.v x w c ;.&.m.m.,.,.m.n.*.z =.*.z l ,.N.M.N.B.B.B.N.w w l l w z z z z z z z *.;.,.,.=.*.&.&.&.*.,.;XNXNXNXNXNXnXnXnXbXtXtXtXtXtXtXtXtXtXtXtXtXtXtXwXwXwXwXwXwX5XwXwX9X9X7X>X>XOX| .X+X2X+.) T J ) ] U ' ' ( ' [ i.( ( ( ( : Z ( Z Z n Z Z B r B A Z D ( D D D D B e p d p - ",
"<X<X5X5X5XwXrXrXrXrXwX3X<XwXwX>X5X>X>X>X>X>X>X>X>X>X>X>X>X<X<X<X<XwXwXwX5XwXwXwXrXrXyXwXwXwXwXwXwXwXwXwXwXwXwXwXrXyXyXtXtXtXtXtXtXtXtXbXbXtXtXtXbXbXmXmXmXNXNXNXMXMXS n r r i e > > > r j j j j j j j j j j j x c v c -.-.-.c x z m.>.&.z -.v k x :.z v l l ;.;.M.m.=.,.M.M.=.z &.,.&.l =.N.N.M.N.B.N.N.x w l l w z #.z #.#.z z #.&.=.>.>.>.=.*.*.;.G.mXNXNXNXNXNXnXnXnXbXbXtXtXbXbXtXtXtXtXtXtXtXtXtX5X5X5X5XwXwX5X9X9X9X9X7X,X>XOXP .X+X2X+.^ T U ] ] U ' [ ' ' i.i._ ( _ ( n r ( Z Z p Z B B e r D Z ( ( D D D D Z e B p p 1 ",
"5X5X5X5XwX5XwXwXrXrXrX5X5X<X<X<X<X>X>X>X>X>X>X>X>X>X>X>X>X<X<X<X<X5XwXwXwXwXwXwXwXwXrXrXwXwXwXwXwXwXwXwXwXwXwXwXyXyXtXtXtXtXtXtXtXtXtXtXtXtXbXbXbXbXbXmXmXNXNXNXNXMXj.p r r r r > > > e r j j j j j j j j k j x x v z -.-.-.c k *.m.>.#.z c c r F :.z c c w c ,.M.M.*.=.M.N.,.-.l ;.;.z *.N.N.M.M.B.B.m.c g l l l l :.z z #.z z z #.&.*.=.=.=.=.=.5.0XNXnXNXNXNXNXnXnXnXbXbXtXtXtXtXtXtXtXtXbXtXbXtXrX5X7X7X7X5X9X9X7X9X7XwX5X>X>X XP .XoX$X+.^ U U +.+.U ' [ ' ' i.i._ ( ( ' S D B D D n _ A A B d p n ( ' ' ( D D B r B n n : ",
"<X5X5X5X5X5XwX5X5XrXrX5X5X<X<X<X<X<X<X<X<X>X>X>X>X>X<X>X>X<X>X<X<X<X5XwXwXwXwXwXwXwXwXrXrXrXrXrXrXyXwXwXyXwXwXrXyXyXyXyXtXtXtXtXtXtXtXtXtXtXtXbXbXbXbXmXmXNXNXNXNXNX#Xp r r r r t > > > t j j j j j j j j k j x x v v b -.-.x k *.B.=.#.#.c -.r 2.-.:.v b c l ;.M.N.m.=.m.N.m.:.z z ,.#.*.N.M.B.B.N.A.:.v w w l l w #.:.#.#.#.#.z #.&.&.*.=.*.=.;.'.NXNXnXNXnXnXNXnXnXnXbXbXbXtXtXtXtXtXtXtXbXbXbXtXrX5X5X5X7X>X7X7X7X9X9X7X5X>X1X XP .XOX2X+.^ U I ) ) U ( [ [ ' a.a._ ' ( ' ( t.Z D D Z ' D D V A A p ( ' ' D D ' B i B n n u ",
"5X<X5X5X5X5X5X5X5X5X5X5X5X<X<X<X<X<X<X<X>X>X>X>X>X<X<X>X<X<X>X<X<X<X<X5XwX5XwXwXwXwXwXrXwXrXrXrXwXyXwXwXwXwXwXwXrXyXyXyXyXtXtXtXtXtXtXtXtXtXtXtXbXbXbXmXmXmXNXNXNXNXwXn r r r j r e > > > t j j j j j j j j k k l v v c -.c k x -.M.=.&.z -.c c -.c ,.#.v -.c -.M.N.M.=.n.N.M.=.#.l :.&.=.N.N.M.B.Z.B.v v z > w l l l ;.*.#.#.#.#.#.#.&.&.*.=.,.G.aXNXNXNXNXnXnXnXnXnXnXbXbXtXtXbXyXyXtXtXtXbXtXbXbXrX5X5X7X7X7X7X7X7X>X>X,X,X>X,X XP .X+X2X+.^ U J ) ) U ( [ [ ' i.a.' ' ( ' p D ( D S M i.D D V V D n ( ' t.D D D B p Z n B i ",
"<X<X<X5X<X5X5X5X5XwXwX5X5X<X<X<X<X<X<X<X>X<X<X>X>X<X<X<X<X<X<X<X>X<X<X<XwXwXwXwXwXwXwXwXwXyXrXrXyXwXyXyXyXwXwXwXrXyXyXyXyXyXtXtXtXtXtXtXtXtXtXtXtXbXbXmXmXmXmXNXNXMXmXN r t t r r r t t t t r j j j j j x j j j k l v c -.c w c v M.=.:.z :.l :.,.z m.;.z v -.c N.N.M.,.>.M.M.=.&.z z &.=.M.M.M.M.M.*.w v &.t w w l l &.,.&.#.#.#.#.#.&.&.*.,.5.0XNXNXNXNXnXnXnXnXnXnXnXbXbXtXyXyXyXyXyXbXbXbXbXbXbXwX7X5X5X7X>X>X>X>X,X,X>X>X1X1X XP | OX$X+.^ T J ) ) U ' [ ' i./ _ [ ' ( ' u p ( A S n ' ' V V V D n ( ' t.( D ' B n Z B B r ",
"<X<X<X5X5X5X5X5X5X5X5X5X5X5X<X<X<X<X<X<X>X>X>X>X<X<X<X>X<X<X<X>X<X5X<X<X<X3XwXwXwXwXwXwXrXwXrXrXyXrXwXyXyXyXwXrXrXrXyXrXyXyXtXtXtXtXtXtXtXtXtXtXtXbXbXmXmXmXmXNXNXMXMX..r t t t t r r t t t t r j j j x j j j k j k l c -.x x c l m.>.:.v :.x -.V.&.;.,.:.v c c M.N.N.n.>.M.M.n.=.z z z *.M.n.B.M.,.&.w v &.v g w l l l ;.=.*.#.#.#.#.&.*.=.,.*XMXNXNXnXnXnXnXnXnXnXnXnXbXbXtXrXyXtXtXbXbXbXbXbXbXbXwX>X,X,X,X,X,X,X,X,X,X>X>X>X,X XP .XOX$X+.^ T I ) ) U / [ ' i._ ( ' [ ( ' p B D Z Z s ( t.V V Z S Z ( ' t.D D ' B n Z B B r ",
"5X<X5X<X<X5X5X5X5X5X5X5X5X5X<X<X<X<X<X<X>X>X>X>X<X>X>X<X<X<X<X>X<X<X<X<X<X<XwXwXwXwXwXwXwXwXwXwXyXrXwXyXrXyXyXrXrXyXrXyXyXyXtXyXrXtXtXtXtXtXtXbXtXtXbXbXmXmXNXNXNXMXMX$Xn r r t t t t t t t t t r j j x j j j j k k k v G x F c j *.m.-.v -.c c ,.,.&.m.;.-.v z ,.N.N.n.>.n.M.B.>.&.z z &.B.>.B.M.m.*.y c z -.w g w l l #.=.*.*.#.#.#.#.*.,.].mXNXNXNXnXnXnXnXnXnXnXnXnXbXbXtXyXyXtXtXtXbXbXtXtXbXtXwX>X,X,X,X,X,X,X,X,X,X>X>X1X,X XP .XOX$X+.^ T U ) ) U ) [ [ i.[ i.S i.( ' N Z D Z Z n ( i.V V V A Z ' ' t.( D ( B n Z B B p ",
"<X<X<X<X<X<X5X5X5X5X5X5X5X5X<X<X<X>X<X<X<X<X<X>X>X>X<X>X>X<X>X>X<X<X<X<X5X<X5X5XwXwXwXwXwXrXrXrXwXrXyXyXyXrXrXrXrXrXrXrXrXyXtXtXrXrXtXtXtXtXtXtXtXbXbXbXmXmXNXNXNXMXMX9Xn r r r t t t t t t t t t r j j x j j j k j j x c v c c w c m.z c v -.-.-.V.c ,.,.:.-.l -.M.Z.B.n.n.M.N.n.*.#.z &.n.>.>.M.N.;.x b k =.w w w l l l *.=.*.&.#.z #.;.G.iXNXNXNXnXnXnXnXnXnXnXnXbXbXbXbXtXtXtXyXtXbXbXbXbXtXbXbX5X>X,X,X,X,X,X,X,X,X,X>X>X>X1X XP .X X$X| ^ U U ) ) U } [ ' [ ' i.Z i.( [ M S S Z Z s ( i.V V B Z n ( ' t.' ( D B n Z B B p ",
"<X<X<X<X5X5X5X5X5X5X5X5X5X5X<X<X<X<X<X<X<X>X<X>X>X>X<X>X>X<X>X<X<X>X<X<X<X<X5X5X5XwXwXwXrXwXwXrXwXrXyXrXrXrXrXrXyXrXrXrXrXrXyXyXrXtXtXtXtXtXtXtXbXbXbXbXmXmXNXNXNXNXMXMXS r j r r r r t t t t t t w r j x x k j k j j k l c c x r v ;.l -.l c *.l V.-.&.m.=.:.v z >.N.N.n.n.M.N.N.=.&.z ,.,.>.n.n.N.M.v z w =.c w w w l l z *.*.*.&.z -.5.9XNXNXNXNXNXnXnXnXnXnXnXnXnXbXbXbXbXtXtXtXtXbXbXbXbXtXbXbXwX>X,X,X,X,X,X,X,X,X,X>X>X>X,X XP .X X+X| ^ U I ) ) U ( ' ' [ ' [ S [ ( ' n Z S S Z s ( t.V V B Z M ( t.i.' ( ( F n Z F B p ",
"<X<X<X<X5X5X5X5X5X5X5X5X5XwX<X<X<X<X>X>X<X>X<X>X>X>X>X>X>X<X<X<X>X<X<X<X<X<X5X5X5X5XwX5XwXwXrXwXwXrXyXyXrXwXrXwXwXyXrXrXrXyXyXtXtXyXtXtXtXbXtXtXtXbXbXbXnXmXNXNXNXNXNXMXj.n r r r w r r r t t t t t r j j x j j j x x x x v v x w x -.x -.l c =.v -.:.&.m.m.:.-.l *.M.N.n.>.n.M.N.M.&.z m.;.>.B.n.N.A.-.z x z ;.r l l l l z &.&.&.&.-.4.;XNXNXNXNXNXnXnXnXnXnXnXnXnXnXbXbXbXbXbXtXtXtXtXtXbXbXbXbXbX5X>X,X,X,X,X,X,X,X,X,X,X>X>X,X.XP .X X+X| ^ U I +.) U ( ( ' ' ' _ / i.( ' Z A A S Z i ( t.V B B B Z ( i.t.t.t.D Z Z Z Z Z p ",
"<X<X<X<X5X5X5X5X5X5X5X5X5X5X<X<X<X<X>X>X>X>X>X>X>X>X>X>X<X<X>X<X<X<X<X<X<X<X<X5XwXwX<X5X5XwXrXrXwXrXrXyXyXrXwXwXrXyXrXyXrXyXrXyXtXtXtXtXtXbXtXtXtXbXbXbXnXmXmXNXNXNXMXMX#Xn j j r r r r j r e > - > t r j j x j k j x j x x x x r v -.r :.v v ;.z l 4.;.&.m.*.*.z z n.Z.M.>.>.n.m.N.=.#.m.:.>.A.n.N.A.:.v c l m.(.i.D v v l z z z -.s.;XNXNXNXNXNXNXNXnXnXnXnXnXnXnXnXbXbXbXbXtXtXtXbXbXbXbXbXbXbXtX5X,X,X,X,X,X,X,X,X,X,X,X,X>X,X.XP  X X+X| ^ U J +.] U ( ( [ [ ) / / _ ' } M Z A S S s ( ' B B B Z N ( t.t.t.' D D Z B S Z p ",
"<X<X<X<X5X5X5X5X5X5X5X5X5X5X<X<X<X<X>X>X>X>X>X>X<X<X<X<X<X<X<X<X<X<X<X<X<X<X<X5X5X5X3X3X<X3XwXwXrXrXyXyXyXyXrXrXwXyXwXyXyXyXrXyXtXtXtXtXtXtXbXbXbXbXbXbXbXnXmXNXNXNXMXMX8Xn r r j j j j j j t > > t t t r j j j j k x x x x x j r x *.j :.&.l ;.#.l :.,.#.n.m.:.:.l ,.N.N.M.>.=.=.N.n.&.M.,.M.B.B.B.B.:.l -.g ;.qXiX9X%XT.h.g.g.H.#X8XNXNXNXNXNXnXNXnXnXnXnXnXnXnXnXnXnXbXbXbXtXtXtXbXbXbXbXbXbXbXtX5X,X,X,X,X,X,X,X,X,X,X,X>X>X,X.XP  X XoX| ^ U a ) ) U ( ) [ [ _ / ( M ' ( Z Z S S S n ' ' B B B Z M ( ' t.' ( D D Z B D n n ",
"<X5X<X<X<X5X5X5X5X5X5X5X5X5X5X<X<X<X<X<X<X<X>X>X>X<X<X<X<X<X<X<X>X<X<X<X<X<X<X5X<X<X3X3X<XwXwXwXrXrXyXyXrXyXwXrXwXwXwXyXrXyXyXrXtXtXrXyXrXtXbXbXbXbXbXbXbXmXmXNXNXNXMXMXMX_ n r j j j x j r t t t t t > > t j j j j j x j x x x w x ;.x c ,.z ;.&.z z m.,.&.N.=.:.v :.B.Z.M.n.=.&.n.M.=.N.,.N.>.N.B.B.;.w :.- #.&XMXMXMXMXmXmXtXmXnXNXNXNXNXNXNXNXnXnXnXnXnXnXnXnXnXnXnXbXbXbXtXtXtXbXbXtXbXbXbXbXtX>X,X,X,X,X,X,X,X,X,X,X>X>X>X1X.XP  X XoX| ^ U a ) ) U _ } [ } ( Z } M ( / N B A S S n ( ' B B B Z N ( ' ' ' ' S D Z B ' i n ",
"5X5X<X<X5X5X5X5X5X5X5X5X5X5XwXwX<X<X<X<X<X<X<X<X<X<X>X<X<X<X<X>X<X<X1X1X<X<X<X<X<X5X<X3XwXwXwXwXwXrXrXrXyXyXrXrXwXwXwXrXrXrXrXtXyXyXrXyXtXtXbXbXbXbXbXbXmXNXNXNXNXNXNXMXMXk.n r j j j x j r r r r t > > - * r j j j x x x l x x r k :.x l m.:.&.;.c l ;.N.#.m.m.:.c #.B.Z.N.B.m.&.*.M.n.B.>.A.n.B.A.B.;.w :.t v G.sXNXNXNXNXNXNXNXNXNXNXNXNXNXNXnXnXnXnXnXnXnXnXnXnXbXbXbXbXbXbXtXtXbXbXbXbXbXbXbXtX>X,X,X,X,X,X,X,X,X,X,X>X1X>X1X.XP  X X+X+.^ I a ) ) a _ ) [ _ ' Z } s ( / Z n S S S n ( ' B B d Z M ' ' ' ' t.A ' _ Z D e n ",
"5X5X<X<X5X5X5X5X5X5X5XwXwX5X5XwX<X<X5X<X<X<X>X<X<X<X1X>X>X<X<X>X<X<X<X<X<X<X<X<X<X<X<X<X<X<XwXwXrXrXyXyXyXrXrXrXwXwXwXrXrXyXyXyXrXyXrXyXtXtXbXbXbXbXnXnXmXNXmXNXNXNXMXMXMX9Xn r j j j x j j j r r t t > * o - r j j j x x k x x w j -.v w :.m.:.M.&.z v N.=.&.N.;.&.z =.Z.Z.B.M.*.*.>.>.B.M.B.A.B.B.B.>.t &.x w ;.`.MXNXNXNXNXNXNXNXNXNXNXNXNXNXnXnXnXnXnXnXnXnXnXnXbXbXbXbXbXbXtXtXbXbXbXbXtXbXbXtX5X,X,X,X,X,X,X,X,X,X,X>X1X>X>X.XP  X X+XO.^ I a ) ) M _ _ [ / [ S ( M / / Z n S S Z n ( ' B B d A M ( i.i.' t.A D S Z D : n ",
"5X5X<X<X<X5X5X<X5X5XwXwX<X<X5X<X<X5X<X<X<X<X<X<X<X<X>X1X1X>X<X<X<X<X>X<X<X<X<X<X<X<X<X<XwX3XwXrXrXrXrXrXyXrXwXwXwXwXrXrXrXyXyXyXyXyXyXyXtXtXbXbXbXbXnXnXmXmXNXNXNXNXNXMXMXMX} j j j j j j j j r r t r > o * - t r k j x j j x x w x c C w v -.=.M.=.c l ,.N.*.;.M.*.c &.M.Z.M.M.*.=.>.>.B.Z.n.Z.B.B.A.m.g &.c g &.V.0XNXNXNXNXNXNXNXNXNXNXNXNXnXnXnXnXnXnXnXnXnXnXnXbXbXbXbXbXtXbXbXbXbXtXbXbXbXbXrX<X,X,X,X,X,X,X,X,X,X,X>X>X,X1X.XP  X X+X+.^ I a ) ) U ) _ [ / [ _ / / ( / s n Z Z Z n ( t.B y r Z n ( ' t.t.t.D ' Z Z D e n ",
"<X5X<X<X<X<X<X5X5X5X5X5X5X5X5X5X5X<X<X<X<X<X<X<X<X<X>X1X>X>X>X>X>X<X>X>X<X>X<X<X<X<X<X<X<XwXwXwXwXwXrXrXrXrXwXwXwXwXrXwXyXrXrXyXrXyXtXtXtXtXbXbXbXbXbXbXmXNXmXNXNXMXNXMXMXMX#XB x j j j j j j r r j j * - > > t t t r j j k k x k x l -.w b z #.B.m.&.v z N.M.-.m.m.-.#.m.Z.N.M.=.=.=.=.>.Z.B.B.Z.B.A.N.t #.-.g z M.G.MXNXNXNXNXNXNXNXNXNXNXnXnXnXnXnXnXnXnXnXnXnXbXbXbXbXbXtXtXbXbXbXbXbXbXbXbXbXrX<X,X,X,X,X,X,X,X,X,X,X>X>X,X1X.XP  X X+X .^ I a ) ) a ) _ [ _ [ ( Z _ / S u S S Z Z n ( ' B d r S M D ' ' ( D A D Z B S e n ",
"<X<X<X<X<X<X<X5X5X6X6X6X5X5X6X5X5XwX<X<X<X<X<X<X<X<X<X<X<X>X>X>X<X<X>X<X<X<X<X<X<X<X<XwXwXwXwXwXwXwXwXwXrXwXwXwXwXwXrXrXyXrXyXyXtXrXyXtXbXbXbXbXbXbXbXbXmXmXNXNXNXNXNXMXMXMXaXS F j j j j j j j j j t > > > > t > > > r j j k x x x w -.k c -.z *.N.=.-.l =.N.;.#.N.;.&.;.N.N.B.>.&.*.=.>.A.A.B.Z.B.N.Z.x z :.g w ,.N.`.MXNXNXNXNXNXNXNXNXNXNXNXnXnXnXnXnXnXnXnXnXnXbXbXbXbXtXbXbXbXbXbXbXbXbXbXbXrX<X1X,X,X,X,X,X,X,X,X,X,X1X1X>X.XP  X.X$XO.^ I a ~ ) m ) / } / [ ' M ( / S : Z Z Z Z M ( ' B B p S M S ' D D ( Z D N Z S : B ",
"<X<X<X<X<X<X<X<X<X<X5X6X5X5X5X5X5X3X3X<X<X<X<X<X<X<X<X<X<X>X>X>X>X>X1X<X<X<X<X<X<X<X<X5X5XwXwXwXwXwXwXwXrXrXwXwXwXwXrXrXyXyXrXrXrXtXrXyXbXbXbXbXbXbXbXnXNXNXNXNXNXNXNXMXMXMXBXj.C j j j j j j j x x t r t t t e t > - > t w j j x x k v c v 4.c z ,.m.&.z z m.N.v m.N.&.&.N.N.B.*.z &.=.>.B.A.N.A.B.B.N.c l ;.t g &.N.V.0XNXNXNXNXNXNXNXNXNXNXnXnXnXnXnXnXnXnXnXnXnXbXbXtXbXbXtXbXbXbXbXbXbXbXbXtXwX>X,X,X,X,X,X,X,X,X,X,X,X,X,X,X.XP  X| +X+.^ I a ) ) m / _ _ / } } M ' / S : S Z Z n i ( ( B B p S n B Z D D ( A D n Z Z : n ",
"<X<X<X<X<X<X<X<X<X<X5X5X5X5X6X5X5X<X<X<X<X<X<X<X<X<X<X>X<X>X>X<X1X1X>X>X<X<X<X<X<X<X<X5X5X5XwX<XwXwXwXrXrXrXrXwXwXwXrXwXwXrXrXrXrXyXyXtXbXbXbXbXnXnXnXmXNXNXNXNXNXNXNXMXMXMXMX9XF k j j j j j j F x t j r j r t t > - - > t t w x x k w -.x 4.-.v z m.m.&.v #.m.;.&.N.,.&.N.N.n.z z #.*.=.B.Z.A.N.A.B.N.-.l :.x - z M.M.].NXNXNXNXNXNXNXNXNXNXNXnXnXnXnXnXnXbXnXnXnXnXbXbXbXbXtXbXbXbXbXbXbXbXbXtXwX>X,X,X,X,X,X,X,X,X,X,X,X,X,X,X.XP  X^  XO.^ I a T ) a / / / _ } } M [ / N : S M n n i ( ( p d d S n S S ( ( S D D n Z B e B ",
"<X<X<X<X<X<X<X<X<X<X5X5X5X5X6X5X5X<X3X<X<X<X<X<X<X<X<X<X>X>X>X>X<X>X>X>X>X<X<X<X<X<X<X5X5X5XwXwXwXwXwXrXrXrXwXwXwXwXwXwXwXwXwXrXrXyXyXyXtXtXbXbXnXnXnXNXmXNXNXNXNXNXNXMXMXMXMXaXj j k w w j j B F t j j w j x r e > - - > > > > t j x w c x 4.;.-.v &.M.>.#.z &.m.#.,.M.*.N.Z.&.l z #.*.*.n.Z.Z.Z.A.A.N.-.w &.-.g y >.M.V.:XNXNXNXNXNXNXNXNXNXnXnXnXnXnXnXnXnXnXnXnXbXbXbXbXbXbXbXbXbXbXbXbXbXbXtX5X>X,X,X,X,X,X,X,X,X,X,X,X,X,X2X.XP o.+. X| ~ U a T ) a / / / [ M ) / [ / M : S n n n 6 S ( d p p A n Z ( ( D D ' ' n Z Z u n ",
"<X<X<X<X<X<X<X<X<X5X5X5X6X6X6X5X5X5XwX<X<X<X<X<X>X<X>X>X>X>X<X>X>X<X<X>X<X<X<X<X5X<X<X<X<X<XwX<XwXwXwXrXrXwXwXwXwXwXwXwXwXwXwXrXrXrXyXyXtXtXbXbXbXnXnXmXNXNXNXNXMXMXMXMXMXMXMX4Xj r w k j j j F j t x w r x F j t > - > t t > > - t w w w x -.;.:.c v ;.m.*.z z ;.,.*.m.>.N.N.l l z z &.&.>.Z.Z.Z.A.A.N.-.w #.:.w w &.N.N.G.aXNXNXNXNXNXNXnXNXnXnXnXnXnXnXnXnXnXnXnXbXbXbXtXtXbXbXbXtXbXbXbXbXbXtX5X>X,X,X,X,X,X,X,X,X,X,X,X,X2X2X.XP  X| XX+.~ I a T ) a / / _ } N / ) } / M i S Z N n : S ( d r p B s S B n ( D ' ' n Z B e n ",
"<X<X<X<X5X<X<X<X<X5X6X5X6X6X6X5X5X<X<X<X<X<X<X<X>X<X>X>X>X>X<X>X>X>X<X<X>X<X<X<X<X<X<X<X<X<X<XwXwXwXwXwXwXwXrXrXwXwXwXwXwXwXwXwXrXrXyXyXyXtXtXbXbXbXmXNXNXNXNXNXMXMXMXMXMXNXMX#Xr r j j j j x x t j j w k x x x j t > e t e > > - - t w w w l &.:.-.c v ;.m.-.#.#.,.,.>.n.N.m.w w l z &.&.>.Z.Z.Z.Z.Z.N.4.w #.=.v g #.M.N.V.`.NXNXNXNXNXNXnXnXnXnXnXnXnXnXnXnXnXnXnXbXbXbXtXbXbXbXbXyXtXbXbXbXbXtX5X5X,X,X,X,X,X,X,X,X,X,X,X,X,X2X.XP  X| XX+.^ I a T ) a / / } } / T / [ / M N M Z n n : ( ( d p p Z n B p ( i.( D D p S n u n ",
"<X<X<X<X<X<X<X<X<X<X6X5X6X6X5X<XrXrX<X<X<X<X<X<X<X<X<X>X<X<X>X>X>X<X>X<X<X<X<X<X<X<X<X<X<X5X<XwXwXwXwXwXwXwXwXrXwXwXwXwXwXwXwXwXrXyXyXyXyXtXbXbXbXbXmXmXNXNXNXNXNXMXMXMXMXNXMX#Xr r r r j x F j t x w t x c x x x r t j r e e : > > > w k x w l c -.-.c z m.;.-.&.*.m.m.n.M.;.w w l z #.&.=.N.Z.Z.Z.Z.Z.;.g z =.-.t l ,.N.M.V.0XNXNXNXNXNXnXnXnXnXnXnXnXnXnXbXbXnXbXbXbXbXbXbXbXbXbXtXtXbXbXbXbXtX5X5X,X,X,X,X,X,X,X,X,X,X,X,X,X2X.XP  XR  X+.^ I a ^ / a / T / M / U / [ / M S n Z Z n : ( ( p r p Z p S Z a.' D D D p S n u n ",
"<X<X<X<X<X<X<X<X<X<X<X6X5XrX<X6XrX5X5XwX<X<X<X<X<X<X<X>X>X>X>X<X<X<X>X<X<X<X<X<X<X<X<X<X5X5X<XwXwXwXwXwXwXrXrXwXwXwXwXwXrXrXrXrXrXyXyXyXyXtXbXbXbXbXmXmXmXNXNXNXNXNXMXMXMXNXMX,Xr w w w j x x t r r t w x v x x B r j v x B t : > > t w v c x w k v c -.c c ;.;.&.&.=.n.M.N.:.w w l z #.#.=.M.Z.Z.Z.Z.Z.M.- z *.&.w w *.N.N.N.G.NXNXNXNXnXNXNXnXnXnXnXnXnXnXbXbXbXnXbXbXbXbXbXbXbXbXtXtXbXbXbXtXyX5X<X1X,X,X,X,X,X,X,X,X,X,X,X,X2X.XP OX.X X^ ~ U a T / a / / _ / N M U ] / M M n N Z n : ( S p p p B i S i.i.( S D D p A n i Z ",
"<X<X<X<X<X3X<X<X<X3XwX5XrXrX3X<XrX5X5X<X<X<X<X<X<X>X>X>X>X>X>X<X>X1X1X1X<X<X<X<X<X<X<X<X5XwXwXwXwXwXwXwXwXrXyXrXwXwXwXrXrXrXrXrXrXrXyXyXyXyXtXbXbXbXmXmXNXNXNXNXNXNXNXNXMXMXNX8Xr w w j j x j t j t t x v v x x x t l v c c j t > > t l -.c j t w w w l v v c :.-.&.*.,.,.M.,.l w l l #.#.*.B.Z.Z.Z.Z.Z.N.> z *.*.z g &.M.N.M.M.&XNXNXNXNXNXNXnXnXnXnXnXnXbXnXnXnXnXnXbXtXbXbXbXbXbXbXbXbXbXbXtXtX5X5X>X,X,X,X,X,X,X,X,X,X,X,X,X2X.XP  X X X^ ^ U 9 T T a / / / / M M M ) _ M M p Z Z n 4 ( S p p r n M ' ' ' D S D D p S B i n ",
"<X<X<X<X<X<X3X<X<X3X5X5XrX6X<X3XrX6X<X<X<X<X<X<X<X<X>X>X>X>X<X>X<X>X>X1X<X<X<X<X>X>X<X<X5X5XwX3XwXwXwXwXwXrXrXwXwXwXwXrXrXrXrXrXrXrXyXyXyXyXbXbXbXbXmXmXmXNXNXNXNXNXNXNXNXMXNXMXZ w j x x j w t j t w x v x x x r w l c c c x j r r x c :.c w t t w w w v x l l z z #.&.&.m.m.l w l l z #.*.n.Z.Z.Z.Z.Z.N.g l *.=.#.g #.,.N.M.M.V.0XNXNXNXNXNXnXnXnXnXnXnXnXnXnXnXnXnXnXbXbXbXbXbXbXbXbXtXbXbXtXtX5X>X>X,X,X,X,X,X,X,X,X,X,X,X,X2X.XP OX X X^ ^ J a T T a U U / / S M M T _ M Z i M n s : ( S p r r n s ( D ' ( Z D D p S Z i n ",
"<X<X<X<X<X<X<X<X<X<X3X<XrX6X5X<XrXrX3X<X<X<X<X<X<X<X<X<X>X>X>X<X>X>X1X1X<X<X<X<X<X<X<X<X<X<X5X<XwXwXwXwXwXwXwXwXwXwXwXrXrXrXrXrXrXrXyXrXyXyXbXbXbXbXmXmXmXNXNXNXNXNXNXNXMXMXMXBX..j F x j j w j t g j x c x x j t l v c c c x j j x c :.:.c x j j x l l v x l w v c z z #.,.M.z w l l z #.&.>.Z.Z.Z.Z.Z.N.t l &.=.&.w l =.N.M.M.M.G.mXNXNXNXNXnXnXnXnXnXnXnXnXnXnXnXnXnXbXbXbXbXbXbXbXbXbXbXbXbXyX5X>X>X,X,X,X,X,X,X,X,X,X,X,X,X2X.XP OX XoX^ R J 9 ^ U a U U T / M N U M ) U S i M n p : S Z r r r n n ( D ' ( Z ( S p Z S i n ",
"<X<X<X<X<X<X<X<X<X<X<X3XrX6X6XrXrXrX3X<XwX3X<X<X<X<X<X<X<X>X>X>X1X1X>X>X<X<X<X<X<X<X<X<X<X<X<X<XwXwXwXwXwXrXwXwXwXwXwXrXrXrXwXyXyXyXrXyXyXyXbXbXbXbXbXmXmXNXNXNXNXNXNXNXNXMXMXBX=X3.D j j j w j > t k x F x j r w l v c c c x j k x -.;.;.b x x x x v v v k x l c c z z z ,.M.#.w l l z #.&.=.N.Z.Z.Z.Z.N.t w &.=.*.l w &.N.N.M.M.V.;XNXNXNXnXnXnXnXnXnXnXnXnXnXnXnXbXbXbXbXbXbXbXbXbXbXbXbXbXtXyX5X5X,X,X,X,X,X,X,X,X,X,X,X,X,X2X.XP OX X X^ R J 7 U U a U U U U M m M U ) U Z u M n p : S Z p r r n s D D ( ( Z ( S s Z Z u n ",
"<X<X<X<X<X<X<X<X<X<X<X<XrXrX<X3X3XrX<XwXwX<X<X<X<X<X<X>X<X>X>X>X>X>X1X1X>X<X<X<X<X<X<X<X<X<X<X<X5XwXwXwXwXwXwXwXwXwXwXwXrXrXwXwXyXyXyXyXyXyXtXtXtXbXmXmXmXNXNXNXNXNXNXNXMXMXMXBX0X4.F j x j w j > w l c F x k w x x v c c c x j w x :.m.;.c v x c v c c c l l l c z z z z ,.N.&.l l l z #.#.*.B.Z.Z.Z.Z.Z.w w #.=.*.v g #.M.N.N.M.M.G.aXNXnXnXnXnXnXnXnXnXnXnXnXnXnXbXbXbXnXnXnXbXbXbXbXbXbXbXtXyX5X>X,X,X,X,X,X,X,X,X,X,X,X,X,X,X.XP OX X X^ R 9 7 U U a T U M U M m M U ) T M u M n p : / Z r r p n s D ( D ( Z S S p n Z i n ",
"<X<X<X<X<X<X<X<X<X<X<X<X<X<X<X<X3XrXwXwXwX<X<X<X<X<X<X<X>X>X>X>X>X<X1X1X1X<X>X>X<X<X<X<X<X<X<X<X5XwXwXwXwXwXwXwXwXrXrXwXwXwXwXwXrXyXyXyXtXtXyXtXtXbXbXmXmXmXNXNXNXMXNXMXMXMXBXBXpX3.j j x r k t t j x x x j j r x x v c c c x r k v 4.m.;.c c c -.-.-.c c l v z c c z z #.;.N.*.l l l l #.#.*.B.Z.Z.Z.Z.Z.v g z *.*.#.g #.,.N.N.M.M.V.'.nXnXnXnXnXnXnXnXnXnXnXnXnXnXnXbXnXbXnXnXbXbXbXbXbXbXbXbXyXwX>X,X,X,X,X,X,X,X,X,X,X,X,X,X2X.XH  X X+X| R 9 7 U T a U M U U m m M U } T p i M n n : S S r r r n s S _ S ( n S S s n Z u p ",
"<X<X<X<X<X<X<X<X<X<X<X3X<X<X<X<X<XrXrXwXrX<X<X<X<X<X<X<X>X>X>X>X>X>X>X1X>X<X<X>X<X>X<X<X<X<X<X<X<XwXwXwXwXwXwXwXwXrXwXwXrXwXwXwXyXyXyXyXtXtXtXtXbXbXmXmXmXmXmXNXNXNXMXMXMXMXBXBXBXD j j j k j > r j x x x k j j x l v c c v x w k c m.m.;.z -.c ;.;.:.-.-.z z z -.c z z z ;.M.=.z l w l #.#.&.n.Z.Z.Z.Z.Z.b g z *.=.&.g l *.N.N.N.M.M.V.;XNXNXnXnXnXnXnXnXnXnXnXnXnXnXnXnXbXnXnXbXbXbXbXbXbXbXbXyX5X>X,X2X$XXXo.X...O.O.o. X+X$X2X| H  X X X^ R a 7 U U 8 U U M U a m M T } T i s M n n : S Z e e u n s S _ S D B S ( s Z Z e r ",
"<X<X<X<X<X<X<X<X<X<X<X<XrXrX<X3X<X<XrX<XrXwX<X<X<X<X<X>X<X,X>X>X>X>X>X>X<X<X<X>X<X<X<X<X<X<X<X5X<XwXwXwXwXwXwXwXwXrXwXrXrXrXyXyXyXyXyXyXyXyXyXtXtXtXaXmXmXmXmXmXMXMXMXMXMXMXBXBXBXD j j j j j > j x x x x k j j x x c c c v x r k b m.m.;.z -.c ,.,.:.-.-.#.&.#.-.c z z z *.M.=.#.l l l z #.&.>.Z.Z.Z.Z.Z.:.g z *.=.*.w w *.M.N.N.N.M.M.G.mXNXnXnXnXnXnXnXnXnXnXnXnXnXnXnXnXnXnXbXbXbXnXbXbXbXbXyX>X2X+Xo.X.............+.] ....X.O.O.o. X X^ I a 7 I U 7 M m M M u m M U [ T 4 M n n n : S Z e e u M s S ( S D Z Z : u n S u p ",
"<X<X<X<X<X<X<X<X<X<X<X3XrXrXrXrXrXrXrXrX<X<X<X<X<X<X<X<X>X>X>X>X>X>X1X>X1X<X<X<X<X<X<X<X<X<X<XwX3XwX5XwXwXwXwXrXrXrXwXrXrXrXrXrXyXyXyXyXyXyXyXyXyXtXtXaXmXmXmXmXMXMXNXMXMXMXMXBXBX( j j j j r t j x x x k k j j x x c c c v x w x :.m.m.&.z -.&.m.m.;.:.-.-.-.-.-.c z z #.*.M.m.#.l l l z #.&.=.Z.Z.Z.Z.Z.;.g v &.>.*.w w &.n.N.N.M.M.M.V.=XNXnXnXnXnXnXnXnXnXnXnXnXnXnXnXnXnXnXbXbXbXtXtXyX,X$X+Xk.X.X.........[ ............X.X.........X.X.X.X...] ] U m m m U 6 m M U [ U : _ n s n : S M e e e n i S ( S D S S > u n S : n ",
"<X<X<X<X<X<X<X<X<X<X<X3X<XrXrXrXrXrXrXrX<X<X<X<X<X<X<X>X>X>X>X>X>X1X1X1X1X<X<X<X<X<X<X<X<X<X<XwX<X5XwXwXwXwXwXwXrXrXwXrXrXrXrXrXyXyXyXyXyXyXyXyXyXuXtXmXmXmXmXmXNXMXMXMXMXMXMXMXBX( j j j j t j j x x x w k x x x x c c c v j w x :.m.m.#.z -.&.m.m.;.:.:.c :.-.-.c z z z &.M.n.&.l l l l z &.*.N.Z.Z.Z.Z.m.t l #.=.=.l g #.>.N.N.N.N.M.M.V.iXNXnXnXNXnXnXnXnXnXnXnXnXnXnXbXbXbXbXrX>X$Xk.X.X.X.X.X...X.......[ ..X.X.X.X.X.X.....X.X.X.X.X...X.X.j.k.k.k.j.X.[ ] U N M U ] U i / M s n : / n e e u s i S S Z S S ' n i n S : n ",
"<X<X<X<X<X<X<X<X<X<X<X3X<X<XrXrXrXrX3X<X<X<X<X<X<X<X<X>X>X>X>X>X>X1X>X>X1X<X<X<X<X<X<X<X<X<X<XwXwXwXwXwXwXwXwXwXwXrXrXrXrXyXrXwXyXyXyXyXyXyXyXyXyXuXtXmXmXmXmXmXMXMXMXMXMXBXBXMXBX} j j j j t j x x x j r j x x x x c c c x r j c ;.m.;.#.z -.:.n.m.,.:.:.c :.:.-.c c #.#.&.n.B.&.l l l l z &.*.M.Z.Z.Z.Z.N.w w #.=.=.v g z *.M.N.N.N.M.M.N.'.NXNXnXnXNXnXnXnXnXnXnXnXbXbXtXwX>X$XXXX.X.X...X.X.X.X.........X.X.X.X.X.X.X.X...X.X.k.o.k.o.o.X.X.X.k.k.k.k.k.k.k.h.k.] a a U a M m M s M : S s r e e p i Z S Z S Z D S n n S : p ",
"<X<X<X<X<X<X<X<X3X<X<X3X<X<X6X6XrXrX3X<X<X<X<X<X<X<X<X>X>X<X>X1X1X<X<X1X1X>X>X<X<X<X<X<X5X5XwXwXwXwXwXwXwXwXwXwXrXwXwXwXrXyXrXyXrXrXyXyXyXyXyXyXuXuXtXmXuXmXmXmXMXMXMXMXMXBXBXMXBX..j j j t t j j x x r j x x j j x c c c x w x b m.m.=.#.z -.:.M.n.,.:.:.-.:.-.-.z -.z #.&.m.M.*.z l l l z #.&.M.Z.Z.Z.Z.N.l w #.*.=.z w z *.B.N.N.N.N.M.N.V.0XNXNXNXNXnXnXnXnXnXbXbXtX>X$Xo.k.X.X.X.......X.......X...X.X.X.X.X...X.X.X.X.j.k.k.k.X.X.X.X.k.k.k.k.k.k.j.j.j.j.] a 0 0 3 3 3 3 3 3 6 a 4 M s e e e n u n B Z S n S S n n S : p ",
"<X<X<X<X<X<X<X<X<X<X<X3X<X<X<X<X<X<X<X<X3X3X3X<X<X<X>X>X>X<X>X>X<X<X<X<X<X>X>X<X<X<X<X<X5X5XwXwXwXwXwXwXwXwXwXwXrXwXrXwXrXyXyXrXrXyXyXyXyXyXyXyXtXuXtXbXmXmXmXmXMXMXMXBXMXMXBXMXBXk.j r j > r j x x j r x x j j j v v c c j w x -.M.m.=.#.z ;.;.M.M.,.:.:.-.;.-.-.c &.z z &.,.N.*.z l l l l #.&.m.N.Z.Z.Z.Z.l w #.*.>.#.w l &.>.N.N.N.N.N.N.N.'.NXNXNXnXnXnXnXbXtXwX7X$X@X@X@XW.W.!.k.X.......[ ....X.X.X.X.X.X.X.X.X.X.X.......X.X.X.k.....k.k.k.k.k.k.j...] T 0 0 0 0 3 < , q $ = 3 0 0 4 4 4 4 : i u n Z Z S n S S n n S : p ",
"<X<X<X<X<X<X<X<X<X<X<X<X<X<X<X<X<XrX<X<XrX3X3X<X<X<X<X>X<X<X<X1X1X<X<X<X1X1X>X>X<X<X<X<X5X5XwXwX<X<X3XwXwXwXwXrXrXrXwXwXyXyXyXyXyXrXrXyXyXyXyXyXyXuXtXtXtXmXmXMXMXMXBXBXMXMXBXBXBX@Xj j r - r j x x r j x x j x x c v c c j w v ;.M.n.*.z #.;.:.M.B.>.;.:.-.;.:.-.-.&.z z &.,.M.=.&.l l l l z &.,.B.Z.Z.Z.Z.#.w z &.>.&.w w &.>.N.N.N.N.N.N.N.V.iXnXnXnXtXtX5X,X$X@X@XW.U.U.Y.Y.W.@X@XW.W.W.Y.k.X.X.X.X.X...X.X.X.X.X.X.X.X...] ..X.X.) ) +.U T k.j...] ^ a 0 0 0 0 3 3 , % # $ < 0 0 0 0 < 3 3 < 3 3 4 4 i i s n S S n n Z 4 p ",
"<X<X<X<X<X<X<X<X<X<X<X<X<X<X<X<X6X6XrXrXrXwX<X<X<X<X<X>X>X<X1X<X1X1X1X1X>X>X<X<X<X<X<X<X5X5X5XwX<X<X<XwXrXwXwXwXrXwXrXrXrXyXyXyXrXrXyXyXyXyXyXyXuXuXuXmXbXmXmXMXMXMXBXBXMXBXBXBXBX4Xj r t > r x j j r x x j j x x c z -.c k w c ,.N.n.&.z :.;.-.B.M.m.=.;.z :.;.:.-.&.z #.&.=.B.>.&.l l w l z #.=.B.Z.Z.Z.Z.:.w z #.>.*.w w #.=.N.N.N.N.N.N.N.N.'.tXwX$X@X+X+XY.Y.!.U.U.k.j.X.k.Y.U.U.U.T.U.k.W.!.!.!.k.k.k.k.X.X.X.X.j.X.X.X.X.X.X.] 9 , ^ ..U 9 a 0 0 0 0 0 0 0 3 < , q < 0 0 0 0 0 0 0 < , , < 0 3 0 3 0 3 3 4 4 i i i N : i ",
"<X<X<X<X<X<X<X<X<X<X<X<X<X<X<XrXrX6XrXrXrXwX<X<X<X<X<X<X<X<X<X<X1X1X1X<X<X<X<X<X<X<X<X<X<X5X5X5X<X<XwXwXwXwXrXrXyXwXrXwXrXyXyXyXyXyXyXyXyXyXyXyXuXuXuXmXmXmXmXMXMXBXBXBXBXBXBXBXBX8Xn r e e j j j j j j x j k x v v c -.v w k c m.M.=.#.z ;.;.-.M.M.M.;.=.#.#.m.;.:.-.z &.&.*.B.B.*.z l l l z #.*.n.Z.Z.Z.Z.,.l l #.=.=.w w #.=.B.N.N.N.N.N.N.N.V.Q.+XY.Y.Y.U.k.k.j.k.!.W.W.W.!.U.k.j.j.j.h.!.W.@XW.W.!.!.W.W.W.W.Y.Y.k.k.k.j.X.Y.U.) 5 9 0 0 0 0 0 0 0 0 0 0 0 < < 3 3 0 0 0 0 0 0 < < 3 0 0 0 0 0 0 0 0 < , < < , = % % % % : ",
"<X<X<X<X<X<X<X<X<X<X<X<X<X<X<X5X<X<X<XrXrXwX<X<X<X<X<X<X<X<X1X<X1X1X<X<X<X<X<X<X<X<X<X<X5X<X5X<X<XwXwXwXwXwXwXtXyXyXwXwXwXyXyXyXyXyXyXyXyXyXyXyXuXuXuXuXmXmXMXMXMXMXBXBXBXBXBXBXBXuXn r > t j x j j j x j j k x x z -.-.v w x -.M.B.*.z z ,.*.c M.M.M.,.,.#.c ;.,.:.:.&.*.*.&.B.n.*.z l l l z z &.m.Z.Z.Z.Z.M.#.y z =.>.l w #.*.n.Z.N.N.N.N.N.N.N.G.U.Y.k.k.j.k.k.k.!.U.k.k.h.k.k.k.k.!.!.!.T.k.k.k.k.U.@X#X@XW.Y.Y.U.k.j.j.h.Q.#XQ.W...0 0 0 0 0 0 0 0 3 < < < 0 0 0 0 0 0 0 0 0 3 0 0 0 0 0 0 0 0 3 3 3 3 3 3 3 3 3 < $ # # # ",
"<X<X<X<X<X<X<X<X3X<X<X<X<X5X<X<X<X<X<X3XrX3X<X<X<X<X<X<X<X<X<X<X<X<X<X<X1X<X<X<X<X<X<X<X5X<X<X<X<XwXwXwXwXwXwXwXyXyXyXwXwXyXyXyXyXyXyXyXuXuXuXuXuXuXuXuXuXuXMXMXmXMXBXBXBXBXBXBXBXuXB r - t j j j j x j j j k x x z -.-.l w x :.M.>.-.v z m.&.x m.M.M.m.m.&.z ;.,.;.;.*.=.=.*.M.B.*.z l l l l z #.,.N.Z.Z.Z.A.,.w l *.>.z w #.*.>.N.N.N.N.N.N.N.N.V.K.j.X.X.!.@XW.!.!.!.U.k.j.j.k.W.W.!.!.U.k.h.U.T.W.@XW.W.W.!.U.k.X.X...h.Q.Q.W.W.W.W.@X..J 0 0 0 0 0 0 0 0 0 0 0 0 0 0 0 0 < 3 0 0 0 0 0 0 0 0 3 < < 0 0 0 0 0 0 0 3 < $ # # ",
"<X<X<X<X<X<X<X<X3X3X3X<X<X3X<XrX<XrXrX<XrX<X<X<X<X<X<X<X<X<X<X1X<X<X<X<X>X>X<X<X<X<X<X<X<X<X<X<X5XwXwXwXwXwXrXwXyXwXwXwXyXyXyXyXyXyXyXyXuXuXuXuXuXuXuXuXuXuXuXMXMXMXBXBXBXBXBXBXBXsXZ r - r x j j j j j j j k v x c b c k r v ;.M.=.-.v -.m.&.x ,.M.M.M.M.:.v ;.,.;.;.;.;.,.=.M.n.*.z l l l l z z =.N.Z.Z.Z.A.M.l w &.=.#.w z *.>.B.N.N.N.N.N.N.N.N.G.!.U.!.!.k.k.k.k.j.k.!.W.@XW.!.!.U.h.h.k.W.@XW.W.W.!.T.U.k.k.X.{ ) U.#XW.T.!.!.!.W.!.T.W.k.j...^ 9 0 0 0 0 0 0 0 0 0 3 0 0 0 0 0 0 0 0 0 3 3 0 0 0 0 0 0 0 0 0 3 , $ % # + ",
"<X<X<X<X<X<X<X<X<X3X3X<X<X3X3XrX<XrXrX<XrXrX<X<X<X<X<X<X<X<X1X1X1X1X<X<X>X>X<X<X<X<X<X<X<X<X<X<X5XwXwXwXwXwXwXwXrXwXwXwXwXyXyXtXyXyXyXuXuXuXuXuXuXuXuXuXuXuXMXBXMXBXBXBXBXBXBXBXBXBX_ t - r F j j j j j j j j v v v -.v r r c m.n.*.c l -.m.&.y ;.M.N.N.M.*.v ;.,.,.=.;.;.>.,.M.>.*.&.z l l l v z &.N.Z.Z.Z.A.Z.#.w #.=.&.w z *.=.B.N.N.N.N.N.N.N.N.V.Q.@X@X@XW.W.!.!.W.@X!.U.k.h.k.!.W.@X@XW.W.W.!.U.k.k.k.k.X.[ ) h.Q.Q.#XQ.Q.W.!.h.h.j.!.Q.Q.Q.Q.@X@Xk.X.) ) ^ J 0 3 3 0 0 0 0 0 0 0 0 0 0 0 0 0 0 0 0 0 0 0 0 < , $ % # & & ",
"<X<X<X<X<X<X<X<X<X<X<X<X<X<X<XrX<XrXrXrXrXrXrX<X<X<X<X<X<X<X<X<X1X1X1X<X<X<X<X<X<X<X<X<X<X<X<X<XwXwXwXwXwXwXwXrXrXwXyXyXyXyXyXyXyXyXyXyXuXuXuXuXuXuXuXuXuXuXMXMXBXBXBXBXBXBXBXBXBXBXk.t - r C j j j j j j j x c v c -.x w k &.n.=.*.c x :.m.#.r ;.M.Z.N.M.*.v ;.;.,.=.,.;.=.m.B.>.*.&.z l l l v c &.B.Z.Z.Z.Z.Z.M.w #.=.*.w l *.=.>.N.N.N.N.N.N.N.N.V.].!.W.W.@X@X@X@X@X@X#X@XW.W.@X#X#X@X@XQ.W.!.k.k.j.X.) ] T [ #X%X%X#X#XQ.Q.R.T.T.h.Q.Q.Q.Q.Q.W.!.!.T.!.Q.Q.#X#XW.j.) I 0 < < 0 0 0 0 0 0 0 0 0 0 0 0 0 0 3 3 = $ % # & o = ",
"<X<X<X<X<X<X<X<X<X<X<X<XrX<X<XrX<XrXrXrXrXrXrX<X<X<X<X<X<X<X<X<X1X1X1X<X<X<X<X<X<X<X<X<X5X5X<X<XwXrXrXrXwXwXrXwXrXrXwXyXyXyXyXyXyXyXyXyXuXuXuXuXuXuXuXuXuXuXaXBXBXBXBXBXBXBXBXBXBXBX0Xt - r C j j j j j j j x c v c b x w x ;.n.*.*.v x :.m.#.r ;.B.N.N.N.:.v :.;.,.>.m.>.>.M.B.=.*.&.z v l l l v #.>.M.Z.Z.Z.Z.Z.z l *.=.w l *.=.>.N.Z.N.N.N.N.N.N.V.G.g.k.k.U.U.T.!.W.W.@X@X@X@X@X@X@X@X!.U.h.k.X...] ) ) j.W.#XR.U.h.U.U.H.h.!.Q.Q.Q.Q.W.W.W.T.T.U.T.Q.Q.Q.Q.Q.Q.Q.Q.W.@X@XU.X.) 9 , 3 0 0 0 0 0 3 3 3 3 < , $ # # + @ e e e ",
"<X<X<X<X<X<X<X3X<X<X3X3XrXrXrXrX3XrXrXrXrXrXrXrX3X<X<X<X<X<X<X<X<X1X<X<X<X<X<X<X<X<X<X5X5X5X5X5XwXwXwXwXwXwXwXrXrXwXrXrXyXyXyXyXyXtXyXuXuXuXuXuXuXuXuXuXuXuXuXhXhXBXBXBXBXBXBXBXBXBXBXn g n F j j j j j j j v c v b v j r c ;.m.*.&.v v :.m.z w :.M.N.N.N.*.z #.,.m.n.m.n.n.M.n.=.*.*.#.c l l l z c =.B.Z.Z.Z.Z.A.;.w *.;.y w &.=.=.B.N.Z.Z.Z.N.N.N.V.V.G.) ] [ X.j.k.h.U.T.!.!.!.!.!.U.k.h.j...[ [ ] ..Q.%X#XQ.Q.W.!.!.T.T.!.Q.Q.Q.Q.Q.!.!.!.T.W.W.W.Q.W.W.Q.W.W.W.T.!.W.W.@X@X@XW.@Xk.) 0 < 0 0 0 3 , < < , $ # + @ 4 p r t - ",
"<X<X<X<X<X<X<X3X3X3X3X3XrXrXrXrX3XrXrXrXrXrXrXrX3X<X<X<X<X<X<X<X1X1X<X<X<X<X<X<X<X<X5X5X5X5X5XrXrXwXwXwXwXwXwXwXrXwXrXrXyXyXyXyXyXtXuXuXuXuXuXuXuXuXuXuXuXuXuXhXhXhXBXBXBXBXBXBXBXBXBXk.t F F j j j j j j x v v v c v j r c ,.=.*.c l v ;.m.z w *.n.N.N.N.*.#.z ;.>.>.n.n.B.B.n.=.*.*.&.c v l l z c =.B.B.Z.Z.,.A.N.w &.*.v w &.=.>.n.N.N.N.N.N.N.N.N.V.V.] ^ ^ U T ) ] [ ..X.j.X.k.U.h.U.Q.%X*X*X*X%X%X#X#XW.!.T.h.Q.%X%X#X#X#XQ.Q.!.T.U.U.!.Q.Q.Q.Q.W.W.W.T.!.!.!.T.Q.W.W.W.W.@X!.!.!.!.Y.X.0 < < , q $ # # # i Z D V r e r n ",
"<X<X3X3X3X3X3X3X<X<X<X3X3XrXrXrXrXrXrXrXrXrXrX<X<X<X<X<X<X<X<X<X<X1X<X<X<X<X1X<X<X<X5X5X5X5X5XwX5XwXwXwXwXrXrXrXwXrXrXrXwXyXyXyXtXuXuXuXuXuXuXuXuXuXuXuXuXhXhXhXhXBXBXBXBXBXBXBXBXBXBX0Xt D x j j j j j x c c c v c x w j -.,.*.:.c l c ,.m.z w ;.B.N.N.B.*.#.z ;.>.>.m.M.B.n.>.=.*.*.-.c l l v z z >.>.B.Z.Z.$.Z.Z.v #.*.c w #.*.>.n.M.N.Z.N.N.N.N.N.N.N.G.R ^ R J J J I a 8 3 a [ ..} j.#X%XQ.#XQ.Q.#X%XQ.Q.Q.Q.!.Q.#X#X#XQ.Q.T.T.U.T.Q.Q.Q.Q.Q.Q.W.W.!.U.H.R.W.Q.W.W.W.W.!.!.T.U.U.k.k.k.X.+.# + # # # ; n S t.t.B e - - B p ",
">X<X<X3X3X3X3X3X<X<X3X3X3XrXrXrX3XrX3XrXrXrX3X<X3X<X<X<X<X<X<X<X<X<X<X<X<X<X1X<X<X<X<X6X6X5X5XwX5XwXrXwXwXwXrXrXyXwXwXwXwXyXtXyXyXyXuXuXuXuXuXuXuXuXuXuXhXhXhXhXhXhXBXBXBXBXBXBXBXBXBXBXZ G x j j j j j C c c c v v x w v :.;.*.-.v y &.m.,.z w ,.B.N.N.N.;.-.z :.>.>.B.N.M.n.>.=.*.*.&.c v l z v z *.=.B.Z.Z.4.M.A.:.z &.-.w #.*.>.n.n.N.N.N.N.N.N.Z.N.Z.V.J H H H H H H 9 9 4 m ..j.[ [ [ _ [ k.Q.Q.!.!.!.T.U.!.Q.Q.Q.Q.Q.Q.T.h.!.~.Q.Q.Q.W.W.Q.W.!.!.T.!.R.Q.Q.W.W.W.W.!.T.U.Y.k.j.X.[ ] ) T . . + 4 S t.3.D D e - g r t r r ",
">X<X<X3X<X<X3X3X3X3X3X3X3X3XrXrX3X3X3XwXrXwXrX3X<X<X<X<X<X<X<X<X<X<X<X<X<X<X<X<X<X<X<X<X5X5X5X5X5XwXrXrXrXrXyXrXrXwXwXwXyXyXtXtXuXuXuXuXuXuXuXuXuXuXhXhXhXhXhXhXhXhXhXhXBXBXBXBXBXBXBXhX].3.x k j j j F G c c c v x j r c ;.;.*.&.x l *.m.;.z t ,.B.N.A.A.*.-.z &.>.n.N.N.N.m.>.=.*.*.&.-.c v z v z #.&.M.Z.Z.m.:.Z.n.l #.:.w z *.>.n.n.B.N.N.N.N.N.N.N.N.Z.[.} J H 0 0 0 9 ~ X.Y.U.U.!.!.W.!.j.] [ { j.T.h.h.U.R.W.W.Q.Q.!.W.W.!.Q.Q.#XQ.Q.T.T.!.!.W.Q.~.~.Q.Q.W.W.!.!.U.U.k.X.X...+.) T U a a s n A 3.3.y.n - - - - g V B B t ",
">X<X<X<X<X<X<X<X3X3X3X3X3X3XrXrX3X3X3XrXrXrXwX3X3X<X<X<X<X<X<X<X<X<X<X<X<X<X<X<X<X<X<X5X5X5X5X5X5XwXrXrXrXyXyXyXrXwXwXwXyXyXtXyXuXuXuXuXuXuXuXuXuXhXhXhXhXhXhXhXhXhXhXhXBXBXBXgXhXhXjX|.|.4.x k j j F G c -.v c v x r x c ;.*.*.c l v ;.M.:.l t ,.M.N.N.N.=.-.z #.>.n.N.N.N.M.n.>.*.*.&.-.c z z v z z z M.Z.Z.S.l Z.B.z z :.t z &.>.B.n.B.M.N.N.N.N.N.N.N.Z.{.|.|.z.( _ ..k.Y.U.k.k.j.k.k.k.k.!.W.!.k...[ ..{ R.Q.Q.Q.Q.W.#X#XQ.#X#XQ.#XQ.Q.W.T.U.!.#X#X#X~.Q.Q.W.!.U.k.k.j...) ) ~ ^ m i s D t.t.3.y.1.Z n * - - - - e V x r t ",
"3X3X<X<X<X<X3X3X3X3X3X3X3X3X3XrX3X3X3XwXrXrXwX3X3X<X<X<X<X<X<X<X<X<X<X<X<X<X<X<X5X<X5X5X6X5X6X6X5XwXrXrXrXyXyXtXtXyXyXyXyXyXyXyXtXuXuXuXuXuXuXuXhXhXhXhXhXhXhXhXhXhXhXhXhXhXhXjX|.{.q.q.q.5.F k j x C C c -.v c x r w v -.;.:.-.v l c m.M.*.l t =.>.M.N.Z.:.-.z z >.n.B.N.N.B.n.>.=.*.&.-.z z z z c z z n.Z.Z.Z.$.M.A.&.z &.w z &.>.B.n.B.B.M.N.N.N.N.N.N.Z.S.F.F.|.|.|.].].].].].P.l.....j.k.!.!.T.U.U.U.!.U.h.!.Q.#X%X%X#XQ.%X%X#X%X%X#XQ.Q.Q.Q.#X#XQ.Q.@XW.W.U.k.k.X.X...) T U M s n A D 3.t.t.t.n > i M * - - - > g x y 3.{.",
">X3X<X<X<X3X3X3X3X3X3X3X3XrXrXrX3X3X3XrXrXwXwXwX3X<X<X<X<X<X<X<X<X<X<X<X<X<X<X<X5X5X6X5X5X6X6XrXrXrXrXrXrXyXtXtXtXyXyXyXyXyXyXtXtXuXuXuXuXuXhXhXhXhXhXhXhXhXhXhXhXhXjXjX|.|.{.q.q.9.q.q.q.6.F k j F G x G b v v k w x c :.:.:.-.l l -.m.M.*.l t =.>.B.N.N.*.-.z z >.B.B.N.M.n.n.=.=.&.:.-.z v c c c z z ,.Z.Z.Z.4.;.Z.n.z #.v w #.=.B.B.B.B.M.N.N.N.N.N.Z.Z.Z.S.q.F.F.F.|.|.|.|.|.|.|.|.].].T.k.k.k.k.h.U.j.j.!.!.W.W.Q.Q.%X%X%X#X%X#X~.~.*X%X%X%X#X#XQ.Q.W.!.U.k.X...] ) ^ m i s n Z t.1.C 3.( 4 o o : n M * - - - - g 4.{.|.F.",
">X>X3X3X3X3X3X3X3X3X3X3X3X3XrXrX3X3X3XwXrX3X3X3X3XwX<X<X<X<X<X<X<X<X<X<X<X5X<X5X5X6X<X5X6X6XrXrXrXrXrXrXrXtXtXtXtXtXyXyXyXyXtXtXtXuXuXuXuXhXhXhXhXhXhXhXhXhXhXjX|.c.c.q.q.q.q.q.q.q.q.9.9.6.x k j F F x 4.c z l w w c z :.:.-.c l l :.M.M.;.l r >.>.B.B.M.:.#.z #.n.B.M.N.M.n.n.=.=.&.:.-.c z c c z z c >.Z.Z.Z.V.v Z.N.#.z c w #.=.n.B.B.B.M.N.N.N.N.N.Z.Z.Z.S.S.q.S.{.{.{.{.{.F.|.|.|.|.|.|.].'.k.X.j.j.k.!.!.!.W.W.W.W.#X@XQ.#X#X%X%X%X#X#X#X%X%X%X%XQ.Q.!.k.X.) / T M i 4 s A t.1.1.1.n = o o o o O : 4 O - - - t.{.|.F.F.F.",
">X3X3X3X3X3X3X3X3X3X3X3X3X3XrXrX3X3X3X3X3X3X3X3X3X3X<X<X<X<X<X<X<X<X<X<X<X5X5X5X<X5X5X5X5X6X6X6XrXrXrXrXrXtXtXtXtXtXtXyXyXyXtXtXtXyXuXuXhXhXhXhXhXhXhXhXjX].c.q.q.9.9.9.9.9.q.q.q.q.q.q.q.0.c k x F x c -.c v k w x c &.:.&.-.v w v ;.M.M.=.l x >.n.B.n.>.:.#.z #.n.B.N.N.M.n.>.>.=.:.:.-.-.c c c l z z m.Z.Z.Z.V.t Z.A.*.z -.w z *.n.n.B.B.B.B.M.N.N.N.N.Z.Z.S.S.{.{.{.{.{.{.F.F.{.F.F.q.q.0.0.f.T.k.j.k.U.U.T.T.T.T.T.T.W.W.Q.#X#X#X#X#XQ.W.Q.~.%X~.~.Q.!.k.X.) T m a i p A C y.t.C p * o o o o o o * - - - - - 5.|.F.F.F.F.F.",
"3X3X3X3X>X>X3X3X3X3X3X3X3X3X3XrX3X3X3XrX3X3X3X3X3X3X5X5X<X<X<X<X<X<X<X<X<X<X6X5X5X5X<X5X5X6X6X6X6XrXrXyXtXtXtXtXtXtXtXtXyXtXtXtXtXyXuXuX4XhXhXhXjXjX|.c.q.q.q.q.q.q.9.9.9.9.q.q.q.q.q.q.q.0.C x F C x -.b c l w j c c -.:.&.-.x l c ,.N.N.*.w v >.n.M.n.,.&.#.z &.>.M.N.N.M.>.>.>.=.;.*.&.-.c c v l z #.m.Z.Z.Z.Z.j Z.A.M.l -.g z &.n.n.n.B.N.M.n.B.N.N.N.Z.Z.S.S.{.{.{.{.{.F.F.S.S.q.q.0.8.7.7.3.h.!.!.!.!.W.W.W.h.j.j.h.W.Q.Q.@XQ.Q.W.!.!.U.!.!.!.W.@XU.X...) U s i n D 1.C 2.V D n * * * O O * = : : : : : e > %.S.F.F.F.F.{.",
">X3X3X3X3X3X>X3X3X3X3X3X3X3XyXrX3X3X3XrXrX3X3X3X3X3X<X<X<X<X<X<X<X<X<X<X5X5X5X5X5X5X5X5X5X5X6X6X6XrXrXyXrXtXtXtXtXtXyXyXrXrXyXrXrXrX$X@X_ x.z.|.c.q.q.q.q.q.q.q.q.q.q.8.9.9.9.9.q.q.q.q.q.0.C x F C x 4.c c l w j c c -.:.&.c w v -.m.N.M.*.w z >.B.n.>.,.&.z z &.>.N.N.M.n.>.>.,.;.;.:.&.-.c c z z z &.m.N.Z.Z.Z.G N.Z.Z.#.-.t l &.m.n.n.B.M.N.n.n.M.N.N.Z.Z.Z.S.{.{.{.F.F.F.F.q.q.0.0.0.7.3.p.T.T.U.T.!.W.W.W.W.@X@XQ.#X#X@XW.W.W.!.!.k.k.j.X.....] ) ] ) T m p B D t.3.y.C C t.t.Z : - O * ; : e u u u u e e e %.<.S.F.F.F.F.",
">X3X3X3X>X3X3X3X3X3X3X3XwX3X3X3X3X3XrXrXrXrX3X3X3X3X3X<X<X<X<X<X<X<X<X<X<X<X5X<X5X5X5X5X6X5X6X6X6X6X6XrXrXrXtXtXtXyXrXrXrXwX5X,X$X+Xk.k.k.l.x.w.8.8.9.q.q.q.q.q.q.q.q.q.q.q.q.9.9.9.q.q.q.q.2.x F c c 4.v v j w j -.c -.&.-.v w v :.n.N.N.*.w -.>.M.n.>.,.#.#.#.&.>.N.N.M.>.>.m.m.>.=.=.&.-.-.c l z z &.m.N.Z.Z.Z.:.V.Z.Z.;.#.w w #.>.n.n.B.n.N.B.n.n.N.N.N.Z.Z.S.S.F.F.S.q.q.q.0.8.7.$.y 2.T.!.!.W.W.!.k.k.U.W.W.@X@X@XW.W.W.!.!.U.Y.k.k.X...) T ) ^ U T U M B C 3.u.3.1.3.y.s.s.D p * * : : : : : u u e u e i B 7.<.<.S.F.F.F.",
"3X3X3X3X3X3X3X3X3X3X3X3X3X3X3XrXrXrXrXrXrXrX3X3X3X3X3X<X<X<X<X<X<X<X<X<X<X<X<X6X5X6X5X5X5X5X6X6X6X6X6XrX6XrXrXtXtXrX5X>X2X+XXXk.k.k.k.k.k.k.l.f.w.8.8.9.q.q.q.q.q.q.q.q.q.q.q.q.9.9.q.q.q.q.-.x c v -.-.x v j r x -.c &.&.-.l l z =.M.N.N.=.w :.M.M.n.,.;.#.z #.&.>.Z.Z.M.*.m.m.m.,.>.=.&.-.-.z z z z *.m.N.Z.Z.Z.,.;.Z.Z.M.z v w #.>.B.n.n.n.N.M.n.n.B.M.N.Z.Z.S.S.S.0.0.0.w.w.7.2.t r t $.p.U.T.T.!.!.W.!.W.W.W.W.W.!.W.W.!.U.k.k.X...] ) ~ ) U a 3 i n S d.t.u.1.B 1.3.t.t.3.3.t./ 4 : : 4 : : : e e p n B Z D 2.<.w.<.S.F.F.",
"3X3X3X3X3X3X3X3X3X3XwXwXwXwX3XrXrXrXrXrXrXrXrX3X3X3X3X<X<X<X<X<X<X<X<X<X<X5X6X6X5X6X6X6X<X5X6X6X6X6X6X6XrX6X6XwX>X2X+Xo.o.k.k.k.k.j.j.j.k.k.k.k.z.f.0.9.9.q.q.9.q.q.q.q.q.q.q.q.q.q.q.q.q.q.;.x G c -.c x x r j c c c -.-.c w v &.>.N.N.Z.M.x *.>.m.,.,.;.#.#.&.&.=.N.Z.m.&.m.M.m.m.>.=.*.-.c c z z z =.m.N.Z.Z.Z.m.:.Z.Z.N.#.z w #.>.n.n.n.n.N.M.n.>.B.B.M.N.Z.Z.S.0.w.7.7.7.2.f p B D A 2.x.k.k.k.U.h.k.h.U.!.!.!.!.U.U.k.k.k...] ) ) U T 8 7 a s n S 3.y.s.t.n - * t.3.1.1.3.4.e u u u e u i u i i p B C D D D A V <.<.<.F.F.",
"3X3X3X3X3X3X3X3X3X3XwXwXyXwXwXyXrXrXrXrXrXrXrX3X3X3X3X<X<X<X<X<X<X<X<X<X<X5X6X6X6X6X5X5X5X6X6X6X6X6X6X6X<X,X$X+Xo.k.k.k.X.k.k.k.k.k...X.j.k.k.!.!.k.z.z.f.0.w.8.8.9.9.q.q.q.w.w.q.9.9.q.q.q.6.C G b c x x x w v c c b &.-.x k c *.n.N.N.N.N.v ,.>.=.=.;.*.&.#.*.*.&.m.N.m.#.=.M.m.m.,.=.*.-.c z z z #.=.n.N.Z.Z.Z.V.-.Z.Z.Z.*.z w #.=.n.n.n.>.N.N.n.=.n.n.M.N.Z.Z.S.S.7.7.2.r e Z e.p.1.t.V 1.j.j.k.U.!.!.!.!.U.k.k.k.k.k...] ] ) T U I 8 4 ; 2 a D y.u.y.A e - B p p D 1.C C 3.y.e u u e e u u p n B D 1.C D D t.Z * $.<.<.<.{.",
"4X4X3X3X3X3X3X3X3X3XyXyXyX3XwXyXyXyXrXrXyXrXrX3X3X3X3X<X<X<X<X<X<X1X<X<X<X5X5X5X<X<X<X<X<X<X6X5X5X>X2X$XXXk.k.X.X.j.k.k.k.k.k.k.k.k.j.j.k.j.k.k.k.k.h.h.h.l.f.5.w.9.9.9.9.q.w.9.9.q.8.9.q.q.0.C G F F x x j k c c z -.-.c w x -.;.n.N.Z.Z.M.l M.n.n.>.=.*.&.&.*.;.&.&.N.,.&.*.N.M.m.m.;.:.-.c z z c &.;.n.N.Z.Z.Z.N.c Z.A.Z.m.c w z =.B.n.>.n.M.N.m.>.n.n.B.M.Z.N.S.S.5.r p D y.u.y.1.3.1.f e.i.k.k.k.U.!.U.U.U.Y.k.k.X.] ) U U I a i s n M S n 6 t.t.Z : * - - C C 3.1.3.3.u.V 3.u e e e p p p B D D D 3.t.t.D p - O * 7.<.<.<.",
"4X4X3X3X3X3X3X3X3X3XyXyXyXwXwXyXyXyXyXyXrXyXrX3X3X3X3X3X<X<X<X<X1X1X<X<X<X<X<X1X1X<X<X1X1X,X2X$X+Xo.o.k.k.k.k.k.X.X.X.X.k.k.Y.Y.Y.U.U.U.Y.U.k.X.j.j.j.k.T.T.W.(.].z.f.0.w.9.%.w.@.q.q.9.q.q.0.C x k F x x r x c c z -.-.v k c -.;.B.M.Z.Z.>.w M.n.N.,.,.;.*.&.;.;.;.;.m.&.&.>.N.M.m.,.;.;.&.c z z c :.=.n.N.Z.Z.Z.Z.c Z.Z.Z.M.z w z *.n.M.>.>.M.M.n.n.B.n.n.B.N.N.Z.S.V.S t.y.u.y.3.1.3.C f i.e.k.k.k.k.k.k.k.k.k.X...) ~ I a a s M M Z ( t.3.( a n * * - - - - C 1.3.3.3.3.1.3.y.e e i n Z B D D C t.y.u.t.p - - - O O - %.<.%.",
"4X3X3X3X3X3X3X3X3X3X3X3X3X3X3XuXuXuXuXyXyXyXyX3X3X3X3X<X<X<X<X1X<X<X<X<X<X<X1X1X1X1X,X2X+X Xo.X.X.X.X.X.X.j.k.k.k.......X.j.j.k.k.k.k.k.Y.Y.Y.k.k.k.k.k.U.U.!.!.!.!.R.P.z.f.c.c.2.0.q.0.q.q.0.C k l F x x w c c c z &.c x x -.*.>.B.B.N.N.&.w M.n.N.m.,.,.;.;.,.=.m.,.*.&.*.m.N.M.m.;.;.;.-.c z z c :.;.B.N.Z.Z.Z.Z.4.Z.A.Z.B.z w z *.B.n.n.>.n.n.n.n.B.B.n.n.B.Z.N.S.V.t.y.s.t.1.D ( 1.V d e.e.[ X.k.k.k.X.X.X.] ) ~ T M u s n Z ( d.t.y.s.' u m = * * - - - - C 1.3.3.D t.V 3.y.r B B A D D D t.u.d.t.n O - - - - O O * - %.%.",
"4X4X3X3X3X3X3X3X3X3X3X3X3XuXuXuXuXuXyXuXyXyXyX3X3X3X3X<X<X<X<X1X1X1X1X1X1X1X,X2X$XXXo.o.X.X.X...X.X.X.X.X.k.k.k.k.k.k.k.X.....X.X.X.X.k.Y.Y.!.!.!.W.W.W.U.k.k.U.!.!.W.Q.Q._._.(.%X_.(.].G.{.{.C l c v x j w F x v c &.c k c &.=.>.B.B.B.>.z w N.M.M.M.m.,.,.;.=.,.m.*.&.*.>.M.N.M.>.=.;.;.:.-.c z -.:.;.M.N.Z.Z.Z.Z.V.Z.A.A.B.#.w z =.n.>.n.>.n.n.n.n.n.n.n.M.M.Z.Z.Z.G.t.Z V V D D D e.t.d A ( ) ] ..X.X.X.O.) ) U U s n Z A y.s.s.f.s.' i X X 8 4 = * - - - - 2.2.u.V D V 3.y.u.D t.t.3.D t.s.s.t.M * * * - - - - O O * O g %.",
"4X4X3XuX3XuX3X3X3X3X3XuXuXuXuXuXuXuXuXyXyXyXyX3X3X3X<X<X<X,X>X1X1X1X1X2X2X+X XX.X.X.X.X.X.X.j.X.....X.j.j.X.k.k.k.k.k.k.k.Y.k.....X.k.Y.U.!.U.Y.Y.U.!.!.W.W.j.k.!.@X@XW.!.!.W.!.U.!.!.!.T.h.t.C v G x x j r F x v c b l v b &.=.n.B.B.B.*.v x M.M.M.B.M.M.,.*.,.V.;.*.*.m.m.M.M.m.>.=.;.;.;.-.c z -.:.*.N.N.Z.Z.Z.Z.V.M.A.A.B.&.l z =.B.n.B.n.>.n.n.n.n.B.>.M.N.Z.Z.N.C * > C A D 3.1.t.t.p Z d / ) ] ] ] ) ] ) m a n B D p.s.y.u.s._ * X X X X = 6 o * * - - > 1.1.y.u.y.3.u.y.y.y.3.D y.u.s.i.n o o o o O - * - - O O O O o - ",
"3X3XuXuXuXuX3X3XuXuX3XuXuXuXuXuXuXuXuXuXuXuXyX3X3X3X<X<X>X1X1X,X2X2X+X Xo.X.X.X.X.X.X.j.j.k.k.k.j.X.k.k.j.j.X.j.k.k.k.k.k.k.U.k.k.k.k.X.X.k.k.k.k.k.U.W.W.@X@X@X@XW.U.U.k.k.k.j.X.......) T i.C v G x x j r x x c c c k b -.&.-.m.B.M.n.&.z v M.M.B.B.M.m.*.;.m.;.*.=.m.M.M.M.m.m.>.;.;.;.;.:.-.z &.-.;.N.N.A.Z.Z.Z.V.m.A.A.B.&.l z =.B.n.B.m.=.n.n.n.n.B.B.B.N.Z.N.;.e e e 3.u.y.y.u.u.y.A d d a T ) ) ) ] U a M n t.s.s.s.s.p.S O o o X X X o = i > - * * * - C 3.3.y.y.u.u.t.1.1.y.u.s.i.M o O O o o o o * * * * o O O * O * ",
"4X4XuXuX3XuXuX3XuXuXuXuXuXuXuXuXuXuXuX0X0X0X4X4X3X3X3X>X,X,X2X2X Xo.O.........X.X.X.X.j.k.k.k.k.k.k.U.Y.k.X.X.X.X.X.k.k.Y.U.!.!.U.!.!.!.Y.X.X.X.k.!.!.W.W.W.W.!.k.k.k.k.j.[ ] ) ) U I ^ ^ ~ ) D 3.G x x j t x v c c x x -.:.c z n.M.N.=.&.v v M.B.B.B.m.;.;.,.;.*.;.m.m.M.M.m.m.>.,.,.,.m.;.;.:.&.&.&.,.N.N.N.Z.N.N.V.;.A.A.B.&.z #.>.n.n.n.n.=.>.n.B.n.N.M.M.N.N.:.t e D C 4.u.t.1.3.3.3.B f f : 8 U T T U 4 4 _ u.f.s.s.t.s = = o O O o O ; 6 6 i u r e e e e B 1.u.u.y.y.1.1.t.u.s.i.m O ; ; = = O * * * - * * * O O O * O * ",
"4XuXuXuXuXuXuXuXuXuXuXuXuXuXuXuX4X=X&X].c.c.c.c.].&X=X,X,X2X X XO.] ] ] ] [ ....X.X.X.X.X.X.j.k.k.k.k.k.Y.k.[ ] ..j.k.k.Y.Y.Y.k.Y.Y.U.!.!.U...X.k.Y.!.!.!.!.!.!.Y.!.U.h.X.] U U ^ ^ ^ ^ ^ ^ ^ ( 3.C x j r w x -.-.c l c *.*.c z n.N.B.&.-.v -.M.>.M.n.M.;.,.;.*.;.m.m.m.m.m.,.>.>.>.,.,.,.;.,.;.=.*.&.m.N.N.N.N.N.N.N.;.A.A.B.*.z &.n.n.n.n.n.>.*.>.n.m.N.N.M.N.V.t - e V C 4.3.3.t.y.C y.B V r = ; a m M _ [ E.t.y.p.( u : 4 i 4 * o * : u i i i i e i r p B V 3.u.u.t.1.3.y.u.y.t.a = 5 6 6 : : : : : : : : : > > O O O = O * ",
"4XuXuXuXuXuXuXuXuXuXuX0X0X4X=X`.c.c.0.0.0.0.0.0.0.c.c.{.].k.O.^ / / / _ ) ] ] [ ..[ ..[ ..X.j.k.k.k.k.U.U.U.k.k.k.X.X.k.k.k.k.k.Y.!.W.W.@X@XW.!.W.!.U.!.!.!.!.R.R.H.U.X.) ^ ^ ^ ^ R R J R ^ R / G x x j r r v 4.-.v l -.:.-.v c n.B.n.&.z -.;.m.,.M.M.M.,.=.=.;.m.m.M.m.m.>.=.=.>.m.m.,.,.;.;.,.=.=.=.M.M.M.N.N.Z.Z.N.5.A.A.A.>.z *.n.n.n.n.=.M.;.=.N.m.M.N.N.;.x - > t V C y.3.3.y.u.y.1.B V t : : M ( p.s.].s.D D D ( p p i u = * : 4 u i u u 4 i i p B D D 3.y.3.1.t.u.y.y.t.D n 8 m i i : : : : : : u u u e e : O O * = O = ",
"4XuXuXuXuXuXuXuXuX0X4X=X].c.c.0.0.0.8.8.8.8.0.0.0.0.0.0.c.c.z.e.s s m s U / ) ) ) ) ) ] [ ....X.j.k.k.k.U.U.!.!.!.Y.k.X.X.X.k.Y.Y.@X!.U.!.@X@X@XQ.W.@XW.Q.Q.j.k.X.] ) ^ ^ ^ ^ R ^ ^ ^ J H J J U 3.x j r r j C c c x c =.*.-.x -.n.B.=.#.z M.,.,.*.>.M.,.;.;.;.m.m.m.m.m.,.=.>.,.m.m.,.m.m.,.m.;.=.>.n.B.M.B.N.A.Z.A.N.;.A.A.A.B.#.>.n.n.n.M.*.m.M.m.N.m.m.,.-.w - - > e 1.1.u.3.3.y.u.u.3.D 2.y e > n ' f.s.p.( t.d.u.t.S p = = : u : 4 u : : u 4 n n A D 1.3.3.D t.s.[.u.1.d.s.V M a m i : : : : u u u i u i p n i O * * - O = ",
"4XuXuXuXuXuXuX0X4X&Xz.f.0.0.0.0.0.0.w.w.w.w.0.0.8.9.0.0.0.0.q.0.f.Z 4 4 a a M U T _ / ] ] [ ] ..X.j.k.k.U.U.!.!.W.@X@Xk...X.Y.U.Y.@X@XW.U.!.W.W.W.Q.W.W.!.!.j.^ R R R R R R R R R R R ^ J 0 0 m 3.j j k r x b c c x -.=.*.c l -.n.B.#.l ;.N.*.,.*.,.m.,.,.,.m.m.m.,.m.m.=.=.>.>.,.,.,.,.m.m.,.=.>.n.n.B.B.B.B.N.Z.Z.M.:.A.A.A.A.m.&.>.n.B.N.,.m.=.m.N.m.-.w - - - - g e C 2.4.u.t.t.3.y.u.V C V e - p B ( A t.i.t.D t.e * ; : u : u u u 4 : : i u p A t.y.t.1.t.s.].].d.D t.u.C D M 6 : u i i u u i i i i p S ( Z i * * * = O = ",
"4X4XuXuX0X4X&Xz.c.0.0.0.0.0.0.0.0.0.0.%.%.7.w.8.0.0.0.0.0.0.0.0.q.c.y.: = 4 4 i m U _ _ } ) ] [ ..j.j.k.k.U.!.!.!.!.W.@X@XW.@X@X@X@X@X@X!.k.k.!.Y.k...+.~ ^ R R R R R R R R R R R R R R R J 0 m C j x j k G b c v c =.=.-.v l &.n.>.#.l m.B.&.*.=.>.,.,.,.;.,.m.m.,.,.>.>.>.>.>.>.>.,.,.;.,.=.>.>.n.n.n.B.B.B.N.Z.Z.M.-.A.A.A.Z.Z.&.&.n.M.n.m.N.=.m.4.B : : * - - - > t 1.1.4.u.s.u.u.u.t.B n f - * r t D i.p.t.D f.Z i i u e e e e e e i p u u N ( y.t.1.t.u.f.f.t.t.y.D 3.1.3.y.u u u u i i i i i u u Z ( _ / / m O * * = O : ",
"=X=X=X&Xz.c.0.w.w.w.8.0.0.0.0.9.0.0.0.0.0.0.w.w.8.0.0.0.0.0.0.0.q.q.q.c.A O O : u a m T _ ) ] [ ) ..j.k.k.h.h.U.U.!.!.W.!.!.W.W.W.!.!.!.!.W.X.) I R R R R R R R R R J J H J J J J R ^ ^ | ^ +.) F x x k C 4.-.b c :.=.*.c v v &.n.>.z v *.B.&.*.>.=.;.;.;.;.;.,.m.,.,.>.>.>.>.>.=.>.,.,.;.=.>.n.n.n.n.n.n.n.n.B.Z.A.N.&.A.A.A.Z.Z.M.#.n.N.n.m.V.b F 6 = = : 1 - - - - e D 3.u.f.y.y.y.u.y.D p y - * t e Z t.D D 1.t.( p i i i i i i p p p Z D D M M t.u.f.s.s.' : O t.1.C 3.y.C 3.i i u i i i i u e n ( ( / / / / M O O O * o 4 ",
"c.c.c.0.0.8.0.0.8.0.0.8.8.0.9.9.0.8.0.0.0.0.0.0.w.w.9.9.0.0.0.0.q.q.q.q.{.c.A - = 4 u m _ ) ) / ) [ ..X.j.k.k.k.k.U.U.k.k.k.k.k.U.Y.Y.Y...I J J J J R R R R R R R R R R H H H J R ^ ^ ^ ^ ^ ^ ^ B x x w 4.4.b c 4.*.=.*.v v v &.M.n.:.c ;.M.*.&.=.,.=.;.;.=.=.=.>.,.,.>.>.>.>.>.=.>.,.,.=.>.>.n.n.n.n.B.n.n.>.B.Z.Z.N.=.A.A.A.A.Z.Z.&.,.N.m.4.G 6 = $ , = ; 4 : > e e e A C y.3.u.f.u.u.t.A p V - : e p D t.p V y.s.S i i i i p p B S B D t.p.' p N t.[.[.' : - > p D 3.t.3.3.y.t.e u u i i e e p _ ( / / / / T T m O O O * o 6 ",
"0.0.0.0.0.0.w.w.8.8.w.8.0.0.0.0.0.0.0.0.0.0.0.0.0.w.w.8.8.8.0.0.0.0.0.q.q.q.c.c.f.B - : s U M T / [ [ X.j.j.j.j.k.k.k.k.j.j.k.k.k...^ I J R R J R J R R R R R R R R R ^ R H H H J R R ^ ^ ^ ^ ^ n k x F 4.-.c c -.*.=.*.v v v &.N.B.;.v ,.M.:.*.=.,.=.*.*.*.*.=.=.>.m.m.>.>.>.=.=.>.,.,.>.>.n.n.n.n.n.M.B.n.>.n.B.Z.N.;.A.A.A.Z.Z.Z.M.,.N.3.n = $ $ = , , = 4 e e p n Z A y.u.u.s.s.f.f.y.V r V e r B D 1.3.t.1.y.t.S i i p p Z Z A t.p.t.D D u.i.s.( ' : - - - e D 1.y.3.3.t.3.t.u u u u i p Z ( / / / T T / T T m O O O * * m ",
"7.w.0.0.0.0.0.0.%.w.w.w.8.0.0.0.0.0.0.0.0.0.q.q.0.0.9.9.0.8.8.9.9.9.9.q.q.q.q.q.q.S.{.f.A 4 i M T _ ) [ [ ....X.X.X.j.j.j.j...) J H H J J J J R R R R J J J J J J R ^ R R ^ ^ ^ ^ R J J R R R J n j x C c c v v c =.=.&.l v l &.M.N.,.v ,.m.:.*.=.,.,.=.;.*.*.=.=.=.>.>.>.>.,.;.=.>.,.>.>.>.n.n.n.n.n.B.B.n.>.n.B.M.N.;.A.A.Z.Z.Z.Z.Z.:.:.6 $ $ $ $ $ $ $ = ; : p Z B D p.y.f.f.].f.f.u.V B e r D d C D y.D t.D C y.D p n Z A A D p.i.t.t.u.y.[.( ' 2 * - - - - e C C y.3.t.3.3.3.i u u u M / / / / T T T T / / / m O O O = * T ",
"7.7.w.8.0.0.0.0.0.0.8.%.%.w.0.0.0.0.0.0.0.0.0.0.0.0.q.q.q.q.0.w.9.0.0.q.q.q.q.q.q.q.q.q.F.c.D 1 i M U T / ] [ ..j.k.j.X...T J H H H H H H H H J J J J J H H H J R R R R R R R R R ^ ^ H H H J J M j C c x c v x c *.=.&.l x v &.=.;.,.v m.*.z #.&.=.;.;.,.;.*.*.=.>.m.n.>.>.=.>.>.m.>.>.=.>.B.n.n.n.>.n.>.n.>.n.>.M.Z.;.Z.Z.Z.Z.Z.Z.V.F : % $ $ % $ % $ = = ; 4 Z A A y.s.].].].p.u.u.u.A - - g V D D t.y.y.s.f.1.f.A n Z D t.s.i.D d.s.f.[.d.( % X X - - - - - > C C 3.D D t.1.t.i i n _ / / / T T T T T T T T T a * * * = = / ",
"w.7.w.w.w.w.0.0.0.0.0.0.0.%.%.8.0.0.q.0.0.0.0.0.0.0.q.q.q.q.q.9.8.0.q.q.q.q.q.q.q.q.q.q.q.q.F.c.3.u i a M / ) [ ..X.X.] 9 H H H 0 H H H H H H H H H H J J H J J R R R ^ ^ ^ ^ ^ ^ ^ ^ ^ J H J ^ U r 4.v x c v v v *.=.&.l v c *.#.l -.z M.*.#.#.#.#.#.#.&.&.&.&.*.*.n.m.n.=.*.*.=.=.=.>.*.=.n.>.n.B.n.B.M.B.N.Z.>.Z.Z.V.,.Z.Z.Z.N.5.n = % % % % % $ $ = , , = 4 Z 1.u.].].].p.p e y.3.3.e * - r V V D 1.3.s.s.t.s.u.u.p.s.s.s.i.d.s.s.z.s.( % X 2 X X * - - - - e V V y.3.t.3.D S n / S T / T T T T T U T T / / / U * * * ; 4 } ",
"w.w.0.7.7.7.7.w.0.0.0.0.0.q.w.w.w.8.9.0.0.0.0.0.0.0.0.q.q.q.q.q.0.q.q.q.q.q.q.q.q.q.q.q.q.9.9.9.0.x.= 4 / j.T.W.W.k.) 3 3 3 0 0 0 0 0 0 0 H H H H J J J R R R R R R R J J J J R R R ^ ^ ^ | | | ) F 4.v l v c c v v =.:.w x &.*.z y c &.>.>.:.;.:.&.&.#.#.&.#.#.z #.*.*.>.=.*.*.*.=.=.>.=.=.M.>.N.Z.N.N.N.N.N.N.m.N.Z.Z.-.S.V.m.G : % $ % % % % $ $ $ = , , 3 3 S G.].].t.i e e e t 3.3.i * - y V D 3.u.D 1.y.f.s.f.u.d.p.i.s.].].s.s.Z o o + O 2 o o * * - - - e A C 3.D t.B n / / / / T T T T T T T T U T / [ j.] * * * 2 6 [ ",
"0.0.0.0.w.7.%.7.0.0.0.0.0.0.q.q.q.q.0.9.w.9.9.9.9.0.0.0.0.0.0.0.0.q.0.0.q.q.q.q.q.9.9.9.9.8.w.%.7.p.j.@X%X#X#X%X*X*X=X=XX.0 < 0 0 0 0 0 0 0 H H H H H J J J J J J R J H H H H J R ^ ^ ^ ^ ^ ^ ^ ^ 4.-.v v v v k v k l &.w x ;.*.z #.l z ,.m.,.;.5.:.,.=.=.=.:.;.z =.m.m.=.*.M.=.,.M.n.N.M.n.M.,.N.Z.N.N.N.M.M.;.N.N.N.N.;.V.4.j % % % $ $ % % $ $ $ $ = = , , 3 S p.( e t t t t t t 3.t.p * * r d D 3.f.u.u.f.f.s.y.t.i.s.].].].a.M = = = = = # = i u : : * * * > V C D D Z S / / / / / / T T T T U T T } j.R.P.E.{ * * * 2 i [ ",
"0.0.0.0.w.7.7.7.7.7.0.0.0.0.0.0.q.q.q.q.q.w.w.9.9.0.0.0.0.0.0.0.0.0.0.0.9.9.q.9.9.9.8.w.%.$.2.p.(.@X@X@X@X@XQ.#X#X#X%X*X*X=X..3 < 0 0 0 0 0 0 0 H H H H H H J J H J J J 0 H J J R R R R R R R R ^ u.c F x x k w k k c ;.l v ;.=.:.:.-.v m.V.,.m.m.,.,.=.=.,.,.m.&.m.N.m.n.n.N.,.,.M.M.N.N.M.M.m.N.N.N.N.N.M.:.v m.m.;.:.G j : % % % % % % % $ $ $ $ $ = = = , , = - e t t t r r r r 3.3.n o O - e V 3.f.f.[.s.t.t.y.p.].].].l.T 7 a U U a : : i s i i i i i u e e B D D ( / / T / / / / / / / / T T / { I.E.).)._.{ * * * 2 a [ ",
"0.0.0.0.0.w.7.7.7.$.0.0.0.0.0.0.0.0.0.q.q.0.w.8.w.8.0.0.9.9.0.9.0.0.9.0.9.9.9.8.w.%.%.@.e.l.E.R.!.!.W.W.!.!.!.!.!.!.W.W.W.Q.*X#X~ 3 0 0 H H H J J J H J J J H J R R R ^ R R R R H H J J J J R ^ ^ ' x r w r r j v G ;.;.v :.:.;.;.-.;.c ,.M.m.m.m.M.=.n.m.m.,.V.&.m.N.n.n.M.N.N.,.N.m.N.N.N.M.N.m.m.m.M.m.;.t > j j i ; ; % $ $ % % % % % % $ $ $ $ $ = , , , , < e t t t t r e e e 3.t.n o O * - V s.y.1.( e.t.y.s.z.].j.M 5 m U U M m i i s u u i i i i u p p _ D D ( _ / / / / / / / / / / / / { I.P.E.E.^.E.E.{ * * * 4 a { ",
"0.0.0.0.0.0.0.6.7.$.$.w.8.w.8.9.0.0.q.q.q.q.0.0.q.9.9.0.0.9.9.9.9.9.9.8.8.w.%.%.%.2.r.l.T.!.!.!.!.!.!.!.T.k.j.j.j.X.{ j.W.#X%X*X=X@X+.J R J H J J J H J J J R R R R R R R ^ ^ ^ ^ R H H H H J J R n t t r j j x x -.m.m.-.:.;.:.:.:.:.c ;.V.m.m.m.M.=.>.M.m.m.m.:.m.m.m.N.N.M.N.m.N.M.m.N.V.m.;.b c v F j t # % # # # % % % % % % % % % % % $ $ $ $ $ , , , , , 3 : t t t t r r e t D t.Z : * * : Z Z S D ( y.[.].].s.m 5 a U T U m i i s s s s i i i p i n _ ( _ / / / / / ) ) / / / / / / / [ H.).).).).).).)._.[ = * * 4 i { ",
"0.0.0.0.0.0.0.0.0.0.7.@.w.w.8.9.0.0.0.0.q.q.q.0.9.q.8.0.0.9.9.9.9.8.%.%.%.%.7.x.f.z.h.h.h.j.k.k.k.k.h.h.h.h.[ ) ) j.W.W.W.Q.W.@X#X*X=X#X) 0 J J J J J R R J J J J R R R R R R R ^ ^ ^ R R J J J J i r j B B j x c b =.m.m.V.:.-.c 3.C F ;.m.;.>.,.m.;.n.m.M.V.;.;.V.V.m.m.M.V.m.m.m.;.4.:.G j * * % o + # # # % % % % % $ % % % % % % $ $ % $ $ $ $ $ = , , , , < 1 e g g t t t e t D D D ' : a S ( ( t.y.s.].].s.d.a.8 I U M m i i i i s i i i p p n Z D ' ( / / ) ) / / / ) / / / / / / [ h.E.)._.).)._.).).)._.[ * * * 4 i { ",
"7.0.0.0.0.0.0.0.0.0.0.%.%.7.w.0.0.0.0.0.q.q.q.q.9.9.9.8.9.9.8.w.w.%.%.w.x.x.p.l.h.k.h.j.j.j.j.j.j.j.j.k.h.k.[ [ j.j.k.k.T.!.!.W.@X#X%X*X=X@X) 9 H H J J J H H H H H J J J R R R R R ^ ^ ^ ^ R J J a F F F x x x C -.:.;.M.V.m.j o O o * r j w k v -.b -.-.:.4.v C G G x k v c x j k > > * O . + # # 3 # # # % % % % $ $ $ % % $ $ $ % $ $ $ $ $ $ $ $ $ q $ , = = = u p e e e g g g A t.i.S : - i Z ( s.s.[.s.u.s.s.a.U M a u i i i i p i i i i p Z D t.p.' / ) ) ) / / / / / / / / / [ j.R._._.).'.).).).'._.'._.[ * * * 4 i { ",
"w.0.0.0.0.0.0.0.0.0.9.w.@.@.@.%.7.0.0.9.0.q.9.q.0.9.9.%.w.9.%.%.0.7.x.t.j.k.k.k.k.X...X.j...j...j.k.T.T.!.W.#X#X#X!.j.k.k.U.!.!.W.W.Q.#X#X%X=X+XJ 0 0 H H H H H H H H J J J J R R R R R R R ^ R R U 3.F F F F x j j j j j k t o . . . . . X . . o O O O o * * O O o o X X X X X . . . & . # + # # % 0 # # % % $ $ $ $ $ $ % $ $ $ $ % $ $ $ $ $ $ $ = = , $ = , = = u Z Z Z B B Z D y.t.Z u u n p i Z ].s.e.t.d.s.s.Z m u u u i i i i i i i p Z ( ' ' [ [ ] ] ) ) ) ) ) / T T / / } h.I.).)._.^.).).'.'.'.'.'._.'.[ * * * 4 i j.",
"7.w.0.0.0.0.0.0.q.0.0.q.q.0.0.7.%.w.8.8.8.8.8.9.0.w.%.@.@.7.x.r.a.h.j.j.j.j.j.X.j.j.{ { { { { j.h.h.h.k.T.T.!.!.W.Q.#Xh.j.h.U.T.!.W.W.Q.~.#X%X=X=Xk.a 3 0 0 H H H H H H H H J J J J R J R R R R R J 3.C F B j > O   .         . & . . . . & & & . & . . . . + + + + & + + + + & . . + + & # # # % % 5 . + % $ $ $ $ $ $ $ $ $ $ $ $ $ $ $ $ $ $ $ $ = = = $ , , = = 4 Z A A D y.y.t.D n p i B D p e p t.p.D s.i.t.u.M u i i i i i i i i s n A D ' / ) ) ) } ] ] ) ) ) ) T / / ) ..R.E.E.).).).).)._.'.'._._.'.'.'.[ * * * 6 i j.",
"7.7.w.0.0.0.0.0.0.0.0.0.q.q.0.0.w.8.w.%.7.7.7.7.7.2.2.x.x.p.j.h.k.j.j.X.X.j.j.k.k.k.j.[ [ { j.h.h.k.k.h.k.U.U.!.W.Q.W.#Xh...k.!.T.!.W.Q.Q.Q.#X*X*X=X;XY.~ < 0 0 H 0 H 0 H H H H H J J J J R J J J J S i : O o     . .   . . . . & . + + + + + + + + + + + + + + + # + + + + + + + + # # # # % % % % % . + % $ $ $ $ $ $ $ $ % $ $ % $ % $ $ $ $ $ , = = $ $ = , = = 4 _ i.p.y.3.A p r p D p.u.y.s i n t.y.t.t.y.u.3.n i i i i u u u p Z Z S ( ( _ ) ) ) ] ] ] ] ) ) ) ) / / [ L.^.).)._.)._.).).).'.'.)._.'.'.'.'.[ * * * 6 i j.",
"7.%.7.0.0.0.0.0.q.0.0.0.0.0.8.w.w.7.7.7.@.2.x.r.i.i.l.j.h.h.j.j.k.k.k.h.h.j.j.j.j.j.X...X.j.j.j.j.j.j.j.k.h.k.h.U.T.W.@X#XW.W.T.U.U.U.T.!.W.Q.#X#X*X=X=X;X=Xk.) U H 0 0 0 0 0 0 H H J J J J J H H H 7 #           .     . . . . . + + + + + + # # # # # # # # # # # # # # # # % # % % % $ $ % % $ $ %   + % % % % % % % $ % % % % % $ $ % $ $ $ , , , , = , = = = = i s.y.D Z p r B D y.y.u.1.V e i p u.s.t.s.i.t.u.i i i i i i i n Z / ( } ) ] ] ) ) ) ) ] / ) ) ) ) ] [ h.E.'._._.).`.).).).).).E.P._.)._.'.'.'.] * * = 6 i g.",
"$.7.7.7.0.0.0.0.0.0.0.0.w.w.%.@.@.@.3.y.i.i.j.j.j.j.j.j.j.j.j.j.j.j.j.j.j.j.j.h.h.k.U.T.U.U.h.j.j.j.j.j.X.j.j.j.h.!.!.W.W.Q.W.!.!.k.j.j.h.k.U.!.@X%X*X*X=X*X=X=X;X;X=X*X+XO.0 0 H H H H H H H 0 0 0 3 %                       . . + + + # # # # % % % # # % % % # # % # % % % % $ $ $ $ $ $ $ $ $ $ %   . # % % % % % % $ % % % % % $ $ $ $ $ $ , , , , , , $ = = < M t.Z p p p i.y.3.1.D d x B p ' t.y.t.( D B D t.n i u i i M Z S ( ' } / T / ] ) ) / ) / / ) ) ) [ j.E._.`.`.'.`.'.'.'.'.'.'.'.)._.'.'.'._.^.'.} * * * 6 i j.",
"V $.$.7.w.8.0.0.8.0.8.w.%.%.y f r.i.j.j.j.j.j.j.j.j.j.j.j.j.......[ [ X.j.j.j.k.k.k.k.h.j.j.k.U.j...X.j.j.k.h.k.U.T.!.!.!.W.Q.W.Q.W.!.j.....U.Q.#X#X#X#XQ.@X@X#X@XQ.#XQ.U.!.+XJ H H H H 0 0 0 3 3 3 , # .   .               . . & + + + # # # % % % $ % $ $ $ $ $ $ $ $ $ $ $ $ $ $ q q $ $ $ % $ $ #   . + # % % % $ $ $ % % $ $ $ $ $ $ = = = = q $ $ q , = = = 2 i n e e p r B A d r r r x V p ( ( 3.C t.Z B p Z M i i n n ( ( ' [ ) ) ) / ) / U / ) ) / / } [ g.E.'.'.'.'.'.`.`.`.`.`.`.`.`.`.`.'.&X`.'.'.)._./ * * * 4 i h.",
"a s f 2.7.0.w.w.w.%.%.%.2.e.i.j.j.j.j.j.j.j.j.j.j.j.j.j.j.j.j.[ ] [ j.j.j.j.j.j.k.j.j.j.h.h.h.k.k.j.[ X.j.k.k.k.k.h.U.U.!.W.Q.Q.Q.Q.W.W...W.#X#XW.W.W.W.W.U.U.!.!.U.U.U.j.] ..I H H 0 0 0 3 < q q $ $ # & & .                 . . + + + # # # # % $ $ $ $ $ $ q $ q $ , $ $ , , q , , , $ $ $ $ $ $ +   . . + # # % % % % % % % $ % % $ $ $ , = $ $ $ $ $ , $ $ = s ( p p p p r e e p d y V 1.y.n S ( D ( D ( t.e.D n n ( ' ( ( ) / ) ) / ) ) / ) ) T / U / [ L.^.'.`.&X`.`.`.'.`.'.`.`.`.`.`.'.`.`.'.'.`.'.`._._./ * * * 4 i h.",
"0 0 0 4 p 7.7.w.0.7.2._ [ { ........X.X.X.j.j.j.j.j.j.j.j.k.j.....j.X.j.j.....X.j.j.k.h.h.k.k.k.j.h.h.j.j.j.k.h.h.k.h.U.!.!.W.W.W.Q.~.#X#X#X%X%X*X#XW.U.!.!.U.U.k.k.k...T ^ 9 < q < 0 0 q q # % $ = 2 % + & .               . . & + + + + + # # $ $ $ $ $ $ $ , , , , , $ $ , , , , , , q q q $ $ $ +   . . + + # # # % % % % % % % $ % % $ $ $ $ $ $ $ $ , = , i i.i.D B e > * s B p V 2.1.1.y.p n ( Z D D i.D D D ' i.j.' / / T T T T T / T T T / / / } g.I.L.I.^.`.&X`.`.`.`.`.`.`.'.`.`.`.&X&X`.'.'.`.`.`._._./ * * * 4 i h.",
"< 3 3 , = g g y y f ( [ ] [ [ [ [ ....X.j.j.j.j.j.j.h.k.k.h.k.k.k.k.h.X...X.X.X.j.j.j.k.h.U.!.!.T.T.T.T.h.j.j.j.j.h.h.U.U.T.W.#X%XQ.Q.Q.Q.W.#X~.Q.%X%XQ.W.!.U.U.k.X.) ^ ^ 5 + # # # q q q q , 4 i ( ' / # .                 . . & + + + + # # # $ $ q , , , , , , , , , , , , , , , , , q q $ $ $ $ .   . + + + # # # # % % % % % % $ % % % % $ $ $ $ $ $ , = 6 p.z.p.( i O O O e D t.y.u.3.3.t.p n S ( Z S Z ' ( ' a.a.} / T T T T T T T T T T T / ) j.L.E._._.'.`.).E.^.'.&X&X&X`.`.'.`.`.`.`.&X`.&X`.`.`.`.'._./ * * * 6 6 h.",
", i 1.x.f.0.0.0.2.B / _ _ ) ) } [ [ ..X.j.j.j.h.j.j.h.h.h.j.j.k.h.k.h.k.j.[ [ ..X.j.k.U.U.k.U.!.!.!.W.!.!.W.!.h.j.j.j.j.j.k.T.U.!.W.Q.#X#XW.T.Q.!.!.!.W.!.!.U.k...) T U 6 ;   . $ # q , 0 7 i ( s.s.z.[ + .                 . . . & + + + # # $ q q , , , , , , , , , , , , , , , , , , q $ $ $ $ %   X . . + + # # # # % $ % $ $ $ $ $ % % % $ $ $ $ = % = 6 i.].z.p.Z O O * s t.u.y.3.3.D t.3.i n S D ' t.D ' i.[ ) / ) T T T T T T T T T T T / [ h.R.).'.'.'.`.`.&X&X`._.P.P.E.&X&X&X`.`.`.'.`.'.`.&X&X`.&X`.`./ * * = 6 6 L.",
"c.0.0.0.0.9.9.q.q.c.e.Z _ / _ ) } [ [ ..j.j.j.h.k.h.k.h.h.h.k.k.j.j.h.h.k.j.] [ X.k.h.h.U.!.!.W.W.Q.Q.Q.#X#XQ.~.Q.h.{ [ j.h.T.Q.Q.!.T.!.W.Q.!.!.W.k.U.U.U.k...) ^ ^ / ' S 6 = % + = 4 a / i.p.s.s.].].i.+   . . . .           . . . + + # # % $ q q , , , , , , , , , , , , , , , , , , $ $ $ $ $ $     . . + + # # # # % $ $ $ $ $ $ $ $ $ % $ $ $ $ $ = 6 i.].].].p.A * O O B 4.1.3.3.1.C A t.: M Z ( ( ( ' [ ) T T T ) T T ) T T T T T U / [ H.L.E.R.E.'._._._.'.`.&X`.`.&X&X_.R.R.P.`.&X&X`.'.&X`.`.'.'.`.`.'.U * = = 4 4 h.",
"9.9.9.9.9.9.9.9.9.q.q.f.Z Z _ / / _ ) [ ....j.j.j.k.h.h.k.h.h.k.h.h.h.T.!.!.k.k.j.j.j.j.k.k.h.U.U.h.h.h.h.U.U.U.!.Q.T.W.!.H.!.W.W.W.Q.W.U.T.h.j.h.k.k.k.X.] T U U T ' a.i.( _ M M ( t.p.i.p.s.s.s.p.t.N + . .   . .             . . & + # # % $ q q , , , , , , , , , , , , , , , , , , q $ $ $ $ $       . + + + # # % % % $ $ $ $ $ $ = = $ % $ % % = s i.z.].].].z.( : O O B C 1.1.1.1.B B D = u M ( i.{ ) ) ) ) ) ) T ) ) ) T T T ) ) { H.Q.~.^.^.E._.'.'.'.'._.`.'.&X'.'.`.&X&X&X&XI.L.P.'.&X&X&X&X&X'.'.'.`.U = * = 4 4 T.",
"8.8.9.9.9.9.9.9.9.9.q.q.c.1.M Z / / / } [ { ..j.j.j.j.j.k.h.h.k.k.k.h.k.k.k.U.!.!.!.j.X.X.......{ [ ..h.!.!.h.../ [ j.!.h.U.W.!.!.U.U.U.h.U.h.X.X.j.....T U U M M Z D i.s.S u i ( s.s.s.s.s.y.t.C t.t.S + & . .             . . . . + + # # % $ $ q , , , 3 3 , , , , , , , , , , , , $ $ $ $ $ $ $       . . + + # # # % % % $ $ $ $ $ = , , # # % 4 _ p.z.z.].z.z.z.i.u O O p V C D 1.D B D D * 4 [ { ) ) ) ) ) ) ) ) ) ) ) ) T ~ ~ [ h.Q.~.~._.E.E.E._._._.E.(.).'.'.'.'.`.).'.`.`.'.E.`.&XE.L.L.E.&X&X&X&X&X&XT * = = 4 4 T.",
"8.8.8.9.8.9.9.9.9.9.9.9.q.q.c.1.M Z / / ) [ [ [ { ....j.k.h.k.k.k.k.h.h.k.k.k.h.!.!.W.h...{ { [ j.!.W.W.Q.Q.W.Q.h.[ [ h.W.j.[ h.Q.Q.j.j.j.j.X.X...] ^ U U M M M Z ( p.].].S : i ' z.z.p.t.1.3.3.t.y.p.i.# & & . .       . . . . . . + + # # % $ $ q , , , 3 3 3 < , , , , , , < , , $ $ $ $ q $ q %         . . + + # # # % % % $ $ $ $ $ , , = 4 U p.z.z.z.z.].].].z.p.s O O r C B V V Z Z B Z = 6 U T ) ) ) ) ) ) ) ) ) ) ) ) ) ] j.Q.E.Q._.'.E._._.~.'.'.'._.'.'.'.`.'.'.'.).)._.'.'.'.&X`.'.'.'.'.I.R.R.&X&X&X/ = = ; 4 : E.",
"w.w.w.8.8.9.9.9.9.9.9.9.9.9.q.q.f.D Z T / _ / ) } [ { ..j.j.j.j.j.j.j.h.k.k.k.k.k.U.!.!.k.[ ..h.!.!.W.Q.Q.#X#XQ.#XU.) [ h.~.h.[ { U.W.X.X...] T T U U U m M Z i.l.].].].].' : n Z a.( D D D t.y.u.u.u.u.% & .   .       . . . . . + + + # # % $ $ , , , , 3 3 3 < < , < 3 3 < , , , , $ $ $ q q q $       . . . + + + # # % % % $ $ $ $ $ , 3 M t.p.s.z.z.z.z.z.].z.z.p._ * O r C D D D D D ( S T T T T T ~ ) T ) ) ) ) ) ) ) ] [ h.E.^._.'.&X&X'.&X'.'.'.'.&X'.`._.`.'.'._._.).).E.).).'.'.'.'.'.'.&X&X&X&XE.I.E.N = * ; 4 : R.",
"w.w.w.8.8.8.9.8.8.8.8.8.9.9.q.q.q.{.x.Z Z T / / ) [ { { { ..X.j.X.j.j.h.h.h.k.h.U.!.!.!.W.Q.Q.@X@X#XW.W.Q.Q.Q.#X#X%XQ.j.{ !.#X!.h.X.j.k.] ) U U U m M M S i.].].].].].z.t.( O u e n D D 3.t.y.y.y.1.D t.= + .           . . . . . & & + # # % $ $ , , , , < < < < < 3 3 3 3 , , , , , $ $ $ $ q $ $   .     . . + + + # # # # % % $ % $ , = M i.p.s.z.s.z.z.z.z.z.z.z.l._ = O r V D D A ( ( _ / T ) T ) ) T ) ) ) ) ) ) T ) [ ..j.h.R.'.&X'._.`.'.'.'.&X&X&X`.'.'._.)._.).E._.E._._.(.E.E.E._.E.E._._.'.&X&X&X&X&XM = * ; 4 : E.",
"%.w.8.8.8.9.9.9.8.8.8.8.8.9.9.9.9.q.0.c.D Z Z / / ) [ [ [ [ { ....j.j.j.h.U.!.!.T.!.U.!.!.W.W.Q.W.W.W.W.!.!.!.W.Q.#XW.Q.U.j.h.U.k...) T T U I M m M ( l.].].].].].s.D A A D O : p Z D t.t.y.t.D D y.u.t.= + .       . .     . . + + & + # # % $ % , , , < 3 3 3 3 3 3 3 3 3 , , , , , , , $ $ , , i M O           . + + o + + + # $ % = , i ( p.s.p.s.s.z.z.z.z.z.z.z.l.( 4 o p A A S D _ / / ) ~ ) / T T T ) ) ) ) ) ) ] ..j.h.L._.'.'.'.'._.'.'.`.'.'.`.`.'.'._._._.(._._.).E.'._._.'._._.E.'._._.'.'._.'.'.&X&XN - = = 4 : g.",
"w.%.%.w.9.9.9.9.8.8.8.8.8.9.9.9.9.q.q.q.c.y.n / / / / ) } [ [ { ......j.h.h.k.k.h.U.U.!.!.!.W.W.W.!.!.T.U.!.U.h.U.U.U.k.U.[ ] ) T U U m a a a Z ' l.].].].].].p.B r B V V Z * : e Z V D y.S 3.y.y.u.t.u.a +   . .     .     . . + + + + # # % $ $ , , , 3 3 3 3 3 3 3 3 < 3 < , , , , q , $ $ = , i D ( a ;   .   . & & & o + # # % % $ 6 ( p.p.p.p.p.p.p.z.z.z.z.z.z.z.i.s i Z S S S / ) ) / T T T T ) ) ) ) ) ) ) ] X.j.h.R.^.'.'.`.'.'.'.'.'.`.'.`.'._._._._._._.(._._.).E.E.).E.E._._.E.E.`.'._._._._._._._.%Xa = = = 4 : E.",
"9.9.9.w.%.w.8.8.8.8.8.8.8.9.9.8.9.9.9.q.q.q.c.Z M Z / / _ ) [ { ..j.j.h.U.h.k.h.U.U.!.!.!.T.!.!.!.!.!.Q.U.U.h.j.X...{ [ ] ) U I U a a a m _ s.].].].].].].t.d B B r r B D t.e p B D 3.t.Z y.t.D D 3.t.y.m + .   .   . .   . . . & + + + # # # $ $ , , , 3 3 3 3 3 < < < < 3 < , , , , q , , , , , n D t.t.i.4     . . . . . + # # % $ 6 _ p.s.p.p.p.p.p.z.z.z.z.z.z.z.z.i.S Z S M / ] ) ) ) ) ) T T ) T T ) ) ) ] { X.j.U.E.%X'.`.'.'.'.'.`.'.&X'.&X_.'.'._._.'._._.).'._.'._.E.).E.E.E.E.(._.E._.(.'._._._._._._.a * * = 4 : _.",
"9.8.8.9.8.%.w.8.8.8.8.8.8.8.8.9.9.9.9.9.q.q.q.{.1.p M / _ [ [ [ { j.h.h.h.k.h.h.U.T.!.U.U.U.U.!.!.U.h.U.U.j.j.] ] / U U I m m 7 a a M ( l.P.].].].].s.D r y y y B d e.l.].p.e n A D y.Z Z A D e.( D t.u.M + .   .   . .   . . . & + + + # # # % $ , , , < 3 3 3 < < < < 3 , , , , , , , , , , , = D t.( Z p n ;   . . . . & + # # $ 6 _ i.p.p.p.p.p.p.p.z.z.z.z.z.z.z.z.i._ Z / _ ] ) ) ) ) ) ) T T T T T T ) [ X.j.H.E._.'.'.`.'._.'.'.'.'._.'.`.`._._._._._._._.%X).E._.(._._._.'.E._._.E.'.'.'.R._.E._._._.Q._.a = = = 4 : _.",
"9.9.8.8.9.w.%.w.w.8.9.8.8.8.8.9.9.9.9.9.q.q.q.q.q.x.p Z / ) _ [ [ { ..j.j.k.h.h.U.!.!.U.k.k.k.k.k.h.j...j.j.X.) T U U a a a a M S [ ].].].].].].s.D A r y r r B D p.s.l.s.p.p p A D t.Z D t.Z 3.Z Z ( 3.i +         . . .   . . & & + + # # # % $ , , 3 < 3 3 3 3 3 < < 3 , , , , , , , , , , , , Z A y p Z ( ( :     . . . & + = a _ i.i.p.p.p.p.p.p.p.s.s.s.z.z.z.z.z.l._ U ) ) / ) ) ) ) ) ) T T T / ) ) [ ..j.T._.'.`.`.'.'.'.'.'.'.E._.'._.'._.'.'._.'._.'.'._.'._.E.'._.'._.'._._._._.'.'._.E.E.E._._._._._.a = = = : ; H.",
"8.8.8.8.9.9.%.%.%.w.8.8.9.9.9.9.9.9.9.9.9.9.q.q.q.q.c.1.s M _ _ ( [ [ ..j.j.h.h.k.h.h.h.k.j.X.....[ [ [ ) ) T U U a a i a M S t.].].].].].K.( Z y.y y d r V t.i.( S S t.s.d.n p Z C S t.Z t.D y.t.d.i.D / + .   . .       . . . & & + + + + # # $ , , , < < < 3 3 3 < < 3 , , , , , , $ q q q , , u B D t.t.t.t.s &   . . o o 1 s ( i.i.i.i.i.p.p.p.p.p.p.s.s.z.z.z.z.z.l.( U T T T / ) / ) T T T T T ) ] ..h.L.^.'.'.'.`.'.'.'.).).'.'.)._.E.'._._.'.'._._._.'._.'._.'.)._._.'.'.'.'.'.%X'.'.%X'._.'._._._._.(.'.i = = = : ; _.",
"9.9.9.9.9.9.0.8.9.8.w.8.8.9.9.9.9.9.9.9.9.9.9.q.q.q.q.{.f.1.s M T / ] [ ......j.j.j.X.....] ) ) ^ U U T U M a a i a M S ' p.].].].].].i.M * * B D r y D y.y.D S t.d.p.( S u.Z p Z D Z 1.D D ( u.s.y.' s./ .   . .           . . & + + + + + # # % q , , < 3 3 3 3 3 3 3 < , , , , , , $ q $ q , = s 3.3.t.y.e.p e @   o % 1 i f D r.r.t.r.i.p.p.p.y.y.p.p.p.s.s.z.z.z.z.l.' U T U U T T / / T T T / ] { j.L.R.).'.'.'.'.).'.`.`.'.`.'.`._.'.`.'.'._.'.'.'.'.'._._._._._._.'.'.)._.'.'.*X'.'.'.'.E.'._.'._._._.'.%Xi = = = : : *X",
"9.9.9.8.8.8.8.8.8.9.9.8.8.8.8.8.9.9.9.9.9.9.9.q.q.q.q.q.q.{.{.y.p s / ) [ [ j.j.j...[ ] T U I a I I a a a a a M M _ i.K.].].].].K.' : * * - - p V 1.t.u.i.S p.y.y.D u.y.( d.Z p Z D ' Z ( t.p.y.3.d.s.t.s . . .               . + + + # + + # # % , , , < 3 < 3 3 3 3 3 3 , , , , , , $ , $ = , = Z 3.y.1.p e e e : = 4 u e Z A A ( ( e.r.r.r.t.t.t.y.p.p.p.p.p.s.z.z.z.z.i.U T U U T } ] / T / } [ { g.E._._.'.).).'.'.'.'.).)._.'._.'.'._._.'.'.E.E.'.'.'._.`._.`.'._.(._._.E._.'.'._._.E.E._.E._.'.'._.'._.%X&X6 * = = : : &X",
"8.w.w.w.w.8.8.8.8.8.9.9.8.w.8.8.8.8.9.9.9.9.9.9.9.q.0.q.q.q.q.{.{.e.p U _ [ ) / ) T U U a a a 8 7 4 6 a m M S s.].].].].].].a.M o o * * - - e r x 3.y.( D d.D ( D D y.y.( p.B r Z D d.s.( D d.s.s.y.p.s.n . .         .     . . . & + # # # # % $ q , < 3 3 3 3 3 3 3 3 3 , , , , , , $ $ $ = , = Z V r t t e t p D n 4 u e s Z Z A A ( r.t.t.i.t.t.t.p.p.p.p.p.s.s.z.z.z.l./ T T T T ) / } [ { a.g.L.E.).).).).).(.E.E.).).).).).)._.^.'.'.'.'.`.`.&X&X'.'._._._._.'.'.'._._.'._._.'.'.'.'._.%X'.'.%X'.%X'.%X%X*X4 = = = : : '.",
"w.w.8.w.8.8.8.8.8.8.8.8.9.w.%.w.8.8.9.9.9.9.9.9.9.0.0.0.0.0.0.q.0.{.f.A s i ; 5 a a a a a 6 4 6 a M M M ' z.].].].[.].].i.u X X X * * * - - r r y C t.S A Z ( s Z D y.y.t.p.D r Z t.s.u.s.s.u.u.s.s.s.s.M + .               . . . . + + # # # % $ , , < 3 3 3 3 3 3 < , , , , , , , , $ $ , , = = e e e e t B D 3.( i : e i p d f Z A A ( e.r.t.p.i.i.r.t.p.t.p.p.s.z.l.z.l._ M / / T / / [ a.g.L.).).).'.).'.).).).).).E.).).).).).'.)._.'.'.'.'._.&X'.'.&X'.'.'._._.'._.'._.'.).).'.'.%X'._.%X%X'.'.'.&X&X%XT.!.: = = = : : *X",
"w.%.w.w.w.w.w.w.w.8.8.8.9.9.w.8.9.9.8.8.8.8.9.9.9.0.9.9.9.9.0.0.0.0.0.{.D = ; 3 5 7 4 4 6 i M M M Z i.l.].].].].].I._ = X X X X X * * * - - e r y D B D 3.D Z S p A A t.d.s.' e Z D t.t.t.y.u.s.s.s.d.( ( + . .         . .   . . & & + # # # % , , , < 3 3 3 3 3 < 3 < , , , , , , , $ $ , = = = e e e B D 1.D D D s 1 : e e p d Z A A A D e.r.p.p.t.r.r.r.p.t.y.p.s.s.l.l.[ U / / T / } j.L.E.).'.).'.).).).).).).).).).).).P.).E.).).E.E.E.E.'.).`.'._._.&X`.&X'.'.(.'._.'.'.'.'._._._.'._._.'.%X%X`.&XQ.L.Q.*X: = = = ; : &X",
"w.%.%.<.%.<.w.w.8.9.9.8.9.9.9.9.9.9.8.8.8.8.8.8.9.9.9.9.8.8.8.8.8.w.w.w.6.i # = 4 4 i i s n n S p.].s.z.].].].l.N o X X X X X X X * * * - - e r y C D D V 1.t.S t.t.t.D s.s.i.e p Z i.p.s.s.s.s.y.t.s.[.i.# . . .       . . . . . . & + # # # % $ , , , , 3 3 3 3 < 3 3 , , , , , , , $ q $ $ $ 2 e B D C C 1.D t.S i - 1 1 u p d Z A A A A D r.p.p.t.r.e.e.y.y.p.p.p.p.s.s.i._ U / ) [ L.E.).`.).).).'.).).'.'.).).).).^.P.P.P.E.^.P.'.).E.R.R.E.E.'._.E.E._.'._.'.E._.'.'._.)._.E.'.&X'.%X&X'.%X&X&X&XT.E.'.%X*X; = = ; : 4 *X",
"%.%.%.%.%.%.w.8.8.8.8.8.8.8.8.8.9.9.8.8.8.8.8.w.8.w.w.w.w.w.w.w.7.%.%.%.$.: 4 6 a i i p n ( i.z.l.l.l.].].[ i X X X X X X X X X X O * * - - e r r D 1.1.D D t.y.d.t.( p.s.s.' p n i.l.z.s.s.y.y.s.[.s.p./ .   .     .       . . . + + + + # # % $ , , , < < 3 3 < < < < , , , , , , , , q $ $ = 4 D 1.C 3.3.D A Z n : - - - : e p d Z Z A A A e.p.p.p.t.t.t.t.t.t.p.p.p.s.p.i.( U { g.E.'.'.'.'.'.'.'.'.'.'.'.'.).).).).).).).P.E.P.P.E.P.P.).P.E.E.).I.P.E.).E.).'.R.E.R._._._._._.'._._._._.&X&X&XE.T.%X&X&X%X*X: = = = : 4 *X",
"%.%.%.%.%.w.w.w.w.8.w.w.w.w.w.8.8.8.8.8.w.w.w.w.w.w.w.7.%.%.%.%.%.7.7.$.Z S s i i p / i.i.s.s.l.l.I.l._ O X X X X X o X X X X X X o * * - - e r r V 1.3.A t.u.3.D i.s.s.s.p.( p M ' s.y.i.s.].].s.s.D u 3 +   . . . .         . + + + + + # # % $ , , , , < < < 3 3 3 < , , , , , , , , $ $ $ , = D 1.1.3.B B B B p : = - - - e p p d Z Z ( ( r.r.p.t.t.r.e.e.r.t.p.p.p.s.p.i.i.( j.L.).'.`.`.`.'.'.`.'.'.`.'.).).).).).).).).E.P.P.P.L.P.E.E.E.E.E.P.R.R.).(.R.P.E.E.E.E._.'.'.'._._.&X'.'.'._._.T.E.&X%X&X&X%X*X: - = = : 4 &X",
"%.%.%.%.<.w.<.w.w.w.<.w.w.w.w.w.w.8.w.w.w.w.%.%.%.%.%.%.@.@.@.%.7.@.y p p Z i.t.p.s.s.p.s.s.l.z.i.a X o X X X X o o o o X X X X X o O * * - > t r B D B Z A 1.D y.s.s.s.i.d.( / i B e.s.].].z.s.t.B : = # .     . . .         . + + + + + + # % $ , , , , , , < , , < , , , , , , , , , = = $ = ; B C V B B B p p p : = = : : > e p p f Z A e.r.r.p.y.t.r.e.e.e.e.e.t.p.p.i.t.t.t.(.`.).L.L.'.&X`.&X'.'.'.).'.'.).).).).).(.).).E.P.L.P.P.P.E.E.E.E.).E.E.E.P.P.P.P.I.).E._.).).^._.'.`.`.'.'.I.h._.&X%X%X'.'.%X*X; = * = : 6 *X",
"%.%.%.%.<.<.%.%.<.%.<.w.w.w.%.w.w.w.w.w.%.%.%.%.%.@.@.@.@.7.2.@.t u i n ' s.[.s.p.p.s.l.l.s.( ; o o o X X X o X X o o o o X o o o o O O * - - t r B 3.3.t.t.t.s.s.s.p.i.t.S Z B d.y.3.].z.p.D B B n = X . .     . . . .     . . . + + + # # % % $ , , , , , , , , 3 , , , , , , , , , = = $ = , ; e p B B n r p p s : : 4 : u u > p p d Z Z ( r.i.p.p.t.t.t.e.e.e.e.r.i.i.i.i.i.i.I.&X&X&X&XP.L.E.`.`.`.'.'.'.'.'.'.).).).).).).I.R.P.I.L.I.R.R.).E.E.R.I.I.L.P.I.P.L.R.I.R.(.E.E.E._.'.'.'.h.T.%X'.&X&X&X`.%X~.*X- = = = ; 6 &X",
"%.%.%.%.%.<.%.%.%.%.%.<.w.%.%.%.%.%.%.%.%.%.@.@.@.%.7.%.7.e u e e S p.].].u.t.p.s.s.l.i.s O o o o X o o o o o X X o X X o O O o o o O O O O - e r B 1.1.y.s.s.s.p.p.e.Z Z Z e.u.u.t.V i.i.t.A V B N X . # . . . .   . .   .   . . . + + # # % % % $ , , , , , , , 3 , , , $ , , , , , $ = $ , = u p p B n e e B Z s i i 4 4 a s u e p p f Z A r.r.p.p.p.p.p.t.e.D D e.r.t.t.r.i.i.I.&X&X&X`.&X&X`.L.L.E.'.'.`.'.'.).).).'.'.).).).E.).P.K.P.I.R.E.E.R.R.I.I.L.I.I.P.P.I.I.L.E.P.P.E.).E.I.j.T.(._.'._.'.&X'.&X%X*X* * = = ; i *X",
"w.8.w.w.%.%.%.%.%.%.%.%.%.%.%.%.$.%.%.@.@.@.@.7.2.f g y 2.r p i.[.].f.d.t.d.i.s.s.( 4 = = O o o * = * O o o o o o o O ; : ; ; : : : 1 = * * * e r r 1.y.p.s.u.t.( Z B ( y.f.f.u.3.C t.y.p.t.D D D S = = = # . . . . .       . . . + + + # # # % % $ , , , , , , , , < < , $ , , , , = = = = : s p p p p e e p p p p u u a a m m i e e p f Z A e.i.p.p.p.p.p.t.e.D A ( e.e.e.( i.i.P.&X&X&X&X&X&X`.`.`.P.L.L.).'.'.`.).).).'.).).'.).^.E.E.E.E.E.E.R.E.R.E.E.R.R.R.P.L.P.P.I.P.P.E.P.L.a.g.I.I.R.E.E.Q._.&X'.'.&X*X* = = = ; a &X",
"w.%.%.w.8.0.%.%.%.%.%.%.%.%.%.$.@.@.@.@.%.2.f t - - > t @.3.].].u.t.t.p.s.s.i.S u 1 * O X = : 4 : * * * * O O O = : : 4 : 6 4 4 u i i i i i p p A d.s.p.p.i.D A Z D p.f.f.f.3.V C V t.t.D D D A A S : = = # . . . . .   .   . . . + + + # # # % % $ , , , , , , , , 3 < $ $ , , , , = % O * i A Z p s e p p p p p i a M M m m M a u e p p Z A e.r.p.p.p.y.r.r.r.e.A A A A ( ( i.i.I.&X&X&X&X`.&X`.`.`.&X&X`.L.K.K.'.`.`.`.'.'.).).).'.E.E.E.E.P.E.E.(.).)._.'.).E.P.I.L.L.K.I.P.P.J.a.P.I.K.g.I.I.E.R.E.'.'.%X%X*X* * = = = a %X",
"w.%.<.%.<.w.8.7.%.%.%.%.%.$.@.@.@.@.$.$.y g e e e e D 3.7.7.3.t.t.i.p.s.t.Z i 4 : o % 6 m M i i 4 : : = = * : : 4 4 u u u u i s a s i n n p i t.s.p.y.t.D A Z D u.f.z.f.t.V D D A r V e.A D B B Z Z : ; = % & & . . .       . . . + + + # # # # % % $ q $ $ , , , 3 < , = $ = = = % O O O * e B B Z s p p p p i a U U M m M M M a u e e p B A D e.t.i.p.p.t.p.t.r.( A A Z Z ( t.t.I.`.`.`.'.`.`.`.`.'.'.'.'.`.`.).K.K.P.&X&X`.`.`.`.'._.`.).E.).E.E.).).)._.`.'.).^.P.P.P.P.L.K.[ g.P.L.L.L.L.L.L.T.I.I.R._._._.%X* = * = O a &X",
"8.w.w.%.%.%.%.%.%.%.%.%.@.@.@.@.2.f g t e e e A u.G.G.1.7.@.3.i.i.i.( Z s i 4 O 2 a M M m a i u u 4 : = : 4 4 u u u i i i s s s s S ' ( n B D u.y.e.Z D t.s.s.s.f.u.1.d B C C r p B A D A A B B B B : : ; = . & . . .       . . . + + + # # # # % $ $ $ $ $ , , , 3 , = = = = = = = = O O * : n n p p p p i a U U U U M M M M m m i e u p f Z A ( r.t.p.p.p.p.p.p.t.e.( Z A ( e.t.).'.'.).).).).'.'.).).'.'.'.'.'.'.'.P.J.K.E.`.'.'.`.`.'.E.).^.E.E._.'.'._.`.'.^.E.).(.P.P.a.[ L.R.I.L.L.K.I.L.h.h.g.L.I.E.R.E.E.* * * = O m *X",
"w.w.%.w.%.%.%.%.$.@.@.@.@.7.2.y e e t r r 1.f.G.f.1.C y @.7.3.t.S s M a 4 = a U U M m i i 6 i i : : : u u u i i s s s s s M M / ( i.i.' S t.i.D A A t.u.s.f.s.( e d V r d y B A B d D A V B B B B B : : ; = + + . . .       . & + + + + + # # # % $ , = $ $ , , = 6 U m ; ; ; ; ; ; ; ; = * - p p p s i a m M U U U U U M M M m M s e e p p B A A e.r.p.p.p.s.p.p.p.p.r.A ( ( ( a.).`.'.'.).'.'.'.).)._.'.).).).E.).).).`.&XI.g.g.^.'.'.'.'.E.R.I.L.E.E.E.E.E.).).).).).L.' K.P.I.L.L.L.L.L.L.g.g.g.L.g.L.L.I.I.h.* * * = o m _.",
"<.w.%.%.%.%.%.%.@.@.@.@.f t > e e r y t.G.G.u.1.1.D 1.y V 2.2.i i 6 * 2 a U U M a i i i i 4 : : u u u u i i i s s s s s n ( [ ' t.i.' ' t.D A D t.s.s.f.s.A - * - B r d V D A Z B B V V B V B B B n : : : ; + + . . .       . . + + + + + # # # # $ $ = = = 2 U i.l.i.s ; ; ; ; ; ; ; : : 4 s p p p a m U U M U U M U U m m m m m s i e p p d A A D e.r.t.p.p.s.s.s.s.r.( ( ( ( E.'.'.'.'.'.).'.'.).).).).).).'.).E.E.).'.).`.'.).L.a.g.E.'.).E.P.L.P.L.I.P.P.E.E.^.P.{ { E.).P.P.P.P.P.P.L.L.g.g.g.g.h.h.I.g.g.g.* * * = o m E.",
"%.%.%.%.%.%.@.%.@.@.g g e e e t A u.G.G.3.C D A 1.t.D d f f f 1 % 6 M M M m a i 4 u u : : : u u u u i i a i i a i i M _ ' ' ' ( ' i.i.D A A i.s.f.s.t.n * * - - - p D D D A V Z A Z B B B B B p B n e : u M = # # # + .     . . . + + + + + + # % % = i U i.l.].].z.l.a ; ; ; = = = 4 : u p p s s U U U U U U U M M U M M m m a a p s e e p p B A A e.e.r.p.p.p.p.p.p.r.( A S [ _.'.'.'.).'.).'.'.'.).).).).`.'.).(.E.E.P.P.).).).'.`.E.g.g.P._.).E.P.I.L.P.L.).E.I.[ L.).).(.L.E.).P.E.R.R.L.L.h.g.h.h.h.g.g.L.g.* = = = o m H.",
"%.%.%.%.@.@.@.$.f e e e e r 3.f.G.u.3.D D D D t.D Z p e y r d 6 M m a u u i u : : : : : 4 4 u u i i i i i a s s M ( ( i.' ( i.i.i.( Z D y.s.f.s.D i o * * * - - * Z D D V V V Z Z B d B B B B p p p p B S Z 6 < 3 3 3 4 u 4 4 < 2 4 3 4 4 i s _ ( i.l.z.].].].].z.z.l.u = ; = ; : : 4 i i u a U U U M U M M M M M U M m m m s s s s s e e e p B Z A D e.e.e.r.t.t.i.i.( A Z Z L.`.`.'.'.'.'.'.).'.'.).'.).E.(.).).).).(.I.P.P.E.E.^.'.`.&X'.L.g.g.P.).R.P.I.K.P.a.a.)._.(.E.).E.E.E.P.P.R.L.L.I.g.g.h.g.g.g.g.L.h.* = = = = m R.",
"%.@.@.@.%.7.y > e e r A u.G.f.3.C C 1.1.t.t.D n s i : @ y @.f u 4 : : : : 4 : = = : : 4 4 4 u i i i i i i s Z ( ' ' ( ( ( i.i.( D t.p.f.f.u.S ; X X o * * * - - * B A B B B B B Z Z d B B B y p r Z D Z p i u 7 4 4 4 s _ _ ( ( ( i.' i.t.i.p.s.z.z.z.z.].z.z.].].z.i.4 ; ; 4 u i i i u a U U M U U U U U U M M M M M M M m M T n n p p e e e p Z A A D e.e.e.e.( ( A Z Z Z i.(.`.'.'.'.).).E.`.).'.'.'.).(.(.).).).).E.L.L.K.I.P.E.).'.`.'._.^._.L.{ a.L.L.L./ L.)._.'.'.).'.'.).E.E.E.E.E.I.L.g.g.g.g.g.g.L.L.h.* = = ; = M L.",
"%.%.7.y t - - e p t.G.G.f.3.1.1.1.3.1.D B p i 4 = o = 4 r @.f = = = = = = - ; : : : : 4 4 4 u i i i u s Z ( ' ' ' ( t.i.t.( ( i.z.f.[.p.M O X X X X o * * * - - - p B B V d B B B B e B B d y A D D B p e p u u u 4 u s _ ( ( r.i.i.r.i.p.p.p.s.s.s.z.z.z.z.].].].z.i.: 4 u i s n s m U U M m M M U U M m M M M M M M U U U } j.( s p p e e e r d A A D D ( ( ( A A Z n p ( R.'.'.'.'.).).E.).`.'.).`.'.).'.).).).).).P.L.K.K.K.K.L.E.).'.'.).'._.E.E.R.a./ / E.(.E.).'.'.'.).'.).).E.).E.(.R.I.I.g.g.L.g.L.g.H.h.* = = ; = M L.",
"y t g > g t B y.G.G.y.1.1.1.3.3.t.C B y B Z o O = ; = - - y 2.* * * * = : : : 4 : : 4 4 4 4 4 u u i / ( ( ( ( ( i.a.' D D d.s.f.z.t.n X X X X X X X o * * * * * - e B A V B B B B p e r B D 3.D B r p Z D t.Z u u u u s U ( r.r.i.i.i.i.t.p.p.p.s.s.s.z.z.z.z.z.z.z.' u i s Z Z M T U M M M m m m m I U m m M M M m M T } j.h.j.Z p p e e e e d d B B A D D D S A Z Z n Z g.).`.'.).'.).).E.`.'.`.'.).E.).).(.'.E.(.E.P.P.I.L.L.L.g.P.E._.'.'.'.'.'.E.R.[ J.g.{ a.P.E.E.'.).'.'.).).E.E.I.L.L.I.L.L.L.g.h.h.L.H.h.= = = ; = M L.",
"- > g t D s.G.f.3.D D D 3.t.3.V r V x x B n = * * * O O * y 2.: * = : : : : : 4 : : 4 4 4 4 u s M _ ( _ _ ( i.t.( A t.s.f.f.f.' i X X X o o o X X X o * * * * * - e A t.V B B r e e p D 3.D B p p A D 3.3.3.S u u u u s U ( r.r.i.i.p.i.i.p.p.p.s.s.z.z.z.z.].].z.z._ p n Z / / / T U U U M m m a m m M I U M M m M / { J.P.E.( B p i e e e r p d B Z A D D S A Z B n n ( E.).'.).).).).).E.).`.'.'.'.'.'.).).).).(.).E.E.L.L.I.g.g.g.P.E.)._.'.).'.g.a.^.E.).E.E.g.[ a.^.).).(.).E.E.E.R.L.I.I.L.g.g.g.g.h.L.L.j.= ; = = = N T.",
"> p 3.G.G.u.C D 1.1.1.3.C B t B V V x x B e O o o o o o O t 2.: : : : : : : 4 : : 4 4 4 i M / ( _ _ ( ' i.' D Z ( s.f.f.f.( : X X X o o o X X X X X o * * * * * * e Z t.B B r r e e B D n r r B D D 3.t.D n : u u u u s _ ( r.r.r.i.p.r.p.p.p.p.s.s.z.z.z.z.z.z.z.l._ M M / / / / T U U U U m m m m m m I U M M / [ h.E.)._.L.Z d p e e e r p r d B Z Z A S A Z Z Z Z Z a.).).'.'.'.).).).(.).).).'.'.'.).).).'.).).).E.E.E.P.L.L.L.L.P.I.R.R.P.P.a.^.'.'.'.).E.I.I.E.L.{ a.I.).).I.R.I.P.L.L.I.g.g.h.g.h.L.I.T.j.= : = = = T T.",
"u.G.u.3.c C C 1.3.1.V r r y V V B y x V B > O O O O * O * g 2.e : : : : : 4 4 4 u 4 u M _ _ _ _ ( [ i.( Z n t.p.z.z.y.Z % X X X X o o o X X X X X o O O * O * * * : D t.B d t g e S S t p n Z D D D D i - = = u u u u s _ ( ( r.r.i.p.p.i.p.p.p.s.s.z.z.z.z.z.z.z.l.U _ / T / / / T U U U U U m a m m m m U T [ g.R._.'.'.'.( s p p e e r r r r d B B A S A A S Z Z n ( E.'.'.'.'.'.'.).).).).).'.'.).).).).(.).).).).E.P.E.I.P.L.L.L.I.I.K.L.a.a.'.).).).).).).P.P.P.I.L.P.K.a.a.I.L.I.P.L.h.L.L.g.I.I.I.I.L.H.j.= ; = = = T R.",
"u.2.V V C 1.1.D B r y r B B x y x V C 2.C e O O O O * = - - @.r : : 4 4 4 4 4 4 i M / / / S _ [ ' ( Z Z p : ' s.i.n o X X X o o o o X X o o o O O O O O O O O O * - D ( r e p A ' t.M s Z V A D Z e - - - - 1 u u u u i s _ ( r.i.p.p.p.i.r.p.p.s.s.z.z.z.z.z.z.z.i.U U T T / / / T U T U U U M M U U M T { g.I.)._.'._.'.K.B p p p p p r r p d B B Z D D A S S S Z n a.'.'.'.).'.'.'.'.).).).'.'.).).).'.).E.).).E.).E.P.E.P.P.P.P.P.I.K.g.{ L.P.E.E.).E.E.).'.).E.E.P.L.L.L.L.I.a.{ a.L.L.I.I.I.L.g.h.L.L.I.L.j.= = = = = / j.",
"V V D 1.C V r r y V V x y y V V 1.C C 2.C u O * = : : = = 1 y 2.4 4 4 4 : : i M _ S / _ ( ' i.( Z ( t.y.p * : : X X o o o o o o X X o o o = ; ; = = * * O O O O O * B B B e.t.t.D n e s B A p : - * * - - : M u u u u u s Z ( r.i.i.i.p.p.r.r.p.s.s.z.z.z.z.z.z.z.i.U U U U T T T T T T T U U U U U / [ h.E.).).'.'.'.).'.i.B p p p p p p p d d B Z Z A A Z A A Z n Z E.'.'.'.).'.'.).'.'.'.).'.'.).'.).).).E.E.).P.P.E.^.).).P.P.E.E.P.a.a.I.P.P.P.^.E.R.P.).E.).E.E.L.L.K.g.K.L.I.L.g.{ [ j.L.R.R.I.L.L.L.L.L.j.= = = = = 6 m ",
"C 1.C B w y y y y y y x V V V C 2.C V C C p = ; : : : 1 = 1 y 2.: 4 4 4 u a _ _ / _ ' [ ' S A D d.u.t.t.: o X X o O * * o o o o o O = 4 i 6 4 4 4 : 4 : = = : : 1 - S i.s.p.t.Z r B t.S e - 1 * - - - : n D S u u u u u s Z ( ( e.t.t.i.r.r.r.p.s.s.z.z.z.z.z.z.z.i.U T T U T / T / / / T U U U T ) j.P.).).).'.'.^.)._.E.Z p p p p p p p d B B Z Z Z Z Z Z A Z Z M ( (.'.).).).).).'.).'.'.E.E.'.'.).'.).(.E.P.E.P.P.P.I.^.).P.E.E.L.{ P.E.P.I.P.L.I.I.P.P.E.E.E.R.R.L.g.L.g.L.L.g.g.P.I.L.g.{ { T.L.L.L.g.H.L.{ * = = = = 4 M ",
"V d y y y y y y y x V C V V C 2.2.2.1.C C n : - = ; : : : 1 y 7.p 4 u i s M _ S ( i.' ( Z ( t.p.d.t.n * * = * o O * * O X o * * 4 i a i u 4 4 4 4 4 6 : : s n M [ s.s.s.p.t.Z A D t.d.D O * = * * e Z B p r e u u u u u s s ( ( e.r.i.t.r.r.r.p.p.s.s.z.z.z.z.s.l.( T U T U U T T T T T U T T } j.L.E.).).).).).)._._._.I.p p p p p p p d B d Z A Z Z A Z Z B Z Z n a.`.).).).'.).).'.'.).).'.'.'.'.).).).E.E.E.).).P.P.).'.).E.L.a.g.E.^.^.).E.L.R.L.L.L.I.E.L.L.L.I.E.K.g.L.g.L.g.g.L.L.I.I.E.T.[ / { L.L.R.T.{ * = = = * 6 M ",
"* x y y y y x V C V V V V V C 2.1.1.1.2.C B ; : : ; 1 : : 1 r 7.A M M s n / i.i.t.S ( t.i.s.s.' i O = : 4 : = O o O X o * = ; s s i 6 : : : : 4 u : = : u n ' i.p.l.s.t.D ' i.t.t.d.( n * * - > n D p r r B S u u u u u s s Z ( e.r.r.r.r.r.r.p.p.s.z.z.z.z.z.s.i./ T T U U T T T T T T / / { h.E._.'.).).'.).E.'.).`._.[ p p p p p p p d B Z Z A A A Z Z Z Z Z Z Z P.`.`.`.`.'.)._.'.'.).).).'.).).P.).'.(.).).).).'.).'.).E.a.{ P.E.E.).).E.P.P.L.L.R.L.I.L.I.I.L.g.g.K.K.L.L.L.K.K.L.h.L.L.I.I.R.L.j.a.a.j.H...* = = % o : 6 ",
"* x y y y y C C C C C V x C 1.2.1.2.1.C C B : : : : : : 1 : e 7.2.S Z n ( ' ( Z ( t.t.s.s.( 4 O = i M Z p : O o X O = ; 4 u a i : 4 : : 4 4 : 4 : = u s ( i.s.l.s.i.t.u.s.d.t.D D B p n * : n B B B A A Z B S u u u u u u s Z _ ( e.( r.e.e.e.r.p.s.z.z.z.z.z.p.i.U T T T T U U U T / ) [ j.L.E.'.'.'.'.).).).'.).'.'._.( p r p p p p d f B B Z A A A A Z Z Z B B S E.'.).).(.(.(.).).).'.'.).).).E.).'.'.'.`.).E.'.).).).I.i.L.).).).).^.E.E.E.E.L.R.R.E.I.I.L.I.R.g.g.K.K.I.g.g.L.L.g.L.I.L.I.I.L.L.R.T.R.g.{ / * * * O o % 2 ",
"- r r y V V V V C 1.V C C C V 2.1.1.1.C C V : : ; : = : u i i f @.1.( ( Z Z ( d.s.u.i./ : * ; u Z _ S n e * o = : : : i i i u 4 : : u i 4 ; = = : p ( s.s.z.s.i.( d.u.u.t.D Z e e Z Z p e n B p V A r p p s n u u u u u u i f Z ( ( r.e.e.e.e.r.p.s.z.z.s.z.z.p.i.M a m T / T T T ) [ g.I.R.).'.'.'.'.'.`.'.'.'.'.'.`.(.Z p p p r p p Z Z B Z A A A A A Z A S Z n [ '.).).).(.E.E.E.E.(.P.E.E.P.).).'.'.'.`.'.).).'.'.E.a.a.E.).).).^.P.P.E.P.E.P.P.R.P.L.L.L.I.I.L.g.I.L.L.L.K.L.L.h.h.L.g.L.L.L.I.R.L.T.R.L.L.[ * O * % X ; ; ",
"> t t y C V v V V V V V x V C 2.1.C C C C V : : : = : : i M n d @.2.S Z i.u.p.s.i._ ; = : M / / ( Z i = O = : : 6 i i 4 : : > : u u u : : 4 i Z ( i.s.s.s.y.1.i.s.3.t.C V r p B n Z n n p D S e e B p n e e s 4 u u u u u s d Z Z A ( ( A D e.r.p.p.z.z.z.z.s.i.' M U M m m / / [ j.E.(.`.'.`.`.`.'.'.`.'.'.).`.`.'.`.L.p r r p r p p Z Z Z A A D A A Z Z Z Z Z n g.'.E.'.).E.E.E.).).E.).P.).).(.(.).'.`.).).'.).E.L.a.L.^.).E.E.E.E.).E.L.I.E.P.I.E.P.R.I.P.I.L.I.L.I.L.R.h.L.g.g.L.L.L.L.g.L.I.L.I.H.L.L.L.L.{ * * O % X ; a ",
"> t t y C V V V V V C V C C C 2.C V C C D A u u : s s s Z S _ A @.@.t.s.u.y.( M ; = 4 M / ' ' ( i % O : : : 4 i u 4 : - 1 : u i 4 : = : i Z ( p.s.s.p.t.1.t.s.s.y.t.B r e Z S D A D Z S p D n n > e e e s s u u u u u u u u s f Z A A A A 1.1.e.p.p.z.z.z.z.s.p.' M U U U / / } T.).`.`.'.`.`.`.'.'.`.`.`.).`.`.`.&X&Xj.p e r r r p d Z Z A A A D A A Z Z Z B n Z E.'.).E.P.E.).(.E.).).).P.).).).E.).).).).).).E.g.a.E.).).).E.E.P.P.L.E.P.E.R.R.I.P.I.E.R.E.R.I.L.L.L.L.I.L.g.h.L.L.I.L.I.I.P.L.h.g.L.L.H.H.L.{ ; = O O X 4 ) ",
"- t r w C V V C V V C V V C C C V V 1.3.3.V p Z D ( ' t.( S p p @.@.x.y.D u * * : a _ ( ( Z i O % : 4 : i i u 4 ; * = 4 u u u : - : s S t.y.u.u.s.t.3.u.s.u.s.y.t.p n S p A D D B S ' ( p B B B e e i p s u u u u u u u u u p s s Z d Z A 1.e.e.r.p.s.z.s.z.p.i.' M U / [ a.I.R.K.g.`.&X`.`.'.`.`.'.`.`.&X'.`.`.`.`.`.i.e e r r r p d Z Z A A A D A Z Z Z B Z n ' ).).E.L.).).).).).).).P.).P.E.).).).).).E.).K.a.L._.P.).'.P.E.E.P.P.P.P.).E.L.R.K.L.R.R.L.E.E.g.g.L.I.R.I.L.R.I.I.L.L.L.L.E.R.E.L.L.I.L.g.H.H...= = % O ; : k.",
"- g t w 2.V x V V V V r V C V V V C C 1.1.D ( t.t.t.t.Z p Z B D 2.@.3.> * = 4 s M Z S n 4 o * : : : : u u 4 : - ; : 4 u 4 : : : i S t.i.s.u.y.3.3.t.u.u.u.d.D B B D t.t.p B D B D D ' D r r B p e e e e 4 i u u u u u u u u p p p s d Z A D A e.r.p.p.s.s.s.p.i._ T [ h.R.).).'.'.'.K.K.).`.&X`.`.`.`.&X`.`.`.`.`.`.`.( e e e r r p d Z Z A A D D A A Z B B B n g.'.).).).E.(.E.P.P.).).P.P.).P.).)._.'.).E.a.a.E.E._.R.P.R._.E.L.I.E.E.I.E.R.R.P.R.R.E.E.R.).R.E.R.I.R.E.R.I.E.R.E.L.L.L.g.I.L.I.T.h.g.L.h.h.g.R.H.] 4 # 5 6 Y.",
"- t t t V V V B C V V x V V V x B C D 1.3.1.D t.e.B n D d.t.D B y @.1.1 u n Z Z n u = X % = : 4 : : : : = * = : : 4 4 : = : i S t.t.i.p.y.1.1.3.u.p.u.p.t.B B D t.3.3.D A D D A D ' D Z e t r r p e : : : u u u u u u u 4 u u u u p d f A A 1.e.r.p.p.p.s.s.p.i.( { L.).'.).'.'.'.`.`.'.K.K.'.&X&X&X`.`.'.'.`.&X`.&X'._ e e e e p d B Z Z A A D D S Z Z B n p n P.`.).)._.E.'.).E.E.).E.P.P.I.P.).'.).E.K.i.K.E.E.I.E.R.).E.E.P.P.L.L.(.E.L.E.P.E.R.R.P.E.R.P.P._.E.R.L.E.R.I.R.I.R.E.I.h.L.L.R.R.L.L.L.J.H.H.T.Q.T.H.R.j.m T Y.",
"* g t t V C V V V V V B C V C D 1.1.1.1.D 1.C B B A i.d.p.D : * - f f p n S M 4 * X O = = : 6 : = ; = * = : : : : : * : i Z D t.i.i.t.C 1.t.u.u.u.y.D i O B D e.t.D D 3.D D D D V t.' Z i e p r p i : u i s u u u u u u 4 : u u u p p f A A 1.1.e.r.p.p.s.s.t.t.i.P.).).'.'.).'.'.).`.`.&X`.g.g.).`.&X`.`.`.&X&X&X&X).n e e e r p d Z B B A D D D A Z Z Z p p / `.'.'.).'.'.).).).P.).'.).(.'.).).).E.a.a.).^.E.).E.E.E.E.E.E.).R.P.P.E._.(.).E.)._._.R.E.R.I.E.(._.R.I.E.E.E.R.T.E.L.L.h.L.T.h.I.T.I.h.g.j.g.H.g.H.L.L.T.a ..X.",
"* t t r x C V V C B B B C C 1.1.1.1.D 1.A B B 1.t.t.i.S u * = : u f y V s u @ o O = = 4 4 4 = = = = ; : : : : : - = u S D 1.t.3.D V C y.u.u.y.y.Z e - * O n 3.D D t.D D D D A B B D D n i e p p u e u s s u u u u u u u 4 : u u u p f Z A A 1.e.e.r.p.p.p.p.t.i.l.).).).).).).'.'.'.'.`.&X&X`.`.K.K.).&X`.`.&X&X&X`.P.p e e e e p p d B Z A A A D A Z Z Z p p g.`.`.`.'.).`.'.).'.).).).E.'.(.).).L.a.R.E.E.^.).E.).R.R.K.R.I.E.R.R.P.I.P.R.R._.).E.E.R.E.I.R.)._.E._.E.I.I.I.I.E.T.T.T.h.h.L.L.I.L.T.T.h.g.j.j.j.g.g.h.j.; Y.] ",
"O g t t V C V V V y B V V D D D 1.1.V d A 3.3.3.D N : % = 4 i i p f y f o o % % = 4 4 : ; ; ; ; : : : : : : 1 1 i S D e.e.3.1.C 1.3.y.y.y.y.A e * - - > e n V 3.3.D C B A Z p S n D B n i e e : u i s s u u u u u u u u 4 1 u u p p f Z A e.e.e.e.r.i.i.p.t.e.i.I.'.).).).).).'.'.'.'.).`.`.'.`.`.`.L.a.).&X&X&X&X&X(.p e e e r p p p Z A A D A A Z Z B p p N E.).'.'.'.`.).E.E.(.).'.).E.).).E.g.g.'.`.E.E.E.R.(.(.).(.E.E.R.(.E.R.E.E.E.E.E.I.E.R.R.I.R.R.E.E.E.R.E._.E.I.I.R.L.L.E.T.L.L.L.h.H.T.T.L.T.H.j.g.J.H.L.J.] m Y.] ",
"O > t t x V V x C V C V V V D D B y D 3.3.t.( n * @ ; 4 a N a u : r - @.: = = 4 4 : ; : 4 4 4 : 4 4 : : - - s ( t.' D D C V C 3.y.y.y.y.Z = o * * * - > r B V 3.1.B B D B B n p p i n B : : u u i s u a a a i u u u u u 4 1 u p s d f f A e.e.e.e.r.i.t.r.e.t.i.].).).).).).).'.'.`.'.).).'.'.`.`.`.`.'.E.L.^.&X&X&X(.i e e e r p p d Z A A D A A Z Z Z n p [ '.&X'.`.)._.).).).E.(.).).).E.L.a.).'.'.`.'.).E.E.).E.E.E.E._.(.E.R.E.P.P.R.R.E.E.E.E.E.T.I.R.I.I.R.I._._.Q.E.E.I.T.E.T.L.L.L.L.T.L.L.R.L.h.L.H.g.H.L.L.R.U ] X.] ",
"O - t t y V V V C V B B B B y d V 3.t.3.1.p O * : u s M M m : o X y e @.p 4 4 : : 4 u u 6 4 4 4 4 4 : = M ( t.t.t.D B r V 3.3.y.4.3.Z = X X o * * * - : r V V 3.t.C A B Z D n A Z i Z Z u : i u 4 a a a a a u u u u u 4 4 1 u p s d f Z A D e.r.e.e.r.i.t.e.i.s./.).).).).P.).).P.'.'.'.).).'.).'.`.'.`.&X`.L.K._.&XE.p e e e r r d d B Z A A A Z Z Z Z p n L.).'.`.).).).).).).E.).).).P.g.K.(.).)._.(.'.R.E.R.).E._.R.E.I.E.E.(.E.R.R.P.(.E.E.(._.E.R.P.E.P.I.T.R.E.E.E.E.E.R.R.L.L.E.h.L.L.I.H.L.L.H.g.H.H.H.L.H.J.H.6 k...h.",
"* - g t y V B B B V B x y B D 3.3.3.C d t = 4 u m N n i : o X O O y y y V 4 4 i i u 6 4 6 i u u : : s ( t.t.' D B r V C 3.3.3.3.B = X X   X X * * * - - r B V 3.C D A D B Z Z B i p n M i = u 6 a m a a a a u u u u u 4 4 1 u s p d d f A ( t.t.r.e.e.e.t.e.p.l./.'.).).).'.).).).).'.'.'.).'.'.'.).'.).`.`.&X`.E.J.i.e e e e r r d d B Z Z Z Z Z Z Z B p _ '.'.).'.).).).'.'.).E.E.E.K.[ P.`.'.`.'.`.).E.).).E.E.R.E.(.E.P.E.E.E.E.(.E.(.E.'._.R._._.E.E.R.I.E.E.R.E.E.E.E.R.L.L.R.E.I.E.E.h.h.H.H.L.L.H.L.H.g.L.L.g.a.a Y.{ U.",
"- > > r y B V D V B y V 3.3.1.1.B r t r e i m M M i ; X . % = * = y V y 1.i i a i 6 4 4 4 4 : 4 M ( ( t.t.D B B D D D C 3.G B = X X o o o . X * * * - - r x V 1.A D Z B B D A r Z n n M s 4 6 m m m a a a a u u u u u 4 4 1 u s d d p f ( r.p.p.r.e.e.( e.e.p.I.).'.).).).).'.'.'.'.).'.'.).'.).).).'.'.).).`.&X`.`.h.e e e e r p d B Z A Z B B B B B B p j.`.`.`.`.'.`.).).'.).).P.a.a.P.'.).).'.I._.E.E.R.E.R.E.E.R.E.R._.E.h.R.E.E.).E.I.E.R.E.E.I.I.R.E.E.E.R.R.R.I.E.E.R.E.R.R.R.Q.Q.E.L.T.H.h.h.h.h.H.h.H.L.H.T./ T k.{ H.",
"e u p B B D D B B D 1.3.3.1.B w w t t r e M M i * X o % = = : 4 : u i p p i i u 4 : : : 1 : p ( e.t.t.Z Z V D D D D D D n * X X O % o o o . X O * * = - r B V 1.D V B B p p Z Z r Z Z M i a a a a a a a a a u u u u 4 4 4 4 u s Z d d Z ( i.p.p.r.e.e.( e.i.i.(.).P.).).).).'.'.'.'.'.'.).'.'.'.).).'.'.'.'.`.'.`.'.E.e e e e r p p B Z Z Z Z B d B Z p Z R.'.'.`.).`.`.).).).E.K.a.E.P.(.E.).).).'.E.'.R.I.R.).P.E.E.I.R.P.E.I.R.I.R.L.I.L.T.L.E.E.E.E.I.E.R.I.R.E.E.T.E.~.E.E.L.L.H.E.Q.E.T.E.T.L.L.H.H.H.g.g.H.H.T.M ....j.h.",
"e p B V B B V 1.3.y.3.1.y t r w w r t r p i O X o * = ; : : 4 u u u u u u u u : : ; : u M ( i.t.t.( V V D 3.D C C D n * X . O = = = O o o O O O * * * - t B V C D D D D Z B n u M n M a a a a a m a a a a a u u u u u 4 4 4 u s Z d Z A e.i.p.p.p.t.e.e.i.i.l.).E.P.).).).).(.).).'.`.'.).'.).).).).).).).'.'.`._._.E.p e e e e r d B B B Z Z Z B Z Z p [ `.'.'.`.'.`.`.'.).P.{ g.).)._._.).).(.E.E.R.R.'.).E.R.E.R.E.L.E.(.E.E.E.E._.P.R.P.L.T.R.E.R.R.E.E.E.E.'._.I.I._.R.E.~.R.H.T.L.E._.Q.E.T.T.L.H.H.H.h.h.T.H.h.a k.[ U.H.",
"B A B y C 3.y.3.3.1.y w w w r w r d d x r o O = = : 4 4 : 4 u u u u 4 4 4 4 4 4 4 4 Z t.t.i.i.( A Z e.t.t.1.D D n = X X O = = = = = * O * O O * * * * * e B B 1.3.t.D Z B p M Z M M a m m m m a a m a a M a u 4 4 u u 1 1 4 u s Z d A r.i.p.s.p.p.p.t.r.p.i.L.).).P.).).).).).'.).).).'.).P.E.).E.).P.).E._.`.'.`.`.E.p e e e e r d B B B B Z Z B Z B Z (.`.'.).'.'.'.'.(.a.{ P.).).).E.).).).).).P.I.I.).E.I.L.I.L.P.I.I.L.R.E.R.E.R.E.E.E.(.I.E.R.R.E.(.E.R.I.R._.E.E._.R.E.Q.E.R.L.H.L.E.~.~.R.E.T.T.L.h.j.h.H.R.{ T X.{ T.H.",
"B y D t.t.y.y.S r r t r r w y r y d r y n : ; = : u : 4 u 4 u u 6 u u 4 u u 4 i Z ( t.i.i.( S D ( t.t.D D D n = o o O O * = = = = = * O * * O * * * * * e r r D 3.3.p p S ( M M m m M U m M m m m m m m M i u 4 4 u 4 1 4 4 u s Z Z ( r.e.p.s.p.p.p.t.i.i.a.P.).).P.P.P.).E.).).).).).P.E.).).).).).).).).).`.`.`.'.E.p e e e r r p d B B B B B Z Z B i.'._.`.'.'.).'.g.{ L.).).).).`.).(.(.).(.E.E.P.E.R.E.E.I.L.L.E.P.L.P.R.R.R.E.R.R.E.E.Q.T.g.L.I.E.R.Q.E.E.E.E.E.~.R.E.Q.Q.R.E.R.L.Q.R.E.Q.Q.~.~.~.L.H.L.H.j.H./ ] X.j.H.h.",
"D t.y.u.t.S * o e y t r y y B B r r r r B i : : u u 4 4 u u u 4 6 u u u u s D t.i.p.i.D Z ( t.i.t.D C D n * o o * = = = = = * O O * O * = = * * * * * * > r r A F B D ' } M M U U M U U U U U M U U M U a i u 4 4 u 4 4 4 4 u s Z Z ( ( e.r.p.p.p.i.t.i.' P.).).(.).P.).).).).).).).).P.).).E.(.).P.).).E.).).'.`._.g.e e e e e r d p d B B B B B B Z I.`.)._.'.&X'.g.g.'.'.).'.).E.).E.E.E.).E.E.P.I.P.R.R.P.E.I.R.P.R.P.R.R.L.E.E.E.(.I.E.R.Q.E.E.E._._.E.E.I.I.R._._.Q.R.E.~._.~.E.E.E.~.~.E.E.E.E.Q.R.R.L.H.H.h.U X.] j.h.H.",
"y.u.t.n O o o o - y y y d y d y r r B r p p u u 4 u 4 4 4 4 4 4 4 4 : p ( i.i.i.t.( A D i.i.i.e.e.S p * o O = = ; = = = = = * O * * * ; : : : - = * = : > e p A ( t.' / U U T U M U U U U U U U U T U U a i u 4 4 4 u u 4 4 u s Z Z A A ( r.i.i.t.r.i.i.a.).).).).(.P.I.).P.I.L.P.).).).).'.).).P.E.E.).).E.).'.(.E.g.e e e e p p d d d B B B B B B ' '.`.`.'.'.P.a._.'.).).).).(.E.P.P.I.E.R.I.(.E.P.R.P.E._.E.I.I.I.I.I.E.R.E.E._.E._.E.I.L.I.E.E.E.E._.E.E.E.E.E.'.Q.R.E.R.~.E.~.R.Q.E.~._.~.~.E.Q.E.~.E.h.T.Q.h.T X.[ H.H.h.",
"( i X X O O o O e y B B B r r r d A V r p p 4 6 6 u 4 4 4 4 4 : u p Z D t.t.t.( A ( t.p.y.t.t.( i = % = ; 2 ; ; ; = = = = = * = ; : > - : : - * : : i n B D d.a.i.( / / / T T T M U U U T T T T T T U T a u u 4 4 4 u u 4 4 u s f Z Z Z ( r.p.i.e.( r.( L.).'.(.).).P.P.P.I.P.P.P.P.).).).).).(.E.E.P.E.P.).).)._._.a.e e e r p p d d d B Z B d d p ( ).`.`._.{ T.&X&X'.).'.).).E.P.P.I.P.P.E.E.P.P.P.E.P.E.E.P.R.I.P.P.E.R.E._.R.R._.E._.Q._._.E.E.'.E._._.E._._._._.R.R.L.L.L.R.E.Q.E.E.L.R.~.~.~.~.~._.E.R.R.R.{ ) X.j.T.H.h.",
"* X o o o O o o > y B d r r r r B B r g r p : 4 u 4 : 4 4 : : M D ( t.t.D D V D t.t.t.t.t.D 4 = ; 2 4 a 6 2 ; ; = = = : = = ; = - ; > - - = - 1 : u n Z i.i.i.} / _ ) / T T U U U U U U U U U T T T T T u u u 4 4 u u u 4 4 : p f Z Z Z A r.i.e.( ( ( i.(.`.'.P.P././.I.L.I.I.P.P.P./.P.).).'.'.).E.).).E.).E.)._.(.' e e e e p p p r d B B B B d S ).L.[ g.a.%X&X'.`.`.'.).).).).(.P.).I.I.P.).P.E.R.E.E.R.E.R.L.P.I.g.R.I.L.I.R.(.R.E.Q.E._._.R.E.E._._._.R._.Q.E.E.E.E.R.H.R.R.E.~.E.R.T.Q.~.E.~.~._._.L.T.R.Q.} ] ..H.R.T.h.",
"f O o o o o o o - d B B r t r r r t r r p i : 4 4 4 : : u n S ( t.t.( A V D t.t.t.e.D Z i = % = 6 a i 4 : 4 ; ; = * * * ; ; = = = ; - > > - - : : n S ' i.' ( / / / / / T T T U U U M U U T T U T U T T 4 u u 4 4 u u u 4 : 1 u s Z Z Z A ( i.( A ( ( L.'.'.).).).).P.I.P.P.L.I.P.P.I.P.).'.'.'.).).'.).E.).).'._._.( e e e e p p p r d B B B B B ' &X_./ { j.(.&X&X`.`.`.).E.).).).).P.P.I.L.P.P.).E.P.E.E.).R.).(.R.I.P.I.I.E.E.E.E.E.E.Q.E._._.(._._.E.E.E.E.R.R.R.R.E.R.E.L.T.R.~._.E.L.R.E.~._.~.%X~.E.R.T.R.T ....R.U.U.H.",
"2.* O o o o o o O B y d r r r r t r d y p e : 4 4 : e Z ( D t.t.e.Z B A t.3.1.D S p = = = 2 a m 2 : 4 4 4 : ; = * = = = = - * * - - ; - : : e : : S ' ' ( / / T T T T / / T T U M M M M U U U U T ) [ / 4 u u 4 4 u u u u 4 1 u s Z f Z A ( ( S A _ [ ).).'.).).P.P.E.P.P.L.I.I.P.I.P.I.).).'.'.'.`.'.).)._.).'.'._.Z e e e e d d d p B B B B Z Z L.L.{ _.'.(.L.a.).&X`.`.`.'.'.).E.).E.(.I.P.P.).P.).E.R.R.E.I.E.I.R.I.R.R.E.E.I.I.R.E.E.E.E.Q.E.R.E.(.(._.E._.R.E.R.R._._.Q.~.~.R.T._.~.T.L.R.~.~.R.Q.~.Q.R.E.h.T { ..H.H.H.h.",
"@.p O o o o o o O B y r r r r r d d d d B B e : i Z D ' t.i.t.Z x D t.t.t.1.Z u * % = ; 7 a a 6 4 ; = ; * - = : = = = = - - - ; ; - * : i i : - Z ( / / / T T U T T T T T U T T U U U U U M M / [ j.h.M u u 4 u u u u u u 4 1 u s d f Z Z A A Z Z _ K.).).'.).).).I.E.E.L.L.I.P.P.I.I.I.E.P.'.'.`.`.'.)._.).`.`.'.E.p e r r r p d d d B B B Z Z Z _ R.`.&X`.`.'.'.L.a.P.'.`.`.`.'.).E.E.E.E.).).).).).R.(.I.R.).E.E.R.I.E.R.R.R.L.E.I.R.I.T.R.Q._._.E.E.E.E.R._.E.E.R.T.R.E.Q.E.E.Q.T.R.E.R.L.R.R.R.E.E.~.R.T.R.[ / [ h.H.H.H.H.",
"- V o X X o o o O B y t p t d B d B r A A B n D t.t.t.i.' A B D t.t.t.t.( i * % % ; 6 i 6 6 4 4 : = = * * * - = = - = = - - - = > : u i i e i _ / / T T T T U U U T T T T T U U U U U U T T ] j.h.R.j.u u 4 u u u u u i u 4 1 u s d f B Z A Z Z Z ( ).).'.).).'.).I.L.(.).L.).).).I.P.P.E.).).'.'.).'.).).).).&X'.E.e e e p p p r r B B B Z Z Z [ '.`.`.`.'.).).'.`.`.g.i.K.'.`.'.'.).E.P.E.P.).).).).E.(.R.I.E.E.R.E.I.E.R._.E.R.R.E.R.E.E.I.E.(._.Q._.E.R.(.E.E.R.~.E.E.E.R.E.Q.Q.T.R.L.L.L.H.R.E.Q.R.T.R.Q.T./ ] [ W.H.T.T.H.",
"o t e o o o o o o r r r r r B d d B r B A D t.t.t.t.t.B x D y.t.t.t.D p O O % ; 4 6 4 4 4 4 4 = O O * = ; = * : - ; = = = = = = : : : u M / / S U U T T U U T T U T U U U T T U M U U U ] j.H.L.~.Q./ u u u u u u u u u u 4 : u p s d B Z Z Z S S a.).).'.).).).).P.E.P.(.P.P.P.E.P.P.P.L.P.).'.`.).'.).E.)._.R.I.j.e e e p p d d d B B Z Z B Z g.'.'.'.'.).).).).'.).'.).K.i.L.).'.'.).).).).E.P.).).E.(._._.(.).E.).E.R.E._.R.R.R.E.R.R.E.I.E.R._.(.E.R.R.E.E.R.Q.~.~.R.Q.R.Q._.E.R.R.R.L.H.H.h.L.E.R.Q.T.T.J.T ..[ ~.Q.U.T.U.",
"o g f - o o o o o e r B d B B r d B V D t.t.t.t.D V F D t.t.D t.D n * O O = ; ; : : : : ; = * O * * = = - ; ; ; ; = = - 1 = : : ; : i / / M N M N M M U U T T U U U U U M M U U M U ) [ j.L.E._.~.R.s u u u u u u u i u u : 4 u s p p B Z Z S Z ( (.'.).).).(.).).E.).I.).).E.L.I.).P.P.L.L.I.).'.'.).'.'.(.E.(.E.[ e e e r p d d B B B Z Z Z Z I.`.'.'.`.`.`.).).'.).'.).(.E.g.i.K.).).E.).(.).P._._._._.E._.E.P.R.)._._.E.E.I.E.E.E.R.E.R.E.I.E.E._.E.I.E.E.(.Q._.Q.~.E.T.T.E.R.E.E.T.T.R.T.L.H.H.T.R.R.L.L.{ T [ X.R.R.T.U.T.",
"O - @.f * o o o o > y y d B y r V 3.y.t.y.t.D V F 3.y.y.3.V Z n = o o = ; ; ; = = = ; = * * * * O O * = * - ; = * - - = : : = = ; / / M M N M N M M U U U U T T U U T U U U U U / [ j.L.R.^.^._._.g.u 4 u u u u u u s s u u u u p p s B S A S Z a.'.'.'.).).'.).).).E.P.E.E.P.P.L.I.P.P.P.I.P.I.).'.E._.E.(.).(.(.S e e e r p d B Z B B B Z Z ( ).`.'.'.'.).`.'.'.'.).).P.)._.'.).g.{ g.I.E.L.R.).).).)._.E.E.E.E.R.E.(.(.E.E.R.P.E.E.I.R.E.E.(.E.E.R.R.I.R.R.E.R.E.E.~._.R.E.E.~.Q.Q.E.E.T.R.H.H.L.T.~.R.T.T.} ] ] h.W.Q.W.U.H.",
"* O y 2.: * O o o e B r r r B t.t.t.t.t.D V C D t.y.y.3.V p * o o % = ; = = = = = O O O O * * * * * * = * = = * - : : = : * = i M M M a a m M M N m U U U U M T U U U U U T / } j.J.R.E.).).).).E.a.: 4 4 u u u u u s s u s u u p p Z S S Z S Z I.).).).'.).).).).E.).).).P.P.P.I.I.P.P.P.P.K.P.E.).).).).'.)._.).Z e e r p p d B V V B Z Z Z i._.'.`.`.'.'.).`.).'.).).E.P.E.).'.'.E.g.a.g.P.(._._.'.'.'.E.R.I.E.R.I.E.R.(.E.I.R.E.E.R.R.E.R.E.E.I.R.I.R.I.E.T.R.R.R.Q.Q.Q.Q.~._.Q.~.%X~.T.T.L.h.h.T.T.R.h.j./ [ ] Q.W.Q.E.U.H.",
"1 = - - - = * * o e B r V 1.t.t.t.t.C x B 3.d.y.t.t.D B > o o O = = = * * = * O o o O * * = * * * * * * = = = = : ; - = : M m s m a i i s m m M M M U U U M U T T U T T / [ a.g.L.P.E.(.P.).).).P.} : 4 4 u u u u p s s i p i p p s Z S A Z Z S ).).E.).).).).).).).P.).).P.P.P.I.E.E.E.E.E.P.P.).).).)._.)._.'.).p e e r p d d B V A Z A Z B P.`.'.).).'.'.).'.).'.).).(.).E.).E.E.'.).E.L.j.g._.(._.'._.R.E.E._._.(.E.E.E.E.E.E.E.E.R.R.E.T.E.R.T.L.E.I.E.L.E.E.R.T.R.E.R.R.E.%X_.%X_.%X~.R.R.H.R.T.Q.~.E.j.T ] ..Q.!.Q.R.h.H.",
": : : : : : : = - e B 1.t.t.y.t.D V C C t.u.y.1.1.B r B i O = = = * * * * O O O O * * * = * * * = * * = = = ; : : : u i u 6 6 i i a a s N M a M M U U U U M M U U T / } a.g.P.R.).^.E.(.E.I./.E.L.M : : e u u u u p s Z s p p p s Z A A S S Z ( ).'.).(.P.P.P.).).).'.).).).).E.'.).'.P.(.).).P.).).).).'.).'.).L.e e e r r d d B V V V A A A ).`.`.'.'.).).`.'.'.).).).).).E.E.P.P.E.E.E.).E.J.a.a.R.E.E.E.R.R.E.E.R.E.E.E.E.R.R.E.E.E.E.E.E.E.I.L.h.E.T.E.E.E.R.R.E.R.R.~.E.R.T.E.Q._._.E.Q.R.E.h.H.R.W.R.{ / ] h.W.E.R.R.T.h.",
"e e e e : e e i S t.t.t.t.t.3.B C t.t.t.y.1.V B t t p B n = * * * * * * O O O O * * = = = = * * * * = = * - : : = 4 i s i ; 4 i i s s a M N m M M N m M U / / / / [ j.g.L.P.E.).).).E.P.).P.P.).K.i : : : u u u p p s Z Z B s s s B A A S A Z ' '.'.).).E.E.P.E.).(.E.).).).E.P.I.P./.P.(.).).P.).E.).).).).(._.a.e e e r r d B V V B A A A ' ).'.).'.`.).).E.).'.E.).E.P.P.P.E.E.P.).).).P.L.P.L.L.{ g.E.R.E.L.R.E.R.R.E.T.R.R.R.E.(.E.E._.R.R.T.E.E.L.E.T.Q.E._.~.R.R.R.R.R.T.L.R.T.Q.H.Q.~.E.Q.T.L.T.!.!.] ] ] W.!.Q.R.~.T.H.",
"u e e e e i Z t.t.t.y.y.D B D y.t.t.t.3.V r g t r t B B i * * * * * * * O O O * * * * = = = * * * = = * = : u : i M a s i a 4 : i N m m N m M s M U M M T / [ { a.g.P.E.P.E.E.E.E.P.P.^.).).P.(.l.u 4 : : u u u u p s Z Z Z Z s s A A A D S S a.`.`.'.'.).).).E.P.E.).).E.).).P.I.P.P.I.P.E.L.E.P.).).).P.).(.).[ e e e r r B Z Z B A D D D a.'.(.'.).'.'.'.).).'.).).P.E.).).P.E.).).`.'.E.I.I.P.E.E.I.[ j.I.I.).R.E.R.R.R.E.R.E.E.R.I.R.I.E.(.E.E.R.T.E.R.R.E.R.T.R.E.T.E.E.R.E.~.R.E.R.T.~.E.Q.T.h.h.!.U.] ..[ ~.R.W.E.Q.Q.R.",
"e e e i D i.t.u.p.i.A V D y.d.t.t.t.D r t r t t t d B Z i * * * = * * o O * O * * = * * = * * * = = = * = : i m m m m i i M M m 6 6 N N M m a a m m m N / { j.L.I.P.).).).).(.P.P.P.).I.P.).P.(.g.: 4 : : e e u u p p B Z Z B Z Z ( ( A S Z Z g.'.`.`.`.'.'.).E.E.P.E.E.).(.).I.I.I.P.P.I.P.).).).).).'.E.)._.(.' e e e r p B Z V A A D D A (.'.).)._.).P.).).).).).'.'.).E.).P.P.).(.E.).).(.E.E.R.(.E.I.R.[ { R.(._.(.E.E.(.E.E.E.I.I.R.E.T.E.E.E.T.I.T._.E.Q.T.R.~.~.E.R.T.R.E.E.R.Q.E.~.E.W.Q.R.h.h.U.j.] [ ..~.Q.W.Q.Q.Q.W.",
"e i S t.y.u.t.D D V D t.u.t.3.1.C B r r t r B t p D D C n * * * * O o * * O * * * * * * * = = = = = = : 4 i i m m a m a m m N N N a 4 m m m m m m N N / [ a.L.I.P.I.).P.(.E.E.I.I.P.E.P.(.P.E.E.a.: : : 4 e e u e p p d Z B Z Z A ( ( A A S S E.`.'.'.'.`.).'.).).E.P.P.P.E.).).P.L.P.P.L.I.).).).).P.'.(.E.).(.n e e e r p B Z A A V D A A '.'.).`.).E.).).E.P.P.).(.).).).).P.I.P.P.E.P.E.(.E.).I.I.I.E.I.I.L.{ a.R.E.E.E.I._.R.E._.(.R.Q.R.E.Q.E.E.R.E.E.E.Q.Q.Q.Q.E.E.T.Q.Q.E.R.R.R.R.R.E.Q.R.H.T.h.k...[ ] U.W.Q.Q.Q.Q.W.Q.",
"S t.t.d.d.D V V D t.i.y.t.3.D p t r r t g y C C 1.1.C D Z * * O o O * * * O * * = = * = = = ; : = 4 u a m a a i a a a m M M M M N N m 4 a M N m m Z / [ g.K.P.I.I.P.P.P.P.P.P.I.P.I.L.P.(.E.(.E.[ : : 4 u u u u e p p p B Z Z A A A A Z Z A ( ).'.&X`.'.'.'.'.).).).'.).E.(.).P.P.P.I.I.P.E.E.E.).P.).(.).).l.( p e e r r r d Z A Z A D A D ).).'.`.'.'.).E.E.).).).E.E.P.E.).).L.).E.).P.E.E.(.E.I.R.L.I.R.R.E.E.L.a.a.R.(.E.Q._.(._.E.I.T.T.(.Q.Q.E.E.Q.E.Q.Q.L.E.R.Q.Q.R.Q.Q._.~.Q.Q.R.E.R.R.R.E.T.j.] ] ..] W.W.Q.~.*XQ.~.Q.",
"t.t.t.D C D 1.1.t.t.t.t.D r t e t r r y r C D V V 3.V C Z * O O * * * * * * * * * = = = = = : = i a m m m m M a a s a M M M M M N M N M i i m S } i.g.K.L.I.P.I.P.P.E.P.).).P.P.P.P.E.P.P.).E.P.' 4 : 4 u u u u u p p p Z Z Z A A ( A A Z S _ _.).&X`.`.`.`.`.'.`.`.).).'.'.).).).).P.P.I.E.E.E.E.P.).P.).i.a.i.p r r p r d B A A V A D D D '.).).).).).E.).'.).E.E.P.P.L.P.I.).E.E.).E.E.E.E.E.(.I.E.R.I.E.I.E.R.Q.E.T.{ j.I.E._.'._.R.R.E.E.(.E.Q.~.Q.T.Q.T.E.R.^.~.E.E.T.R.Q.Q.Q.Q.Q.H.E.E.Q.Q.L.h.[ a = a m W.Q.Q.~.~.%X#XQ.",
"t.D D D 3.1.3.t.t.1.D p e r r t g t B D t.C 1.1.C V C 3.B * * * * = = * O * * * = = = * O u i a m m m m a a a a a m M N M M m M N N M M M N M / g.K.I.P./././.P.P.I.P.(.(.).(.P.P.P.E.E.P.P.P.).' : : : u u e u p p p p Z Z Z A ( ( A A A Z ( '.`.&X'.`.`.`.'.`.).`.).'.).).(.).).).P.E.P.).).E.R.P.).L.[ P.'.t.p e e p p d B A A A A D D D ).`.'.).).P.).).(.(.).).P.P.E.P.).E.E.E.I.(.(.).R.P.E.E.R.R.R.I.I.R.E._.E._.R.T.{ { R.Q._.(.Q.E.E.E.R.R.E.E.E.E.E.L.R.R.E.Q.Q.R.R.R.E.E.E.R.R.R.R.R.R.T.T.{ a ; # # T U.T.!.T.U.!.R.",
"V D D D D 3.3.3.D p d t r r r r B 1.1.1.3.C V B D 3.V C D * * * * * * O * * * O * * - : 6 a a m m a a a a a a a a a M N m N M M M N M S } { a.' [ I./.P.I.P.P.I.P.P.L.(.).).I.P.E.P.P.E.E.P.P.).[ : : : u u u u p p p p B Z Z A A A A A A Z ' `.`.'.`.`.'.`.`.`.).'.`.`.).).).'.(.).P.E.P.I.E.P.P.I.i.a.P.(.(.Z d e r p p B B D D D A D D D I.'.'.).).'.P.E.E.).).).E.E.).E.P.E.P.(.E.).L.(.E.E.E.I.L.L.I.E.E.R.E._.(._.E.E.E.R.{ [ h._.Q._._.~.Q.R.E.R.Q.E.~.E.E.Q.R.E.Q.E.E.R.~.E.~.Q.T.L.E.E.R.R.Q.Q...8 3 2 ) X.k.!.U.U.U.h.",
"d.t.3.t.1.1.B : o p r r r r x 3.1.C 3.C C V D 3.1.3.V D V : * * * * * * * * * * : i a a a m m a m a a a a a a a a m m m m N M M M U / [ a.a.I.P.l.( K./.P.P.I.P.P.P.(.).).).I.P.).^.E.).).E.P.E.{ 4 : : u u e e e p e p B Z Z A ( A Z Z S S [ ).'.`.&X'.`.&X`.`.`.`.'.'.'.'.).).E.P.).E.E.P.I.P.l.' E.).I./.l.B d r r p d B A 1.e.D D D 1.t.t.I.'.'.).).)._.).).).).I.).E.).).).).(.).).E.E.E.R.E.R.L.I.I.R.E.E._.Q.(._.R.Q.R.E.T.T.[ [ R.Q.Q.Q.Q.R.E.E.E.~.~.E.T.R.R.H.E.E.R.Q._.~.~.R.R.H.R.~.Q.Q.Q.~.Q.!.k.j.j.h.h.h.!.Q.~.W.",
"D 3.t.t.Z : O o o n B r B D D C 3.1.1.C 1.3.t.3.C C C D A : * * * * * * O = 6 i M m M m m m m a a a a a m a m a i a a m M m N U _ [ i.a.P.P./.P.P.P.a.i.P.P.I.I.I.P.).).).).E.E.E.^.'.E.E.E.(.P.{ 4 : : e e e e u p p p d B B Z A Z Z n Z S l.).'.'.`.`.&X`.`.'.'.'.'.'.`.'.).E.P.).E.P.P.P.a.' a.P.).(.P./.i.B d p e p Z A D e.t.1.D D 1.t.t.y.p.(.)._.'.'.).'.'.).E.).I.(.E.).(.).).E._.E.E.P.P.E.E.E.P.R.E.R.R.E._.T.R.E.E.E.R.R.E.T.a.{ L.T.E.R.~.Q.Q.R.Q.Q.E.Q.Q.R.R.R.E.Q.E.~.E.Q.T.R.R.E.E.Q.R.Q.Q.Q.U.U.h.h.U.j.U.h.!.~.",
"' t.Z : o O * * - r y 1.t.2.1.x t.1.3.1.B 3.D 3.1.1.1.3.Z e * = * = = = i m i i a m m m a m m a a a m a m m m a a a a a N M / ' a.l.I./.(.).(././.P.P.g.' K.P.P.P.P.).).).)./.P._.).(.).P.).).P.[ : : : e e e u p p p p d d Z Z A Z B B Z ( P.'.).^.).'.'.`.'.`.`.`.`.).).E.).).).).E.I.).K.' L.P.P.E.(.P.].Z Z d p p p A D e.t.i.e.1.1.1.e.e.t.y.t.i./ [ I.'.`.).'.'.).).'.E.).'.).P.(.).E.).).E.I.R.R.I.R._.R.R.I.R._.E.E.E.E.Q.Q.Q.R.L.R.{ } a.I.R.E.Q.~.R.~.T.E.Q.R.R.R.E.R.R.R.R.Q._.Q.Q.T.E.R.R.!.R.R.!.!.h.!.Q.Q.U.U.U.h.",
"n O X o o O * - p r V C t.C t.C t.C 3.D 3.3.V C 1.1.D D A : ; * * 4 m M a i i a a a a a a a a a a a a a m a m m m M a m M _ [ g.L.I.P.P./.I././.(.P.I.P.P.( i.(.P./.).).E.).P.I.).).).E.).).P.P.i.: : : e e e e e p p p d Z Z Z S Z B B Z [ ).`.'.'.E.).P.).'.`.'.'.'.'.).).'.).).).).P.i.a.I.E.E.I.P.(.I.s.Z Z B d p d Z D D e.t.e.e.e.e.t.t.t.y.y.y.e.4 o T T._.'.`._._.).`.(.).).P.).P.'.).E.P.P.E.R.E.(.E.E.Q.E.Q.%X_.Q.Q.E._.E.E.Q.Q.Q.Q.U.[ / { R.R.Q.Q.E.~.%X%XR.Q.Q.E.Q.E.T.Q.Q.R.~.Q.T.T.R.Q.Q.H.W.Q.!.T.U.R.W.~.Q.W.T.",
"X X X o O * * * r r x C 1.D 3.1.3.1.1.t.t.3.C C V V D D Z - > : N / M i i a a a a a a a a a m m m a m m a a a a a m M / [ j.g.P.I.I.I.P./././.].P./.).).P.P.a.' I./.P.).).).(.I.P.P.).).).).E./.g.: : : e e u u e e p p p Z Z Z Z Z B d S a.`.'.'.E.).E.).).).'.`.'.`.'.).`.`.'.'.'.L.{ P.(.E.'.).).).E.P.t.Z Z B f p d Z Z D e.t.t.e.e.e.t.t.t.t.y.y.y.t.Z ' ) / E.'.`.'.'.'.).).'.).).'.).).`.I.R.).(.'.'.E._._.E.%X_.'._.Q.Q.Q.E.Q.E.E.T.E.E.E.T.{ / H.Q.Q.Q.%XE.%X%X_.~.~.Q.R.R.R.R.R.T.R.R.Q.T.R.Q.~.R.Q.Q.R.H.U.U.R.#XQ.Q.",
"X o X X O O O * e r y D y.D y.3.3.t.D D r 1.D D B A D Z n a M ) / a a m i i a a a a a m a a m m a a a a a a a a M / } a.g.L.L.K.L.I.I.P./.(.)./.P.L.).(.P.I.P.P.' a.I.).).).).).E.).P.).).).P.).K.4 : : e e u u e e p p p Z Z d Z Z B Z _ T.'.).).).).).).).).'.`.'.).'.'.'.).P.'.a.L.).).).).E.P.(.'.(.I.D Z S Z Z B B Z A A e.t.t.t.t.t.e.t.y.t.y.y.u.t.1.t.g.{ : T Q.'.`.`.'.'.'.`.`.'.`.).).E.)._.).)._.E.'.'._._.E._._.Q.E.(.Q.E.T.Q.~.~.R.E.R.E.T.a.[ h.R.E.~.Q.E.Q.~.%X%X%XE.Q.R.E.E.T.R.Q.Q.R.R.Q.~.!.~.#XR.H.R.!.Q.Q.#X",
"o o o X O O O * r x r V 3.3.D 3.D D B D A D A D A S B Z / [ / M m M m m a a i m a a a a a a m m a a m a a a m / ) [ g.K.K.L.K.L.L.I.I.P.P.).)./.).P./.).).).).).(.g./ P.).).E.E.I.).E.E.).E.E.E.E.u : : : e u u e e p p p B B B Z Z Z Z ( E.'.'.).'.).).).'.E.'.'.'.).).'.).).K.a.E.).'.).'.'.).P.P./.P.i.D Z S S Z Z B Z ( D A 1.t.t.t.t.t.t.t.t.t.y.y.y.t.1.3.Z i 4 4 j.).`.`.`.`.).).'.).'._.'.'.'.'.'.`.'.'.'._._._.Q._._.E.Q.E.(.Q.~.~.~.E.R.Q.~.Q.Q.R.{ [ a.T.T.Q.~._.%X_.~.Q.R.R.Q.E.Q.Q.~.Q.~.Q.~.~.~.~.~.Q.W.R.W.~.Q.#X",
"o o o o o O O * e r t V t.t.1.3.D t.t.y.B B ( D S S ' j.[ N N M M M M m a m a m M a a a m m M M M m m m m M / { g.K.I.L.L.K.K.K.L.P.P.P.(.).).).).).)././.L.).P.(.(.I.{ g.).).(.P.P.).E.E.P.I.^.R.m : e e e e u e e p p p B Z A Z Z Z Z h._.).'.'.).'.'.).'.).E.).).'._.P.I.i.a.).).).).(.).E.).E./.P.g.i A A A S A Z Z A D D A A ( t.e.t.t.t.t.t.t.t.t.y.t.3.1.t.S ; ; 4 ( ].].'.`.'.).).`.'._.`.&X&X'.`.E.`.R._._._.&X&X%X_._.%XQ.(._._.Q._._.~.Q.~.Q.~.~.E.Q.j.} j.Q.~._._.%X~.%X~.R.Q.Q.Q.Q.R.R.R.W.~.Q.Q.#XQ.Q.R.W.Q.W.Q.~.",
"o o o o o o O O > t p C 3.3.3.C 1.t.( t.D D ( ' [ j.j./ M T / M U U m m m m M m m M M M M M M M M M U M } [ g.L.I.L.P.K.L.L.L.K.I.P.P.P.(.).).(.).).).P.P.).)./.).).).).J.[ ).).).E.E.).E.).).E.L.T : e u e u u e p p p d B Z Z A Z n _ Q.'.).).'.`.).`.`.).'.).'.).)._.g.[ L._.).'.'.'.P.P.'.).P.I.I.g.= Z S D D D A A A A D D D D ( e.t.p.i.y.t.e.t.t.t.1.3.t.t.t./ = ; 4 ( f.P.`.'.).).'.).).`.`.&X'.'._.&XE._.'.%X'.&X%X%X%X%X'._._._.%X%X%X%X~.~.E.Q._.*X~.Q.~.h...T.Q._._.~.R.~.Q.~.~.Q.Q.E.Q.Q.R.Q.~.#X#X#X!.R.~.Q.R.W.#X",
"O * * O O o o O - r r B 3.t.t.t.1.A D A S [ i.a.j.} / / / M M M M M M M M m M U U U U U M M M M M T } [ a.K.L.L.I.P.P.L.L.P.P.L.K.P.P.P.P.P.P.)./.).)./.).).).(.).).'.`.'.).{ a.).E.).E._.).(.E.R._ : e u u u e p p p d d Z Z A Z Z Z a.'.`._.'.'.'.'.'._.`.`.)._._.R.{ g.E.E.).E.).).P.P.E.).).).L.g.{ = B A ( ( ( ( ( D A D D D D D ( t.i.i.p.i.t.e.e.e.S A D D Z / 6 = ; 4 D y.i.l._.'.`.'.`._.'.'._.).Q._.E._.E.'.%XE.Q._.'.%X&X&X_._._._._.~._.%XE.~.~.*X%XQ._.R.Q.h.{ U.Q.~.~._.E.^._.~.Q.~.R.Q.Q.T.~.Q.#XR.~.%X%X~.Q.!.R.",
"* * = * O o o O - r r r C D t.B A D ' i.a.g.j.[ / / / / / / T M U / U M M m M M M U U T U M U U } [ g.L.I.P.P.P.P.P.P.P.P.P.I.P.I.P.I.(.I.).).).).).).).).).E.).).).).).).'.).h.[ E.).`.'.'.'._.E.[ u e e e e e e p p p B Z Z A S Z Z L.`.'.`._.'.).`.'._.).E.).).g.' E._.(.E.P.(.).).I.E.E.E.E.L.L.g.) 4 u D ( e.( ( ( D D ( ( ( ( e.( t.t.t.t.t.e.( S s : = = = = = = = ; < 4 t.y.p.S j.%X'.'.)._.E._._.'._._.(._.'._.%X%X_.%X_.'._.'.Q._._.~._.~.~.E.~.~.~.~.Q._.%X%X_.R.H.[ h._._.Q._._.E.Q.~._._.~.~.~.~.~.%XQ.#X%XQ.#XR.R.",
"= = = * * * O O * r r r D F D Z t.i.i.g.j.[ / / / / / / / / / / / / / M U U U M M M U M U / } [ j.L.L.P.^.L.I.L.I.E.E.P.P.E.E.P.K.I.E.P.P.E.).).'.).'.).).).E.).).'.).).'.E.).).E.{ L.)._._._.'.(.[ u e e e e e e r p d B Z Z A S Z Z ).`.`.'.(.'.`.'._.R.(.(.P.[ L.'.'._._.).(.P.E.P.I.L.I.E.(.E.P.L.} ; @ Z t.i.i.e.( ( ( ( ( ( t.' ( ' ( _ _ / s 4 = % % = = = ; ; ; ; ; 3 3 i 1.y.y.' / L.Q.E.'.'.&X_.'.&X&X_._._._._.%XQ.'.'._._.%X%XQ.%XQ._.*X*X~.~.%X_._._._.~.%X~.~.%X~.H.[ h.%X*X%X*X*X~._._.%X%X*X~.~.#XQ.#X%XQ.~.%X#X",
": ; * * * * * O * e r r V V t.a.j.j.g.[ / / / / / / / / / / / / / / / / U U T U T / U T _ [ { g.L.L.L.P.I.I.P.E.P.E.R.R.E.E.).E.I.E.E.E.E.E.).).).'.'.).).).'.).).'.`.).'.'.'._._._.h.{ E._.&X'.'.j.u e e e e e e r p p Z A A A Z Z [ &X&X`.`.&X'.'.`._.&X`.K.{ (.'.).'.).E.^.I.K.l.L.E.(.P.E.P.I.).(.a.; % = S t.i.p.i.t.' ' ( ( ( _ M M a 4 = # # % # # % % = ; i M Z Z i 3 # = B 3.y.u.i.M h.).'.&X&X'.'.'.`.%X(.E.Q.%X_._.E._._.(._._.%X%XQ.*X&X%X_.*X_.~.%X_.*X%X_.%XE.~.%X%XE.H.{ h.*X*X*X*X&X&X&X%X&X*X*X*X*X*X~.%X*X*X*X",
": 4 : : : : : : : : e B ( i.a.l.h.{ / / / / / / / / / / / / ) / / / / / / / U U T / / } { g.L.P.L.P.P.L.P.E.P.R.I.K.P.P.).P.R.E.P.E.E.P.P.E.).).P.).).).(.).).).'.'.'.).`.'.'.'.^.~.T.Q.[ T.%X'._.L.u e e e e e e r p d Z Z A Z Z Z R.&X&X&X&X&X&X_.&X_._.a.R._.`._._.E.R.E.R.g.E.P.L.P.).P.P.I.).).).L.T % % * n ( ' ' ' ' / s 4 = O o . & o + + o O # + @ u Z ( e.t.i.t.( S 4 @ Z 1.t.u.].a.M g.).E.'.'._.'.'.'._.Q.'._._._._.%X~.Q.%X_.&X%X%X~.%X_._.%X*X*X*X_._.#X#X_.%X~.E._.*X%X_.W.[ j.~.*X*X&X*X&X*X=X*X*X*X*X*X*X&X=X*X",
"4 : : : : u i 4 - - n i.a.i.{ [ ' [ / / / / / / / / / / / / / / / _ / / / T / / / [ [ a.a.K.P.P.P.E.E.P.L.P.E.R.E.P.I.I.E.E.R.R.E.E.).(.P.E.E.).E.).).'.`.).).).'.'.'.'.`.'.'.%X_.*XI._._.j.[ %X'.T.u e e e u e e e p d Z Z A A Z ( &X&X&X&X&X`.`.`.`.L.a.`.`.E.).).).P.I.R.'.).).'.).).).).'.).(._.E.E.L.} 5 O o o * * * O o & o o o o . . . . . . % 7 M ( t.t.e.e.t.p.p.i.e.( i u u.t.y.t.s.M U ^.)._.'.E.'.'.%X_.Q._._.'.'._.%X_.&X_._._.%X~.~.~.~.*X_._.%X*X_.%X%X~._.*X_._.%X%X%X~._.E.T.[ { T.*X*X&X*X*X*X*X*X%X*X*X*X*X%X",
": : : u : : > : : / a.s.i.' / [ [ [ } } ) } / / / / / / / } / / / / / / / / } [ { j.g.L.K.P.I.P.P.L.P.E.I.P.I.I.I.L.P.E.P.P.P.L.P.P.).).E.E.E.).(.).'.`.'.'.).).'.'.'.'.).)._.%X&X*XQ.%XQ.%XW.[ Q.%Xs e e u u p e e p d Z Z A A S a.&X`._.'._.`._.(.a.L._.`.)._.(.E.).E._.E.).).P.'.).`.'.).`.'.'.`.).).E.L.X.} M 4 ; = % # # + o o . o o o o & & . . 2 M ( i.i.t.( e.i.s.p.t.( ( A D e.t.p.].) U } `.'.%X'.'.'.&X_._._._._.'._.Q.%X%X*X*X_.%X_._.%X%X&X*X%X~._.*X_.*X%X*X*X*X%XQ.~._.~._._.*X&XR.[ { %X*X&X&X*X*X*X*X*X&X*X*X*X",
": : 6 : * - i s } j.a.' } / [ } ' [ [ } } / / / / } / } / / T / / / _ [ ] [ j.J.I.P.P.R.I.E.).P.P.K.K.I.I.P.I.I.L.R.E.E.E.E.R.K.E.E.L.E.E.).).(._.`.).).).'.).).).).).'.E.'.'.%X%X~.%X'.*X%X%X%X{ [ s e u u e p e r p d A A A A S E._.&X%X_._._.g.a.E.'.E.).`.'._.'.).).'.R.).).).`.'.'.'.E.).'.).`.`.).E.E.g.h.L.j.[ ) U U a a a 8 5 5 3 $ o o . o o . o a ( t.p.i.e.e.p.p.i.A D 1.t.e.s.z.]./ M m L.'._._._.%X%X%X%X%X_.E.Q.(._.%X&X&X&X_.~.~.%X%X%X&X%X_.~._._.R.R.%X%X_.*X~.%X~.~.~.E._.%X~.*X%XT.[ [ E.%X*X*X*X&X*X*X%X~.h.",
": : = * * i } j.a.i.' [ [ ) [ } } } } } } / / / } } / } T M M / / / [ { j.I.E.E.).E.E.I.P.L.P.P.P.K.K.K.g.I.L.L.g.P.R.E.R.P.E.(.I.E.E._.).(.E._.(.(._.`.`.E.).`.).).'.).'.%X_._.%XQ.E.*X*X_.Q.%X&XR.s u u e e e p p p B A A S A ( _._.&X&X%X_.{ L.E.E.`._.(.'.'.'.).'.)._.).).E.'.).'.).'.`.'.'.).'.'.P.R.E.T.h.I.g.g.h.h.j.{ ) / T T T U U m a 5 ; o & o o : _ i.a.i.( i.i.p.i.i.t.y.t.z.z.].i.m m [ E._._._.'.'.%X_._.'._._.&X&X_.%X%X_._._.R.~.E.~.~.E.~._.*X*XQ.~._.~.*X%X%X%X_.*X%X_.~.Q.~.*X*X%X~.Q.{ { ~.*X*X*X~.%X@Xj.} ",
"* = * = M j.j.j.[ [ [ [ } } [ } } ) } / / / / / / / } } / / / / } [ j.g.T.R.E.E.).).L.R.L.P.I.I.I.E.E.I.K.L.P.g.I.E.E.P.P.E.E.P.I.'.).E.E.E.R._.E.E.R.(.).'.).'.'.).).).`.&X&X_._.Q.&X&X%X%X&X_.%X%X/ u u u e e p p s B A A S S j.(.%X(.E.a.g.(.(._._.'._.'.'.`.'.'.`.`.).).'.).).).).'.).'.).'.'.'.).P.R.).(.g.L.L.h.H.{ h.g.j.j.[ ) T T T T T T U m 2 # o o o i _ [ [ _ _ ( t.t.p.p.s.z.z.].i.M m [ L.E.'.&X_.%X%X_._._.E.%X%X_._.%X_._._.~.R.~.Q.~.Q._._.Q.E.Q.*X_._._._.%X*X*X_.%X*X*X*X*X_.*X*X*X_.*X*XQ.{ [ W._.~.Q.X.[ %X",
"* - a ' j.j.[ } } } [ / / } [ } [ } } [ } } } ) / / / / / } } [ { j.L.I.(.).).(.(.E.L.L.I.L.L.L.K.P.E.L.I.R.L.K.E.P.R.E.R.E.E.P.E.L.E.E.L.P.R.E.E.E.E._.).E._.'.).).).`.`.&X'.'.'.&X&X'.%X_.%X*X&X*X' u e e p p p p s Z A ( _ _ _._._.E.[ I._.E.E._.'.&X(.'.&X(._.'.'.'.`.).).).'.E.).'.).).).).'.'._.E.E.E.R.L.g.h.h.g.H.h.h.L.j.j.j.[ } ) ) ] ] / ) ^ U 9 3 O O # = 4 4 * o 4 ( i.i.l.l.l.l.U m a [ L.E.E.(._._._.Q._._.Q.Q.Q._.E._.Q.(._._.~.Q.~.~.~.~._.~.Q.Q._.Q.~._._._.*X*X_.%X*X*X&X*X%X*X~._.Q.~.Q.~.~.~.[ / j.N { *X*X",
"n ) [ ( / [ [ } } } } [ ) / [ / } [ [ } / } / } / / / / } [ { j.a.R.L.E.)._.E.E.(.P.P.L.P.I.L.P.P.P.L.K.L.P.L.g.E.P.P.E.R.I.E.E.).(.L.I.R.E.E._.E.Q.E.).(.'.'.'._.'._.I.'._._.%X&X%X&X&X&X'.*X%X&X_.[ u e e p p p s B Z A ( ( ' &X%Xj.h._.R._.E.R._._.P.).E.E.P.E.'.).).).'.).`.'.'.).`.'.).).'.'.'.'.E.E.R.R.).L.g.g.h.j.g.h.h.j.h.H.h.j.[ [ ) [ ] [ ] ] ) ) U 5 = % # % # @ @ = s _ ' ( U u : 7 m [ H.T.T.T.T.Q.E.E._.%XQ.%X%X_._._.Q.Q._.'.~._.E.Q.E.~.~.~.Q.~._._.Q._._.~.E._._.%X*X_.%X*X%X*X~.Q.~.Q.R.Q.W.%X~.L.6 a T.%X*X",
"[ [ [ } } / } } ) } / [ ) / } } } [ } / / T / / } } / } [ j.g.P.(.'.E.).).E.E.P.(.L.L.P.P.P.K.K.I.K.L.L.L.E.L.L.L.I.L.E.I.I.I.E.R.L.L.).E.E.E._._.Q.E.R._.(.E.'._.`.&X(.'._.Q.~.{ L.&X&X%XQ.%X*X%X%Xa.i e e p r p d Z A A ( ( g.E.} _.%X_.&X_.R.R._.E.E._.(.'.'.'.).E.E.(.(.).).).).'.).P.'.E.).'._.E.E.E.'.R.E.L.L.h.L.h.j.h.h.h.h.H.j.h.g.j...[ ] [ ..[ ] ..X.[ T U 8 5 ; % % % @ O @ @ % % ; m } { j.L.L.h.L.E.E.T.R.E._.Q._._.E.Q.Q.E.Q.Q._._.E.Q.~.~.Q.Q._.%XQ.Q.Q.~.Q.Q.Q._._.~.Q._.~.%X%X*XQ.Q._.~.~._.Q.~.Q./ j.R.{ ] !.",
"} } } ) / / / ) } / / } } } } } } / / / } } / / / / { { g.R.E.).).^.R.E.P.).E.E.P.L.I.P.P.K.I.I.a.K.P.K.P.P.L.K.P.L.L.R.R.R.L.(.(.R.R.).)._.R.R.E.E.R.E.(.'._.`.'._.'._._.'.'.E._.&X'.'.%X_.*X%X_.%Xh.p e u p p r d Z A ( ( ( ' j._.~.&X&X%X`.'._._.E._.).E.).).E.).).P.'.).P.).E.).P.).).(.P.P.).).E.E.E.R.E.Q.E.L.h.g.h.H.j.h.g.h.g.H.H.j.j.H.g.j...[ [ ..[ X.[ ] ] ] ] ) ) U U a 6 5 8 6 m / } { H.H.g.L.T.R.E.T.H.L.L.L.T.R.E.E.T.Q.Q._.Q.~.~.Q.Q._.~.%X_.~.E.~.~._.~.Q.Q.Q.~._.~._.~.~.~.%X%X~.Q.E._.~.~.~.Q./ j.~.*X~.Q.[ ",
"/ / / / / / / / / / / / / } } / / / / / / ) / U [ ..[ j.L.(.E.L.P.E.E.P.L.).).P.I.E.P.E.L.I.a.L.L.I.L.a.L.E.P.R.P.R.I.R.E.R.I._.).E.E.E.E.R.E.E.E.R.R.R.R.E.(.R.E.T.I.(.(.(._.'.(._.%X*X*X%X%X*X&X*XR.i p u p p p d Z A ( ( Z T.&X*X~.E.%X&X%X_._._.E.L.I.L.I.I.I.P.P.E.E.P.E.E.P.'.P.E.(.).).(.)._.E.R.(.Q.E.(.E.R.h.h.h.H.j.h.j.j.j.g.h.h.j.j.j.h.h.j.......X...[ ..[ ] ] [ [ ] ] [ [ ] ] ] [ j.H.R.h.h.T.h.L.T.T.H.H.g.T.T.L.H.T.T.U.T.T.R.R.E.T.W.E.~.~.%X_.~.~.~.E.~.~._.%XE.Q.~.%X%X_.~.~.Q.~.~.~._.~.%XW./ j.%X*X*X%X%X*X",
"/ / / / / / / / / / / / / / / / / / / / / / ] [ { [ [ { g.L.I.(.P.).P.).(.E.P.).P.I.L.P.I.K.K.E.I.E.L.L.L.L.E.E.E.R.L.P.L.P.E._._.R.R._.E._.E.'.E.E.E.R.R.E._.R.E.I.R.E.Q.'.&X_.&XQ._.L.R.Q.%X_.&X%XQ.s p p p p p d A D ( ( Z T._._.%X_.Q.Q.(._.E.E.E.R.E.E.P.L.K.L.P.P.P.P.E.I.E.E.P.E.P.P.(._.).'.E.I.E.(.E.R.E.E.T.h.h.H.g.h.H.h.h.h.g.h...j.j.H.h.T.T.h.j.h.k...[ [ [ [ j.j.j.j.j.j.X.X...j.U.T.T.R.T.R.T.H.H.T.T.H.h.h.H.h.h.H.H.H.H.H.H.T.T.R.Q.R.Q.Q.Q.Q._._.Q.E.{ ~.E.R.~.~.%X*X~.Q.E.Q.Q.~.~._._.%XQ.} T.%X~.*X*X*X%X*X",
"/ / M T / / / / / / / / / / / / / / / / / [ a.g.I.I.E.j.a.g.K.P.(.E.I.).P.E.E.P.P.E.P.L.P.E.).E.I.K.L.K.I.E.I.R.R.I.L.E.E.I.R._.E.I.E._.E._.(.(._.(.E.E.E.R.T.R.E.Q.Q.E.Q._.&X(._._.R.%X~.%X~.&X*X_.%Xp i i p p p d D e.( ( s Q.&X&X&X%XQ.Q._.'.E.R.E.E.(.R.E.P.E.P.).).).P.(.E.P.P.E.).P.I.I.).P.E.E.E.E.E.P.E.Q._.Q.H.L.L.h.H.L.T.R.h.j.h.H.g.j.H.T.T.R.Q.Q.~.T.T.h.j.j.j.j.j.h.h.H.h.h.T.U.T.T.h.R.T.H.T.T.T.H.H.H.T.R.T.T.T.T.h.h.L.H.h.H.T.T.R.T.T.E.~.Q.Q.~.~._._.*X~.~.~.%X%X_._._._.Q.~.~.Q.~.%X~.~./ W.&X*X*X*X*X*X*X~.",
"T T / T / S / / / / / / / / / / / / / } [ g.K.L.P.E.I.I.I.I.P.P.(.E.E.(.P.P.P.P.).E.P.P.E.E.P.E.L.I.E.I.I.E.(.E.E.I.L.R.E._.(.T.Q.E.E.E.E._.(.R.(.E.E.R.I.R.E.(.E.E.Q._.(._._.&X_.%X_.~.*X%X~.%XQ.%X_.i i i p p d B D e.( ( [ [ E.*X&X&X&X&X&X'._._.E.R._.E.h.g.P.K.I.E.P.P.P.E.P.P.L.E.(.).P.).).R.I.R.E._.E.L.E.E.E.Q.H.h.H.T.h.H.T.L.H.h.h.j.j.j.a.j.T.E.~.Q.R.R.Q.W.H.h.h.H.L.T.T.T.T.T.T.T.R.T.R.T.T.T.H.T.T.T.T.T.E.T.T.h.T.L.h.T.T.H.H.H.H.R.T.T.L.Q.h.Q.~.R.Q._._.Q.~._.~.*X%X*X&X*X&X%X%XQ.~.Q.T./ T.&X*X*X*X%X%XQ.*X%X",
"M / T S / / / / / / / / / / / / / ( a.a.J.P.I.^.E.E.P.P.E.P.P.I.).).P.P.P.E.P.(.E.'.E.P.P.).).).E.&X&XR.E.R.P.P.R.E.R.E.I.)._.E._.E.R.R._.E.(.E.E.E.R.E.E.'.Q.E.(.E._._._._.(._._.'._.~.'.*X*XQ._._._.p i u p p d B A e.( ( j.&XT.[ #X'.&X&X&X&X'._.%X_.P.E.h.L.E.L.P.E.P.).).P.E.E.'.'.(.).).'.E.E.I.E.E.E.R.T.(._._.%XI.H.H.H.h.h.H.j.j.j.j.j.j.j.j.j.h.T.E.Q.E.~.~._.E.E.R.T.R.R.R.E.R.R.T.T.T.T.T.H.T.h.H.T.T.T.H.H.T.H.H.h.H.H.H.R.H.h.H.h.h.H.T.H.T.R.h.!.Q.R.E.Q.%X~.~.*X*X*X&X_.%X_.*X_._.%X_.L.S H.%X*X%X~.%X~.*X~.%X%X",
"T / T T / / S / / / / / / / / [ [ a.K.K.I.P.P.P.P.I.P.P.P.P.I.E.I.P.I.E.^.).L.P.P.I.P.P.E.E.).^.R.R.R.I.R.E.E.R.(.E.E.'.Q._.R.'._.(.E.R._.E.Q.E.Q.E.(.Q.Q.T._._._.R.%X_.(.%XE.Q.~.*X_.~.&X&X*X*X_.*Xh.p i u p p d B D e.e.( a.%X%XT./ h.&X&X%X%X_.E.R.R.I.L.L.L.I.L.(._._.).).E.(.E.(.(.(.R.`.'.E.(.E._.R.E._.Q._.R._._.E.H.H.g.h.L.T.H.h.h.H.L.h.h.h.j.h.L.E._.Q._.Q.Q.(._._.Q.Q.R.T.R.T.T.T.R.T.T.T.H.H.H.T.T.H.h.H.T.T.T.j.H.h.h.h.H.H.H.T.H.T.T.T.T.T.T.T.Q.R.T.R.R.Q.~.~.*X%X*X*X~.~.E.Q._._.E.T.S j._.%X%X%X%X%X~.%X~.~.%X",
"/ / T T M N S N / / / / / / [ [ a.L.L.P.P.P.I.)./.I.P.P.P.P.).).K.L.L.P.K.K.P.P.P.(.L.L.K.).).P.P.E.E._.).).I.E.E.R.I.'.Q.E.E.).'._.E.E.E.I.E.E.E._._._.Q.Q.'._.E._.(.'._.Q._.R.Q.%X~.~.*X&X*X*X%X_.' p u e p p d B D e.( e.a.&X&X%X_.j.{ Q._._._._.Q._.'._.).'._.'.'.)._.R._.P.E.P.E.).E.E.)._.E.R.T.I.a.g.E.Q.Q._.Q.Q.L.H.h.j.j.j.h.h.L.T.T.H.j.j.h.h.h.L.R.%X_.Q.E.%X_.%X*X*X~.~._.R.R.T.H.H.T.T.H.H.T.H.T.T.T.h.H.T.L.H.H.H.T.T.T.h.H.T.T.H.H.T.R.H.R.T.T.H.!.Q.Q.Q.Q.Q.Q.%X~.~.Q._.~.~.Q.~.T.{ / Q.*X%X*X*X*X%X%XQ.~.~.~.~.",
"M N N T N / S / / S / / } a.a.g.L.I.I.P.[.I.K.I.P.I.P.P.P.I.P.).P.E.E.L.L.K.P.P.E.P.P.).).).).P.P.)._.&X_._.P.I.E.'.'._.E.E._.Q._._.'._._.E.(._.Q.E.E.'._.E.Q._._.%XR._.'.E._.Q.E._.Q.R.R.%X_.&X%XE.Z p u u p p d B D e.e.( ' &X=X%X%X%XL.) E.'.E._.(.'.'.&X`._.).'._.'.`._.'.)._.).P.).R._.).E.E.E.E.Q._.E.E._._.%XQ.Q.Q.T.h.h.h.j.H.L.H.T.T.L.H.j.h.T.T.T.T.Q.%X_.'.%X%X%X&X_.~.~._.Q.Q.Q.T.H.R.T.T.T.H.T.T.H.h.H.T.T.H.T.h.h.T.R.T.h.H.h.h.T.H.H.R.H.H.H.H.T.Q.Q.Q.Q.W.T.Q.R.~.Q.%X_.~.%XQ.R.{ N h.%X%X%X*X~.~.%XQ.%X*X%X#X%X",
"T / T / / T M T M / / [ a.K.L.L.I.P.P.P.P.I.I.K.I.I.I.P.I.L.I.(.P.I.I.K.L.P.I.P.I.K.E.L.E.P.P.E.E.E.E.&XE.'.E.E.E.E.(.'._._._.E._._._._._.Q.R._.E.Q.E.E.E._.'.(._.E.'.Q.Q.E.%X_.~._.%XQ._.*X_.%X%Xi.s p p e p p d f A e.e.( ( `.&X&X%X_.E._.[ a.T.E.%X`._.&X`.'.&X'.).`.&X(.'._.&X`._.E.).E.P.E.I.I.I.E.T.T.Q.Q.'.Q.(._.Q.R.j.j.h.T.H.L.R.H.L.H.T.H.H.H.H.R.R.T.Q.~._.(.%X'.%X%X%X*X*X%XQ.~.L.T.R.R.R.T.H.H.T.R.T.h.h.h.h.h.L.T.T.T.H.H.Q.L.T.H.T.h.T.T.H.h.h.h.!.Q.Q.Q.W.U.!.T.!.T.!.T.~.Q.~.j.[ H.Q.%X*X*X%X%X%X%X%X%X%X%X%X~.",
"M M U M a M M / ) [ a.a.I.P.P.I.L.I.L.I.I./.I.K.P.P.L.K.P.E.).P.P.I.L.L.E.L.P.L.L.E.).P.).E.).E.P.)._._.E.R.E.'.).'._._._.R.E.(.E.E._._.Q.E.E.E.E.R.T.E._.E.'.E.R.'.(._.E._._.Q._.~._._._.'.~.T.h./ p s p p p p d B A e.t.e.t._.&X&X`.&X&X&X_.R./ L._.`.&X&X`.`.'.`.`.'.'.`.'.).).'.'.E.).'.).E.E.R.I.E.Q.Q.E.E.E.E.E.E.E.%XW.H.h.T.R.R.E.T.T.h.T.R.T.T.h.T.T.T.H.R._.Q._._.Q._.*X*X~.%X~.*X%XQ.Q.~.~.R.T.T.T.R.H.h.H.h.H.h.H.H.h.T.H.h.T.L.H.H.T.H.T.T.H.h.j.j.h.!.W.!.h.U.U.!.U.H.U.h.T.T...} U.Q.Q.%X*X*X*X~.#X~.Q.~.Q.~.Q.~.",
"T T U m i N / [ a.a.L.K.I.I.L.L.K.L.I.L.L.I.I.L.L.L.L.I.L.K.I.L.P.L.E.E.E.g.L.K.P.).).E.).E.L.I.^.).).R.(.E._.).).'._._.E._.'._.E.E._.Q.E._._.E.E.E.E.'._.E.E._._.'.E._._._.R.Q.Q._._.~.~.E.g.L.(._ s s p p p p d Z D t.t.e.t.(.&X&X&X'.E.&X&X`.%X} g.`.&X`.&X&X&X&X&X&X&X_.'._.'.`._._._.).'._._.E.L.E.R.Q.(._.%X_._._.Q.Q.R.T.L.T.T.T.T.T.T.U.T.H.R.R.T.T.T.h.L.L._.%X%X_.%XQ.~.*X%X*X*X*X*X%XQ.~.%X~.R.R.R.T.L.H.T.H.T.H.H.H.h.T.U.T.H.H.h.H.h.h.H.H.H.j.U.H.U.!.k.U.U.U.h.h.U.U.U.h.h.X./ !.!.Q.%XQ.#X%X%X~.Q.Q.~.#XQ.Q.!.R.",
"N N N N N / { a.L.I.L.I.P.P.I.K.K.K.I.L.I.L.L.L.L.I.I.I.P.I.P.I.I.I.K.K.j./ a.P.P.E.E.I.E.E.E.L.E.).^._._._.E.)._._._._.'.&X(.'.'.R.E.Q._.E.E.E.E.R.R.(.Q.E.E.E.E._._._.'._.Q.Q.Q._._.~.T.j._.%X_.i.s p p p p p d Z ( t.e.e.t.(.&X`.&X&X&X&X%X&X&X'.g.} P.~.E.'.&X&X`.&X`.`.&X'._.).'.'._.E._._._.E.E.Q.E.L.E._._.Q._.Q.E.Q.Q.R.T.T.T.T.R.Q.H.R.T.T.T.L.T.h.T.T.T.T.E._.Q.%X&X*X*X*X&X*X*X%X%X%X~._.~.Q.Q.T.T.H.H.T.U.T.T.H.H.T.T.T.T.T.T.h.h.h.H.h.h.H.h.h.H.U.U.U.h.h.h.U.h.U.k.k.k.j.../ H.h.U.U.W.W.W.!.Q.Q.Q.Q.Q.~.~.!.!.!.",
"N N M / [ a.a.K.I.I.P.P.L.L.a.K.K.K.L.I.P.K.K.I.L.I.I.I.L.P.(.L.a.a.g.a.[ } g.L.L.P.E.E.I.E.).).P.L.).)._.).)._.E._.E.(._.).E.E.E.E.(.E.E.E.E.(.E.E.I.E.Q.E._._._.Q.E.(._.(.E.Q.Q.Q.R.j.T.'.%XQ._.h.p p p p p d d A e.p.t.e.t.&X&X&X&X`.&X'.'.'.&X&X`.R.) j.%X'.`.&X&X`.'.&X&X'.'._.)._._._._.Q.E.E.Q._.T.h.E.E.Q.L.Q._.Q.Q.Q.R.R.R.Q.R.T.Q.!.R.T.H.R.h.H.h.h.T.h.T.T.E._.%X_.~.~.%X&X*X*X*X%X*X_.~.Q.~.~.Q.T.T.H.T.T.T.!.T.U.h.H.H.H.h.H.U.H.h.U.h.h.h.h.U.H.h.h.H.h.j.h.X.j.j.j.k.k.../ k.X.h.T.U.!.h.U.U.!.W.!.!.W.W.Q.!.W.!.",
"M S / [ i.K.L.K.P.L.L.K.I.L.K.I.K.K.L.L.L.I.I.I.I.P.I.a.I.L.K.a.K.L.a.a.a.g.I.P.P.L.P.I.I.E.I.R.E.E.P.E.).P.^.E.R._.R.R.R.I.I.g.g.E.E.(.'._._._._.E.E.R.E.E.Q.I.R.E.P.T.Q.E.E._.~.h.h.E.Q.Q.~.!.j.j.s p p p p d Z A r.s.p.t.i.&X&X&X`.`.&X`.&X&X&X&X'.E.I.{ } E.&X&X`.&X_.&X%X%X%X_._.'.`._._.Q.E.Q.Q.Q.E.Q.%XQ._.%XQ.Q._.Q.Q.R.R.Q.H.T.T.T.H.T.h.L.Q.H.H.H.h.H.H.R.Q.T.E.Q.&X%X%X~.%X%X%X%X~.%X%X%X~.~.~.Q.Q.H.H.R.H.U.H.H.U.H.T.j.H.H.T.U.!.U.T.!.H.h.U.T.T.H.h.h.j.j.k.X.j.h.k.X.] / X.k.k.k.U.U.U.j.U.!.!.W.W.Q.!.!.T.Q.!.!.",
"/ } i.a.K.I.I.P.I.P.L.[.I.L.K.K.K.K.a.[.K.L.I.K.L.P.I.I.P.a.a.L.a.g.L.I.P.L.E.L.K.K.K.I.P.I.P.I.R.).E.R.E.E.R.E.P.R.R.L.L.K.a.E._._.E.E._._.E.(._.E._.(.E.R.I.P.E.(.E.E.R.R.I.L.j.g._._.X.a = O * S Z Z s p d d B A e.p.y.t.s.`.`.'.&X&X).`.&X&X&X&X`.(.'._.T.[ I._.`.'._._.%X&X'.`.%X&X&X&X'.E.E.Q.Q.E.E.E._.%X%X%XQ.Q.%X%X~.E.Q.Q.R.T.R.T.T.T.h.T.Q.U.T.H.j.H.R.T.T.E.T.E.%X*X%X%XQ.~.~.%X%X%X~.T.%X%X~.*X~.Q.T.T.Q.T.H.H.H.h.h.j.T.R.T.R.T.T.h.U.h.h.R.T.U.h.h.h.j.j.j.X.X.X.X.) ) k.j.k.k.U.U.U.h.k.Y.k.U.W.W.!.!.W.!.W.R.T.",
"' a.g.L.L.I.I.P.L.L.K.K.K.I.[.K.[.a.K.L.L.a.L.L.P.I.I.K.a.L.a.L.L.P.E.E.I.E.P.(.E.E.E.P.I.K.L.P.E.R.I.L.P.(.E.E.E.I.R.E.E.P.R.R.E.E.E.(.E.E.(.Q.(._.&X'._.E.E.E.'._._.E.E.T.a.g.Q.Q._./ % = * * n D A A A Z Z B B A e.p.p.t.P.&X&X'.`.&X`.&X&X'.&X&X&X'.%X&X%X%Xh.[ E.'.&X_._.&X&X'.'.%X_.'.%X'._.Q.T.E.E.E.E._.Q.%X_._.Q.~.~.~.Q.Q.T.R.R.Q.W.H.T.T.R.!.H.T.U.T.H.T.T.L.R.L.E.~.%X~.%X~.%X_.Q._.%X_.%X_.%X^.~.%XQ.Q.Q.T.T.W.T.U.h.!.!.T.H.R.H.h.H.!.j.h.j.H.U.h.h.U.j.j.j.X.X...} T k.k.k.Y.k.h.U.k.k.h.k.h.U.U.T.W.W.!.!.!.R.!.",
"a.L.I.L.K.I.P.a.K.L.K.L.K.P.[.a.K.I.I.L.K.L.P.I.a.K.L.a.K.L.L.I.L.P.P.I.P.P.P.P.P.E.L.P.P.K.L.L.L.P.P.P.P.E.(.E.E.E.E.E.I.P.R.E.R.R.E.E.(.(._._.E._.Q._._.'._._.'.Q.Q.R.L.[ h.E.E.T.h.= = = = = ( D ( ( A A A D A A 1.p.y.t.(.&X&X'.`.&X&X&X&X&X&X&X:X&X&X%X%X&X&XE./ h._.&X&X&X&X&X&X&X'._._.Q._.Q.T.E.T.R.(._.%X_._._.Q.Q.Q.Q.~._.~.R.R.E.h.T.T.T.H.U.U.T.H.H.T.T.L.T.g.H.H.H._.*X%X~.%X*X%X%X_.&X*X_.Q.~.%X%X~.Q.%XQ.R.R.T.T.T.R.W.T.T.T.H.U.!.T.U.T.U.T.!.Q.!.h.h.k.j.X.] T / X.k.k.h.U.k.h.j.k.U.Y.U.U.k.j.k.U.U.U.!.!.Q.W.",
"a.K.K.K.K.K.K.s.P.K.a.L.K.[.a.K.K.L.K.K.L.L.I.K.K.I.I.L.I.I.I.K.K.L.P.I.L.P.P.L.P.E.P.E.P.P.P.R.P.I.E.a.E.E._.E.R.R.E.R.E.P.E.P.L.L.R.R.(.E.E.E._._.E.E.)._.E._.R.R.J.[ j.L.L.g.g.H./ 4 2 2 4 i t.D ( D A A D e.e.1.1.y.t.t.'.&X&X&X&X'.&X&X&X`.'.`.:X:X&X'.&X&X&X&X&Xj.{ %X&X&X&X&X&X&X&X(.E.Q.E.E.E.(.Q.E.Q.Q._._.%XQ._.%XR.Q.Q.Q.~.Q.Q.Q.R.H.T.T.T.H.h.U.T.T.T.H.T.h.T.T.H.T.R.~._.~.%X_.~.~.E.*X%X_.~.Q._.~.Q.~.%XQ.Q.Q.Q.E.Q.~.!.!.T.T.T.T.H.R.W.!.T.U.W.!.h.U.U.j.h.X.T / j.j.h.h.k.j.k.U.h.U.Y.!.U.U.U.U.U.U.U.!.U.!.W.Q.",
"K.[.[.K.[.K.[.[.L.[.K.K.I.K.K.K.a.[.a.K.L.P.K.[.K.P.L.L.a.^.L.L.L.g.R.E.P.I.I.P.E.P.P.I.E.E.P.R.P.E.K.g.L.L.P.I.R.R.R.I.E.E.I.g.g.E.E.E.E.E.(.E.).E.I.R.T.h.R.E.L.j.[ R.Q.I.I.L.L.H.U = ; ; : n ( D ( A D D D t.y.e.t.p.y.t.'.&X&X`.`.`.&X&X&X`.'.&X&X&X&X%X&X&X&X&X&X%XT.[ Q.#X%X%X&X%X%X%X%X_.Q.E.E.Q.R.E.Q.Q.T.Q.Q.Q.Q._.~.T.%X~.Q.Q.R.~.Q.T.Q.R.W.T.h.h.H.R.T.T.T.L.H.T.T.T.T.Q.~.%XQ.R.~.Q.R.~.Q.Q.Q.R.Q.Q.%X*X*X*XQ.R.Q.%XR.~.Q.Q.R.T.Q.R.Q.W.W.!.U.H.k.U.U.U.h.h.j.] ) X.h.h.k.k.U.h.k.U.U.U.U.Y.U.h.U.!.U.Y.k.U.U.U.!.!.",
"K.[.[.a.[.[.K.K.P.K.[.K.K.K.a.a.[.a.K.P.K.L.L.K.a.K.L.L.K.^.P.I.P.g.g.K.P.L.P.K.K.L.I.K.P.).E.L.g.g.g.L.K.L.P.P.P.I.I.I.R.L.I.L.I.L.L.I.E.I.P.R.I.P.I.R.E.E.I.L.a.a._.E.R.E.R.L.g.L.M ; 2 2 4 Z D D A A e.D D t.p.y.y.p.t.t.'.`.'.'.'.`.`.&X&X&X&X&X&X&X&X%X%X&X&X'.&X&X%X_.[ X.(.'.&X&X&X_.%X_._.E.Q.Q.E.R.E.Q.E.E.Q.Q.E.Q.Q.Q.%X_.~.~.Q.Q.%XT.T.R.R.W.R.T.h.H.T.T.H.T.E.T.H.T.H.T.!.Q.~.~.%XR.R.R.R.Q.R.Q.Q.Q.%X%X%X_.~.Q.*X&X%X%X%X%X%X~.~.~.#X#X#XQ.T.U.U.T.!.k.h.j./ ] k.k.k.Y.k.k.U.Y.U.U.U.U.U.k.U.k.k.!.k.U.k.U.U.U.k.k.",
"a.a.a.[.s.K.L.P.K.K.[.a.a.L.[.[.K.[.K.a.a.K.K.K.L.K.K.K.K.L.I.P.L.K.g.g.l.K.K.L.L.K.L.P.P.P.P.I.K.I.L.I.I.I.I.E.E.I.R.K.I.I.I.I.I.I.I.E.R.L.L.P.P.E.E.(.(.L.a.' g.P.E.E.R.I.E.L.g.H.m ; ; : 4 S D D A A e.D A t.y.y.p.p.t.t.).`.`.`.`.`.&X&X&X&X`.E._.&X_.&X&X%X%X:X_.&X&X%X_.h./ T.'.`.&X&X%X%X%X%XE._.E.E.Q._.Q.Q._.E.E.~.Q.~.Q.~.%X%XQ.T.T.Q.Q.R.R.Q.R.Q.R.h.H.L.T.T.T.h.L.T.!.H.H.T.Q.~.%XT.R.~.Q.R.Q.~.Q.Q.%X%X%X~._.%X_.*X~.%X*X%X*X%X*X*X#X%X%XQ.R.!.!.U.k.k.X./ ..U.U.U.k.U.U.h.k.U.U.U.U.k.k.k.k.U.k.Y.U.U.U.U.U.k.k.k.",
"I.K.K.P.[.a.a.[.[.a.[.a.[.a.[.K.K.K.L.a.a.a.a.K.K.[.a.K.a.K.L.I.K.K.L.P.L.L.P.I.P.I.I.E.L.L.E.P.L.P.I.R.L.L.E.R.E.I.I.K.L.L.I.L.P.I.R.E.I.P.R.P.I.P.I.I.L.{ a.E.E.E.E.I.R.P.E.P.L.g.m 2 4 4 : D D A A e.e.e.D e.p.p.p.p.t.y.].`.'.&X&X`.&X&X&X&X`._.'._.&X&X&X&X&X&X%X&X%X_.'.%XQ.[ a._.%X*X%X_._.'.%XQ.Q._.Q._.%XQ.Q.Q.Q.Q.Q.%XQ.~.%XQ.Q.R.Q.R.~.T.Q.T.H.T.R.R.T.L.R.R.T.T.T.T.H.Q.R.T.T.T.~.~.R.U.R.R.Q.Q.Q.~.%X~.%X*X_.*XR.%X_.%X%X*X*X*X*X*X%X#X#XQ.Q.Q.!.!.k.j.) [ h.U.Y.Y.U.U.U.k.U.j.k.h.U.U.Y.k.j.h.U.U.Y.U.U.j.j.U.U.k.",
"[.[.s.[.s.a.a.[.[.K.K.K.K.a.a.K.K.[.a.[.K.K.a.K.K.K.l.a.a.K.a.K.I.L.L.L.P.P.P.L.L.E.P.E.P.L.P.I.g.P.R.R.g.L.E.).E.I.P.I.L.L.I.L.P.L.I.I.I.E.E.L.P.I.I.g.' L.P.E.(.(.).R.E.E.E.L.L.j.m ; 6 i 4 D D A A e.e.t.1.t.y.s.p.t.t.t.(.`.`.`.&X&X'.`._.&X&X&XE.'.%X&X&X&X&X&X%X_.%X%X%X_._.~.h./ R.Q.%X&X_.Q._.Q._.Q.Q.E.Q.Q.Q.Q._.Q.~.*X_.%X%XQ.R.R.Q.Q.~.R.Q.R.T.U.T.R.~.R.R.R.R.Q.Q.R.T.T.Q.R.!.Q.T.R.Q.T.R.Q.E.R.Q.Q.Q._.Q._.Q.*X%XQ.%X*X*X*X*X*X*X%X%X#X#X#X%XW.W.W.U./ X.!.Y.Y.U.U.U.U.!.j.Y.k.k.h.U.k.h.j.j.k.U.U.!.U.U.k.h.k.Y.k.",
"K.K.K.a.K.K.K.[.K.K.I.[.[.K.K.a.[.a.d.a.K.J.a.a.a.K.a.a.i.K.K.K.L.I.L.L.E.I.L.L.L.L.I.P.K.L.g.I.P.L.L.Q.E.R.E.L.I.E.R.E.R.(.R.L.P.L.L.L.R.L.R.L.I.L.[ a.L.L.K.E.P.E.P.E.E.P.P.K.g.{ m 2 6 4 : D D A D e.e.t.e.t.y.s.s.t.1.t.P.`.`.).`.`.&X&X&X'.`.&X%X%X_.&X&X%X%X%X%X&X&XQ._.Q._.%X_.Q./ ..Q._._.Q.E.Q.Q.Q.Q.Q.E._.%XT.E.Q.~.R.~.Q.Q.~.~.T.R.E.Q.R.Q.!.W.T.j.T.T.R.T.R.R.R.Q.T.R.R.~.Q.R.!.R.T.T.H.E.Q.R.R.~.%X~.T.R.Q.Q.%X%X*X*X*X*X%X%X*X*X*X%X%X#X*X#X#X%XU./ k.!.W.W.!.!.U.U.!.U.U.!.U.U.U.k.Y.h.k.j.k.U.U.Y.k.k.k.U.U.U.U.",
"K.[.s.K.K.L.[.s.a.K.[.a.a.K.L.a.a.a.a.a.K.[.K.L.I.K.a.K.g.a.K.K.L.L.L.L.P.E.L.K.P.K.L.L.P.P.K.L.P.R.).I.E.P.L.E.I.L.E.E.E._.(.P.I.L.E.E.I.I.I.L.a.[ g.L.L.E.I.L.E.P.(.E.E.I.L.L.a.{ m 2 6 ; s D A A D e.1.e.e.e.y.u.f.y.t.t.K.P.'.`.`.`.`.&X'.'.E.%X%X'.&X*X&X&X&X(._._._._.%XQ.Q.Q.Q._._.g./ E._.(.Q.Q.Q.Q._.Q.Q.Q.%XQ.~.~.Q.T.R.Q.~.~.Q.T.T.R.L.T.Q.!.W.T.T.T.T.R.R.Q.T.T.R.Q.Q.W.R.R.H.T.h.h.R.R.Q.Q.R.~.Q.R.Q.R.Q.Q.R.~.*X*X=X*X*X*X*X%X%X%X#X#XQ.Q.~.#XR.] Y.!.W.W.W.W.U.U.U.U.U.U.U.h.U.k.Y.h.h.k.h.k.h.Y.Y.k.j.h.U.U.U.U.",
"K.[.K.P.s.K.[.I.I.L.K.K.a.K.K.a.a.a.a.[.K.K.L.K.g.a.L.a.L.g.K.K.L.L.I.L.L.I.P.P.I.E.P.L.K.L.P.I.I.I.I.P.P.I.E.R.R.E.E.E._.R.(.I.L.I.E.L.L.I.g.' a.P.E.P.I.I.E.R.I.E.E.E.P.L.L.L.g.a.m ; = O S S A A D e.e.t.e.t.y.y.u.y.i.i.I.L.L.).'.&X`.&X'.`._._.&X_._.&X&X%X&X_._.(._._.E.E.'.Q.Q.Q._.Q.T./ j.Q.%X_._.Q.Q.E.Q.T._.Q.Q.E.Q.~.E.Q.*XQ.Q.T.R.T.R.T.T.h.T.Q.T.U.T.R.H.T.R.T.h.R.Q.W.T.R.T.T.H.L.R.Q.Q.Q.T.Q.Q.Q.Q.Q.E.~.*X*X*X&X*X*X*X~.~.%X%X%XQ.#XQ.#X%XQ.] !.%X#X@X#X~.W.!.U.!.!.U.U.k.U.U.k.h.h.U.Y.U.U.Y.k.Y.k.h.k.h.U.U.U.",
"K.a.[.[.K.I.I.K.K.J.K.L.K.K.K.a.J.[.a.L.a.' d.a.a.a.L.a.K.g.K.I.K.I.I.K.g.L.K.L.I.I.I.L.K.K.I.L.K.g.I.I.g.E.I.P.E.(.(.R.I.L.R.P.R.L.P.g.I.g.{ g.L.I.I.K.I.E.E.P.E.E.E.P.P.L.g.K.g.a.m o O = n B A ( A e.t.t.t.t.y.y.u.u.t.t.' L.g.g.E.).`.`.&X(.'.%X%X%XQ.'.%X%X&X_._.%X_.&XE.E.%XE.E.%XE.E.Q.T.[ ) Q.(.(.E.E.E.E.Q.T.T.E.R.Q.E.~.%X_.~.~.T.Q.T.R.T.R.R.T.T.R.T.T.R.T.T.H.T.R.H.Q.R.!.H.T.R.R.R.R.T.Q.~.Q.R.~.Q.~.%X%X%X*X~.%X%X*X*X*X~.Q.~.Q.Q.W.Q.#X#XW.[ W.#X#X#X#X#X#X!.W.Y.U.!.!.!.!.Y.Y.Y.U.X.h.U.!.!.U.Y.k.k.k.k.k.U.U.!.",
"K.I.K.s.a.K.[.a.a.a.J.L.L.K.[.a.a.a.a.a.' a.l.L.l.a.L.K.K.L.P.P.K.L.I.E.L.K.J.K.E.L.P.L.P.R.P.L.g.L.R.R.I.R.P.P.).R.E.E.R.R.R.R.I.I.P.g.[ g.P.R.I.L.P.I.E.E.E.E.E.R.E.P.L.P.L.K.a.i.a o O 2 % : p ( D t.e.t.t.y.t.t.y.s.t.D u g.L.I.L.I.)._.'.`._.%X&X'._._.&X&X%X&X&X&X%X&X(._.&X%X_._._.(._.Q.Q.L./ h._.Q.Q.Q.Q.Q.T.T.Q.Q.R.T.~.%X*X%XQ.T.T.T.R.R.Q.T.T.T.T.R.H.T.j.H.T.h.U.T.Q.Q.T.T.T.U.T.W.R.T.T.Q.%XR.%X*X*XQ.*X~.~.%X%X*X*X*X~.%XQ.T.%X%X@XW.~.!.} h.Q.#X#X%X*X#X#X#XW.!.!.W.U.U.U.!.Y.U.U.k.h.k.U.Y.U.U.Y.Y.Y.W.Y.U.Y.k.",
"[.[.K.K.K.K.K.K.L.[.a.a.' ' ' ' ' ' ' a.a.L.K.L.I.L.L.K.P.L.P.P.L.I.I.L.K.L.L.I.I.I.L.L.I.g.g.P.L.g.R.L.L.g.L.P.E.R.(.E.R.R.P.R.E.L.a.[ g.R.P.E.R.I.E.(.E.E.R.)._.(.E.P.L.P.g.a.{ { a o $ o.5 % * e Z y.1.y.e.y.e.1.u.f.t.B 4 J.K.L.g.I.I.I.E._._.%X%X_.E._.%X%X%X&X'.&X&X%X%X%X%X%X%X&X_.Q._.R.Q.Q.!.} } T.Q.E._._.%XQ.%X~.%X~.%X%X~.Q.Q.Q.R.T.T.T.T.U.T.T.R.T.h.R.T.h.T.h.h.R.R.R.W.T.!.H.h.T.H.T.U.R.%X~.~.%X*X_.~.~.*X%X*X*X*X*X%X~.~.#X%X%X%X~.U.} W.#X#X*X=X*X*X*X#X@X#XW.!.!.U.U.U.U.U.U.!.!.U.U.U.U.U.U.U.U.Y.U.k.k.Y.Y.",
"[.a.K.P.K.K.I.I.K.d.a.a.d.d.d.' ' ' ' a.K.K.a.I.I.I.I.L.I.I.E.I.I.L.L.P.L.I.g.L.L.L.L.L.P.R.I.K.I.L.L.L.L.I.P.E._._._.Q.Q.(.E.P.L.a.L.E.(.E.R.R.R.I.P.).(.).).).(.E.L.E.L.L.g.g.a.{ a o 3 m ) X.T = = Z D s.e.y.y.t.u.f.t.4 4 g.K.g.g.L.g.L.L.E.E.Q.E.Q.&X%X&X_.%X&X&X&X&X%X%X_.&X&X%X_._.Q._.Q._.Q.E.R.h./ h.R._._.Q.R.Q.Q.Q.~.~.%X%XQ.%XQ.&XQ.Q.Q.Q.R.T.H.T.h.T.!.T.T.W.R.j.H.T.T.T.U.T.T.T.h.H.R.R.Q.~.~.Q.R.~.*X*X~.Q.~.*X%X~.%X~.*X%X%X#X#X~.h.[ W.*X#X*X%X%X*X=X*X*X#XW.#X!.U.!.U.U.Y.U.k.U.!.U.U.W.!.U.Y.Y.!.k.U.U.Y.Y.Y.",
"[.[.K.K.L.K.a.a.K.[.K.[.' ' ' ' ' ' ' a.K.K.K.I.K.K.P.I.L.I.P.L.L.I.I.I.L.L.L.L.g.L.P.L.E.E.I.P.L.L.L.L.R.E.E.).'._.'.&X_._.I.g.g._._.(.E.).P.K.P.i.g.I.E.E.(.(.(.P.P.E.K.L.K.a.a.{ a o % = # 7 o.] ; = u y.1.p.y.t.y.f.S ; 4 R.K.g.L.L.L.L.g.I.I.Q._._._.E._.E.(._.(.%X_.'._.'.%X%X%X%X%X_._.Q.Q.Q._.Q.Q.T.[ } T._.(.E._.Q.R.~.~.Q._.*X%X*X*XQ.Q.Q.W.Q.R.T.T.T.R.T.H.T.R.h.H.T.T.R.H.U.T.Q.T.T.T.T.R.~.Q.~.%X%X%X%X*X%X%X*X%XQ.W.Q.#X#X#X%X%XW.U./ h.*X*X*X#X%X%X*X%X*X=X*X#X#X#X@X!.W.U.!.Y.k.!.U.!.Y.!.U.U.U.U.U.k.U.k.k.Y.U.",
"[.K.K.K.L.K.K.I.s.[.K.J.' ' d.' ' a.a.a.L.K.L.L.L.L.L.P.P.E.L.I.P.P.L.K.L.L.P.L.g.L.E.L.P.R.I.L.L.P.P.L.E._._.'.'.'._.%X_.L.a.L.E.(._._.E.P.I.E.E.R.E.P.P.P.E.(.E.P.P.P.L.K.g.g.g.{ a + 6 i = = % $ ; = = : D y.p.y.u.p.: = : g.g.g.g.g.I.g.L.L.h.L.L.L.E.Q._._.Q.%X_._.&X_.%X_.(._.Q._.'.&X%XQ.Q.L.E.L.T.E.T.j./ g._._.%X%X_._.~.Q.%X*X*X*X&XQ.W.R.W.%XQ.T.T.T.T.H.h.R.h.H.R.T.T.R.T.T.U.R.R.T.H.h.T.T.W.Q.#X*X%X*X*X#X~.%X%XQ.~.Q.#X#X%X%XW.H.] W.%X%X%X*X=X=X*X*X#X#X*X#X#X#X#X#XW.W.!.U.U.Y.!.!.!.!.U.U.U.Y.!.!.U.Y.k.k.Y.k.",
"K.I.I.K.P.L.L.[.[.L.a.[.a.a.K.L.K.I.K.a.K.I.K.K.P.P.L.I.P.L.L.L.L.P.I.I.I.L.R.I.R.R._.).E.R.L.R.E._.R.E.E.'.'.'._.(.E.E.j.g.E.E.E._.E._._.(.'.(.(.R.I.R.I.(.L.P.I.P.g.K.P.I.L.g.a.{ 6 % Z e.Z _ 4 = ; 3 ; ; : t.p.y.y.n , , 4 i.g.g.g.g.g.h.g.h.h.L.h.h.T.E.(._.E.'.%X_.(._.T.I.Q._._.&X%X'.%X%X%X(.Q._._.Q.L.L.j./ [ %XQ._.Q.Q._._.%XQ.%XQ.%XQ.Q.R.T.Q.R.T.T.R.H.R.R.T.h.U.H.T.U.U.R.T.T.h.!.T.T.H.h.H.U.Q.~.%X%X*X*X%X#X%X%X#XW.Q.W.U.Q.Q.!.[ W.*X%X%X#X*X*X*X%X%X#X*X%X#X*X#X#X*XU.U.W.W.W.!.W.W.!.U.Y.Y.Y.h.k.Y.!.!.Y.!.!.k.",
"K.I.I.K.K.[.a.K.a.K.K.L.K.L.I.I.I.L.L.K.L.L.K.I.P.K.L.P.P.L.I.P.I.P.).K.P.E.P.E.E._._.'.(.I.E.E.E.E.I.E.)._.)._.R.E.L.{ R._.'._.Q.I.'.&X'._._.E.P.P.I.R.E.P.I.E.P.P.L.K.L.I.P.L.a.[ 4 = ' p.y.t.Z 4 ; = 2 2 4 : t.y.( = = 5 6 g.K.L.L.g.h.a.a.h.L.g.g.h.T.T.Q._._._._._._.'.Q.E.'.%X%X_._.%X%X%X_.%X%X_.Q.E.Q.E.L.H.) / T.Q.Q.Q.%XQ.#X%X%XR.~.Q.Q.~.~.~.Q.R.T.Q.H.R.R.T.U.T.T.W.Q.R.H.T.R.!.R.R.R.R.T.H.U.Q.~.%X%X*X%X%X*X%X~.W.R.Q.Q.U.W.!.[ #XW.*X*X*X*X*X*X#X%X%X#X#X#X*X=X=X*X*X#XW.@X!.!.@X!.W.!.U.k.U.U.!.U.Y.k.!.Y.k.k.Y.",
"I.P.P.I./.P.I.K.K.K.K.L.^.).I.P.I.K.P.L.I.P.I.P.P.L.P.P.I.L.P.E.R.(.).'.).E.).'.).).'._._.R.E.R.I.'.E.(.E.E.E.Q._.a.g._.'.%X'.%X_.(._._.`.'.'.).'._.E.L.P.(.P.I.L.I.I.L.L.L.I.L.a.{ : ; y.y.p.y.D ( s 4 ; ; 4 4 4 t.u % ; 4 ( g.L.L.L.g.L.h.g.h.h.g.h.h.j.h.L.E.Q.(._.Q._.Q.%X_.E.E.%XQ._.%X_.'._._.'.Q.E.Q.Q.R.E.L.T.j.) j.E.'.'.%X%X%X%X_.%XQ.~.%X_.T.T.R.Q.R.!.T.H.H.T.T.H.H.R.Q.T.U.!.!.!.U.U.R.H.H.R.T.Q.#X#X*XQ.Q.*X%X%X%X~.!.W.!...[ Q.*X%X;X*X*X*X%X%XQ.*X*X*X#X*X@X#X*X#X*X#X#X@XW.!.!.W.!.W.!.Y.!.Y.!.Y.Y.Y.!.W.!.Y.Y.",
"/./././.P.I.K.L.L.K.I.P.^.P.E.L.L.K.L.P.P.P.I.{ a.P.I.P.I.P.(.L.E.E.).).P.(._.(._.I.E._._.).E.E.E.E._._.E.I.E.L.a.I.Q.&X&X%X_._._.&X_._._.).`.'.`.R.L.L.P.I.L.K.I.E.I.g.K.I.I.a.j.[ ; i t.y.p.y.t.t.( S s 4 2 5 4 : % = 2 M i.a.g.g.I.L.g.g.h.h.T.L.h.j.T.L.L.T.R._.Q.Q._.Q._.%X_.Q._._._.'.Q.L.E.Q.Q.Q._.E.~.E._.E.T.E.E.[ ) h.Q.Q.~.*X_.~.~.Q.*X~.Q.T.!.R.U.T.Q.T.T.R.T.T.H.h.R.R.R.!.!.!.W.R.U.!.R.T.R.!.Q.#X~.%X%XQ.T.~.#X%X%XQ.W.k.{ #X#X%X*X=X#X%X#XQ.*X*X*X*X#X#X*X*X#X#X*X*X#X@X#X@X#X!.W.!.U.@X@XW.Y.!.k.k.Y.!.!.Y.Y.k.",
"L.I./.P.P.P.L.I.I.L.L.K.K.P.I.K.L.P.P.(.).P.I.R.P.P.I.L.).I.K.I.E.P.E.E.E.'._._.'.'.E.E.E.).P.E._._.E.R.E.E.a.h.T._.'.&X&X&X&X'.'.'.%X'.'.).E._.(.E.E.P.R.E.(.P.L.R.E.K.I.I.I.g.a.} 4 a t.t.y.y.t.t.( t.( s 3 4 5 = # = 4 i.s.a.L.L.L.L.g.L.L.h.L.h.h.h.L.h.L.h.h.Q.Q.T.Q.Q.E.T.E.E.%X_._._._.E.T.L.E.Q.Q.E._.Q._.E.Q.Q._.T.L./ j.Q.%X*X%X~.Q.Q.%X%XQ.Q.~.~.R.Q.T.R.H.T.Q.R.!.R.h.Q.R.W.T.R.R.W.T.T.T.W.T.R.R.Q.Q.~.%X~.~.*X%X~.W.!.j.{ #X#X#XQ.*X*X%X%X*X#X#X#X#X*X#X*X*X*X#X#X#X#X*X*X!.!.W.W.W.W.!.#X!.U.h.W.U.k.k.!.!.!.Y.Y.",
"I.P./.P.P.L.P.I.I.L.P.).).).P.E.(.(.P.E.I.P.R.E.E.I.P.P.(.P.L.P.(.P.P.L.R.E.E.).'.'.E.)._.'._._.Q.L.I.g.L.j.E.R.R._._.&X&X%X&X&X_.'.&X'.'._.).E.E._.R.E.E.E.`.L.L.E.I.I.L.I.L.g.{ / 4 s D 1.1.u.p.t.e.y.p.( s 4 0 0 % = _ f.z.s.I.K.L.I.L.g.T.R.L.h.L.L.T.T.h.j.g.h.Q.E.(.E.L.L.E.E._.%XQ._.R.Q.E.Q._.E.Q.Q._.Q.Q.Q.E.Q.E.E.T.L.) / Q.%X%X#X~.#X%X#XQ.Q.~.Q.Q.R.~.Q.R.W.R.U.U.W.U.U.T.!.H.!.W.W.R.!.!.W.Q.R.Q.Q.R.Q.#X%X~.%X#XW.U.j.{ !.*X*X%X%X*X@XQ.Q.*X%X#X#XW.#X*X@X#X*X=X#XW.#X#X#X@X#X#X@X!.!.U.W.U.!.h.W.U.U.U.W.Y.W.!.!.",
"L.P.P./.(.L.J.I.I.P.).P.I.P.).I.(.).P.a.L.P.E.E.P.L.P.).(.I.E.P.P.P.E.E.R.E.)._.)._.E.E.)._._._.I.I.H.[ { E.E.E.E.Q.E._.'.%X&X&X&X&X&X`.'.R.).R.'.)._.).E.P.E.E.R.E.R.R.L.g.L.g.[ / 4 u ( 1.1.s.y.e.t.y.p.y.' M 3 7 , = t.f.f.s.L.g.L.I.L.h.h.h.h.L.h.h.h.L.h.h.h.h.L.E.E.T.Q.E.T.E.Q.Q.Q.R.Q.E.T.E._.Q._._.E._.E.E.E.Q._.E.E.T.T.h./ h.%X%X%X%X*XQ.%XQ.Q.%X~.Q.R.R.W.Q.!.W.R.W.!.h.!.R.!.T.!.U.Q.R.U.W.Q.T.R.W.W.Q.~.Q.#X%X%X*XH.{ #X#X*X*X*X*X#XQ.Q.#X#X%X*X%X*X#X%X@X#X=X#XW.!.!.#X*X#X@X@XW.W.!.!.W.!.W.!.!.!.!.U.k.!.Y.W.W.",
"a.P.I.P.I.I.I./.K.P.P.E.).P.P.E.P.(.P.P.P.E.E.E.E.P.P.I.K.L.P.E.g.I.K.E.P.E.E.E.E.E.E._._.E._.Q.R.g.h.E.E.Q.(.E.E.I.E.'._.%X'.'.%X&X&X_._.I.I.).(._.P.E.I.g.P.R.E._.L.E.L.L.g.g.{ T 4 = S A t.f.t.1.t.3.y.p.p.t.u 3 = i t.f.f.s.l.E.L.L.h.L.h.h.h.L.h.h.L.h.h.L.j.h.g.L.h.I.I.E.Q.Q.T.Q.Q.E.E.E.E.T.E.R.E.Q.T.Q.E.L.T.R.T.E.Q.L.~.R.~.[ ..~.Q.T.~.~.%X~.H.Q.R.T.R.R.!.R.!.W.Q.Q.W.T.!.W.U.!.W.W.W.R.W.!.!.~.R.W.W.W.Q.R.Q.%X%Xh.j.#X#X%X#X#X#X#X#XW.%X#X#X#X#X#X%X*XW.#X#X#X!.@XU.!.#X#X#X@X#X#X@X!.U.#XW.W.W.W.!.W.!.W.W.!.Y.!.",
"p S a.I.I.K.).P.P.).P.).I.P.I.E.E.P.P.P.)._.L.L.I.I.P.I.P.P.P.L.P.E.L.E.L.I.E.E.I.E.E._.Q.E._._.g.T.T.E.E.E._._.E._.&X&X_.&X'.%X&X_.'.E.(.R.E.R.R.R.L.'.).E.E.E.E.I.L.E.R.R.I.j.{ N 4 % u A y.f.y.A 1.1.t.p.p.p.Z = 3 M e.f.f.s.L.I.I.L.h.h.T.L.L.T.E.T.L.h.T.L.h.h.h.h.g.g.L.E.Q._.Q.%XQ.T.T.Q.T.E.E.L.T.R.L.Q.E.E.E.Q.E.Q.T.E.Q.Q.~.Q.h.) h.Q.Q.%X*X~.R.R.T.U.Q.~.~.R.Q.Q.Q.!.W.!.!.!.U.!.W.R.T.R.W.!.!.!.R.R.!.T.R.Q.~.#Xh.j.Q.W.#XQ.#X#X*X*XW.%X*X#XQ.#X%X%X%X%X#XW.#X#X!.#X#XW.!.W.@X#X#X#X@X!.W.W.@XW.!.@X#X@X@X#XW.!.!.W.",
"' i a.I.).L./.P.P.P.).).P.P.P.).).P.E.E.E.P.P.).).I.I.K.L.L.P.L.L.L.E.E.E.E.E.P.P.E.'.R.T.T.L.h.R.E.R.E._.E.'._.'.'.%X&X'.&X&X&X_.T.Q.T.E.E.R.E.'._.(.(.I.).R.R.I.(.P.E.E.R.I.g.{ T 5 % o s 1.f.y.1.D A D t.y.p.t.4 = s e.f.s.i.L.I.L.L.g.h.h.T.Q.T.R.T.h.T.T.h.T.L.L.L.h.h.h.j.T.R.E.E.Q.T.Q.E.E.E.E.T.E.Q.I._._.(.Q._.Q.E.L.Q._.~.Q._.%XQ.{ [ U.~.~.%XQ.Q.W.R.Q.%XQ.Q.Q.~.Q.Q.Q.W.W.!.Q.!.W.~.R.!.W.W.W.T.T.W.U.U.U.^.T.{ j.W.#X#XQ.Q.%X*X#X%X#X%X*X#X%X%X#X#XQ.Q.#X@XW.!.@X#X#X#XW.W.#X#XW.!.!.@XW.#X#XW.!.!.W.W.U.W.#X@X!.#X",
"L.[ n a.I.L.I.P.).).).).I.P.).P.E.P.P.E.E.P.P.P.L.P.E.P.I.P.I.I.I.P.I.L.P.P.E._.).R.L.E.T.{ h._.(.Q.E.Q._.E._.'.(._.'._.&X'.'.&X_.E.E.Q.L.E.R.(._._._.E.(.'.E.E.P.L.I.(.R.L.I.g.{ T 5 = o : 1.f.y.1.1.D B C A D ( m = s y.y.e.D g.L.g.L.I.L.h.L.T.T.h.h.h.T.E.H.T.T.R.h.h.h.h.h.h.T.H.T.T.E.Q.T.T.E.E.h.g.Q._.(._.%X_._.L.(.E._._._.%X*X&X*X_.T.[ T.%X%X~.Q.~.Q.Q._.R.W.Q.W.!.#X!.W.!.!.W.W.k.#XW.!.W.T.!.!.!.U.W.!.Q.!.[ j.Q.*X*X%X#X%X%X~.%X%X%X*X~.~.Q.*X~.~.Q.W.~.#X#X#X@X#XW.W.W.#XW.W.@XW.U.@X#X@XW.W.@XW.!.W.!.W.W.@X@X@X",
"a.J.M M g.L.)./.).).P.P.I.).).I.P.P.P.I.P.P.P.L.L.).).P.L.I.I.E.I.L.g.E.I.E.P.R.R.E.L.j.L.E.E._.(._.(.&XE._._.E.E._.'.%X_.'._.'.'._._.'.E.'.'.E._._.E._.(._.E.E.P.E.(.E.E.R.g.g.{ / 7 2 o * A t.e.1.y.t.A 1.d V ( / @ Z y.u.r.D g.K.K.a.g.h.h.g.T.R.T.T.T.T.T.h.T.T.T.h.h.H.h.h.j.U.h.T.h.T.Q.T.T.L.E.E.T.E.E.(.Q.T._.%X_._.%X'.%X_.Q.~.~.%X%XQ.Q.[ { Q.~.~.R.R.Q.Q.~.R.!.Q.W.Q.!.W.U.Q.W.#XW.Q.W.Q.W.!.h.W.U.!.!.T.!.{ j.R.#X*X#X*X*X#X#X#X#X#X%X*X*XW.*X#X~.*X%XQ.W.#X#X@XW.#X!.W.@X!.W.!.#X#X!.W.W.@XW.#X#X#X#X#X!.@X!.W.@X#X",
"P.a.a./ M K.I.L.E.).).(.P.).E.P.).P.I.P.E.P.E.P.P.L.L.P.P.P.I.(.R.L.L.L.I.(.I.L.T.g.{ E.(.)._.E._.'.'._._.E._.R.E._._.E.%X'.(.E._._._.Q.E._._.g._.E.R.(.E.).'.(.I.P.P.E.E.I.L.J.j./ 6 7 = @ s ( A 1.u.u.1.y.1.e.y.' 4 t.y.u.p.i.l.E.R.R.g.g.L.h.h.T.h.h.T.T.T.T.T.T.U.T.H.H.U.h.j.H.h.U.h.T.%XQ.Q.T.E.E.T.E.Q.E.R.E.E._._.'._._._.~.E.Q.%X*XQ.Q.%X~.H.] W.~.W.!.Q.Q.Q.~.!.!.#X@XW.#XQ.Q.Q.#X#X%X#XW.T.Q.T.W.Q.~.Q.U.[ j.W.W.#X#X#X*XQ.*X=X*X#XW.*X*X~.*X*X#X~.#X%X#XW.#X#X@X#X@XW.W.!.Y.W.W.!.W.W.W.@X#X@XW.@X@X@XW.#X#X#X@X!.#X"
};
