/* XPM */
static char *_3a9c45ff7c94aa7f0822b825d09ea47IYnrtZOeP1ZJeO27[] = {
/* columns rows colors chars-per-pixel */
"256 455 256 2 ",
"   c #0A060A",
".  c #0D090D",
"X  c #090506",
"o  c #140C09",
"O  c #120D11",
"+  c #170E14",
"@  c #151114",
"#  c #1B1718",
"$  c #18100D",
"%  c #26160B",
"&  c #261C16",
"*  c #321A0C",
"=  c #29231B",
"-  c #36261A",
";  c #3B250C",
":  c #231E22",
">  c #281E24",
",  c #351E21",
"<  c #262125",
"1  c #2B2826",
"2  c #362B25",
"3  c #33332C",
"4  c #3B3429",
"5  c #3B3B34",
"6  c #383835",
"7  c #322C35",
"8  c #1D1B21",
"9  c #573808",
"0  c #472B18",
"q  c #563719",
"w  c #4B2E10",
"e  c #653B14",
"r  c #452D26",
"t  c #473629",
"y  c #573927",
"u  c #463C34",
"i  c #543C34",
"p  c #643C28",
"a  c #4C1B0E",
"s  c #3C413B",
"d  c #5C4317",
"f  c #5D430C",
"g  c #684708",
"h  c #795709",
"j  c #664917",
"k  c #775917",
"l  c #6F5013",
"z  c #7C6215",
"x  c #5A432A",
"c  c #474339",
"v  c #564738",
"b  c #534A35",
"n  c #674629",
"m  c #785629",
"M  c #684A35",
"N  c #734D36",
"B  c #6B533A",
"V  c #785639",
"C  c #724D28",
"Z  c #7B632A",
"A  c #3B3546",
"S  c #433C4D",
"D  c #3D484A",
"F  c #484945",
"G  c #584C44",
"H  c #5C5347",
"J  c #494758",
"K  c #455452",
"L  c #4C5A55",
"P  c #4C5A57",
"I  c #535B57",
"U  c #4C4F54",
"Y  c #665849",
"T  c #785A45",
"R  c #675C54",
"E  c #6D544C",
"W  c #55625C",
"Q  c #79634A",
"!  c #6C6357",
"~  c #766757",
"^  c #756B54",
"/  c #515469",
"(  c #5B6662",
")  c #5A627A",
"_  c #776B65",
"`  c #7C7368",
"'  c #6E7171",
"]  c #645B65",
"[  c #835C05",
"{  c #895816",
"}  c #B35215",
"|  c #886408",
" . c #936C07",
".. c #9A7408",
"X. c #876716",
"o. c #987516",
"O. c #916E15",
"+. c #A47C08",
"@. c #A47C15",
"#. c #835C37",
"$. c #89552C",
"%. c #88643A",
"&. c #936D31",
"*. c #AB7734",
"=. c #AE532A",
"-. c #CC661B",
";. c #D76D25",
":. c #DB722A",
">. c #D26E2E",
",. c #E6792E",
"<. c #CF631C",
"1. c #855C45",
"2. c #8C5D4C",
"3. c #886648",
"4. c #936B48",
"5. c #98734A",
"6. c #876A55",
"7. c #966B55",
"8. c #87765B",
"9. c #997657",
"0. c #8C7347",
"q. c #A47A59",
"w. c #A97948",
"e. c #877A67",
"r. c #887D73",
"t. c #957865",
"y. c #A67B65",
"u. c #AA5128",
"i. c #78827C",
"p. c #7A8203",
"a. c #AB830A",
"s. c #AA8416",
"d. c #B48B16",
"f. c #BC9317",
"g. c #B68C0B",
"h. c #B5892E",
"j. c #938526",
"k. c #C59A18",
"l. c #C69A0B",
"z. c #CEA317",
"x. c #D79938",
"c. c #C99332",
"v. c #D1A32B",
"b. c #EFAC38",
"n. c #E58E3A",
"m. c #B28651",
"M. c #8D8269",
"N. c #93856C",
"B. c #9B8B6D",
"V. c #958769",
"C. c #8D8274",
"Z. c #8A847A",
"A. c #938573",
"S. c #968975",
"D. c #9C8C73",
"F. c #958A7B",
"G. c #9A8D7B",
"H. c #938679",
"J. c #9E917D",
"K. c #9D9174",
"L. c #9A9170",
"P. c #A88669",
"I. c #A28E75",
"U. c #A29275",
"Y. c #A4947B",
"T. c #AA9A7D",
"R. c #A8977B",
"E. c #B08E6F",
"W. c #A18F65",
"Q. c #CE924A",
"!. c #E59548",
"~. c #DBA34B",
"^. c #E9AB49",
"/. c #D5996D",
"(. c #72768D",
"). c #58678F",
"_. c #827D85",
"`. c #7B8685",
"'. c #7C829A",
"]. c #7B85A5",
"[. c #878885",
"{. c #968D83",
"}. c #9D9283",
"|. c #99958A",
" X c #8D9593",
".X c #A39582",
"XX c #A69985",
"oX c #AC9C83",
"OX c #AB9D8A",
"+X c #A49989",
"@X c #A49D94",
"#X c #B09E85",
"$X c #97A49A",
"%X c #ADA18B",
"&X c #B2A287",
"*X c #AAA495",
"=X c #B4A997",
"-X c #B6B39B",
";X c #989CAD",
":X c #9CA2AC",
">X c #9EA2B4",
",X c #9FB1A9",
"<X c #AAA8A9",
"1X c #B4ACA8",
"2X c #BAB4A9",
"3X c #A2A3B5",
"4X c #ACACB6",
"5X c #A5A5BA",
"6X c #ACACBB",
"7X c #A8A8BA",
"8X c #B4ACB9",
"9X c #AEB1BD",
"0X c #B3B2B5",
"qX c #B4B4BB",
"wX c #B9B6BA",
"eX c #BCBABD",
"rX c #BBB6B4",
"tX c #A6B5A7",
"yX c #A49EA5",
"uX c #C7B496",
"iX c #C2BDBB",
"pX c #C4BCB5",
"aX c #C6B6AE",
"sX c #CC9991",
"dX c #C9C3BB",
"fX c #D5CABA",
"gX c #D5CCB3",
"hX c #E4D6BB",
"jX c #D9C8A1",
"kX c #ADADC0",
"lX c #B5AEC1",
"zX c #AEB3C3",
"xX c #AFB5C8",
"cX c #B3B5C3",
"vX c #BCBBC3",
"bX c #BBBCCB",
"nX c #B5B8CA",
"mX c #B9BDD1",
"MX c #C4BCC7",
"NX c #C7BCCF",
"BX c #BBC1D2",
"VX c #C7C5C6",
"CX c #D2CCC5",
"ZX c #DAD3C9",
"AX c #C8C7D2",
"SX c #E5DAC7",
"DX c #E5DCD1",
"FX c #F6EBD7",
"GX c #FBF5DA",
"HX c #EEE4CE",
"JX c #FCF9E6",
"KX c #FDFBFC",
"LX c #FCFBF4",
"PX c #EEEBE4",
"IX c #D3E4CA",
"UX c #B8C6B1",
/* pixels */
"5 3 3 6 5 6 6 5 3 3 3 6 6 6 6 3 6 6 3 3 1 1 3 1 1 = 1 1 1 1 1 1 3 1 3 6 6 1 1 1 & # = 1 = = 3 3 6 3 6 6 6 3 6 6 3 1 # # @ $ # = = $ = # # 1 = = 3 c u c c c v b c c G 3 = = = = = = = = = = = 4 4 c u c c c H H H v v v v Y b b v H b t 4 4 - t 4 t t t - b c b x b b t t b B b B b B Y Q Y Y Y ^ Y b t b b ^ ^ S.T.K.S.J.D.S.D.S.S.D.N.M.M.M.e.e.N.M.8.8.M.M.M.V.V.M.8.8.e.e.8.e.e.e.8.e.e.8.e.e.^ ^ 8.M.M.M.M.N.M.e.M.N.N.M.M.` ` ` ^ ^ ^ R ! ! ! ! ! ^ ^ e.C.Z.Z.r.` _ I H R R H R R R ! _ _ _ _ ! _ ! ! ! R R ! ! ! ! ! ! ! ",
"6 < 3 3 6 3 6 6 6 6 3 6 6 6 6 3 6 6 5 5 6 6 3 3 3 1 < 1 1 1 3 1 1 1 1 1 1 1 3 6 = = 1 3 3 3 3 3 6 6 5 3 6 3 3 3 3 1 = # @ $ $ = 1 $ # # # 1 3 3 6 c 5 u u c c c 1 = 1 = # = & = = = = = = = = - c 4 c c v b H H H v c H H H H b t 4 4 2 4 4 4 4 2 t b t 4 Y c t c b b b Y B Y B Y B B Y Y b B b t t t c c t t t x Y S.J.J.K.S.S.S.K.S.N.N.M.M.N.N.B.N.V.V.B.V.M.V.B.B.B.M.8.^ e.M.^ 8.8.^ ^ ^ 8.^ 8.8.e.e.M.M.M.M.N.M.M.M.M.N.M.N.M.e.e.` ^ ^ ^ ^ ^ ` ^ ^ ^ Y ! R r.r.Z.Z.r.` r.r.e.` _ _ ! ! I I I R R ! ! _ ! ! ! ! I R R ! ! ",
"5 1 3 6 6 6 6 5 3 6 6 6 6 6 6 6 3 3 6 3 3 1 6 6 6 6 1 1 6 3 3 6 1 3 1 1 1 1 1 1 3 3 3 3 3 3 3 3 5 3 3 3 3 3 1 3 3 3 1 @ @ # $ = = = = = 3 3 3 6 6 3 5 4 4 6 = = & = = # # = # = 1 = = = 2 = = 4 b c c c G v H b H Y b b Y H u 4 4 2 4 4 u 4 2 - 4 c c t 4 b c b b b Y Y Y B Y B Y B Y Y Y c c c t t c c t c t t x x b ^ J.Y.U.K.K.K.K.L.D.S.M.V.M.M.M.M.B.V.V.B.V.V.V.B.B.M.M.M.M.M.8.^ ^ 8.e.8.8.8.8.e.e.8.M.e.e.M.M.M.` e.e.M.M.N.M.M.M.M.` ` ` ` ` Y ^ ^ ^ ^ ! Y H Y ~ ` C.C.r.r.e.e.e.` ` ` _ ' _ _ _ ! R I H I I I I H ! ! ",
"5 1 < 6 6 6 6 3 6 6 6 5 5 5 6 1 6 6 5 6 6 3 6 6 5 5 6 1 6 6 6 6 3 3 3 3 1 1 1 3 3 3 1 1 3 3 3 3 3 3 6 6 6 3 1 3 3 6 3 # @ # # = 1 = = 1 3 3 6 3 1 1 5 6 3 1 & & = & = # $ # 1 = 2 3 2 = 2 = 2 4 4 c H v b H v b b v b 4 4 c 4 4 4 4 4 t c = - t t b c b c b b H Y Y Y ! v Y Y B B b b t t c t c t c c c c c t t t b b b ! e.B.K.B.L.K.L.Y.K.D.B.V.N.M.M.M.M.V.V.M.M.V.N.M.N.S.S.M.D.M.8.e.N.B.M.M.M.M.M.M.e.e.M.e.e.M.M.e.M.M.N.N.M.M.V.M.M.M.e.` ` ` ` e.` ^ ` ` ^ ^ ! Y v Y Y ! ` r.r.r.` ` ` _ R H H I U I I I I I I R I R R ",
"5 6 < 3 6 3 6 6 5 6 6 6 6 5 6 6 6 3 5 6 6 6 3 6 6 6 6 6 6 5 6 c 6 3 6 1 3 3 3 3 1 1 1 = 1 1 3 1 3 3 3 3 3 3 1 3 3 3 3 1 = < = & = = = 1 = = 3 3 6 6 5 4 3 2 = @ = # = # # # = 4 = = 1 = = = 2 u 4 b H b b v v v c 4 4 2 2 u 4 4 - 2 4 4 t 4 - 4 c b c v B b B Y B Y b Y Y Y Y b t t t t b b t t b c c t t t b B c b B b B Y B ^ ^ 8.K.L.M.B.L.B.V.M.8.8.M.V.V.M.M.M.M.B.M.N.M.D.S.B.N.B.B.D.N.N.B.N.B.N.M.M.M.M.M.e.N.e.e.8.e.N.N.N.M.N.M.e.M.M.M.e.e.` e.e.` ` e.^ ^ ^ ^ Y ~ Y H Y G H H H H H F F F G H G I U I I I I I I I I ",
"6 5 < 6 6 5 6 3 6 6 6 5 6 6 6 3 3 6 6 6 3 6 6 3 1 6 6 3 6 6 3 6 5 6 6 5 3 3 1 6 3 3 3 1 1 3 6 3 3 6 3 1 1 3 3 3 3 3 3 3 1 3 1 = 1 1 1 3 3 3 3 3 6 6 6 6 3 1 1 # # = = = # = = = 2 = = & = 4 c G b b c c c c u 4 u 2 4 - 2 u 4 4 4 4 c 4 4 u t t b H B ! ! Y B Y Y Y Y v c t t 4 t 4 4 b t t c c b b c b b t b b b Y b Y Y Q Y Y B Y Q L.D.K.V.M.K.V.N.M.V.M.M.M.M.M.M.M.e.e.M.M.M.M.8.M.e.e.e.e.M.8.M.N.B.N.N.M.N.M.M.e.M.N.M.M.M.N.V.S.M.M.M.e.e.` e.M.M.M.M.^ e.` ^ ^ ^ ^ ^ ! ` ` ! Y H b b F F F G F F F U I I H I H H H I H ",
"5 5 < 6 5 6 3 3 6 3 6 5 5 6 6 6 6 6 5 6 6 3 5 6 6 3 6 6 6 c 5 6 5 6 6 5 5 6 3 6 3 3 3 3 3 3 3 3 3 3 1 3 1 3 3 1 1 3 3 3 3 1 1 1 1 3 3 3 5 5 6 3 6 6 5 6 3 3 = # # = = = = = = = = = = = 3 c H v 4 c c 5 4 u 4 4 = = - = 4 4 - 4 4 2 c u c b c H v Y B Y ! B v Y B c c c 4 4 4 4 t 4 t c c b b c b b t b v b b Y B b Y B B Y Y Y b b t x B ! M.M.K.K.B.V.V.V.V.B.V.M.M.M.e.8.8.8.e.e.e.e.e.8.8.8.8.8.8.M.N.N.M.N.M.M.N.M.M.N.M.8.M.M.M.N.N.N.M.N.e.^ e.M.M.e.e.^ ` 8.^ ` ^ ` ^ ` ^ ^ ^ ! ! H ! R ! c F c G G L I H H H H H H H H ",
"6 6 < 6 5 5 3 3 5 5 5 6 6 6 6 6 6 3 6 6 6 3 6 6 6 6 6 3 6 6 6 6 5 5 6 5 5 5 6 6 6 6 3 3 6 6 6 3 3 3 3 3 1 3 3 3 3 1 3 1 1 1 1 1 1 6 3 1 4 5 5 5 c 6 6 5 3 3 1 = # # = = 1 = = = = = 3 4 2 u G c 5 4 2 = 4 4 2 4 = = 5 = 4 4 = 2 4 u c c b v G H b v b Y B Y b b c 4 t t 4 4 4 4 c 4 t c c c b b b b b b H Y Y Y B Y B Y b b c c t t t t t t t x b ! Y ^ ^ ^ ^ ^ 8.V.V.V.V.B.e.8.M.N.M.e.e.8.M.e.e.M.e.M.8.M.M.M.V.M.M.8.M.e.e.M.e.N.N.e.N.V.N.M.M.e.e.8.M.e.8.` e.e.e.e.e.` e.` ` ^ ` ^ ` ^ ! ! _ ! H c c H c H H H I H H H G H ",
"3 3 < 6 6 6 3 6 5 5 5 3 6 6 5 5 3 3 3 5 5 3 5 6 6 6 5 6 6 6 5 6 6 6 6 6 6 5 6 6 6 6 6 6 s s 6 5 3 5 6 6 3 6 6 6 3 3 5 6 3 6 1 1 = 1 = 1 3 3 3 3 3 6 6 6 6 6 6 1 = = & = 3 = 2 = = 4 6 4 u 5 G 5 5 5 3 = 2 2 = = = = 5 - 4 2 4 5 5 b c v G v H H b b ! b u c b u t t t b 4 t 4 c 4 4 t c c b b b b Y Y Y Y Y Y Y Y b t c t t 4 b c c t t b t t x b b x b B B B B B Q Y Q 8.L.K.K.D.B.M.e.M.e.8.e.e.M.M.M.N.N.N.M.M.M.M.e.N.e.M.M.e.e.e.e.V.V.V.V.D.N.M.M.N.e.M.M.M.e.M.e.8.e.e.e.^ ` ^ ` ` ` e.` ^ ` ` ! H H G G G G H H F G F H ",
"7 3 < 3 6 6 6 6 6 6 6 3 6 3 6 6 3 3 6 s 5 6 5 6 6 6 5 6 6 6 5 6 6 6 5 6 6 s 6 6 6 5 3 3 5 5 5 5 6 s 5 5 6 6 6 6 6 3 5 6 3 c 5 3 3 = 1 3 1 1 1 1 = 1 3 1 1 3 6 3 = = = = = 1 3 3 4 5 6 5 u 5 c 5 u 6 2 2 = = = & = 1 = 4 5 4 5 c c v G c G v H H u t u - 4 - u u t 4 4 4 4 c t c b c c c c c b Y b Y Y Y ! ! ^ Y c 4 t t c t 4 b c t t t c x b b b b b Y B B Y Q Q Q Q B b b Y D.L.Y.B.V.N.M.M.M.N.B.N.M.M.N.N.N.B.N.N.N.M.M.8.e.e.e.8.e.M.8.8.M.B.M.N.N.B.D.M.M.M.M.M.e.M.M.e.e.M.e.e.e.` ` ` e.` ` ` ^ R ! ^ ! H H c F F F H H ",
"6 3 < 3 3 6 6 3 3 6 3 3 6 6 3 3 6 6 3 6 6 5 5 6 6 5 6 6 6 6 3 6 6 6 5 6 6 6 6 6 3 6 6 6 5 5 6 5 6 6 5 5 5 c 3 6 6 6 5 5 5 c c 6 5 6 5 6 5 1 1 3 1 1 = = = 1 1 3 1 1 1 = 1 = 3 6 6 c 5 6 5 5 b 5 5 u 3 = = = = = = 4 4 4 5 4 u v H c G b v H v 4 2 2 2 = 4 = - t 4 4 4 u c u u c c c c c H b H H Y Y Y ! H b c t c t c t b b t c b t b b b b b b B Q Y Y B B Y B B b b b t b b b b ^ M.B.L.M.B.V.J.D.K.S.K.K.D.D.K.B.N.V.B.M.e.M.M.8.8.e.M.M.N.M.M.M.M.M.M.M.M.N.M.N.e.M.M.M.M.N.M.8.M.M.` ` e.` ` ^ ` ^ ` ` ` ` ^ ! H F F c G H ",
"K K F D 5 3 3 3 1 3 3 3 6 3 3 3 3 3 3 3 3 3 6 6 6 3 3 5 6 6 6 6 3 6 6 5 6 6 6 6 3 6 5 6 5 5 5 5 5 6 c s 5 5 6 6 5 5 5 s c c c 6 5 s 5 s c 5 5 5 6 3 = = 1 = = = 1 1 = 3 3 3 3 5 6 5 u 6 u 5 c c c c 5 = = = = = 2 4 6 5 c 5 4 b G c b G v 5 = 4 5 = 2 = 2 2 4 c u 4 u c c c u c c b c b Y Y v b b b c c 4 4 t u c c c t b t c b B b B B B Y Y B Y Y Y B b b t t x t b b t x b b c B b b M.^ ^ D.K.Y.Y.D.K.K.S.B.N.M.B.L.B.L.B.L.D.M.e.M.8.M.V.M.N.N.N.N.M.M.M.M.N.M.M.M.N.N.M.M.8.M.M.M.M.e.e.e.e.` e.` ` ^ ^ ^ ^ e.! ^ ^ H ! H ",
"K K K K K K K K D s 6 6 6 3 3 3 3 3 3 3 3 3 6 6 3 6 6 6 5 5 6 6 3 3 3 5 6 6 6 6 6 5 3 6 5 5 5 5 5 6 5 c 5 6 6 6 5 5 5 5 s 5 5 5 5 5 s c s 5 c 5 6 3 6 6 6 5 3 1 = 1 # = 3 3 3 5 6 c u u 5 5 c c c c c 2 3 2 3 4 4 4 3 3 5 4 4 u c c c c 4 = = 4 6 1 3 = 4 4 2 u G 4 4 v v b c v c c c b G b c 4 4 4 4 4 2 4 u u t c c t c c b b Y b B b B B Y B b Y b t 4 t t b c c t x t b b b b B b b b Y Y Y ^ 8.D.D.L.Y.L.B.B.D.D.B.M.V.M.B.L.N.M.N.M.M.N.M.N.N.N.N.M.M.M.N.N.N.M.M.N.N.N.B.B.V.M.M.e.e.M.e.e.` e.e.e.` ` ^ ^ ^ ^ ` ` ` ^ ! ",
"K K K K K K K K K K K K K F D 5 6 3 3 3 6 3 3 3 3 3 3 6 6 6 6 6 3 6 6 6 6 6 6 6 s 5 3 s 6 6 6 6 5 3 3 6 6 5 c 5 c 5 6 5 5 5 5 F 5 c s 5 5 c c 5 3 3 6 3 6 3 1 3 3 3 3 1 3 3 = = 3 3 5 u 6 c b c c c 5 2 6 1 3 u 5 2 2 c b c c c c c c u = = = 3 3 1 1 3 4 4 4 u G u c v G b G G G c c 5 4 = 2 2 - 4 t t 4 4 t t 4 b c c b Y Y Y b B Y Y b b v b 4 c c t t c t c c b t b x b b B B B B Y B Y ! B b b t b ^ M.V.B.L.L.B.L.V.V.8.V.D.V.M.8.^ e.M.8.M.e.M.e.8.e.M.N.N.N.N.N.N.M.N.S.B.B.V.N.M.M.M.M.e.e.M.e.M.e.e.e.8.e.e.e.e.M.e.e.",
"K K K K K K K K K K K K K K K K K K D s s 5 6 3 3 3 3 3 3 3 3 3 3 3 6 6 6 3 1 6 c 6 3 5 6 5 6 6 5 6 6 5 c 6 6 5 5 5 6 5 5 5 5 5 5 s c c 5 s c c 6 3 5 c 5 6 6 5 5 c 5 5 c 5 6 6 1 3 1 3 6 u c 5 6 5 5 6 3 2 3 6 6 c c u c c c c c c u u = = 3 6 2 1 3 c 5 5 5 c b u c c b b c 5 4 4 = = 2 - - - - u 4 4 c 4 t c c v b v v H b v H v c c 4 4 - 2 2 t c t c c t c t c b B b B B B B Y Y Y B b b b t t t x x b b x Y e.Y.L.B.B.e.M.V.V.L.M.e.e.^ ^ e.8.^ e.e.e.M.M.M.M.M.M.M.M.M.M.V.V.V.V.B.N.M.N.e.M.M.M.N.M.N.N.M.M.e.e.e.M.e.^ ",
"K K K K K K K K K K K K K K K K K K K K K K K K F s 6 6 1 3 3 3 3 6 6 6 6 3 3 3 6 6 3 6 3 6 6 6 6 6 5 6 5 6 6 5 6 5 6 5 F 5 c 5 5 s c c c c c c 3 3 5 s 5 6 s 5 6 3 5 5 c 6 6 6 5 3 3 3 3 3 5 5 3 u 3 3 u 6 6 5 3 5 c 5 c c c c c b u 5 = = 6 5 3 3 6 4 u 5 5 c c u c c 3 5 1 = 2 6 = 2 2 2 - u 4 4 c c c c c b b v c H H b b t 4 4 4 u 4 2 2 t - c t c b c c b c b B Y Y b B B Y b b b t c c t t x t t x b b t b b Q M.B.K.L.B.V.B.L.N.B.8.` M.8.8.e.8.8.M.M.M.e.8.^ 8.M.M.8.e.M.e.M.M.V.B.N.N.M.M.e.N.N.M.N.N.B.V.S.M.N.N.M.M.",
"K K K K K K K K K K K K K K K K K K K K K K K K K K K K K F s 6 6 3 6 6 3 3 3 3 5 3 3 6 6 6 6 6 3 5 s 6 6 6 5 6 6 5 6 6 5 6 5 5 c c c F s c 5 5 6 5 c s 5 5 c c c 5 5 5 5 c c 6 5 c c c c c 3 c c c 5 4 3 3 5 3 5 5 6 5 c c c c c c c 5 6 = 3 5 3 u 5 u u u 4 c u 6 = = 1 < & 3 3 5 = 3 2 4 4 u u 4 b b c c b b H u G b 4 - u - 2 4 4 u 2 4 t c c b c b v Y v c v H Y Y B Y v b u 4 b c 4 c c t t t t b b b b b b B B Y Q M.V.L.K.L.L.B.K.M.8.^ M.e.M.M.M.M.M.M.M.M.e.e.M.M.N.V.V.M.V.M.V.B.M.N.N.V.M.M.M.8.M.M.e.M.M.8.N.N.N.S.",
"K K K K K K K K K K K K K K K K K K K K K K K K K P P K K P K P K K K K D 5 6 3 6 3 3 6 6 6 6 3 6 6 6 6 6 6 5 3 3 6 6 s s s 6 s c c c 5 s c 6 5 5 5 s s c c 5 5 c s c c 6 c c c c c c c F F 5 c c c c c 5 5 6 6 c c 6 3 3 5 5 c u c c c 5 4 3 6 3 5 5 c u u 5 5 u 5 = = = = & 2 6 2 1 1 = 4 4 4 c u u u c u c b u 2 4 1 3 = 4 2 4 2 u c 4 4 4 t b b b b B Y v v Y H v b c 4 4 c 4 4 t c 4 c 4 4 c t b B Y B b B B B Y B B B B B Y V.U.L.B.L.S.N.V.B.M.V.B.B.M.e.8.8.8.8.e.M.M.M.M.V.M.M.M.M.M.M.M.V.M.M.e.8.8.e.8.e.8.8.M.M.N.N.",
"K K K K K K K K K K K K K K K K K K K K K K K K K P K K K K P P K K P K P P L K K F s 6 5 6 3 1 3 6 3 6 5 6 6 6 6 6 6 F 6 s 5 F c F c 5 c c 5 5 5 6 5 c 5 c 5 5 c c c c s c c c c c c c c c 6 F F c c c 3 c c c c c c 5 4 u 5 4 4 5 5 5 5 5 5 6 3 6 6 6 u u u 5 5 5 3 = = = & = 4 6 3 = = 5 2 2 6 6 4 v c 4 4 5 = 4 3 5 3 = 2 4 4 2 c u 4 4 b b v b b v Y B c b c t t u t 4 4 c u 4 c b b b b b v b b B b b b B B B b b b x x b x b ^ L.B.B.M.e.V.M.K.K.B.K.V.8.e.e.M.M.M.M.M.B.M.V.M.V.M.V.M.M.M.M.8.e.M.e.M.8.M.8.M.8.e.e.M.M.",
"K K K K K K K K K K K K K K K K K K K K K K K K K K K K K K P P K K P P P P P P P P P P K K F s 6 6 1 3 6 6 6 3 6 6 6 c 6 6 5 s c 6 5 c s 5 5 5 s 6 5 F c c c s c c 5 c c F 5 c c c c c 5 c c c F c c c c c 5 c c F c c 5 F c u u u 3 3 u 5 6 5 5 6 6 5 5 c c c 5 6 5 1 = = & 3 1 1 3 4 4 4 4 6 4 4 G 2 = 3 = 1 & 5 6 5 2 2 4 2 4 4 u b c b H b c H b c 4 4 = u u 4 t t t 4 4 c b t c B b B b b v Y b b H v b b t b c t b b b b b b b b Y ^ b Y B B Q 8.B.L.L.L.L.V.B.V.V.M.M.B.V.M.B.B.V.V.B.B.V.V.V.M.M.M.M.8.M.8.8.8.e.e.M.N.",
"K K K K K K K K K K K K K K K K K K K K K K K K K K K K K K K K K K K K P P P P P P P K P P P P P P K K F s 5 3 3 6 6 6 6 5 5 6 6 5 5 5 s s c c c 5 5 c s F c c s c s c F c 3 5 c 5 c c c c s c F c c c c c c F c F F c c F c c c c c 5 u 5 5 6 c 6 6 3 3 3 5 u 5 6 c 6 1 = < 3 3 1 1 3 3 5 5 5 4 3 c 3 = 3 = < = 1 6 3 2 = 4 u 5 c c b b G c u u c 2 2 = 4 = 4 u 4 c c 4 c u v c b v b v B b v b b b c t c c 4 b v b t b b x b b b b b B B B Y B B Y Y Y Y Y ^ M.N.M.L.L.B.B.V.B.B.V.V.M.M.V.M.N.8.M.B.M.M.M.M.M.8.8.8.8.8.e.8.",
"K K K K K K K K K K K K K K K K K K K K K K K K K K K K K K K K K K P P P P P P P P P P P P P P P P P P P P P K K F F 6 6 5 3 3 6 s 5 6 5 s 5 5 6 5 5 s 6 c c 5 F c c c c s 5 s c c c c c c c c c c c c c F c c c c c c F c c F c c c c c c c c c 5 6 3 1 3 3 3 3 3 3 3 3 < 3 6 3 3 3 3 3 6 5 6 4 6 3 1 = = 1 1 = = 5 = 6 6 4 c c u u c c c 4 3 1 3 1 2 3 4 4 c u c t u u c v Y v Y b b H c t t t 4 2 4 c c u t c b c c b x b b B b B B B B B Y ! Y Y Y B b c b c b b ! 8.L.K.K.B.L.V.V.M.8.M.8.8.8.8.8.8.8.8.M.8.M.8.M.8.8.8.8.",
"K K K K K K K K K K K K K K K K K K K K K K K K K K K K K K K K K P P P K K P P K K K P P P P P P P P P P P P P P P P P K K F F F 5 6 6 5 6 6 6 5 s 5 s s 5 5 5 F F c c c c c c 5 5 c c c c c 5 c c c c c F c G F c c c c c F F c c c 5 c c c c c 6 c 5 6 5 6 3 3 1 3 1 1 1 1 1 3 3 6 5 u u 5 6 6 6 1 1 = & < 1 1 6 3 1 3 5 3 5 6 4 3 = 1 6 = 1 = 3 1 4 2 5 4 5 c c v v b H H H H b t u 4 4 4 c 2 - 4 c c t t c b t b b b b b B H Y Y Y B B b b b c c t b b b b b b b b b Y ! 8.M.K.V.M.^ 8.M.M.8.8.^ 8.8.^ 8.8.8.M.8.M.M.M.8.8.",
"K K K K K K K K K K K K K K K K K K K K K K K K K K K K K K K K K K K K P K K P K K K K P P P P P P P P P P P P P P P P P P P P P P K K F F c 6 6 6 6 5 5 5 6 6 5 c s s c F c c c s c F F F F c F c c c F F F F F F c c c c F c c c F c c 5 c c u 5 c 5 u 5 5 5 5 3 6 2 3 3 3 6 3 3 3 4 3 3 3 6 5 6 2 < < = = < = 3 1 1 3 3 3 6 = < = = & 1 1 = # 5 1 4 = 5 4 4 c c v G G H b c u - 4 u 2 4 u 4 4 u t c c 4 u b b b b b b b b B Y B b c c c b c c c c b b b b b b b b b b b c t 4 H V.M.M.M.M.M.M.8.8.M.8.8.8.M.M.M.M.M.M.M.M.e.",
"K K K K K K K K K K K K K K K K K K K K K K K K K K K K K K K K K K K K K K K K K K P P P P P P P P P P P P P P P P P P P P P P P P P P P P P P K K F s 6 6 s 5 6 6 5 5 s c c F c c F F F F c c F F F c c F F F F F c c F c F c c c c c c 6 c c 5 6 s 5 c c c c c 5 5 u 6 3 3 6 5 6 3 3 1 1 1 1 3 2 1 1 1 1 1 1 1 3 3 3 3 3 3 3 1 1 < < & = 1 1 = 6 1 3 3 5 u u u c c u 5 4 2 4 u 4 4 u 4 4 c 2 c t 4 v b b H Y b v H b v b b t c t t t b b u c b b c c b b b b c b t 4 - = # $ # - b Q ^ 8.e.B.L.V.V.V.8.8.8.8.8.M.M.M.M.M.M.e.",
"K K K K K K K K K K K K K K K K K K K K K K K K K K K K K K K K K K K K K K K K K K P P P P P P P P P P P P P P P P P P P P P P P P P P P P P P P P P P P P K F F s 6 c c 5 c c c F F c c F F c F F F c F F c F c F F c c c F c c c c c F c 6 c c 6 5 6 c u c 5 5 5 u u u 5 5 6 u 5 5 5 6 3 3 1 1 1 = 1 3 1 1 1 3 3 3 6 6 3 3 3 3 1 = < < = 1 1 1 3 = 1 3 3 4 3 4 6 4 1 = = = 5 u = 6 5 4 4 u c c c c c v c b B b c b u u c 4 u u c t t c c c b b b c b c u u 4 = = & & & & # $ = t c b b b b B M.K.B.V.M.M.M.M.M.8.M.M.8.8.8.8.",
"K K K K K K K K K K K K K K K K K K K K K K K K K K K K K K K K K K K K K K K K K P K K P K P K K P P P P P P P P P P P P P P P P P P P P P P P P P P P P P I P P P L L U F F c c c c c c c c 5 c c c c F F c G F F F F c c c F F c 5 c c c 6 c s c 5 c c 5 5 6 5 c u 5 5 5 5 5 5 5 5 6 6 3 3 6 6 6 = 2 2 = 1 1 3 3 3 6 6 6 5 6 6 3 1 < 1 1 1 1 1 1 1 6 6 2 1 3 3 1 & = = = = 5 6 = 5 4 2 4 c v c v H v v u 2 4 u 4 2 c 4 t 4 u c c t c c c c c u 4 4 2 4 = = = = = = = = & # @ 4 c v b Y v b b b M.L.L.L.V.B.N.M.V.V.M.8.8.8.8.",
"K K K K K K K K K K K K K K K K K K K K K K K K K K K K K K K K K K K K K K K K K K K K K K K K K P P K P P P P P P L P P P P P P P P P P P P P P P P P P P P P P P P P P I I I P L F F c c 5 5 F c c c c c F c c c F F c c c F F c 5 c c c c 5 c F 5 c c c c 5 c c c 5 5 5 6 c u 6 5 5 6 5 5 5 6 3 < 6 6 1 3 1 2 2 1 1 1 2 3 3 6 3 3 2 3 3 1 3 3 3 6 3 3 3 < < < 1 = < = = 1 c 6 4 2 5 2 b H b G c 4 4 5 = & 4 4 5 3 5 4 u 5 c c c u u c u 4 4 = = = = = = = = = = = = & # @ $ & t b b Y B b b b t Y ^ M.V.^ 8.V.L.B.V.V.M.M.^ ",
"K K K K K K K K K K K K K K K K K K K K K K K K K K K K K K K K K K K K K K K K K K K K P P P P K K K K P P P P P P P P P P P P P P P P P P P P P P P P P P P P I W P P P P I P P I I I I I L F F F F s 3 6 c c F c c c c F c 5 c c c c c c c c c c c 5 c c c 5 5 6 5 5 5 5 6 u 5 5 6 5 6 6 5 5 6 6 1 6 5 6 3 6 1 3 2 2 3 3 3 2 2 1 3 3 6 3 3 6 6 6 6 3 3 1 < < < = = 1 = = 1 1 1 = = 4 u G c 4 4 = 1 = 6 = 2 u 4 u 5 u u u u u c u u 4 1 & = = = = = = = = = = = & & # @ @ $ $ # 2 b H H H v b b b t = ^ M.5 X c e.e.N.L.B.V.M.",
"`.' ( K K K K K K K K K K D K D K K K K K K K K K K K K K K K K K K K K K K K K K K K K P K K K K K K K P K P K P P P L P P P P P P P P P P P P P P P P P P P P W W P P P W W W P I W W W I P W W I I I U F F c c c 5 5 6 5 F c F c c c c c c c c c c 5 s c s 5 c 6 5 c 5 c 5 5 5 5 6 6 5 5 5 5 6 6 1 6 6 6 6 6 6 5 3 3 3 3 3 3 2 1 1 1 2 < 1 3 3 3 3 3 3 3 < & = = = < & = = < = 1 1 4 G c & = 3 = 1 1 3 1 4 5 4 u u u u 4 3 2 3 = = = = < 1 = = 1 < < = = = & # # @ @ $ $ o . = c H H Y b B v b 4 2 $ 5 v X X X X $ # Y L.V.V.",
"tXtXtX,X$X Xi.' ( K D D D D D D D K D K K K K K K K K K K K K K K K K K K K K K K K K K K K K K K K K K K K P P K K P L L L P P K P P P P P P P P P P P P P P P I I P P P P P P P P P W W W W W W W W W W W W I I L F F s c 6 s c F s 5 F c c 5 F F c F 5 F c c c c c c 5 5 5 5 c u 5 5 5 5 5 5 6 5 3 3 5 5 6 6 6 5 6 3 3 3 6 6 6 3 3 3 3 1 1 1 1 1 2 2 1 3 1 < = = < 1 < 1 < 1 3 1 1 3 H u # = = = 3 1 3 3 1 4 4 6 6 3 3 = = = = = 1 = 1 1 1 < 1 = = = & # # @ @ $ O o . . . . # c H Y Y Y v v b t 4 $ X X X X X X X X X B M.K.",
"tXtXtXtXtXtXtXtX,X,X$X X`.i.' ( P K D D D D K K K K K K K K K K K K K K K K K K K K K K K K K K K K K K K K P K K K P L L L K P P K P K P P P P P P P P P P P P P P P P P P P P P P P W W W W W W W W W W W W ( W W W W W I I U F F s s s c F 6 5 c s c c c c c 6 5 c 5 c F c c c c u 5 5 5 6 5 6 5 3 6 6 5 6 6 6 6 6 6 6 6 6 6 6 6 3 6 3 3 3 3 3 < 1 1 < 1 1 # < 1 1 1 1 1 1 < 1 1 < 1 F 1 & 1 < = 1 1 1 1 1 = = = & & # & = = = 1 1 1 < = = = & & & # @ O o o o o . o . . o . @ c v b Y Y H v b c 2 # $ o X X X X X X X X # H ",
"tXtXtXtXtXtXtX,X,X,X,X,X$X$X$X$X$X X X`.`.' ( P K K K K K K K K K K K K K K K K K K K K K K K K K K K K K K P P P P P P K P P P P P L L L P P P P P P P P P P P P P P P P P P P P P I P W P W W W W I I W ( ( ( W W W W W W W W W W W I L U F c 5 5 5 5 c c 5 5 5 s c 5 s F c c 5 5 s s c 5 6 6 6 5 6 3 5 5 5 5 6 6 5 6 6 6 6 6 6 6 6 3 6 3 6 3 3 3 1 1 1 1 1 1 1 1 1 1 1 < 1 = < 1 1 1 u = < < = = = < = = = & & & & & = = = = = = = = & & & # # @ @ @ @ @ o o o o o o o . . . $ c b Y Y Y Y B b c 2 # # # @ o . X   X X X X X ",
"tXtXtXtXtXtX,X,X,X,X,X,X$X$X$X$X$X$X$X$X$X$X$X$X X X`.' ' ( P K K K K K K K K K K K K K K K K K K K K K K K P P P P K P K P P P P P L L L P P P P P P P P P P P P P P P P P P P P W P P W P W W W W I I I ( ( ( W W W W W W W W W W W W ( W W W I I U F F s s s c s 5 c s c 5 5 6 5 c 5 5 5 5 5 5 5 6 3 5 5 5 6 6 6 6 6 6 6 6 6 3 6 6 6 5 6 3 3 3 3 3 3 3 3 3 3 3 1 3 3 1 1 < = < = = 1 5 < < = = & & & = = = # & & & & & & = = & & & & # @ @ @ @ $ @ @ @ @ @ + o o . . . .   X # b H Y Y ! Y b b c 2 = # = # @ $ . . .   X X X ",
"tXtXtXtXtXtX,XtX,X$X,X,X$X$X$X$X$X$X$X$X$X$X$X$X X X X X X X X X`.`.' ( W K K K K K K K K K K K K K K K K K K K K K P P L P P P P P P P L P K K P P P P P P P P P P P P P P P P P W W W I W W W W W I I I I ( ( W W W W W W W W ( ( ( ( W ( W W W ( ( ( ( W I L U F 5 5 5 5 5 5 6 5 5 5 5 5 F 5 5 6 5 6 c 5 5 6 5 6 6 6 6 5 3 6 3 6 6 6 6 6 3 3 3 3 3 3 3 1 3 1 1 3 3 3 1 1 1 1 1 1 = 1 u = < < < = = = = = # # & & # # & # # & & # @ @ @ @ @ @ @ @ @ @ @ + O @ @ o . . X X X X . c H Y Y R Y H G c 4 1 = = 1 @ @ @ @ . X     . ",
"tXtXtXtXtXtXtX,X$X$X,X,X:X$X$X$X$X$X$X$X$X X X X X X X X X X X X X X X X X X[.`.' ' ( I K K K K K K K K K K K K K P K K K K L P P P P P P P K K P P P P P P P P P P P P P P P I P P P W W W W W W W I I I I W ( W W W W W W W W ( ( ( ( ( ( W W ( ( ( ( ( ( ( ( ( ( W I K F F s 5 5 5 5 5 5 6 6 6 6 6 1 5 6 5 5 5 5 5 5 5 6 6 6 5 3 6 6 6 3 6 6 3 3 3 3 3 3 3 1 1 1 3 1 1 3 1 1 1 1 = 3 3 = < = = = = & = = & # & & @ @ @ @ # # @ @ @ @ @ @ @ $ @ o o @ o o . . o . X X X X X X X 4 v Y Y Y Y H v c 3 = = 1 = @ # @ $ . . . .   ",
"tXtXtX,X,X,X,X,X$X$X$X$X$X$X$X$X X X X X$X X X X X X X X X X X X X X X X X X X X X X X X X`.`.' ( ( K K K K K K K K K K K K K K L L L P P L L L L L P P P P P P P P P P P P P W W P P W P I W W W W W I I I I W W W W W W W W W W ( ( ( ( ( W ( ( ( ( ( ( ( ( ( ( ( W ( ( W W W I F F F 6 6 6 6 6 6 6 3 6 6 6 6 6 6 5 6 6 6 6 5 5 6 6 6 6 3 3 6 3 3 3 3 3 3 1 1 3 3 1 3 1 3 3 1 1 1 1 3 3 = = = = = & & & & & # & # # # @ # @ @ @ @ @ @ @ @ $ $ $ o o o . X         X     . . . . # b v Y Y H b b 5 3 1 1 1 # @ @ @ $ . $ . . X ",
"$X$X,X$X$X$X$X$X$X$X$X$X$X$X$X$X X X X X X X X X X X X X X X X X X X X X X X X X X X X X X X X X X X X`.`.' ( ( P K K K K K K K K K K P P L P L P L P P P P P P P P P P P P P P P P P W P I W W W W W I I I W W I W W W W W W W ( ( ( ( ( ( W ( ( ( ( ( ( ( ( ( ( ( W W W ( W W W W W W W I L F F c 6 1 3 3 3 6 3 3 3 6 6 5 6 6 6 6 5 6 6 6 3 3 6 6 3 3 3 3 1 3 1 3 3 3 3 3 1 1 1 1 1 3 3 1 = = < = = & & & # # # # # # # # # @ @ $ o o $ $ o o X   . X   . . . . . . . . . . . . $ c b v H v b b 3 3 1 1 1 # @ @ @ $ o $ . . . ",
"' ' `.[. X X X X X X X X X X X X X X X X X X X X X X X X X X X X X X X`.`. X X X X`.`.`. X`. X X X X X X X X X X X`.`.' ' ( I K K K K K K K K K K K K P P P P P P P P P P P P P P P P P P P I I I I I I I I W W W ( ( W ( ( W W ( ( ( ( ( ( ( ( ( ( ( ( ( ( ( ( ( ( W W W ( W W W W W W ( W W W W W I L K F s 6 6 3 3 6 6 6 3 3 3 3 3 3 3 6 6 3 6 6 3 3 3 3 3 3 3 3 3 3 3 3 3 3 2 1 1 3 6 1 < < < = = = & & & # # # # # @ @ $ $ @ $ @ o o o X       . . o o o o o . . . . . . . . . = c b v b b c 6 3 1 1 = # @ @ @ . o $ . . . ",
"' I K 6 6 D K ( ' ' i.i.`.`.[.`.[.`.`.`.`.`.`.`.`.`.`.`.`.`.`.[.`.`.`.`.`.`.`.`.`.`.`.`.`.`.`.`.[.[. X X`.`.`. X X X X X X X X X[.`.' ' ( ( P K K K K K P P P P P P P P P P P P P P P P P P I W I I I W W W W W W ( ( ( ( ( ( ( ( ( ( ( ( ( ( ( ( ( ( ( ( ( ( ( ( ( ( W W W W W W W W W ( ( W W W W W W W W W I I L K F 5 6 3 3 3 3 3 6 3 6 3 3 3 3 3 3 3 3 3 3 3 3 3 3 3 3 3 3 1 1 1 1 3 1 < < < = = = = & & & # # # # @ $ o o o @ @ . o o . . o . o o o o O O o o o . . . . . . . o 2 5 u c c 5 3 1 1 1 # @ @ @ $ . . . . . . ",
" X X[.[.[.' ' ' I K 6 7 6 D K W ( ' ' i.i.`.`.`.`.`.`.`.`.`.`.`.`.`.`.`.`.`.`.`.`.`.`.`.`.`.`.`.`.`.`.`.`.`.`. X`. X X X X X X X X X X X X X X X[.`.i.' W P K P P P P P P P L P P P P P I I I I I I I W W W ( W ( ( W W ( ( ( ( ( ( ( ( ( ( ( ( ( ( ( ( ( ( ( ( ( ( ( ( ( W W W W W W W W W W W W W W W W W W W W W W W W I P L F F 6 3 3 3 3 3 3 3 3 3 3 3 3 3 1 3 1 3 3 3 3 3 1 1 1 1 6 < < < < < = & = & & # & # # # @ @ @ $ o o @ o $ $ $ $ $ $ o o o o O o o o o . . . . . . . . o = 1 1 1 1 1 = = # # @ $ . . . . . .   $ ",
"$X$X X X X[.[.[.[.[.[.`.(.' ( W L D 7 7 6 D K I ( ' ' ' ' ' ' `.`.`.`.`.`.`.`.`.`.`.`.`.`.`.`.`.`.`.`.`.`.`.`.`.`.[.`.[.[. X X X X X X X X X X$X$X$X$X$X*X*X$X|.[.i.' W K L L P P P P P P P W W I I W ( W ( ( ( ( ( ( ( ( ( ( ( ( ( ( ( ( ( ( ( ( ( ( ( ( ( ( ( ( ( ( ( W W W W W W W W W W W W W W W W W W W W W W I I W W W W W I I I P K D 6 3 3 3 3 1 3 1 1 1 1 1 1 1 3 3 3 1 1 < 1 1 = < = < = & = & & # # # # # # # @ @ @ @ o $ @ @ @ @ @ @ @ @ @ O o o O o o . . . . . .           @ # # & = & # @ @ $ .     .   .     1 ",
"$X$X$X$X$X X X X X[.[.[.[.[.[.[.`.`.`.`.' ' ( L D 7 < 7 s K P ( ( ' ' ' ' ' ' ' i.' ' `.`.`.`.`.`.`.`.`.`.`.`.`.`.`.`.[.`.`.[. X X X X X X X X X|.$X$X$X$X$X*XtXtXtX2X2X2XtX*X|.[.' I P P P I P I I W ( ( ( W W W W ( ( ( ( ( ( ( ( ( ( ' ' ( ( ' ( ( ( ( ( ( ( ( ( ( ( W W W W W W W W W W W W W W W W W W W P W W I I I I W W W W W W W W I W P I L K F F 6 3 3 1 < < 1 1 1 1 1 1 < 1 3 < = < # & # = & # # # # # # # # @ @ @ @ @ @ @ @ @ @ @ @ @ @ @ O O @ O O o . . . . . .             $ # # # # $ . . .         X     @ 6 ",
"P P W ( ' ' ' [.[. X X X X[.[.[.[.[.[.[.`.`.`.`.`.`.`.' ' ( I F 6 1 1 6 s K P ( ( ' ' ' ' ' ' ' ' ' ' `.`.`.`.`.`.`.`.`.`.`.`.[. X X X X X X X X X$X$X$X$X$X*X*XtX-X2X2X2XdXgXgXgXfXgXdX2X*X|.i.( I I W I W W W W W ( ( ( ( ( ( ' ' ' ' ' ' ' ' ' ' ' ( ( ( ( ( ( ( ( ( W W W W W W W W W W W W W W W W W P P P W W I I I I W W I W I I I I I I I I I I I I I I I K F s 6 3 1 1 1 < < 1 3 = = = < < = & & # # # # # # # # # @ @ @ @ @ # @ # # @ @ @ @ @ O @ @ O O o . . . . . .             . . .       . X X X X # 1 6 s K L W ",
"/ / / / / / / / U U P W ( ( ' ' i.[.[.[.[.[.[.[.[.[.[.`.`.`.`.`.`.`.(.' ' I U s 7 < 7 6 D K P I ( ( ' ' ' ' ' ' ' `.`.`.`.`.`.`.`.[.[.[.[. X X X X X X$X$X$X$X*X*X*X-X2X2XUXdXgXgXgXgXhXhXhXSXHXHXSXfXdX=X|.' W W W ( ( ( ( ' ' ' ' ' ' ' ' ' ' ' ' ' ' ' ( ( ( ( ( W W W W W W W W W W W W W W W W W W W W W W W P P P W I I W I I I I I I I I I I I I I I I I I I I I I L L K F s 6 3 3 # & = = = & & # & # # # # # # # # # @ @ @ @ # # # # @ @ @ @ @ @ @ @ o O o . . . . . . .               X X X . 8 3 6 F K L I L L L L L ",
"] / / / / / / / / / / / / / / / J J U P W ( ' ' ' ' `.`.[.[.[.[.`.`.`.`.[.`.`.(.`.`.' ' ( I F 7 < 7 s s F K ( ( ' ' ' ' ' ' i.i.i.`.`.`.[.[.[. X X X X X$X$X$X$X*X*X*X-X2X2XdXdXgXgXgXgXhXhXSXHXHXHXFXFXGXGXGXHXhXdX-X|.Z.' ' ' ' ' ' ' i.' ' ' ' ' ' ' ' ' ( ( ( ( ( W W W W W W W W W W W W W W W I P P P W W P P P I I I I I I I I I I I I I I I I I I I I I I I I I I I I I I I I I L K F s 6 3 < # # # # # # # # # # # # # # # # # # # # # @ @ @ @ @ @ @ o o o . . . . . . . .       . # 1 6 s F L L I P L L L P I L W L L ",
"{.Z.r.' ' ' ( ] / / / / / / / / / / / / / J J J J J J U I ( ] ' ' ' ' (.`.[.[.[.[.[.Z.Z.[.[.`.`.`.' `.(.' ' W U F s s D L W ( ' ' ' i.i.i.`.[.[.[.[. X X X|.$X$X$X*XtX-X-X2X2XUXdXgXgXgXhXhXhXHXHXHXFXFXGXGXGXGXGXGXHXHXGXLXLXPXZXVX0X$X[.' i.' ' ' ' ' ' ' ( ( ( ( ( W W W W W W I W W W W I I W W P P P P W W P P P I I I I I I I I I I I I I I I I I I P P P I I I I P I I I I L P I I I L L I I I U F s 3 1 # # # # # # # # # # # # # # # @ @ @ @ @ @ @ O O o o . . . . .   . # 1 s D K L L L P L L L L L L L P P W W W L L ",
"-X*X*XOX}.|.{.Z.` ' ' ' ] ] / / / / / / / / / / / J / J J J J J J J J U I W ] ' ' ' ' i.[.[.[.[.Z.' `.`.`.(.`.`.`.`.`.' ' ( I F s s D K W ' ' i.i.i.`.[.[. X|.|.$X$X*X*X-X2X2XUXdXgXgXgXhXhXhXSXHXHXHXGXGXGXGXGXGXGXGXGXJXKXKXKXKXKXKXKXLXPXZXdX2X@XZ.' ' ' ( ( ( ( ( W W W W W W I W W W I P P P P P P P P W P P P P P P P P I I P P P I I P I I I I P P P P P I P P I P I I P L L P P L P L L L I I I I I I I L F F 6 1 # # # # # # # # # # # @ @ @ @ @ @ o o o o . O 8 1 6 D K L L L L L L L L L L L L L L L L I I I L W W L ",
"aXaX-X-X=X*X*X+X|.|.{.F.Z.Z.r.` ' ' ' ] W I / / J J / / / J J J J J J J J J J J S J U U I ( ' ' ' ' ' ' (.(.`.`.`.`.`.`.`.`.`.`.`.(.' ' ( I F D s F P ( ' i.i.[.{.|.|.$X*XtX-X2XUXdXdXgXgXgXhXhXSXHXHXFXGXGXGXGXGXGXGXJXLXKXKXKXKXKXKXKXKXKXJXJXGXHXSXZXdX2X$X Xi.( W W W W W I W W W W P I I I P P P P P P P P P P P P P P P I P P I P I I I P I P P I P I I I P P P I I I I I L L I P L L L I P P P P I I L I I I I I L L K F s 6 < # # # # @ @ @ @ @ @ @ @ 8 1 6 s F K K K L L L L L L L L L L L L L L L L L P W P P L L L L ",
"gXdXaX2X-X-X-X*X*X*XOX|.|.|.{.{.[.Z.Z.Z.r.` ` ' ' ] ] W I I U U U J J J J J U U D J J J J J J J J J U P I ( ( ' ' ' ' ' `.[.`.`.`.`.`.`.`.`.`.`.i.' ' ( I U F D F I ( ' i. X$X$XtX-XUXUXgXgXgXhXSXHXHXFXFXGXGXGXGXJXJXLXKXKXKXKXKXKXKXKXKXKXKXLXJXGXHXSXSXfXfXdXdXUXUX,X$X[.' ( P P P P P P P P P P P P P P P P P P P P P P I I I P P P P P I P P P P P P P I I P P P P I I P I I P I I I I I I P I I I I I L I I I I I I I I I P P L K F D 5 1 # # < 1 3 6 s D F F F K K K K L L L L L L L L L L L L L L L L L P P P W W L W W ",
"gXgXdXaX2X-X-X-X=X=X*X*X@X@X+X|.|.|.|.{.{.Z.Z.Z.Z.r.r.` ` ' ' ' ' ] ( W I P U U J J J J J J J J J J J J J J J J J U U I ( ' ' ' ' `.[.[.[.[.[.[.[.[.[.[.[.[.[.`.i.' ' ! I L L I ! ` Z.|.$X-XUXdXgXhXSXHXFXGXGXJXJXJXLXKXKXKXKXKXKXKXKXKXKXKXKXKXLXJXGXHXHXZXfXfXdXdXUXUXUXUXUX0X,X$X X`.i.' W P P P P P P P P P P P P P P I P I P P P P P P P I I P P P P I I I P P I I P I I I I I I I I P I I P I I I I I I I I I I I I I I I I P L L K K K F D 6 6 6 s s D D F F F K K K L L L L L L L L L L L L L L L L L L P L L P W W W W ",
"gXgXgXdXaXaX2X-X-X-X=X*X*X*X@X@X|.|.|.|.|.|.{.{.{.[.[.Z.Z.Z.Z.r.r.r.` ` ` ' _ _ ] ] I I I U U U U J J J J J J J U U U U U U U / I I W ( ' ' ' i.[.[.[.[.[.[.[.[.[.[.[.[.[.[.[.[.i.` ' ! W W W ' i.{.*X2XdXZXHXGXJXLXKXKXLXPXLXKXKXKXKXKXKXKXKXKXKXLXLXJXPXhXgXCXfXdXUXUXUXUXUXUX0XtXtXtXtXtX,X,X$X X`.' ( P P P P P P P P I P P P I I P I P P I I P I I P P P P P P P P P I I I I I I I I I I I I I I I I I I I I I I I I I I I P P P P K K K F D 6 6 6 s s D D D D F K K K L L L L L L L L L L L L L L L L L L P I I W W W W W ",
"hXgXgXgXdXaXaXuX-X-X-X=X=X*X*X*X@X@X|.|.|.|.|.|.|.{.{.{.[.[.[.Z.[.Z.Z.Z.Z.r.r.r.` ` ` ` ` ` ` ' ' ] ] I I I U U U J U U U U U / / / I I W ] W W ( ( ' ' ' Z.{.|.@X@X@X|.|.|.|.|.|.@X@X@X@X@X*X$X|.{.Z.|.{.Z.[.*XdXDXLXKXKXKXKXKXKXKXKXKXKXKXKXKXKXKXKXKXLXGXDXIXIXVXBXUXUXUXUXUXUXtXtXtXtX,X,X,X,X,X,X,X,X:X$X X`.' ' ( I P P P P P P P I P P L P P P L L L P P I I I L L L L L P I I I I I I I I I I I I I I I I I I I I I I I I P P P L K K K D 6 6 s s s D D F F K K L L L L L L L L L L L P L P P L L L L P P W W I W W L L ",
"hXhXgXgXgXdXaXaX2X2X2X-X-X=X*X*X*X@X+X|.|.|.|.|.|.|.{.{.{.{.{.[.[.[.[.[.[.[.[.Z.Z.Z.Z.Z.Z.Z.Z.r.r.r.` ` ` ` ` ' _ _ ] ! I I I I I P I I I ] ( ( ] ' ' ' ' ' ' ` ` Z.Z.Z.{.|.*X=X-X-X-X-X-X2XdXdXfXZXPXPXLXKXLXPXPXZXZXZXLXKXKXKXKXKXKXKXKXKXKXKXKXKXKXKXLXFXIXIXIXCXVXUXUXUXUXUXtXtXtX,X,X,X,X,X,X:X,X:X:X:X:X:X:X:X$X$X$X X`.`.' ( W P P P L K L L L L L L L P L L L L L L L L L L P L L P L I I I I I I I I I I I W I I I I I I I P P P K K K D 6 s s s D D F K K K K L L L L L L L L L L L L P L L P P P L P P I I L W W L W ",
"hXhXhXgXgXgXaXaXaXaX2X-X-X-X=X*X*X*X@X@X|.|.|.|.|.|.|.|.{.{.{.{.{.{.{.[.[.[.[.[.[.[.[.Z.[.[.Z.[.[.[.Z.Z.Z.Z.Z.Z.Z.Z.r.r.r.` ` ` ' ' ' _ ] ] ( ( ( ( ( ( ( ' ' ` Z.{.@X*X-X-X*X*X*X*X%X%X-X2XgXgXZXDXJXKXKXKXKXKXKXKXKXKXKXKXKXKXKXKXKXKXKXLXLXLXLXLXJXPXDXZXIXdXUXUXUXUXUXtXtXtXtX,X,X,X,X,X,X,X,X$X:X$X$X$X$X$X$X$X$X$X X$X X X X X X X X`.i.' ( ( P K K K K K L L U U L L K L L L L L L I L I I I I I I I I I I I W W W W W I I I I I L L K K D s s s s D K K K K K L L L L L L L L L P L L P L L L I I I L L I I L L W W ! ! ",
"SXhXhXhXgXgXgXdXaXaXaX2X2X-X-X=X*X*X*X*X@X@X|.|.|.|.|.|.{.{.{.{.{.{.{.[.[.[.[.[.[.[.[.[.[.[.[.[.[.[.[.[.{.[.Z.[.[.[.{.{.{.{.{.{.[.[.{.{.Z.Z.Z.Z.Z.Z.r.` ` ' ' ' ' ' ` ` C.Z.}.*X2XdXfXZXhXgXaX-X-X-X2XdXZXPXJXLXKXKXKXKXKXKXKXKXKXKXKXKXKXLXLXFXSXgX=X}.F.Z.Z.[. X X$X$X$X$X$X$X$X$X$X$X$X$X$X$X X X X X X X X X X X X X X X X X X X X X X X X X X X X X X[.i.' ' ( L F K L K K K L L L L L L L I I I I I I I W W W W W W W W W W W I I P P K K D s s s D F K K L L L P L L L L L L L L L I I I I L I I I I I W ! ! _ ` ` e.e.e.",
"SXSXhXhXgXgXgXdXaXaXaX2X-X-X-X=X-X*X*X*X@X@X@X|.|.|.|.|.|.|.|.|.{.{.{.{.{.[.{.[.{.{.[.[.[.[.[.[.[.[.[.[.[.[.[.{.{.{.{.{.|.{.|.|.|.|.|.|.|.|.|.+X+X+X+X+X+X+X+X|.|.|.}.G.F.A.C.C.Z.Z.H.}.|.*X-X2X2X2X2X-X*X|.|.*X1XdXCXDXPXLXKXKXKXKXKXKXKXKXKXKXLXLXFXSXgX2X@X[.' ( I K K I ( ' ' ' i.`.`.`.`.`.`.`.`.`.[.[.`.`.[.[.[.[.[.[.[.[.[.[.[.[.[.[. X X X X X X X X|.|.$X$X@X|.{.[.i.` ( I K K L L L L I I I I I W W W W W ] ( ( ( ( ( ( ( W W W P P K D s s D F K L L L L L P L P L L L L L L L I L L I W ! ^ ` e.e.M.M.M.M.e.e.e.8.8.",
"HXSXSXhXhXgXgXgXdXaXaXaX-X-X-X-X-X*X*X*X*X@X@X@X@X|.|.|.|.|.|.|.{.{.{.{.{.{.{.{.{.{.{.[.[.[.{.{.{.{.{.{.{.{.{.{.{.{.|.|.|.|.|.|.|.+X+X+XOXOXOX%X%X*X%X=X=X-X-X-X-XuXuXaXjXjXjXjXjXuXaX2X-X=X*X%X}.J.J.F.F.F.F.F.F.{.F.G.DXKXKXKXKXKXKXKXKXKXKXKXLXPXPXHXHXZXgXdX2X<X*X$X X[.' ' I U F D F K W ( ( ' ' ' ' ' ' ' i.i.i.i.i.`.`.`.`.`.`.`.`.[.[.[.[.[.[. X X X X X X|.|.@X*X*X-X-X2XdX2X-X=X%XF.i.! I I I I W W ] ( ( ' ' ' ' ' ' ( ( ( ( W I P K D s D K K L L L P P L L L L L L L I L W ! _ ` M.N.N.B.V.N.M.M.M.M.e.e.e.e.8.8.8.",
"HXHXSXhXhXhXgXgXgXdXdXaXaXaX-X-X-X-X=X*X*X*X@X@X@X@X|.|.|.|.|.|.|.|.{.{.{.{.{.{.{.{.{.{.{.{.{.{.{.{.{.{.{.|.|.|.|.|.|.|.|.|.|.|.|.+XOXOXOX*X*X=X=X=X-X-X-XuXuXaXjXgXgXgXgXhXhXSXSXHXFXFXGXGXGXJXJXPXPXDXZXCXdX2X*X}.F.J.KXKXKXKXKXKXKXKXKXKXKXKXKXKXLXPXZXfXaX2X*X*X@X$X$X@X X X X X[.[.`.' ' ] I K F s F U I ( ( ( ' ' ' ' ' ' ' ' ' ' ' i.`.`.`.`.[.[.[.[. X X X X|.|.$X*X*X=X-X2XdXjXgXgXhXSXHXHXSXCXrX<X{.` ' ( _ ' ' ' ' ' ' ' ( ( ( W I L D D K K P P I W I L I L I W ! ` e.N.B.D.B.B.B.B.B.B.V.V.V.M.M.M.M.e.e.M.e.` ` ` ",
"HXHXSXSXhXhXgXgXgXgXdXdXaXaX2X-X-X-X-X*X*X*X*X@X@X@X|.|.|.|.|.|.|.|.|.{.{.{.{.{.{.{.{.{.{.{.{.{.{.{.{.{.|.|.|.|.|.|.|.|.|.|.|.|.+XOXOX*X*X*X=X=X-X-X-XuXuXaXaXjXgXgXgXhXhXSXHXFXGXJXJXLXKXKXKXKXKXKXKXKXKXLXKXKXLXHXgXgXKXKXKXKXKXKXKXKXKXKXKXKXKXKXKXLXLXJXFXDXZXCXrX<X$X X[.[.[.' i.[.[.[.[.[.[.[.[.[.' ' ] I L U D F F L I ( ( ( ' ' ' ' ' ' ' ' i.i.[.[.[.[.[.[.{.|.|.*X*X*X-X-XaXjXgXgXhXSXHXGXLXKXKXKXKXKXLXPXZXdX*XJ.C.` ' ' ' ( W W I L F K U I I I W W _ ` M.B.U.U.U.U.U.L.L.L.L.B.B.B.B.B.V.V.M.M.M.M.M.M.M.e.e.8.` ` ",
"FXHXHXSXSXhXgXgXgXgXjXjXdXaXaX2X2X-X-X-X*X*X*X*X*X@X@X@X|.|.|.|.|.|.|.|.{.{.{.{.{.{.{.{.{.{.{.{.{.{.{.|.|.|.|.|.|.|.|.|.|.|.+X+XOX%X*X*X*X=X=X-X-X-XuXuXuXjXjXgXgXhXhXhXSXHXFXGXJXLXKXKXKXKXKXKXKXKXKXKXKXKXKXKXKXLXHXHXKXKXKXKXSXSXZXfXfXZXCXVXCXZXZXZXZXZXZXCXCXCXdXdXrX2X1X<X*X@X X[.`.' ' ' ' ' ' ' [.[.[.[.[.[.[.`.' ' ( I I U F F K I ( ( ( ' ' ' ' ' i.i.Z.[.[.|.|.+X*X*X=X-X2XjXgXgXhXSXFXJXLXKXKXKXKXKXKXKXKXLXJXGXHXhXgX-X%XJ.` ! W L I W ! ` C.G.R.T.T.T.R.R.R.R.U.U.U.U.K.L.L.B.B.B.B.B.B.V.M.M.M.M.M.M.e.8.e.8.` ` ",
"FXFXHXSXSXhXhXgXgXgXgXdXdXaXaXaX2X2X-X=X*X*X*X*X*X*X@X@X|.|.|.|.|.|.|.|.|.|.{.{.{.{.{.{.{.{.{.{.{.{.{.|.|.|.|.|.|.|.|.|.|.+X+XOX*X*X%X*X=X=X-X-XuXuXuXaXjXgXgXgXgXhXhXSXHXFXGXJXLXKXKXKXKXKXKXKXKXKXKXKXKXKXKXKXKXKXJXHXKXKXKXKXJXFXHXZXaXaX|.(.' ' ' ' (.`.[.[.[. X X X X$X$X@X$X@X|.|. X X X X X[.[.[.' ' ' ' ' ' ' ' ' [.[.[.[.[.[.' ' ' ] I U F F U I W ( ' ' i.i.Z.Z.F.|.@X*X=X-XUXgXgXhXSXGXJXKXKXKXKXKXKXKXKXKXKXLXJXGXHXSXhXgXgXgXUX-X+X%X%X%X%X&XT.T.T.T.T.T.T.T.T.R.U.U.U.U.U.K.B.B.B.B.B.V.V.M.e.M.M.M.8.8.8.8.8.^ ^ ",
"GXFXHXHXSXSXhXfXgXgXgXgXdXdXaXaX2X2X2X=X=X*X*X*X*X*X*X@X@X@X|.|.|.|.|.|.|.|.|.{.|.|.{.{.{.{.{.{.{.{.|.|.|.|.|.|.|.|.|.|.+X+XOX%X*X*X*X*X=X-X-X-XuXuXaXaXjXgXgXgXhXhXhXHXFXGXJXLXKXKXKXKXKXKXKXKXKXKXKXKXKXKXKXKXKXKXLXGXKXKXKXKXKXKXKXKXLXJXDXVX0X$X(.' ) ) ) ) ) ) ) / ) ) ) (.(.(.(.(.`.[.[.[.[.[.[.[.[.[.[.[.[.[.i.' ' ' ' ' ' ' ' ' ' [.[.[.Z.Z.Z.' ' ' ( ! I I I W ! ` ` Z.|.+X*X-XUXgXhXSXGXJXKXKXKXKXKXKXKXKXKXKXKXLXJXJXGXHXSXhXgXgXUX-X-X-X=X&X&X&X&X&X&X&X&XT.T.T.R.U.U.K.K.L.B.B.B.V.V.V.M.M.e.8.8.8.8.0.0.0.%.0.3.5.",
"GXGXFXFXHXSXSXhXfXgXgXgXgXdXdXdXaX2X2X1X=X=X*X*X*X*X*X@X@X@X@X|.|.|.|.|.|.|.|.{.|.|.|.{.|.{.{.{.{.{.|.|.|.|.|.|.|.|.|.+X@X+X*X*X*X*X*X=X-X-X-X-XuXuXaXjXgXgXgXhXhXhXHXHXGXGXJXLXKXKXKXKXKXKXKXKXKXKXKXKXKXKXKXKXKXKXKXKXKXKXKXKXKXKXKXKXKXKXKXKXKXKXKXLXPXZXBX9X;X`.) ) / ) ) / / / / / / ) ) ).).).(.(.(.(.(.(.(.(.(.[.[.[.[.[.[.[.[.' ' ' ' ' ' ' ' ' ` Z.[.[.Z.Z.Z.Z.` ` _ ! ! ! _ i.F.*XUXgXHXJXKXKXKXKXKXKXKXKXKXKXKXKXKXLXLXLXJXFXgXgXdXUX-X-X-X-X=X&X&X&X&X&XT.T.T.R.R.K.K.K.L.B.V.V.M.M.8.8.8.Q Q B &.&.&.*.&.*.&.*.&.*.",
"GXGXFXFXHXHXSXSXZXfXfXfXfXdXdXdXpX2X2X2X1X1X=X*X*X*X*X*X*X@X@X@X|.|.|.|.|.|.|.|.|.|.|.|.|.|.|.|.|.|.|.|.|.|.|.|.|.|.|.|.+XOX*X*X*X*X=X=X-X-X-X-XuXaXjXjXgXgXgXhXhXhXHXHXGXJXLXKXKXKXKXKXKXKXKXKXKXKXKXKXKXKXKXKXKXKXKXKXKXKXKXKXKXKXKXKXKXKXKXKXKXKXKXKXKXKXKXKXKXJXJXHXZXpX1X$X[.).) / / / / / / / / / / / ) ) ).).(.(.(.(.(.(.(.' r.r.r.[.[.[.[.[.[.Z.` ' ` ` ` ` ` Z.F.|.|.|.@X*X%X*X@X|.|.|.*X2XCXPXLXKXKXKXKXKXKXKXKXKXKXKXKXKXLXLXHXfXgXUXUX-X-X-X=X&X&X&XT.T.T.T.U.U.U.B.B.V.V.9.5.0.&.5.%.%.&.5.%.m *.*.*.*.*.*.*.&.&.*.",
"JXGXGXFXHXHXSXSXZXZXZXfXfXfXdXdXdXpXpXrXrX2X1X1X1X1X*X*X*X*X*X@X@X|.|.|.|.|.|.|.|.|.|.|.|.|.|.|.|.|.|.|.|.|.|.|.|.|.@X+X*X*X*X*X*X=X=X-X-X-X-XaXuXaXjXgXgXgXgXhXhXSXHXFXGXJXLXKXKXKXKXKXKXKXKXKXKXKXKXKXKXKXKXKXKXKXKXKXKXKXKXKXLXLXLXLXLXKXKXKXKXKXKXKXKXKXKXKXLXJXGXFXHXSXSXSXfXCXdXiX1X<X X[.(.).) / / / / / / / / / / / / ) ) ) ' ' (.(.(.(._.[.[.[.[.[.{.{.{.|.|.|.{.F.{.}.|.%X*X2XDXPXPXLXLXKXKXKXLXKXKXKXKXKXKXKXKXKXKXKXLXLXJXDXfXgXUXUX-X-X*X%X%XT.T.T.R.U.L.W.W.V.9.3.0.w.w.*.*.&.*.*.&.*.m.w.&.#.*.*.*.*.*.*.*.&.&.*.",
"JXGXGXFXFXHXDXSXSXZXZXfXfXfXfXdXdXpXpXpXrX2X2X1X1X1X1X<X<X<X<X<X<X@X@X@X@X@X@X|.|.|.|.|.|.|.|.|.|.|.|.|.|.|.|.|.|.|.@X*X*X*X*X*X*X=X-X-X-X-X2XaXuXaXjXgXgXgXhXhXhXSXHXFXGXJXKXKXKXKXKXKXKXKXKXKXKXKXKXKXKXKXKXKXKXKXKXKXKXKXLXHXhXhXhXSXSXHXHXHXHXHXHXHXHXHXHXHXHXSXSXhXhXhXhXgXgXgXdXaXaXaX2X1X1X<X<X<X X X[.(.(.).) ) ) / / / ) ) ) ) ) ) ) ' (.(.(.(.(.[.[.[.[.[.{.|.*X*X1X2XdXgXfXZXDXPXLXKXKXKXKXKXKXKXKXKXKXKXKXKXLXGXSXhXgXaX-X-X*X*X$X|.|.K.J.K.B.V.V.5.0.&.&.&.&.*.*.%.*.h.*.h.*.o.h.m.*.h.m.m.*.$.h.*.h.h.h.h.*.&.*.h.",
"JXJXGXFXFXHXHXDXSXZXZXCXCXfXfXdXdXdXdXpXpX2X2X2X1X1X<X1X<X<X<X<X<X<X<XyX@X@X@X@X@X@X@X@X|.|.|.|.|.|.|.|.|.|.@X@X@X@X*X*X*X*X*X*X=X-X-X-X-X-X-XaXaXjXgXgXgXhXhXhXSXHXHXGXGXJXKXKXKXKXKXKXKXKXKXKXKXKXKXKXKXKXKXKXKXKXKXLXJXJXhXjXjXjXuXuXuX=X=X&X=X=XuXuXuXuXuXuXuXuXuX=X=X=X=X-X-X=X-X=X=X=X=X*X*X*X*X*X@X@X@X|.|.|.|.|.[.[.`.(.(.' ' (.(.) ) ) ' ' ' ' (.(.(.[.[.[.{.{.|.|.@X*X-XdXfXDXJXLXKXKXKXKXKXKXKXKXKXKXKXKXKXKXKXLXGXSXgX-XOXS.e.^ ^ ! Y B B B C $.O.&.@.@.h.h.@.h.h.&.c.h.*.c.h.*.h.*.*.Q.Q.Q.m.&.h.h.h.h.h.m.*.*.h.h.",
"JXJXJXFXFXHXHXDXSXZXZXZXCXCXCXdXdXdXdXpXpXrXrXrX0X1X1X1X1X<X<X<X<X<X<X<X<XyX@X@X@X@XyXyX@X@X@X@X@X@X@X@X@X*X*X*X*X*X*X*X*X*X*X*X-X-X-X-X-X2XaXaXaXdXgXgXgXhXhXhXSXHXFXGXGXLXKXKXKXKXKXKXKXKXKXKXKXKXKXKXKXKXKXKXKXKXKXLXGXGXFXhXhXjXuXuXuX&X&XOXXX.XY.J..XG.G.G.G..X.X.X.X.X.X+X.X+X+XXX.X.X.X.X}.}.|.|.|.|.|.|.|.|.|.|.{.{.{.{.{.{.{.{.[.[.[.[.[.[.[.[.[.[.[.[.[.[.[.{.|.|.@X@X*X*X=X2XdXPXLXKXKXKXKXKXKXKXKXKXKXKXKXKXKXLXPXSXgX-X%X%XXX.XD.M.^ y m %.{ o.*.*.h.c.c.c.h.c.c.*.x.*.*.c.c.*.Q.m.Q.~.Q.Q.Q.&.c.h.h.h.h.h.*.*.m.h.",
"JXJXJXFXFXHXHXHXSXSXZXZXZXCXCXdXdXdXdXdXpXpXrXrXrXrX0X1X<X<X<X<X<X<X<X<X<X<X<X<XyXyXyXyXyX@XyXyXyX@XyXyX<X<X<X*X<X*X*X1X1X1X1X1X1X2X2X2XaXaXaXdXdXgXgXgXgXhXhXSXSXHXGXGXJXLXKXKXKXKXKXKXKXKXKXKXKXKXKXKXKXKXKXKXKXKXKXLXGXJXKXKXLXLXLXJXGXHXSXgX-X%X.X}.}.G.G.{.F.{.F.{.{.H.H.H.Z.Z.Z.Z.H.A.F.F.F.F.{.{.{.{.{.{.{.F.{.{.{.{.{.{.{.{.{.{.{.{.{.|.|.}.}..X+X+XOX%X*X=X-X-X=X*X*X*X+X|.|.|.|.|.|.1XiXCXDXPXLXKXKXKXKXKXKXKXLXKXKXLXGXSXgX-X&XD.8.~ Q m &.*.&.h.h.c.c.x.x.c.c.x.x.*.~.h.h.c.c.h.Q.c.Q.~.~.Q.Q.*.c.c.c.h.c.h.h.*.m.m.",
"JXJXJXFXFXHXHXHXDXSXZXZXZXCXCXCXdXdXdXdXdXiXrXrXrX0X0X1X1X1X<X<X<X<X<X<X<X<X<X<XyXyX<XyX<XyXyX<XyXyX<X<X<X<X<X<X<X1X<X<X1X1X1X1X2X2X2XaXaXpXdXdXdXgXgXgXhXhXSXSXHXHXGXGXJXKXKXKXKXKXKXKXKXKXKXKXKXKXKXKXKXKXKXKXKXKXKXLXGXJXKXKXKXKXKXKXKXKXKXLXLXJXHXhXgXaX-X=XOX.X}.{.{.H.H.H.H.H.Z.Z.Z.Z.Z.Z.Z.Z.r.r.r.r.r.Z.Z.Z.Z.H.H.F.F.F.H.F.F.S.F.S.S.G.G.G.J..X.XXXOX%X=X-XuXuXjXjXhXhXSXSXDXZXCXVXrX1X*X@X|.{.|.*X1XiXdXCXZXZXDXDXSXZXfXgXgXuXuX&X~ y y &.*.h.*.c.c.x.x.x.x.x.x.x.x.h.x.c.x.c.x.h.Q.c.~.~.~.~.Q.h.x.c.c.c.c.c.h.*.m.m.",
"JXJXJXFXFXFXHXDXDXDXSXZXZXCXCXCXdXdXdXdXdXiXrXrXrXrXrX0X1X1X<X<X<X<X<X<X<X<X<X<X<X<X<XyX<X<X<X<X<X<X<X<X<X<X<X<X<X<X<X1X1X1X1X1X2X2XaXaXaXpXdXdXdXgXfXfXhXSXSXHXHXFXGXJXJXKXKXKXKXKXKXKXKXKXKXKXKXKXKXKXKXKXKXKXKXKXKXKXGXJXKXKXKXKXKXKXKXKXKXKXKXKXLXLXJXGXHXSXSXgXpXaX=X*X+X.X}.{.F.H.C.C.C.C.Z.Z.Z.Z.Z.r.r.r.r.r.r.r.r.r.r.r.r.r.r.C.C.A.H.S.S.S.S.S.F.G.G.Y..XoX&X-XuXjXgXhXhXHXJXKXKXKXKXKXKXKXKXLXLXPXDXDXCXaX*XH._ ~ ~ ` e.e.+XJ.&XhX8.y x &.h.c.*.v.x.b.b.b.b.x.x.b.b.h.x.x.x.x.x.*.c.~.^.^.~.~.Q.h.x.x.c.Q.Q.c.c.*.Q.Q.",
"JXJXJXFXFXFXHXHXDXDXZXZXZXCXCXCXCXdXdXdXdXiXrXrXrXrXrX0X0X0X4X<X<X<X<X<X<X<X<X<X<XyX<X<X<X<X<X<X<X<X<X<X<X<X<X<X1X1X1X1X1X1X1X1X2XrXpXaXpXpXdXdXfXfXfXhXZXSXSXHXHXFXGXJXLXKXKXKXKXKXKXKXKXKXKXKXKXKXKXKXKXKXKXKXKXKXKXKXJXLXKXKXKXKXKXKXKXKXKXKXKXKXKXKXLXJXJXGXFXHXSXhXfXgXgXaX2X-X*X@X@X@X+X+X|.|.{.{.F.Z.Z.Z.Z.Z.Z.r.r.r.r.r.r.r.r.r.r.r.r.r.r.e.A.A.A.S.S.G.I.I.Y.Y.T.#X&XuXuXjXhXFXLXKXKXKXKXKXKXKXKXKXKXKXKXKXKXKXLXPXZXpX1X{.C.gXHXGXe.x n *.c.c.h.x.x.b.b.b.b.x.b.b.b.h.x.b.x.^.x.h.~.b.^.^.~.~.Q.c.x.x.Q.Q.Q.Q.c.*.c.Q.",
"JXJXGXGXFXFXHXHXDXDXZXZXZXZXCXCXCXdXdXdXdXiXiXrXrXrXrX0X0X0X0X0X0X<X<X<X<X<X<X<X<X<X<X<X<X<X<X<X<X<X<X<X<X<X<X<X<X1X1X1X1X1X2X2XrXrXpXpXdXdXdXdXfXfXCXZXZXSXSXHXFXFXGXJXLXKXKXKXKXKXKXKXKXKXKXKXKXKXKXKXKXKXKXKXKXKXKXKXLXLXKXKXKXKXKXKXKXKXKXKXKXKXKXKXKXKXLXJXJXGXHXSXSXhXhXfXgXaXaX2X1X1X-X=X=X*X@X@X@X+X|.|.|.|.{.{.Z.Z.Z.Z.Z.Z.Z.C.r.r.r.C.r.r.C.A.A.r.A.A.N.A.S.G.G.Y..X#X&X=XuXuXgXhXHXFXJXLXKXKXKXKXKXKXKXKXKXKXKXKXKXKXKXKXLXJXGXGX8.n m *.c.Q.c.b.b.b.b.b.b.b.b.b.b.h.b.x.c.x.x.m.^.b.^.^.^.~.Q.c.x.x.x.~.~.Q.c.*.c.Q.",
"JXJXJXGXFXFXHXHXHXDXDXZXZXZXCXCXCXCXdXdXdXiXiXrXrXrXrX0X0X0X0X0X4X<X<X<X<X<X<X<X<X<X<X<X<X<X<X<X<X<X<X<X<X<X<X<X<X1X1X0X1X1XrXrXrXpXpXdXdXdXdXdXfXfXfXZXSXSXHXHXFXGXGXJXLXKXKXKXKXKXKXKXKXKXKXKXKXKXKXKXKXKXKXKXKXKXKXKXKXKXKXKXKXKXKXKXKXKXKXKXKXKXKXKXKXKXKXJXJXGXGXHXHXSXSXhXgXgXdXpXaXaXaX2X2X-X*X*X*X*X@X@X@X@X|.|.|.|.|.|.|.{.{.{.{.{.F.H.H.H.A.A.S.S.A.A.A.r.A.N.S.S.S.D.I.I.R.T.&XuXuXjXgXhXHXGXJXLXLXLXLXLXLXLXLXLXLXLXLXLXJXGXFXGXB.C &.c.c.c.c.b.b.b.b.b.b.b.b.b.b.c.b.b.b.x.b.*.^.^.^.~.^.~.Q.c.~.x.x.~.~.x.c.h.Q.Q.",
"JXJXJXGXFXFXFXHXHXDXDXZXZXZXZXCXCXCXVXdXdXdXiXiXrXrXrXrX0X0X0X0X<X<X<X<X<X<X<X<X<X<X<X<X<X<X<X<X<X<X<X<X<X<X<X1X<X1X1X1X0X2XrXrXrXpXpXdXdXdXdXdXfXfXfXZXZXSXHXHXFXGXGXJXLXKXKXKXKXKXKXKXKXKXKXKXKXKXKXKXKXKXKXKXKXKXKXKXKXKXKXKXKXKXKXKXKXKXKXKXKXKXKXKXKXKXKXLXJXJXGXFXHXHXSXSXhXgXgXdXdXdXdXaX2X2X1X1X1X*X*X*X@X@X@X@X@X@X@X@X+X+X+X+X+X+X+X+X+X+X.X.X.XXXOXoX.XY.Y.I.Y.I.I.I.I.I.Y.R.T.T.T.&X&X&XuXuXuXjXjXgXhXhXhXSXSXSXSXhXhXhXhXjXjXGX6.C &.c.x.x.c.b.b.b.b.b.b.b.b.b.b.c.b.b.b.b.x.Q.^.^.^.~.^.^.Q.c.x.x.x.~.~.x.c.h.Q.Q.",
"JXJXJXFXFXFXFXHXHXDXDXDXZXZXZXCXCXCXVXdXdXdXiXiXiXrXwXwXrX0X0X0X4X4X<X<X<X<X<X<X<X<X<X<X<X<X<X<X<X<X<X<X<X<X<X1X1X1X0X0X1X1XrXrXrXpXdXdXdXdXdXdXdXfXCXCXZXDXHXHXFXFXGXJXLXKXKXKXKXKXKXKXKXKXKXKXKXKXKXKXKXKXKXKXKXKXKXKXKXKXKXKXKXKXKXKXKXKXKXKXKXKXKXKXKXKXKXLXLXJXJXGXFXHXSXSXZXfXfXgXgXdXdXdXpX2X2X1X1X1X1X*X*X@X@X@X@X@X@X@X@X@X@X@X@X*X*X*X*X=X=X=X=X=XuXuXuXuXuXuXaXjXjXjXgXhXSXSXSXgXjXjXuXuXuXuXuXuX&XuXuX&XT.T.T.R.R.T.T.T.T.T.jXJX~ C &.c.x.x.c.b.b.b.b.b.b.b.b.b.b.c.b.b.b.b.b.c.^.^.^.^.^.^.Q.c.x.x.x.~.~.~.c.h.Q.Q.",
"JXJXJXFXFXFXFXHXHXDXDXDXZXZXZXZXCXCXCXVXVXVXiXiXiXrXrXwXrX0X0X0X0X0X0X<X<X<X<X<X<X<X<X<X<X<X<X<X<X<X<X<X<X<X<X1X0X1X0X0XrXrXrXrXrXpXdXdXdXdXdXdXdXdXdXdXZXSXHXFXGXGXGXJXLXKXKXKXKXKXKXKXKXKXKXKXKXKXKXKXKXKXKXKXKXKXKXKXKXKXKXKXKXKXKXKXKXKXKXKXKXKXKXKXKXKXKXLXLXJXJXGXFXHXHXSXSXfXfXfXfXfXfXdXdXpXrX2X2X1X1X1X*X*X*X*X@X@X@X@X@X@X@X*X*X=X=X=X=X=X-X-X-XuXjXgXjXjXjXgXhXhXHXHXGXJXLXKXKXKXKXKXLXLXLXLXLXJXJXHXSXgXjXuX&XT.E.E.E.E.W.uXGXHXM C &.x.b.!.x.b.b.b.b.b.b.b.b.b.b.c.^.v.v.b.b.c.^.^.^.^.^.^.Q.c.x.x.x.~.~.~.c.h.c.Q.",
"JXJXJXFXFXFXFXHXHXDXDXDXZXZXZXCXCXCXCXVXVXVXdXiXiXrXrXrXrXrX0X0X0X0X0X4X<X<X<X<X<X<X<X<X<X<X<X<X<X<X<X<X<X<X4X0X0X1X0XrX2XrXrXrXrXpXdXdXdXdXdXdXdXdXdXdXfXSXHXFXGXGXJXJXLXKXKXKXKXKXKXKXKXKXKXKXKXKXKXKXKXKXKXKXKXKXKXKXKXKXKXKXKXKXKXKXKXKXKXKXKXKXKXKXKXKXKXKXLXJXJXGXGXFXHXSXSXfXfXfXfXfXfXfXdXpXpXrX2X2X1X1X1X<X<X<X*X*X*X*X*X*X*X*X=X=X1X=X-X1X2XuXuXuXgXgXgXhXhXhXhXHXHXGXJXKXKXKXKXKXKXKXKXKXKXKXKXKXKXLXLXLXLXLXJXFXHXhXjXuXP.uXD.uXp $.*.x.b.!.x.b.b.b.b.b.b.b.b.b.b.c.b.v.k.b.v.c.b.b.^.^.^.^.Q.c.x.x.x.~.~.~.c.h.c.Q.",
"JXJXJXFXFXFXFXHXHXDXDXDXZXZXZXZXCXCXCXVXVXdXdXiXiXrXrXwXwX0X0X0X0X0X0X0X0X4X<X<X<X<X<X<X<X<X<X<X<X<X<X<X<X4X4X0X0X0X0XrX1XrXrXrXrXpXdXdXdXdXdXdXdXdXdXdXfXZXDXHXGXGXJXJXLXKXKXKXKXKXKXKXKXKXKXKXKXKXKXKXKXKXKXKXKXKXKXKXKXKXKXKXKXKXKXKXKXKXKXKXKXKXKXKXKXKXKXKXLXJXJXGXGXFXHXSXSXZXCXCXCXfXfXfXdXdXaXpXrX2X1X1X1X1X<X1X*X<X<X*X*X*X*X*X=X-X2X2X2X2XaXaXaXjXgXgXhXhXhXhXHXHXGXGXLXKXKXKXKXKXKXKXKXKXKXKXKXKXKXKXKXKXKXKXKXKXJXJXGXHXT.=Xx uXn $.*.x.b.x.x.b.b.b.b.b.b.b.b.b.b.x.v.v.v.b.v.c.b.b.^.^.^.^.Q.c.x.x.x.~.~.~.c.h.x.Q.",
"JXJXJXFXFXFXFXHXHXDXDXDXZXZXZXZXCXCXCXVXVXdXdXiXiXiXeXwXwXwXwXwX0X0X0X0X0X0X<X<X1X<X<X<X<X<X<X<X<X<X<X<X<X<X0X1X0X0X0XrXrXrXrXiXiXdXdXdXdXdXdXfXdXdXdXdXfXZXSXHXFXGXJXJXLXKXKXKXKXKXKXKXKXKXKXKXKXKXKXKXKXKXKXKXKXKXKXKXKXKXKXKXKXKXKXKXKXKXKXKXKXKXKXKXKXKXKXKXLXJXJXGXGXFXHXDXSXZXZXZXCXCXCXfXfXdXpXiXaXrX2X1X1X1X1X1X1X1X<X<X1X=X1X1X1X2X2X2XaXaXuXaXaXjXgXhXhXhXhXHXHXFXGXJXLXKXKXKXKXKXKXKXKXKXKXKXKXKXKXKXKXKXKXKXKXKXKXLXJXGX&XuXx aXn &.*.x.b.x.x.b.b.b.b.b.b.b.b.b.b.x.b.v.b.b.b.Q.b.^.^.^.^.^.c.x.x.x.x.~.~.~.c.h.x.c.",
"JXJXPXPXFXFXHXHXHXDXSXDXZXZXZXZXCXCXCXCXdXVXdXdXiXiXeXeXwXwXwXwX0X0X0X0X4X<X<X1X<X<X<X<X<X<X<X<X<X<X<X<X<X0X0X0X0X0XrXrXrXrXrXiXiXdXdXdXdXdXdXfXfXfXfXfXfXCXSXDXFXFXGXJXJXKXKXKXKXKXKXKXKXKXKXKXKXKXKXKXKXKXKXKXKXKXKXKXKXKXKXKXKXKXKXKXKXKXKXKXKXKXKXKXKXKXKXKXLXJXJXGXGXFXHXHXSXZXZXZXZXCXCXCXCXdXdXpXrXrX2X1X1X1X1X1X1X1X1X1X1X1X1X1X1X2X2XaXaXaXaXaXdXgXgXhXhXhXSXHXHXGXGXJXLXKXKXKXKXKXKXKXKXKXKXKXKXKXKXKXKXKXKXKXKXKXKXKXLXJX%XuXM aX&.h.m.x.b.x.x.b.b.b.b.b.b.b.b.b.b.x.b.v.b.b.b.h.b.^.^.^.^.^.c.x.x.x.x.~.~.~.c.h.x.x.",
"JXJXPXPXFXPXHXHXHXDXDXDXZXZXZXZXCXCXCXCXVXVXdXdXdXiXeXeXrXrXwXwX0X0X0X0X0X<X1X<X<X<X<X<X<X<X<X<X<X<X<X<X0X0X0X0X0X0XrXrXrXiXrXiXiXdXdXdXdXdXdXdXfXCXCXCXfXZXSXSXHXFXGXJXLXLXKXKXKXKXKXKXKXKXKXKXKXKXKXKXKXKXKXKXKXKXKXKXKXLXKXKXKXKXKXKXKXKXKXKXKXKXKXKXKXKXKXKXLXJXJXGXGXFXHXHXSXZXZXZXZXZXCXCXCXfXdXpXpXrXrX1X1X1X1X1X1X1X1X1X1X1X1X1X1X2XaXaXaXaXaXaXgXgXgXhXhXhXSXHXHXFXGXJXLXKXKXKXKXKXKXKXKXKXKXKXKXKXKXKXKXKXKXKXKXKXKXKXKXJX%XuX%.jXh.Q.Q.x.b.x.x.b.b.b.b.b.b.b.b.b.b.x.^.^.b.b.b.c.b.b.b.b.^.^.c.x.x.x.x.x.~.~.c.h.x.c.",
"JXGXPXPXFXPXHXHXHXDXDXDXZXZXZXZXZXCXCXVXVXVXdXdXdXiXeXeXwXwXwXwXwX0X0X0X0X4X1X<X<X<X<X<X<X<X<X<X4X0X<X4X0X0X0X0X0X0XrXrXrXrXiXiXiXdXdXdXdXdXdXfXCXCXCXCXCXZXZXSXHXFXGXJXJXLXKXKXKXKXKXKXKXKXKXKXKXKXKXKXKXKXKXKXKXKXKXKXKXLXKXKXKXKXKXKXKXKXKXKXKXKXKXKXKXKXKXKXLXJXJXGXGXFXHXHXSXZXZXZXZXZXZXCXCXfXdXdXpXrXrX2X1X1X0X1X1X1X1X1X1X1X1X1X2X2XpXaXaXaXaXaXgXgXgXhXhXSXHXHXFXGXGXGXLXKXKXKXKXKXKXKXKXKXKXKXKXKXKXKXKXKXKXKXKXKXKXKXKXJX%XuX4.jXc.Q.Q.!.^.x.x.b.b.b.b.b.b.b.b.b.b.c.^.^.^.x.^.c.^.^.^.^.^.^.c.x.x.x.x.x.~.~.c.h.x.c.",
"JXGXFXFXFXFXFXHXDXDXDXDXZXZXZXZXZXCXCXVXVXVXdXVXdXdXiXeXwXwXwXwXwX0X0X0X0X0X1X1X<X<X<X<X4X4X<X<X4X0X0X0X0X0X0X0X0XrXrXrXrXrXiXiXiXdXdXdXdXdXdXCXCXCXCXZXZXZXZXSXDXFXGXJXJXLXKXKXKXKXKXKXKXKXKXKXKXKXKXKXKXKXKXKXKXKXKXKXKXLXKXKXKXKXKXKXKXKXKXKXKXKXKXKXKXKXKXKXLXJXJXGXGXFXHXHXSXSXZXZXZXZXZXCXCXCXdXdXpXaXrX2X1X1X0X0X0X1X1X1X1X1X1X2X2XaXaXpXaXaXpXdXgXgXfXhXhXSXHXHXHXFXGXJXLXKXKXKXKXKXKXKXKXKXKXKXKXKXKXKXKXKXKXKXKXKXKXKXKXJXOXuX5.jXc.Q.Q.n.^.x.x.b.b.b.b.b.b.b.b.b.b.h.^.^.^.x.^.h.^.^.^.^.^.^.c.x.x.x.x.v.x.~.Q.h.~.Q.",
"JXFXFXFXFXFXHXHXDXDXDXDXZXZXZXZXZXCXCXVXVXVXVXVXdXdXeXeXeXeXwXwXwX0X0X0X0X0X1X1X<X<X<X<X4X4X4X4X0X0X0X0X0X0X0X0X0XrXrXrXrXiXiXiXiXdXdXdXdXdXfXCXfXCXCXZXZXZXZXSXDXHXFXGXJXLXLXKXKXKXKXKXKXKXKXKXKXKXKXKXKXKXKXKXKXKXKXKXKXJXKXKXKXKXKXKXKXKXKXKXKXKXKXKXKXKXKXLXLXJXJXGXGXHXHXHXSXSXZXZXZXZXZXCXCXCXdXdXdXpXrX2X2X0X1X1X1X1X1X1X1X1X1X2X2XrXaXpXpXaXpXdXgXgXfXhXhXhXSXHXHXFXGXGXLXKXKXKXKXKXKXKXKXKXKXKXKXKXKXKXKXKXKXKXKXKXKXKXKXJXXXuXq.jXc.Q.Q.!.b.Q.b.b.b.b.b.b.b.b.b.b.b.c.b.^.b.^.^.Q.^.^.^.x.^.^.c.x.x.x.x.x.x.x.c.*.~.Q.",
"JXFXFXFXFXHXHXHXDXDXDXDXZXZXZXZXCXCXCXCXCXVXVXVXVXdXeXeXeXeXwXwXwXwXwX0X0X0X0X0X0X<X1X<X4X4X0X0X0X0X0X0X0X0X0X0X0XrXrXrXrXiXiXiXiXdXdXdXdXdXfXCXfXCXCXZXCXZXZXSXSXHXFXGXJXJXLXKXKXKXKXKXKXKXKXKXKXKXKXKXKXKXKXKXKXKXKXKXKXJXKXKXKXKXKXKXKXKXKXKXKXKXKXKXKXKXKXLXJXJXGXGXFXHXHXHXSXSXZXZXZXZXZXCXCXCXCXdXdXpXrXrX2X1X1X1X1X2X1X1X1X1X2X2X2XaXaXpXpXpXpXdXgXgXfXhXhXSXSXHXHXFXGXGXJXKXKXKXKXKXKXKXKXKXKXKXKXKXKXKXKXKXKXKXKXKXKXKXKXJX.XuXm.jXQ.Q.Q.!.b.!.b.b.b.b.b.b.b.b.b.b.b.c.b.v.^.^.^.Q.^.^.x.^.^.^.h.x.x.x.x.v.x.x.c.*.~.Q.",
"FXFXFXFXFXFXHXHXDXDXDXDXZXZXZXZXCXCXCXCXCXVXVXVXVXdXiXeXeXeXeXeXwXeXwXwX0X0X0X0X0X<X1X<X4X0X0X0X0X0X0X0X0X0X0X0X0XrXrXrXrXiXiXiXiXdXdXdXdXdXfXfXCXCXZXZXZXZXZXSXSXHXFXFXJXJXLXLXKXKXKXKXKXKXKXKXKXKXKXKXKXKXKXKXKXKXKXKXKXJXKXKXKXKXKXKXKXKXKXKXKXKXKXLXJXJXGXGXGXFXFXFXHXHXHXHXSXSXZXZXZXZXZXCXCXCXCXdXdXpXrXrXrX2XrX1X1X1X1X2X1X2X2X2XrXaXaXpXpXaXpXdXgXgXfXhXhXSXSXHXHXFXGXGXJXKXKXKXKXKXKXKXKXKXKXKXKXKXKXKXKXKXKXKXKXKXKXKXKXJX.XjXm.jXQ.Q.Q.^.b.!.b.b.b.b.b.b.b.b.b.b.b.h.^.b.^.~.^.h.x.x.^.^.^.^.h.x.v.x.x.c.x.x.x.*.~.Q.",
"FXFXFXFXFXHXHXDXDXDXDXZXZXZXZXZXCXCXCXCXCXVXVXVXVXdXeXeXeXeXeXwXwXwXwX0X0X0X0X0X1X<X1X<X0X0X0X0X0X0X0X0X0X0X0X0XrXrXrXrXrXiXiXiXdXdXdXdXdXdXCXCXCXCXZXZXZXZXSXSXDXHXHXFXGXJXJXLXLXKXKXKXKXKXKXKXKXKXKXKXKXKXKXKXKXKXKXKXKXPXKXKXKXKXKXKXKXKXKXKXKXKXKXJXFXHXSXgXgXgXSXSXSXSXSXHXDXSXZXZXZXZXZXZXZXCXCXdXdXpXrXrXrX2X2XrX2X1X1X1X1X2X2X2XrXpXaXpXpXpXpXgXgXgXgXhXhXSXSXSXHXHXFXGXJXLXKXKXKXKXKXKXKXKXKXKXKXKXKXKXKXKXKXKXKXKXKXKXKXJX}.jXm.jXQ.Q.Q.^.b.x.x.b.b.b.b.b.b.b.b.b.b.h.^.^.^.~.^.m.b.^.^.b.^.^.c.x.x.x.x.c.x.x.c.*.~.Q.",
"PXFXFXFXFXFXHXDXDXDXDXZXZXZXZXZXCXCXCXCXCXVXVXVXVXdXeXeXeXeXeXwXeXwXwX0X0X0X0X0X1X<X<X<X4X0X0X0X0X0X0X0X0X0X0X0X0XrXrXrXiXiXiXiXdXdXdXVXdXdXCXCXCXCXZXZXZXZXSXSXDXHXHXFXFXJXJXJXLXKXKXKXKXKXKXKXKXKXKXKXKXKXKXKXKXKXKXKXKXPXKXKXKXKXKXKXKXKXKXKXKXLXLXJXHXhXhXR.G.e.-XgXgXhXgXZXSXSXZXZXZXZXZXZXCXCXCXVXdXiXiXrXrXrXrXrXrXrX2X1X1X2X2XrXrXpXpXpXpXpXdXgXgXgXgXhXhXSXSXSXSXHXFXGXJXLXKXKXKXKXKXKXKXKXKXKXKXKXKXKXKXKXKXKXKXKXKXKXLXJX{.jXm.jXQ.Q.Q.!.b.x.x.b.b.b.b.b.b.b.b.b.b.c.x.^.^.^.^.m.b.b.^.^.^.^.h.x.x.x.x.c.x.x.x.*.~.Q.",
"PXFXFXFXFXHXDXDXDXDXDXDXZXZXZXZXCXCXCXCXCXVXVXVXVXVXvXeXMXMXeXeXwXwXwX0X0X0X0X0X0X0X<X<X4X4X0X0X0X0X0X0X0X0X0X0X0XrXrXeXiXiXiXiXdXdXdXVXCXCXCXCXCXCXZXZXZXSXSXDXDXDXHXFXGXGXJXJXLXLXKXKXKXKXKXKXKXKXKXKXKXKXKXKXKXKXKXKXLXPXLXKXKXKXKXKXKXKXKXKXLXPXgXHXSXhXgXe.~ R ~ *XuXgXfXfXZXZXZXZXZXZXZXZXZXCXCXCXVXiXiXrXrXrXrXrXrXrX2X2X2X2X2XrXrXpXaXpXpXpXdXdXdXgXgXhXhXSXSXSXSXHXHXFXGXJXKXKXKXKXKXKXKXKXKXKXKXKXKXKXKXKXKXKXKXKXKXKXLXJXF.jXE.uXQ.Q.Q.!.^.x.x.b.b.b.b.b.b.b.b.b.b.Q.x.x.x.^.^.h.^.b.b.^.^.^.h.x.c.x.x.c.x.x.~.h.~.Q.",
"FXFXFXFXFXHXDXDXDXDXDXDXZXZXZXZXCXCXCXCXCXVXVXVXVXVXeXvXMXMXeXeXeXwXwXwX0X0X0X0X0X1X<X<X4X4X0X0X0X0X0X0X0X0X0X0XrXrXrXiXiXiXiXiXdXdXdXVXdXdXdXdXCXCXCXZXDXDXDXSXDXDXHXFXFXGXJXJXJXLXLXKXKXKXKXKXKXKXKXKXKXKXKXKXKXKXKXKXLXPXLXKXKXKXLXLXLXLXLXJXJXSXOX-XgXhXaX.X~ ~ e.H.=X-XaXpXfXCXZXCXfXZXZXZXZXCXCXCXdXdXiXiXrXrXrXrXrXrXrXrX2X2X2X2XrXpXaXpXpXdXdXdXdXgXfXhXhXSXSXSXSXHXHXFXGXJXLXKXKXKXKXKXKXKXKXKXKXKXKXKXKXKXKXKXKXKXKXLXJXGXH.uXE.uXQ.Q.Q.!.^.x.x.b.b.b.b.b.b.b.b.b.^.c.~.c.^.^.^.h.b.b.b.^.^.^.h.x.x.x.x.c.x.x.~.h.~.Q.",
"FXFXFXFXHXHXDXDXDXDXDXDXZXZXZXZXCXCXCXCXVXVXVXVXVXVXiXMXMXeXeXeXeXwXwXwXwX0X0X0X0X0X<X<X4X0X0X0X0X0X0X0X0X0X0XrXwXwXrXiXiXiXiXiXdXdXdXdXdXdXdXdXCXCXCXZXZXDXDXDXDXDXHXHXFXFXGXJXJXJXLXLXKXKXKXKXKXKXKXKXKXKXKXKXKXKXKXKXLXFXLXKXKXLXJXSXgXhXSXHXhXuXOXA.dXgX&X.Xe.r._ e.G.=X-X-XpXfXfXpXaXdXfXCXCXCXCXCXVXdXiXiXiXrXrXrXrXrXrXrXrXrXrXrXaXaXpXpXpXpXpXdXdXfXfXhXhXSXSXSXSXHXHXFXGXGXJXKXKXKXKXKXKXKXKXKXKXKXKXKXKXKXKXKXKXKXKXLXJXGX[.uXE.uXQ.Q.m.^.^.x.!.b.^.b.b.b.b.b.b.b.^.h.^.x.^.^.^.h.b.b.b.^.^.~.m.x.c.x.x.x.c.x.Q.h.Q.Q.",
"FXFXFXHXHXDXDXDXDXDXDXZXZXZXZXZXCXCXCXCXCXVXVXVXVXVXVXMXMXeXeXeXeXwXwXwXwX0X0X0X0X0X1X<X0X0X0X0X0X0X0X0X0X0X0XrXrXwXrXrXiXiXiXiXdXdXdXVXdXdXCXCXCXCXCXZXZXZXDXDXDXDXHXHXFXFXFXJXJXJXJXLXLXKXKXKXKXKXKXKXKXKXKXKXKXKXKXKXLXPXLXLXLXJXFXgXoXG.R.=X&Xe.+XJ.%X-XY.A.! ~ ~ ~ A.+X=X=X2XaXaX2X=X1XaXaXdXdXVXdXdXdXiXiXiXrXrXrXrXrXrXrXrXrXrXrXaXpXaXaXpXpXpXdXdXfXfXfXhXhXSXSXSXSXHXHXFXGXJXLXKXKXKXKXKXKXKXKXKXKXKXKXKXKXKXKXKXKXLXLXGXGXr.uXE.uXQ.Q.m.^.^.Q.^.b.b.b.b.b.b.x.b.^.^.h.^.^.^.^.x.c.b.b.b.^.^.~.h.x.x.x.x.x.c.x.Q.c.~.Q.",
"FXFXFXHXDXDXDXDXDXDXZXZXZXZXZXCXCXCXCXVXVXVXVXVXVXVXVXiXeXeXeXeXeXeXwXwXwXwX0X0X0X1X0X<X0X0X0X0X0X0X0X0X0X0X0XrXrXwXrXrXiXiXiXdXdXdXdXVXdXdXCXCXCXCXCXCXZXZXDXDXDXDXHXHXHXFXFXFXJXJXJXLXLXKXKXKXKXKXKXKXKXKXKXKXKXKXKXKXLXHXJXJXGXHXHXgXD.~ e.Q 8.Y R e.~ .Xe.! G G e.C.}.G.=XaX-XOX1X1X@X|.+X*X=X@XpXpXpXpXiXiXiXiXiXiXiXiXrXrXrXrXrXrXpXaXpXpXaXpXdXdXdXgXfXfXhXhXhXSXSXSXHXHXFXGXJXJXLXKXKXKXKXKXKXKXKXKXKXKXKXKXKXKXKXKXLXJXGXGXr.uXuXuXQ.Q.m.!.^.Q.^.^.b.b.b.b.b.b.b.^.^.Q.^.^.~.b.x.c.b.b.b.^.^.~.h.x.x.x.x.x.c.x.x.h.~.h.",
"FXFXHXHXDXDXDXDXDXDXZXZXZXZXZXZXCXCXCXCXCXVXVXVXVXVXVXiXiXeXeXeXeXwXwXwXwX0X0X0X0X0X1X<X0X0X0X0X0X0X0X0X0X0X0XrXrXwXwXrXiXiXiXdXdXdXdXdXVXCXCXCXCXCXCXCXZXZXDXDXSXDXHXHXHXFXFXFXGXJXJXJXJXLXLXKXKXKXKXKXKXKXKXKXKXKXKXKXLXHXFXGXFXhXjX=XA.Y ~ Y v u u Y G e.~ c G ! _ F.}.A.OX=X.X{.|.+X|.` r.` .Xr.1XpXrXpXdXpXiXiXpXiXiXaXrXrXrXrXaXaXpXaXpXpXpXpXdXdXdXgXfXfXhXhXhXSXSXSXHXHXFXGXGXJXLXKXKXKXKXKXKXKXKXKXKXKXKXKXKXKXKXLXJXGXGXGXr.uXuX/.Q.Q.m.!.!.Q.^.^.b.b.b.b.b.b.b.^.^.Q.~.^.~.~.~.h.^.b.b.b.^.~.h.x.x.c.x.x.c.x.c.*.Q.h.",
"PXHXHXDXHXDXDXDXDXZXZXZXZXZXZXCXCXCXCXCXCXVXVXVXVXVXiXiXMXeXvXeXeXwXwXwXwXwX0X0X0X0X1X<X0X0X0X0X0X0X0X0X0X0XwXrXrXwXrXrXiXiXiXiXdXdXdXVXdXVXCXCXCXCXCXCXZXZXZXDXDXDXDXHXHXHXFXFXFXJXJXJXJXJXLXLXKXKXKXKXKXKXKXKXKXKXKXKXLXDXHXFXhXuXN.A.~ ! Y v u 2 S G u H H H ! e._ H.` e.F.e.! _ ~ ` r.R ` ~ e.~ {.1X1XrXiXpXiXiXiXiXiXpXiXpXrXrXrXaXaXpXpXpXpXpXdXdXdXgXfXfXfXhXhXhXSXSXSXHXHXFXGXJXJXLXKXKXKXKXKXKXKXKXKXKXKXKXKXKXLXJXJXGXGXGXr.aXuX/.Q.Q.m.!.!.c.^.b.b.b.b.b.b.b.b.^.^.Q.c.~.x.~.^.c.b.b.b.x.~.~.h.x.x.x.x.x.c.x.c.*.Q.Q.",
"HXHXDXDXDXDXDXDXDXZXZXZXZXZXZXCXCXCXCXCXVXVXVXVXVXdXiXiXMXvXvXeXeXeXwXwXwXwX0X0X0X0X1X1X0X0X0X0X0X0X0X0X0X0XwXrXrXwXeXrXiXeXiXiXdXdXdXdXdXVXCXCXCXCXCXCXZXZXZXZXDXDXDXHXHXHXFXFXFXJXJXJXJXJXJXLXLXLXKXKXKXKXKXKXKXKXKXKXPXdXgXjX#Xe.~ E Y G u H u 1 2 3 F u u R ` ` ~ e.R ` R u c 4 4 u c u c R ` ! ` Z.@X1XiXpXiXiXiXiXiXiXiXpXrXrXaXaXaXaXpXpXpXpXdXdXdXdXfXfXfXfXhXSXSXSXSXSXHXFXGXGXJXJXLXLXKXKXKXKXKXKXKXKXKXKXKXKXLXJXGXGXGXFX` aXsX/.Q.Q.m.!.!.Q.~.^.b.b.b.b.b.b.b.!.^.Q.c.h.^.~.^.Q.b.b.^.!.~.~.*.x.x.x.x.x.c.x.c.*.Q.~.",
"HXDXDXDXDXDXDXDXDXZXZXZXZXZXZXCXCXCXCXCXVXVXVXVXVXdXiXiXMXMXeXeXeXeXwXwXwXwX0X0X0X0X0X<X0X0X0X0X0X0X0X0X0X0XwX0X0XwXwXrXiXiXiXiXdXdXdXdXdXVXCXdXCXCXCXCXZXZXZXZXDXSXDXHXHXHXFXFXFXFXGXJXJXJXJXLXLXLXLXKXKXKXKXKXKXLXLXJXfX+XG.M.e.! R v u 4 2 u 7 3 > & 6 < 1 u u u G G 4 G 5 < < & & < 2 1 5 H R ~ G ` r.@XrXiXiXiXiXiXiXiXiXiXiXrXrXaXaXpXpXpXpXpXdXdXdXdXfXfXfXfXhXZXhXSXSXSXHXHXFXGXGXJXJXJXLXLXKXKXKXKXKXKXKXKXLXLXJXGXGXGXGXHX_ uXsX/.w.Q.m.!.!.Q.~.^.b.b.^.b.b.^.^.^.~.h.^.~.^.~.~.m.b.b.b.!.~.~.*.c.x.x.x.x.c.x.Q.h.c.Q.",
"HXDXDXDXDXDXDXDXDXZXZXZXZXZXCXCXCXCXCXCXVXVXVXVXVXdXdXeXiXiXeXeXeXeXwXwXwXwX0X0X0X0X1X1X0X0X0X0X0X0X0X0X0X0X0XrXwXwXwXrXiXiXiXiXdXVXVXdXdXdXCXCXCXCXCXCXCXCXZXZXDXDXDXHXDXHXFXFXFXFXFXGXJXGXJXJXJXLXLXLXKXKXLXLXLXJXGXSX.X! E ~ v G u 4 3 2 1 1 < : : & # # # # # # : & # < > : & # # # & & = u G R u r.Z.{.1X<X1X0X1XiXdXiXiXiXiXrXrXaXaXpXpXpXpXpXpXdXdXdXfXgXfXfXhXhXhXSXSXSXHXHXFXGXGXGXJXJXJXJXLXLXLXLXLXLXLXLXLXJXGXGXGXGXFXHX_ uXsX/.w.Q.m.~.!.m.~.^.^.b.^.b.b.^.^.^.c.*.^.^.^.~.~.Q.^.b.b.!.~.~.*.c.c.c.x.c.c.x.Q.Q.Q.Q.",
"DXDXDXDXDXDXDXZXZXZXZXZXZXZXCXCXCXCXCXCXVXVXVXVXVXVXiXiXeXeXeXeXeXeXwXwXwXwXrX0X0X0X0X0X0X0X0X0X0X0X0X0X0X0X0XrXwXwXwXeXiXiXiXiXVXVXdXdXdXVXCXCXCXCXCXCXCXZXZXZXZXDXDXDXDXHXFXFXFXFXFXFXGXGXGXJXJXJXLXLXLXLXLXLXJXGXHX-X~ v ! Y.G u 2 < > : : : : : # # # # # @ @ # @ O @ @ # # # # @ # # # # & = u F _ Z.{.{.{.@X|.|.rXdXiXiXiXiXaXaXiXiXpXpXpXpXpXdXdXdXdXgXgXfXfXfXhXhXSXSXSXHXHXFXFXGXGXGXGXJXJXJXJXLXJXJXJXJXJXJXJXGXGXGXFXFXHX_ uXsXE.w.m.w.Q.~.m.~.^.!.^.^.^.b.^.^.^.~.h.^.^.~.~.~.Q.^.b.b.x.~.!.*.c.c.c.x.x.c.Q.m.c.Q.c.",
"DXDXDXDXDXDXDXZXZXZXZXZXZXCXCXCXCXCXCXCXVXVXVXVXVXVXiXMXMXvXeXeXeXeXwXwXwXwXwX0X0X0X0X0X0X0X0X0X0X0X0X0X0X0X0X0XwXwXrXrXrXiXiXdXiXdXdXdXVXVXCXCXCXCXCXCXCXZXZXZXZXDXDXDXDXHXHXFXHXFXFXFXFXGXGXJXJXJXJXJXJXJXLXJXGXHXhXF.e.R ~ .XR 6 < : : < : : : : # # # # @ # @ @ @ O O + @ @ @ @ @ @ # # # # > 5 F r.{.{.{.r.@Xr.|.1XiXdXiXiXiXpXpXaXpXpXpXpXpXpXpXdXdXdXgXfXfXfXfXfXfXhXSXSXSXHXHXFXGXGXGXGXGXGXJXJXJXJXJXJXJXJXGXGXGXGXFXFXHXSX_ uXuXE.w.w.w.Q.Q.*.~.~.!.^.^.^.x.^.^.^.^.Q.x.^.x.Q.^.Q.^.x.b.x.~.x.*.c.c.c.x.c.c.c.h.c.c.h.",
"DXDXDXDXDXDXZXZXZXZXZXZXCXCXCXCXCXCXCXVXVXVXVXdXVXdXiXvXvXvXeXeXeXeXwXwXwXwXrX0X0X0X0X0X0X0X0X0X0X0XwX0X0XwXwXrXwXwXrXeXeXiXiXdXdXdXdXdXVXVXCXCXCXCXCXCXCXZXZXZXZXDXZXDXDXDXHXFXHXFXFXFXFXFXFXGXGXFXFXFXFXHXFXHXSXgXXX` ! ~ ` ~ u 1 < > < < < : : : # # # # # # @ @ + O O O O + @ + @ @ @ @ # # 1 H R _ R ` r._ r.r.{.2XiXdXiXiXiXpXpXiXiXpXpXpXpXpXpXdXdXdXgXgXfXfXfXfXfXfXhXSXSXHXHXFXFXFXGXGXGXGXGXJXJXJXGXGXGXGXGXGXGXFXFXFXHXSX_ uXuXE.w.w.w.Q.Q.*.~.!.!.~.^.~.!.^.^.~.~.~.h.c.Q.x.~.Q.~.x.x.x.x.Q.*.c.c.c.x.c.c.Q.h.Q.c.c.",
"DXDXDXDXDXZXZXZXZXZXZXZXCXCXCXCXCXCXCXVXVXVXVXVXVXdXiXeXeXvXeXeXeXeXwXwXwXwX0X0X0X0X0X0X0X0X0X0X0XwXwX0XwXwXwXrXwXwXrXrXeXiXiXdXdXdXdXdXVXVXVXCXCXCXCXCXCXZXZXZXZXZXZXDXDXDXHXHXHXHXFXFXFXFXFXFXFXHXSXZXfXhXgXgXuXG.Y Y u 5 c u 2 < < < : # : : 8 # # # # # # # O @ O . . . O + + @ @ @ @ O @ # > u G _ R G _ r._ e.{.1XrXiXiXiXiXpXpXiXiXpXpXpXpXpXpXpXdXdXdXgXfXfXfXfXfXfXfXSXSXSXHXHXFXFXFXGXGXGXGXGXGXGXGXGXGXGXGXGXFXFXFXHXHXhX_ uXuXE.q.w.w.Q.Q.*.~.~.!.~.~.^.!.^.^.~.~.Q.*.*.~.c.~.c.x.x.x.x.x.~.*.c.c.c.x.c.Q.Q.m.Q.c.h.",
"DXDXDXDXZXZXZXZXZXZXZXZXCXCXCXCXCXCXCXVXVXVXVXdXVXVXMXMXeXeXvXeXeXeXwXwXwXwX0X0X0X0X0X0X0X0X0X0X0X0X0X0X0XwXwXrXwXwXrXrXeXiXiXiXiXdXdXdXdXVXVXCXCXCXCXCXCXCXZXZXZXZXDXDXDXDXHXHXHXHXFXFXFXFXFXFXHXhXgX-X=X-X.XG.~ ~ u u 7 1 < < : # 8 # # # # # # # # # # # # @ O O O . . . . O + @ + @ + . . O @ # & G R c R ` ` ` {.|.1XiXiXiXpXiXpXiXpXpXaXaXpXpXpXpXpXdXdXdXfXgXfXfXfXfXfXSXSXSXHXHXHXFXFXFXFXFXGXGXGXGXGXGXGXGXGXFXFXFXHXHXHXhX_ uXuXE.m.w.w.Q.Q.w.~.~.!.!.~.~.!.~.~.~.~.c.~.c.^.x.~.Q.x.x.x.x.x.~.*.c.c.c.Q.c.c.Q.m.c.Q.Q.",
"DXDXDXDXZXZXZXZXZXZXZXCXCXCXCXCXCXCXCXVXVXVXVXVXVXVXiXMXeXeXvXeXeXeXeXwXwXwX0X0X0X0X0X0X0X0X0X0X0X0X0X0X0XwXwXrXwXrXwXwXeXiXiXiXiXdXVXdXdXVXVXCXCXCXCXCXCXCXCXZXZXZXSXDXDXDXDXHXHXHXHXFXFXHXHXHXSXgXaX.Xe._ ! Y v c 3 1 < > > & # # # # @ @ @ # # @ # # # # @ O O . . . . . . O O O @ @ O . . . O + # & 3 1 u G _ r._ _ @X@X1X1X1X0X2XpXpXiXpXpXpXpXpXpXdXdXdXdXfXgXfXfXgXfXfXhXSXSXSXHXHXHXHXFXFXFXFXFXGXFXFXFXFXFXFXFXFXHXHXHXSXhX_ uXuXP.m.w.w.Q.Q.w.~.~.~.^.~.~.~.~.~.~.~.c.^.^.~.x.Q.Q.x.x.!.x.x.~.*.c.c.c.Q.c.c.Q.m.c.Q.Q.",
"DXDXDXZXZXZXZXZXZXZXCXCXCXCXCXCXCXVXVXVXVXVXVXVXVXVXVXMXeXeXeXeXeXeXwXwXwXwX0X0X0X0X0X0X0X0X0X0X0X0X0XwX0XwX0X0XwXrXwXrXrXiXiXiXiXdXdXdXdXdXVXCXCXCXCXCXCXCXZXZXZXZXZXDXDXDXDXDXDXHXHXHXHXHXSXSXhX2XOXC.E Y u u 2 2 3 < > & # # # # @ @ @ @ O + @ O @ @ # @ @ O O O . . . . . . . O @ + O . . O . o O @ @ # 1 3 G R H I r.r.|.@X@X<X1XrXpXpXpXpXpXpXpXpXpXdXdXdXdXdXgXgXgXfXfXhXSXSXSXSXHXHXHXHXHXHXFXFXFXFXFXFXFXFXFXHXHXHXHXSXSXfX_ uXuXy.m.w.w.Q.Q.w.~.~.!.^.~.~.x.~.!.~.Q.*.^.^.c.~.Q.Q.x.x.x.x.Q.~.*.c.c.c.Q.Q.Q.Q.*.h.c.Q.",
"DXDXZXZXZXZXZXZXZXZXCXCXCXCXCXCXCXVXVXVXVXVXVXVXVXVXVXiXeXeXeXeXeXeXwXwXwXwX0X0X0X0X0X0X0X0X0X0X0XwXwXwX0XwXwX0XwXwXwXrXeXiXiXiXiXiXdXdXVXVXVXCXCXCXCXCXCXCXZXZXZXZXZXDXDXDXDXDXDXDXHXHXHXHXSXfX%XA.r.E G u 4 2 1 1 1 > # # # # @ @ O @ + O O O O O O @ @ # @ O O O . . . . . . . O O O . . . . O . . O . + # 1 u 3 u H R _ {.|.@X<X1XrXiXpXpXpXpXpXpXpXpXdXdXdXdXdXgXgXgXgXgXfXhXSXSXSXHXHXHXHXHXHXHXHXHXHXHXHXHXFXHXHXHXHXHXhXhXfX' uXuXq.y.q.w.Q.Q.w.Q.~.!.^.!.~.!.~.Q.~.Q.*.~.~.c.~.*.Q.c.x.x.c.x.~.*.c.h.c.c.Q.Q.c.m.h.c.c.",
"DXZXZXZXZXZXZXZXZXCXCXCXCXCXCXCXVXVXVXVXVXVXVXVXVXdXiXeXeXeXeXeXwXwXwXwXwXwXrX0X0X0X0X0X0X0X0X0X0XwX0X0X0XwXwXwXwXwXwXrXiXiXiXiXiXiXdXVXdXdXVXVXVXCXCXCXCXCXCXZXZXZXZXZXSXDXDXDXDXDXDXHXDXSXfX.X~ Y G u 4 2 < > # # # # # # @ O + + O O O O O . O O O O @ # @ O O O . . . . . . . . o O . . O . . . O O O O # & 6 2 u R H _ r.{.@X@X2XrXrXpXpXpXpXpXpXpXpXdXdXdXdXdXgXgXdXdXgXfXhXSXSXSXSXSXHXHXHXHXHXHXHXHXHXHXHXHXHXHXHXHXSXSXhXgX' uXuXy.y.w.w.Q.Q.w.~.~.~.~.Q.~.~.~.c.~.Q.o.c.c.*.~.h.Q.c.x.x.c.c.Q.*.c.h.c.Q.Q.Q.c.*.h.c.c.",
"ZXZXZXZXZXZXCXCXCXCXCXCXCXCXCXVXVXVXVXVXVXVXVXVXVXdXeXiXeXeXeXeXwXwXwXwXwXwXrX0X0X0X0X0X0X0X0X0X0XwXwXwXwXwXwXrXwXwXwXrXeXiXiXiXiXiXdXVXVXdXVXVXVXCXCXCXCXCXCXCXZXZXZXZXZXDXDXDXDXDXDXSXfXaX%XR t u 4 2 1 & # # @ @ # @ # @ O O O O . . O O . . . O O @ @ @ @ + O O O O . . . . . . . . . . . . . . . O @ O + # # u u G H _ R ` |.@X1X1XrXpXpXpXpXpXpXpXpXdXdXdXdXdXdXgXdXdXgXfXhXSXSXSXSXSXSXSXHXHXHXHXHXHXHXHXHXHXHXHXSXSXhXhXhXgX' uXuXy.q.q.5.Q.Q.w.~.~.~.~.Q.~.Q.~.c.~.Q.*.*.*.*.~.m.Q.c.x.x.c.c.Q.&.c.h.c.Q.Q.Q.c.*.h.c.h.",
"ZXZXZXZXZXCXCXCXCXCXCXCXCXCXVXVXVXVXVXVXVXVXVXVXiXeXeXeXeXeXeXeXwXwXwXwXwXwXrX0X0X0X0X0X0X0X0X0X0X0X0XwXwX0XwX0XrXwXwXrXrXiXiXiXiXdXVXVXdXdXVXVXVXCXCXCXCXCXCXCXCXZXZXZXZXDXDXDXDXDXZXfXOXe.H 3 1 1 1 > # @ O O O O O O @ @ O . O . .   . . . . . . O O O O @ @ O O O . O . .   . . . . . . O o O . . O O + O + # 7 u u F R ] ` r.[.@X<XwXiXiXpXpXpXpXpXpXpXpXdXdXdXdXdXdXdXgXgXfXSXSXSXSXSXSXSXHXSXHXSXSXSXSXSXHXHXSXSXSXSXSXhXhXaX' uXuXq.q.q.5.Q.m.&.Q.Q.~.~.Q.~.Q.~.c.~.Q.*.*.*.c.~.m.c.c.x.x.c.c.Q.*.h.h.c.c.Q.Q.c.*.*.c.*.",
"ZXZXZXZXZXCXCXCXCXCXCXCXCXCXVXVXVXVXVXVXVXVXVXVXMXeXeXeXeXeXeXeXeXwXwXwXwXwX0X0X0X0X0X0X0X0X0X0X0X0X0X0XwXwXwX0XrXwXwXwXeXeXiXiXiXdXVXVXdXVXVXVXVXVXCXCXCXCXCXCXZXZXZXZXZXZXZXDXDXDXZX=X` 2 & > < < < # + O . . . O O O O O . . . . . . . . . . . . . . . O O O O O O . O . . .         . . . O O O . + O + @ + + & & < 1 u R ! ` ` [.@X0XiXiXpXpXpXpXpXpXpXpXdXdXdXdXdXdXdXdXgXfXhXSXSXSXSXSXSXSXSXSXSXSXSXSXSXSXSXSXSXSXSXSXhXhXaX' uXuXy.q.q.w.Q.m.&.Q.Q.~.~.Q.~.Q.Q.c.~.m.h.*.*.~.Q.Q.c.c.x.x.c.Q.Q.*.h.h.c.c.Q.Q.Q.*.*.c.*.",
"ZXZXZXZXZXCXCXCXCXCXCXCXCXCXCXVXVXVXVXVXVXVXVXiXVXeXeXvXeXeXeXeXeXeXeXeXwXwX0X0X0X0X0X0X0X0XwX0X0X0X0XwXwXwXwX0XwXwXwXrXrXeXiXiXMXMXdXdXVXVXVXVXVXCXCXCXCXCXCXCXZXZXZXZXZXZXZXZXSXZX2X~ t 4 1 < > < > # + O . . O O O O . O . . . . .   . . . . . . . . . O @ O O + O . . . . . .         . . . O O O @ @ # # + + @ @ # & < c H ` ` r.<X0XrXiXpXpXpXpXpXpXpXpXpXdXdXdXdXpXdXdXfXfXfXhXSXSXSXSXSXSXSXSXSXSXSXSXSXSXSXSXSXSXhXhXhXhXaX' uXuXy.q.q.w.Q.m.5.Q.Q.~.~.Q.~.Q.Q.c.~.m.Q.*.*.~.h.Q.Q.c.x.c.Q.Q.Q.*.h.h.c.c.Q.Q.c.&.*.c.*.",
"ZXZXZXCXCXCXCXCXCXCXCXCXVXVXVXVXVXVXVXVXVXVXMXMXVXeXiXeXeXeXeXeXwXwXeXwXwXwXwXwX0X0X0X0X0XwX0X0X0X0X0X0XwX0XwXwXwXwXwXrXeXeXiXiXiXMXdXdXVXVXVXVXVXCXCXCXCXCXCXCXZXZXZXZXZXZXZXZXZXdX|.H u G u 6 < : # # O O O . . . . . . . . . . . . . . . . . . .   . . O + O O O . . O .   .           . . . . O O O + @ + O + + o O & = 4 H _ _ r.@XwXiXiXpXpXpXiXpXpXpXpXpXpXdXdXpXpXpXdXdXfXfXhXZXSXSXSXSXSXSXSXSXSXSXSXSXSXSXSXSXhXhXhXhXhXaX' uXuXt.q.q.w.m.m.4.Q.Q.~.Q.~.~.Q.Q.Q.Q.m.~.o.*.~.*.Q.Q.c.Q.c.c.Q.Q.*.*.*.c.c.Q.Q.Q.&.*.c.*.",
"CXCXCXCXCXCXCXCXCXCXVXVXVXVXVXVXVXVXVXVXVXVXiXiXiXeXiXeXeXeXeXeXwXwXwXwXwXwXwXwXwX0X0X0X0X0X0X0X0X0X0X0X0XwX0XwXwXwXwXeXwXeXeXeXiXMXiXdXVXVXVXVXVXVXCXCXCXCXCXCXCXZXZXZXZXZXZXZXCXpX@XG u u 2 3 < & # # O O O . . . . . . . . . . .   . . . . . . . . . . O O . . . . . O .         .     . . . . o O @ O O O . o o o o # & 4 G H R r.@XrXiXiXiXpXiXpXpXpXpXpXpXpXpXdXpXaXpXpXdXfXfXfXhXZXhXSXSXSXSXSXSXSXSXSXSXSXSXSXhXhXhXhXhXhX2X' uXuXt.q.q.5.m.m.4.Q.Q.Q.~.~.~.~.Q.Q.Q.m.~.*.h.~.*.Q.Q.c.c.c.c.c.Q.*.*.*.h.c.Q.Q.Q.4.*.h.*.",
"CXCXCXCXCXCXCXCXCXCXVXCXVXVXVXVXVXVXVXVXMXVXiXeXiXiXeXeXeXeXeXeXwXwXwXwXwXwXwXwX0X0X0X0X0X0X0X0X0X0X0X0X0X0XwXwXwXwXwXeXeXeXeXeXiXiXdXVXVXVXVXVXVXVXVXCXCXCXCXCXCXZXZXZXZXZXZXpX=X=XZ.G u 2 & & < # @ @ O O . . O O . . . . . . . . . . . . . . . . . . . O . . . . . . . .       .       . . . . . . O O O . . . o o + # & 1 u F G _ |.0XiXiXiXiXiXiXpXpXpXpXpXpXpXpXpXpXpXpXdXfXfXfXhXhXfXZXSXSXSXSXSXSXSXSXSXSXhXhXhXhXhXhXhXhX1X' uXuXt.y.q.4.m.w.%.Q.Q.Q.~.~.~.~.Q.Q.Q.m.~.~.Q.Q.*.Q.Q.c.c.c.Q.c.Q.*.*.*.*.h.Q.h.m.%.*.h.*.",
"CXCXCXCXCXCXCXCXCXVXVXVXVXVXVXVXVXVXVXVXVXVXiXeXMXMXMXeXeXeXeXeXwXwXwXwXwXwXwXwX0X0X0X0X0X0X0X0X0XwXwX0XwXwXwXwXwXwXwXeXeXeXeXMXiXMXVXVXVXVXVXVXVXVXVXCXCXCXCXCXCXCXZXZXZXZXZX2X@XH.R ! 5 < # # # O O O O O . O O O O . . . . . . . . . . . . . . . . . . . . . . . . . . .       . .     . . . . . O O O . . . . . o + + & & & = H _ |.rXiXiXiXiXiXiXpXpXpXpXpXpXpXpXaXrX2XaXdXgXfXfXfXhXfXhXZXZXhXhXZXSXZXSXhXSXhXhXhXhXhXhXhXhX1X' uXuXt.q.q.4.m.w.4.Q.Q.Q.~.~.~.~.Q.m.Q.w.~.~.~.Q.*.Q.Q.Q.c.c.c.Q.m.w.*.*.h.h.Q.h.Q.%.h.h.*.",
"CXCXCXCXCXCXCXVXCXVXVXVXdXVXVXVXdXVXVXVXVXVXMXeXMXMXMXMXeXeXeXeXeXeXwXwXwXwXwXwX0X0X0X0X0X0X0X0X0XwXwXwXwXwXwX0XwXwXeXeXeXeXeXMXiXMXVXMXVXVXVXVXVXVXVXCXCXCXCXCXCXCXZXZXZXZXZXrX+XZ.Y G 2 & # @ O . . . O O . O O O O . . . . . . . . . . . . . . . . . . . . . .       . .     . .         . . . . O O o . . . . . o O + # @ @ & u R |.1XrXiXiXiXiXiXiXpXpXpXpXpXpXdXaX2X2XaXpXgXgXfXfXfXfXhXhXhXhXhXhXZXZXSXhXhXhXhXhXhXhXhXgXfX1X' aXuXt.q.q.4.m.w.4.Q.Q.Q.~.~.^.~.Q.m.Q.w.~.~.~.c.*.m.Q.Q.c.c.c.Q.m.*.*.*.*.h.Q.h.Q.%.Q.h.*.",
"CXCXCXCXCXVXVXVXVXVXVXdXVXVXVXVXdXVXVXVXVXMXvXvXvXeXvXvXeXeXeXeXeXeXwXeXwXwXwX0X0X0X0X0X0X0X0X0XwXwXwXwXwXwXwXwXwXeXeXeXeXeXvXeXeXiXMXiXVXVXVXVXVXVXVXVXCXCXCXCXCXCXZXZXZXZXZXdX=XF.~ c 1 & @ + . O O . .   . O . O O . . . . . . . . . . . . . . . . . . . . . . . . . . . . . . .           . . . O O . . . . . . . O o o o o # & _ |.1XrXiXiXiXiXiXiXpXiXpXpXpXpXdXdXdXpXpXdXfXfXfXfXCXfXfXhXhXfXhXhXZXSXZXZXZXZXhXhXhXhXfXfXfX<X(.aXuXt.9.q.4.q.q.4.Q.Q.Q.~.~.^.~.Q.m.Q.w.~.~.~.c.*.m.Q.Q.c.c.c.c.m.*.*.*.*.h.Q.*.Q.%.Q.m.*.",
"CXCXVXVXdXVXVXVXdXdXdXdXdXiXdXVXdXVXVXMXMXMXeXvXvXvXeXeXvXeXeXeXeXeXwXwXwXwXwXwXwX0X0X0X0X0X0XwXwXwX0XwXwXwXwXwXeXeXeXeXeXeXvXvXvXMXMXMXVXVXVXVXVXVXVXVXCXCXCXCXCXCXZXZXZXZXZXdXpX*X_ G < # @ @ O . . . .   . O O O O . . . . . . .     . . . . . . . . . . . . . .   . . . . . . .           . . . O O . . . . . . . o o . . O # 2 ` @X0XrXiXiXiXiXiXiXiXiXpXpXpXpXdXCXdXdXdXdXdXfXfXfXZXfXfXfXfXhXfXhXhXhXhXhXhXZXhXhXfXhXfXfXfX<X(.2XuXt.9.9.4.m.q.4.Q.Q.Q.~.~.Q.~.Q.m.Q.w.~.Q.Q.*.*.m.c.Q.c.c.c.c.m.*.*.*.*.h.Q.*.m.%.h.m.*.",
"CXVXVXCXVXdXVXVXVXdXdXdXdXdXdXiXMXVXVXMXMXMXMXvXeXeXeXeXeXeXvXeXeXeXeXwXwXwXwXwXwX0X0XwX0X0X0X0XwXwX0XwXwXwXwXeXeXwXeXeXeXvXMXMXMXMXVXVXVXVXVXVXVXVXVXVXCXCXCXCXCXCXCXZXZXZXCXCXiX1X@XG > # @ + O . . .       O O O O . . . . . . .     . . . . . . .       . . O .   . . . . . . .           . . . O O + . . . . . o + + O @ @ # & R @X<X0X0XiXiXiXiXiXiXiXiXpXpXpXdXdXdXdXdXdXdXfXfXCXCXCXfXfXCXfXZXZXZXhXhXhXfXZXhXhXhXhXfXfXfXyX(.2XuXt.7.9.3.E.q.%.m.Q.Q.Q./././.Q.h.Q.w.Q.Q.Q.*.m.m.Q.Q.h.c.c.c.w.*.*.*.h.h.Q.*.Q.#.*.*.*.",
"CXdXVXVXVXVXVXVXdXdXdXiXdXdXdXiXeXiXMXMXVXMXMXeXeXeXeXeXeXeXeXeXeXeXeXwXwXwXwXwX0X0X0X0X0X0X0X0XwXwXwXwXwXwXwXeXeXeXeXeXvXvXMXMXMXMXVXVXVXVXVXVXVXVXVXVXCXCXCXCXAXCXZXCXCXZXCXCXiX*X@X! 6 & @ + O . . O . . . O O O O . .   .   . .       . . . . . .         . O . .   . . . . . .   .       . . . . O @ O . . . . O + + + @ # # & u ` [.<X@XwXiXiXiXiXiXiXiXpXpXiXdXdXdXdXpXdXdXdXfXfXCXfXfXfXfXfXfXfXfXfXfXfXfXfXhXfXfXfXfXfXgXyX(.uXuXt.7.7.3.E.q.%.m.Q.Q.Q.m.w.m.m.h.Q.w.Q.Q.Q.*.Q.*.Q.Q.h.c.h.h.m.*.*.*.*.*.m.*.m.m *.m.*.",
"CXVXVXVXVXVXVXVXdXdXdXdXdXdXdXiXeXiXiXMXVXVXMXeXvXMXeXvXvXvXeXeXwXeXwXwXwXwXwXwXwX0X0X0X0X0X0X0X0XwXwXwXwXwXwXeXeXeXeXeXeXeXeXvXMXvXVXVXVXVXVXVXVXVXVXVXCXCXAXCXAXCXCXCXCXZXZXCXdX1X_ H 2 & # @ O . . O . . O @ @ O O O     . . . .       . . O O . .         . O .     . . .         . .   . . . . . O + O . . . . O @ O O @ # > 4 2 H _ r.r.1XiXiXiXiXiXiXiXiXiXiXiXdXdXdXdXdXdXdXfXfXfXfXfXfXfXfXfXfXfXfXfXfXfXfXfXfXfXfXfXfXfX@X(.2XuXt.7.7.3.P.q.4.m.m.m.Q.m.#.&.m.w.m.*.Q.Q.Q.*.Q.*.Q.Q.h.c.h.c.w.*.*.*.w.*.h.h.m.m *.*.*.",
"dXdXVXVXVXVXVXdXdXdXdXdXdXdXdXiXeXeXvXMXMXMXMXeXMXMXeXvXvXvXeXeXeXeXwXwXwXwXwXwXwXwX0X0X0X0X0XwX0XwXwXwXwXwXwXeXeXeXeXeXeXeXeXvXvXvXVXVXVXVXVXVXVXVXVXVXVXVXAXAXAXCXCXCXCXCXZXCXiX|.R 3 # # # + O . .   . . @ 8 O O .         . . .         . O O . .       . O .     . . O . .     . . . . . . . . . . . . . . . . O + @ @ @ @ 2 H H G _ r.@XrXiXiXiXiXiXiXiXiXrXiXpXdXdXdXiXiXdXdXfXfXCXfXfXfXfXfXfXfXfXfXfXfXfXfXfXfXfXfXfXfXfXyX(.2X-Xt.7.7.3.P.q.%.m.Q.m.m.m.5.4.m.w.m.5.Q.Q.c.*.Q.&.m.Q.h.*.h.h.w.*.*.*.w.*.h.h.m.n *.m.*.",
"dXdXdXVXVXVXVXdXdXiXVXiXiXiXiXiXeXeXiXMXMXMXvXeXMXMXeXeXeXeXeXvXeXeXeXeXwXwXwXwXwXwX0XwX0X0X0XwX0XwXwXwXwXwXeXwXwXeXeXeXeXvXvXvXMXvXVXVXVXVXVXVXVXVXVXVXAXAXAXAXAXCXCXCXCXCXCXCXrXr.c & F : # @ O . .   . . @ 8 @ O .           . .           O O . . .     . O .   . .   . . . O . . . . . . . . . . . . . . . . . . @ @ @ @ @ & u G G R |.0XiXiXiXiXiXiXiXiXiXiXrXiXiXiXdXiXiXdXdXfXCXCXfXfXfXfXfXfXfXfXfXfXfXfXfXfXfXfXfXfXfXfX@X(.1XuXt.7.7.3.q.q.%.m.Q.m.Q.m.m.*.m.w.m.4.Q.Q.*.*.Q.*.Q.Q.*.*.*.h.w.*.*.*.*.*.h.m.m.q { Q.w.",
"dXdXdXdXdXdXdXdXdXiXiXiXiXMXiXiXeXeXiXMXMXVXMXvXMXMXeXvXvXeXeXeXvXeXeXeXeXeXeXwXwXwX0XwXwX0X0XwXwXwXwXwXwXwXwXwXeXwXeXeXvXvXvXMXvXvXVXVXVXVXVXVXVXVXVXVXVXVXAXAXAXCXCXCXCXCXVXVX2X_ 2 & F < # @ O O .     . @ # @ O                       . . . . . . .   . O O .     .   . . O @ . . . . . . O O . . . . . . . . . o + @ @ @ @ + & u _ r.1X0XMXMXiXiXiXiXiXrXrXiXrXrXiXiXiXiXiXiXdXdXCXCXCXfXfXfXfXfXfXfXfXfXfXfXfXfXfXfXfXfXfXfX X' 1X-Xt.7.7.3.q.q.%.m.m.Q.m.m.m.m.m.w.m.5.m.m.*.*.Q.*.m.Q.*.*.*.*.w.*.*.*.*.*.*.h.h.w &.Q.m.",
"dXdXdXdXdXdXiXiXiXiXiXiXiXiXMXiXeXeXeXMXvXvXvXeXeXeXeXvXvXeXeXeXeXeXeXeXeXeXeXwXwX0X0X0XwX0XwX0XwXwXwXwXwXwXwXwXeXeXeXeXvXvXvXMXMXMXVXVXVXVXVXVXVXVXVXVXVXVXAXAXAXCXCXCXCXCXVXrX|.G 1 < 1 # # # O O .     . O @ @ .             .           . . .   . . . . O @ O     O   . . . @     . O @ . O @ O . . .   . . . . @ @ @ @ O @ @ @ F ` <XrXeXMXvXMXiXeXiXiXeXrXrXrXrXrXiXiXiXiXiXdXdXVXCXdXfXfXCXfXfXfXCXfXfXfXfXfXfXfXfXfXfXfXfX X(.2X-Xt.7.7.3.P.q.%.m.m.m.m.Q.m.Q.m.*.m.5.m.*.*.w.Q.&.m.Q.*.*.*.*.w.*.*.*.*.m.*.h.&.n m.m.*.",
"dXdXdXiXiXdXiXiXiXiXiXiXeXeXeXeXeXeXeXvXvXeXeXeXeXeXeXeXeXeXeXeXeXeXeXeXeXwXeXwXwXwX0XwXwXwXwXwXwXwXwXeXwXwXwXeXeXeXvXvXvXvXvXMXMXMXVXVXVXVXVXVXVXVXVXVXVXVXAXAXAXAXCXCXVXVXwX1X{.R 2 1 & # O + O . . . . . O @ . . .                     . . . .   .   . . O @ @ .           . . .   . O @ . O @ O . . . .   . . . @ @ O o o # & # u @XwXwXvXMXMXvXvXeXeXrXeXrXrXwXwXrXrXiXiXiXiXiXdXdXdXdXdXdXfXCXfXfXfXfXfXfXfXfXfXfXfXfXfXfXfX X(.2X1Xr.7.7.3.q.q.3.m.m.m.m.Q.m.m.m.w.m.5.*.*.*.m.Q.&.m.Q.*.*.*.*.5.*.*.*.*.m.*.h.&.V Q.m.*.",
"dXdXdXdXiXiXiXiXiXiXiXiXiXeXiXeXvXvXvXvXvXeXvXeXeXeXeXeXeXeXeXeXeXeXeXeXeXwXeXeXwXwXwXwXwXwXwXwXwXwXwXeXwXwXwXeXeXeXvXMXeXvXvXvXvXMXMXVXVXVXVXVXVXVXVXVXVXVXAXAXAXCXCXCXVXVXrXiX@X_ u 2 # O . O O O . . . . . O . .                       . .     .     . . O O O .                 . . . O . O O . . . . .   . . . o @ @ o o < & & u yXMXeXVXMXMXvXvXeXeXrXeXrXrXwXrXrXrXrXiXiXiXdXdXdXdXdXdXdXfXfXdXfXfXfXfXfXfXfXfXfXfXfXfXfXfX X(.1X1Xr.6.7.2.q.q.3.m.m.m.m.m.m.m.m.w.Q.5.*.*.*.Q.Q.&.m.Q.*.*.*.*.*.*.*.*.*.m.*.h.&.m m.m.*.",
"dXdXdXdXiXiXMXMXVXVXiXeXeXiXiXiXMXvXvXeXeXeXeXvXeXeXeXeXeXeXeXeXeXeXeXeXeXeXeXeXwXwXwXwXwXwXwXwXwXwXwXeXeXeXeXeXeXeXvXvXvXvXvXvXvXbXVXVXVXVXVXVXVXVXVXVXVXVXVXVXVXCXCXCXCXAXVXrX1X@Xu 1 @ . . @ # @ O . . .       .             .         . . .   .       . . O . .       X           . . O O O O O . . . .     . . . O @ @ + 3 2 2 F  XMXMXMXMXMXMXvXvXeXeXeXeXwXrXrXrXrXrXrXiXiXpXdXdXdXdXdXdXdXdXdXfXfXfXfXdXdXfXfXfXfXfXfXfXfX X(.1X1Xr.6.6.3.q.q.1.m.m.m.m.m.m.m.w.w.m.4.*.*.*.Q.Q.$.m.Q.*.*.*.*.*.*.&.&.*.*.*.m.&.C h.m.&.",
"VXdXdXdXiXiXiXMXiXiXeXeXMXeXeXeXeXeXeXeXeXeXeXeXeXeXeXeXeXwXeXeXeXeXeXeXwXwXeXwXwXwXwXwXwXwXwXwXwXwXwXeXwXeXeXeXeXeXeXvXvXvXvXbXbXbXBXVXVXVXVXVXVXVXVXVXVXVXVXVXVXCXCXAXAXAXVXiXrX@X2 # @ . . @ # # @ . .                       .         . . .             . . . . .   X X X         . . O O O . O . . . .       . . . o @ # # H H ]  XMXVXMXMXMXvXeXeXeXeXeXeXeXeXrXrXrXrXrXrXiXpXdXdXdXdXdXdXdXdXdXfXfXfXfXfXdXfXfXfXfXfXfXdXfX X(.0X1Xr.6.7.3.q.q.T m.m.m.m.m.m.m.w.m.m.4.*.*.*.Q.Q.$.w.Q.*.*.*.*.&.&.&.&.*.*.*.&.*.#.*.*.&.",
"dXdXdXdXiXiXiXiXiXiXeXeXeXeXeXeXeXeXeXeXeXeXeXeXeXeXeXeXeXeXeXwXeXeXeXeXeXeXwXwXwX0X0XwXqXqXwXwXwXeXeXeXeXeXeXeXeXeXeXvXvXvXvXMXvXvXVXVXVXVXVXVXVXVXVXVXVXVXVXVXVXVXAXAXAXCXVXVXrX|.4 # O . . @ # # O . .                                 . .           . . . . . . .       X           . . O . . O . . .       . . o o o @ # # U ' _.<XMXMXMXMXMXvXvXeXeXeXeXeXeXeXrXrXwXrXrXrXiXiXiXdXdXdXdXdXdXdXdXfXfXfXfXfXfXdXdXfXfXfXfXdXdX X(.1X1Xr.6.6.3.q.q.1.m.m.m.m.m.m.m.w.m.m.&.&.*.*.Q.m.#.w.Q.*.*.*.*.&.&.&.&.&.*.m.*.*.#.h.&.$.",
"iXVXiXiXiXiXiXiXiXeXeXeXeXeXeXeXeXeXeXeXeXeXvXeXeXeXeXeXeXeXeXwXeXeXeXeXeXwXwXwXwXwX0X0XwXwX0XwXwXwXeXeXeXeXeXeXeXeXeXvXvXvXMXMXvXvXBXVXMXVXVXVXVXVXVXVXVXVXVXVXVXAXAXAXAXCXVXVXrX` G # o .   @ # @ O O                                               . O . . . O O .               X     . O . . O . . . .     O . + + O # F I (.yX<XvXVXVXMXMXMXMXvXvXeXeXeXeXeXwXwXwXwXrXrXrXiXiXiXdXdXdXdXdXdXdXdXdXdXdXfXfXfXfXfXfXfXdXdXdXdX[.(.2X1Xr.6.6.6.y.y.1.q.m.m.m.m.w.m.5.m.m.5.&.*.*.m.m.%.m.Q.*.*.*.*.&.*.&.&.&.*.*.*.*.$.h.&.$.",
"iXiXMXMXiXeXiXeXeXeXeXeXeXeXeXeXeXeXeXeXeXeXeXeXeXeXeXeXeXeXeXeXeXeXwXeXeXwXwXqX0X0X0X0X0X0X0X0XwXwXqXeXeXeXeXvXvXvXvXvXvXbXMXMXvXvXVXVXbXVXVXVXVXVXVXVXVXVXVXVXVXVXAXAXCXCXCXVXiX! _ 1 o . O @ O O O O                                                 O . . . . . .     .               . . . . O .   . .   . . . + @ @ 2 _ <X<XeXbXVXVXVXVXMXMXMXvXvXvXvXeXeXeXwXwXwXrXrXrXrXrXiXpXiXdXdXdXdXdXdXdXdXdXdXdXdXdXfXfXfXdXdXdXdXdX'.(.1X1Xr.6.6.6.y.P.T q.m.m.m.m.w.m.&.m.m.5.&.*.*.m.*.%.m.m.*.*.*.*.%.&.&.*.*.w.*.w.%.m *.*.$.",
"iXiXMXMXiXiXeXiXeXeXeXeXeXeXeXeXeXeXeXeXeXeXeXeXeXeXeXeXeXeXeXwXwXeXwXwXwXwXwX0X0X0X0X0XqX0X0X0XwXqXqXqXeXeXvXeXvXvXvXvXvXvXvXvXvXvXVXVXbXVXbXBXVXVXVXVXVXVXVXVXVXVXAXAXCXAXAXAXVX[.G 6 u # @ @ . O O O                   X                           . . .   . . . .   . .                   . . O .   . . . .   . + @ & i ~ 0XqXBXVXVXVXVXMXMXbXvXvXvXvXeXeXeXwXwXwXwX0XrXwXrXrXiXiXpXiXdXdXdXdXdXdXdXdXdXdXdXdXdXfXfXdXdXdXdXdX(.(.1X1Xr.6.6.6.P.P.T q.m.m.m.m.w.m.&.m.m.4.&.*.&.m.*.%.*.h.*.*.*.w.&.&.&.*.*.w.*.w.y m *.&.{ ",
"iXeXeXeXeXeXeXeXeXeXeXwXeXwXeXeXeXeXeXeXeXeXeXeXeXeXeXwXwXwXwXwXwXwXwXwX0XwXwX0X0X0X0X0X0X0X0X0X0X0XqXqXeXqXeXeXeXvXvXvXvXvXvXbXvXvXvXvXbXVXMXbXbXVXVXVXVXVXVXVXVXVXAXAXVXAXAXAXVXiX@XI ] 1 @ O . O . O                 X X                     . .     . .     . O . . . . .   . .     . .   . . O .     . . . . o + # & i 6.<XbXVXVXVXVXVXVXvXbXvXvXeXeXeXeXeXwXwXwXwXrXrXrXwXrXiXiXiXiXiXiXdXdXdXdXdXdXdXdXdXdXdXdXdXdXdXdXdXdX(.(.1X1Xr.6.6.6.P.E.T q.m.m.m.m.w.m.5.m.m.5.*.*.&.m.*.%.*.h.*.*.*.*.%.&.&.*.*.*.*.w.r m *.&.m ",
"rXeXeXeXeXeXwXwXwXeXeXwXwXwXeXeXeXeXeXeXeXwXeXeXeXeXeXwXwXwXwXwXwXwXwXqX0XwX0X0X0X0X0X0X0X0X0X0X0X0XqXwXeXqXeXeXeXeXvXvXvXvXvXvXvXvXvXvXbXVXbXbXBXVXVXVXVXVXVXVXVXVXVXVXAXAXAXAXVXdX[.I & # # @ . o O O                                         . .           . . . . . . . . . + @ .   . O . O . . . .   . .   @ # # # & M 8.4XVXVXVXVXVXbXMXvXbXbXvXvXvXeXeXeXeXwXwXwXwXwXrXwXrXrXiXiXiXiXiXiXdXdXdXdXdXdXdXdXdXdXdXdXdXdXdXdXdX(.(.1X1Xr.6.6.6.P.E.T 9.m.m.m.m.w.m.5.m.m.5.*.&.&.m.*.#.*.*.*.*.*.*.#.&.&.*.w.*.*.&.r m *.*.m ",
"eXeXeXeXeXeXeXeXwXeXeXwXwXeXeXeXeXeXeXeXeXwXeXeXeXeXeXeXwXwXwXwXwXwXwXwX0XwX0X0X0X0X0X0X0X0X4X0X0XqXqXqXwXqXeXeXeXvXvXvXvXbXvXvXvXvXvXvXbXbXvXVXVXVXVXVXVXVXVXVXVXVXVXVXAXAXAXAXVX0XH F = # # @ . o O .   .               X         X X     X   .     X             . . O . . + & - @ O O O . O O O .     . . . & 2 & # 1 Y t.wXVXVXVXVXBXBXbXbXvXbXvXvXvXeXeXwXeXwXwXwXwXwXrXwXrXrXrXiXiXiXiXiXiXiXdXdXdXdXdXdXdXdXdXdXdXdXdXdXdX(.(.1X1Xe.6.6.Q y.P.T 9.q.m.m.m.w.m.5.m.m.5.*.&.$.w.*.#.*.m.*.*.*.*.#.&.&.*.*.&.*.*.B m *.&.m ",
"vXeXeXeXeXwXwXeXwXwXeXeXwXeXeXeXeXeXeXeXeXeXeXeXeXeXeXwXwXeXwXwXwXqXwXwX0X0X0X0X0X0X0X0X0X0X0XqXqXqXqXwXwXqXqXeXeXeXeXvXvXvXvXvXvXvXvXvXvXvXbXvXVXVXVXVXVXVXVXVXVXVXVXVXVXCXAXCXVXrXr.u & O O . . O @ .                   X         X   X X X       X X         o . . . . . O & i v & & & & + O o . . . . . . O 2 v 2 & 2 Y 6.MXAXVXVXVXBXbXbXbXvXvXvXvXvXvXvXeXwXwXwX0XwXwXrXrXrXrXrXrXiXiXiXiXiXiXiXdXdXdXdXdXdXdXdXdXdXdXdXdXdX(.(.1X=Xe.6.6.Q 9.t.T 9.P.m.m.m.m.m.5.m.m.5.*.&.$.w.*.%.*.*.*.*.*.*.#.&.&.*.w.&.h.z m k *.&.m ",
"eXwXeXeXeXeXwXwXwXwXeXwXwXwXeXeXwXeXeXwXwXwXeXeXeXeXwXwXwXwXwXwXqX0X0XwX0X0X0X0X0X0X0X0X0X0X0X0X0X0XqXqXqXqXwXqXqXqXeXvXvXvXvXvXvXvXvXvXvXvXvXvXvXVXVXVXBXVXVXVXVXVXVXVXVXVXAXVXVXiX<X|.] S # O . . . .     . . . .                 X   X X X X         . . o @ & & # + # + & t Y E i r r M t & @ . . . + O + 1 t i v r i T 6.AXAXVXVXVXbXbXbXbXvXvXvXvXvXvXvXeXwXwXwX0XrXwXwXrXrXrXrXrXiXiXiXiXiXiXiXiXiXdXdXdXdXdXdXdXdXdXdXdXdX).(.1X<Xe.6.6.Q 9.t.T 9.P.m.m.m.m.q.4.m.m.5.&.&.&.w.*.%.*.*.*.*.&.&.m &.&.*.m.k l Z %.m &.&.C ",
"eXwXeXwXwXeXwXwXwXeXwXwXwXwXwXeXeXeXwXwXwXwXwXwXwXwXwXwXwXwXwXwXwX0X0X0X4X0X0X0X0X0X0X0X0X0X0X0X4X0X0XqXqXqXqXwXqXqXvXvXvXvXvXvXvXvXvXvXvXvXVXvXvXbXBXVXVXVXVXVXVXVXVXVXVXVXVXVXVXVXiX0X<X|.[.u @ .           . . . .                   X X                 . , t u 2 + & & 2 V 1.6.6.M p T T i r 2 % & = 2 1 - M E T T T 6.r.AXAXVXVXVXMXMXbXvXvXvXvXvXvXvXvXeXwXwXwXwXwXrXwXwXrXrXrXwXiXrXiXiXiXiXiXiXiXdXdXdXdXdXdXdXdXdXdXdXVX).(.1X@Xe.6.6.6.t.t.T q.P.m.m.m.w.w.5.m.5.4.$.&.&.w.*.#.w.*.*.$.C C C &.&.w.&.l f &.&.m &.{ j ",
"eXwXwXwXwXwXeXwXwXwXwXeXwXwXeXwXeXeXwXwXwXeXeXeXwXwXwXwXwXqXwXwXwX0X0X0X0X0X0X0X0X0X0X0X0X0X0X0X4X4XqXqXqXqXqXqXwXeXqXeXeXvXvXvXvXvXvXvXvXvXbXbXbXbXBXVXVXVXVXVXVXVXVXVXVXVXVXVXVXVXVXMXeX0X@XU @   o .       . . .                     X X .   . .       . # r v G u # > r i 1.1.9.9.1.N 7.t.6.M E i x M i i Y 6.6.7.7.7.7.{.AXAXVXVXVXMXMXbXbXvXvXvXvXvXvXeXeXwXwXwXwXwXwXwXwXrXrXrXwXwXrXiXrXiXiXiXiXiXdXdXiXdXdXdXpXdXdXdXdXMX).(.0X@Xe.6.6.Q y.t.Q P.P.P.m.w.m.5.5.m.%.%.$.&.&.*.*.m m.w.*.&.*.%.n &.&.*.z &.&.h.0.m &.$.j ",
"eXeXeXwXwXwXeXwXwXwXwXwXwXwXwXwXwXwXqXqXwXwXqXqXqXwXwXwXqXwXqXwXwXqX0X0X0X0X0X0X4X0X0X0X0X0X4X4X0X4X0XqXqXqXqXqXwXqXqXqXeXeXvXvXvXvXvXvXvXvXvXbXbXbXbXVXVXVXVXVXVXVXVXVXVXAXAXAXAXVXAXVXVXwX[.3 O . < <       . . .   .               X X     . . + O O O . & i E E t # 2 t i 6.4.P.y.7.2.q.P.y.1.3.6.M T n N 6.7.7.9.y.y.7.@XAXAXVXVXVXVXMXbXbXvXvXvXvXvXvXeXeXwXeXwXwXwXwXwXwXwXrXrXwXwXrXiXrXiXiXiXiXiXiXdXdXdXdXiXiXdXdXdXiXMX).(.rX@Xr.6.6.Q y.t.T P.m.m.m.q.w.5.5.m.#.#.$.&.&.w.&.V m.w.w.*.*.w.n %.&.&.m.m.m.*.3.C $.$.j ",
"eXwXeXwXwXwXwXwXeXwXwXeXwXwXwXwXwXqXqXqXwXqXqXqXqXwXqXqXqXqXqXqX0X0X0X0X0X0XqX4X0X0X0X0X0X0X4X4X0X0XqXqXqXwXqXqXwXqXqXqXeXeXvXvXvXvXvXvXvXbXbXvXbXbXbXVXVXVXVXVXVXVXVXVXVXAXAXAXAXAXAXVXVX<XU 3 . . F 6       @ O . . .               X X X   + @ # # O . . > G E E r & t t M 3.9.P.E.9.7.y.P.E.7.y.P.6.6.M V 7.7.7.t.y.t.7.<XAXAXVXVXVXVXMXbXbXvXvXvXvXvXvXeXeXeXeXeXwXwXwX0X0X0XrXrXrXwXwXiXiXiXiXiXiXiXiXdXdXdXdXiXiXiXdXiXiXMX).(.rX@Xr.6.6.T t.t.T q.P.m.m.m.q.5.5.m.#.%.$.&.&.*.&.#.m.w.m.*.*.w.V %.&.m.m.m.m.m.C l &.$.j ",
"eXwXwXwXwXwXwXwXwXwXeXwXwXwXwXwXqXwXwXwXwXwXqXqXqXqXqXqXqXqXqXqX0XqXqXqXqX0XqXqXqX0X0XqX0X4X4X0X0XqX0XqXwXwXwXqXqXqXqXqXqXqXvXvXvXvXvXvXvXvXvXvXvXVXvXVXVXVXVXVXVXVXVXVXVXVXAXAXAXAXAXAXVXI u 5 # # U I @     & . . O . . .   .             + & & # # & # # 2 G E Y 2 - t i B 1.7.q.P.9.7.y.q.E.y.E.E.P.y.6.T 7.7.7.9.y.9.t.0XAXAXVXVXVXVXbXbXbXvXvXvXvXvXvXvXvXeXeXwXwXwXwXwXwX0X0XrXwXwXwXrXrXiXiXeXiXiXiXiXiXiXdXdXiXiXpXiXiXiX).(.rX|.r.6.6.E t.t.T m.m.m.m.m.q.5.q.5.&.%.$.&.&.&.&.%.m.w.w.&.*.w.V &.m.m.m.h.&.j.z &.&.$.C ",
"wXwXwXwXqXwXwXwXwXwXwXqXeXeXwXwXqXwXwXwXqXqXqXqXqXqXwXqXqXqXqXqX0XqXqXqX0XqXqXqXqXqXqX0X4X4X0X0X0X0X0X0XwXqXqXqXqXqXqXqXqXqXeXvXvXvXvXvXvXvXvXvXvXVXvXVXBXVXVXVXVXVXVXVXVXVXAXAXAXAXAXVXAX5 1 & & 5 F 5 # . o 1 & # & @ @ @ O .     .   . # 2 r 2 - % & & & i E E M r t i i M 1.3.7.y.9.9.y.q.y.y.P.E.E.E.P.V t.9.6.7.y.9.t.wXAXAXVXVXVXbXMXbXbXbXvXvXvXvXvXvXvXeXwXwXwXwXwXwXwX0X0X0XwXwXwXrXeXiXiXeXiXiXiXiXiXiXiXiXiXiXpXpXpXrX).(.rX|.r.6.6.E t.V.T P.P.q.m.m.q.5.q.4.&.4.$.&.&.&.&.m m.*.*.&.*.m.V &.m.h.m.j.z p.j.k &.%.m ",
"qXqXwXwXqXeXqXqXqXqXeXeXqXqXqXeXqXqXqXwX0XqXqXwXwXwXwXwXqXqXqXqX0X0X4XqXwXqXqX0X0X0X0X0X0X0X4X4X0X4XqXqX0XqXqXqXqXqXqXqXqXwXeXvXvXvXvXvXvXvXvXbXvXvXvXVXbXVXVXVXVXVXVXVXVXVXVXAXAXAXVXAXAXF U & S I F 3 > = v Y H G 4 & # # # + O + # + + & r i u r 2 # # & v E E i r i i i M T 1.7.q.7.7.q.q.9.q.y.y.P.E.E.T y.t.7.7.q.t.t.wXAXAXVXMXbXbXbXvXbXbXbXbXvXvXvXvXvXvXeXwXqXqXqXwXwX0X0X0XwXwXwXwXeXiXiXiXiXiXiXiXiXiXiXiXiXiXpXpXiXwX).(.rX X` 6.6.E t.t.T P.P.P.m.m.q.5.m.%.&.%.$.w.&.&.&.#.m.m.&.&.&.m.m j.j.j.j.j.p.z j Z &.&.C ",
"qXqXqXqXqXeXqXqXqXqXqXqXqXwXqXqXwXwXwXqXqXwXqXqXwXwXqXqXqXqXwXqX0X4X4X0X0X0X0XqX0X0X0X0X0X0X4X4X4X4X8XqXqXqXqXqXqXqXqXqXwXeXeXeXvXvXvXbXvXbXbXbXBXbXvXVXbXVXVXVXVXVXVXVXVXVXVXVXAXAXAXAXAX] I 6 3 1 1 < : @ t Y ~ E u 2 < & & & & & & 2 2 r v v i i r 1 $ & i ~ E i u i i i M T 1.7.9.7.7.y.q.q.q.y.y.y.P.E.T 7.y.y.9.q.9.7.MXAXAXVXVXBXbXbXbXbXbXbXbXvXvXvXvXvXvXeXwXqXqXqX0XqX0X0X0X0XwXwXwXwXiXiXiXiXiXiXiXiXiXiXiXiXiXpXpXaX0X).(.rX X` 6.6.E t.t.T q.P.q.P.q.9.5.q.%.5.m 5.m.W.m.W.T.m.&.&.&.&.w.Z z z j.p.j.p.z x &.*.&.C ",
"qXeXeXqXqXqXwXwXwXqXqXqXwXqXqXqXqXwXwXqXqXwXqXwXwXwXqXqX0XqXqXqXqX0XqX0X4X0XqX0XqX0XqX0X0X0X0X0X4X4X8XqXqXqXqXqXqXqXqXqXcXvXvXvXvXbXvXvXvXvXbXbXbXvXvXbXBXBXBXVXVXVXVXVXVXAXVXAXAXAXAXAXeXU 1 # < < & # # @ . r E E u 2 1 < < = & & 2 t u i v v v v i r 2 , 2 H G i i i i i M N T 7.9.7.7.q.t.q.y.y.y.P.P.E.T 3.y.P.y.9.9.6.eXVXAXVXVXBXBXbXbXvXbXbXvXvXvXvXvXvXcXcXqXqXqXwX0X0X0X0X0X0XwXwXwXwXeXiXiXiXiXiXiXiXiXiXiXiXiXiXiXiX0X).(.rX[.e._ 6.T t.y.T 9.P.q.q.q.9.4.q.%.5.W.M.W.E.$.Z m m.5.&.&.&.w.m h.h.h.j.j.j.z d &.*.%.m ",
"wXeXqXqXqXwXwXwXqXwXwXwXwXqXqXwXwXqXqXqXqXqXwXwXqXwXqXqX4X4X0XqX0X0XqX4X0XqXqXqXqXqX0X0X0X4X0XqX8X4X8X8X8XqXqXqXqXqXqXqXcXcXcXvXvXvXvXvXvXvXvXvXbXvXvXvXvXBXBXBXVXVXVXVXAXAXVXAXAX X'  XU u F 6 3 3 3 3 1 @ .   2 v t 2 2 2 1 - & & 2 u i i i v v v v i r 2 2 i v i i i i i M N T 3.9.7.7.q.9.y.y.y.P.P.P.y.N 3.y.P.y.9.9.6.r.@XVXAXVXBXbXbXbXbXbXbXvXvXvXvXvXvXvXcXqXqXqXqX0X0X0X0X0X0XwXwXwXwXeXeXeXMXiXiXiXiXiXiXiXiXiXiXiXrX0X).(.rX[._ 6.~ T t.t.T P.P.q.m.q.9.4.m.3.M.Q Q m.m.%.5.V 5.w.&.&.&.w.#.m.m.m.m.m.h.&.x &.*.%.m ",
"qXwXqXqXqXqXqXwXwXqXqXqXqXeXwXwXqXqXwXqXqX0XqXwX0XqXqXqX0X4X0X0X0XqXqXqX0X0X0XqX0X0X0X4X6X4X4X4X6X6XqX8X8XqXqXqXqXqXqXqXqXcXqXcXvXvXvXvXvXvXvXbXvXvXVXvXVXVXBXVXVXVXVXVXAXVXVXAX<X& @ o o 1 5 < # # : 1 1 # #     2 2 2 2 2 1 2 - & 2 t i i i i v v M v i 2 % r i i i u i M M N T 1.9.7.9.q.9.P.y.P.P.P.P.6.M 1.9.P.P.9.7.3.0 y {.VXVXVXbXbXbXbXbXbXvXvXvXvXvXvXvXcXcXqXqX0XwX0XqXqX0X0XwXwXwXwXeXeXiXiXiXiXiXiXiXiXiXiXiXiXiXwX4X).(.rX_._ _ ~ T t.t.Q q.q.q.q.9.9.5.9.0.5.C m.m.m.%.w.%.5.&.&.&.&.w.%.*.w.w.m.*.m.&.x X.&.$.#.",
"qXqXqXqXqXwXqX0XqXwXqXwXqXqXwXwXqXqXwXqXqX0XqXqX0XqXqX0X0X0XqX0XqXqX0X0X0X4X4X4X0X0X0X4X4X4X4X4X4X6XqXqXqXqXqXqXqXqXqXqXqXcXcXcXvXvXvXvXvXvXbXbXbXbXVXVXVXVXVXVXVXVXVXAXAXVXAXwXF = & # % 2 t - #     . . O .     o & 2 2 2 2 2 2 & , r u r t t i v v v i 2 & 2 r i i u i i M N T V 9.7.9.9.9.y.y.P.y.P.y.T M T 9.P.P.9.7.T $ $ - @XAXVXBXbXbXbXbXbXvXvXvXvXvXvXcXcXcXcXqX0X0X0XqX0X0X0XwXwXwXwXeXeXeXiXiXiXiXiXiXiXiXiXiXiXiXwX<X).(.rX_._ _ ~ T t.t.T 9.m.q.q.9.9.4.9.3.5.V m.&.m.&.w.%.q.&.&.&.&.w.%.w.w.w.w.&.w.&.n Z &.m #.",
"qXqXqXqXqXqXqXqXqXqXqXqXwXwXwXwXwXwXwXqXqX0X0X4X0X0XqX0XqX0X0X0X0X0XqXqX0X0X4X0X4X4X4X4X4X4X0X0X4X6X8XqXqXqXqXqXqXqX0XqXqXwXcXcXvXvXqXvXbXvXvXbXbXbXVXVXBXVXVXVXVXVXVXAXAXMXVX.Xn M x q q m M q t t - & $ $ & & & % & 2 2 t 2 2 t & & r i r r r i i i i r - & 2 r r u u t y p M N T 9.3.9.7.q.y.P.P.y.P.y.B n T 7.y.t.7.6.T $ X o e.VXBXbXBXbXbXbXbXbXvXvXvXvXvXvXvXvXcXqXqXqXqXqX0XqX0X0XwXwXwXeXeXeXeXiXiXiXiXiXiXiXiXiXiXiXrX<X).(.rXr._ ~ ~ E t.t.T q.q.P.q.9.9.4.9.4.5.%.w.$.&.w.4.%.q.&.&.&.&.5.%.w.w.w.w.&.5.5.V X.&.m #.",
"qXqXqXqXqXqX8XqXqXqXqXqXqXwXwXwXwXqXqX0X0X0X4X0XqXqXqXqX0X0X4XqX0X0XqXqXqX0X4X0X0X4X4X4X0X4X4X4X4X4X4XqXqXqXqXqXqXqXqXqXwXqXcXcXvXcXqXvXbXvXvXbXbXbXbXMXVXBXVXVXVXVXVXAXqX] ` m d d n d C j j d ; w d d x q q d y y - , 2 t i - t 2 % 2 r 2 r r t r - - & 2 - 2 r r t u t i p M M T 7.3.9.7.q.y.y.y.P.P.P.y p V 6.t.t.6.3.M $ X - 5.iXVXBXBXbXbXbXbXbXvXvXvXcXvXvXvXvXqXqXqXqX0X8X0XqX0X0XwXwXwXeXeXeXeXeXeXeXrXrXiXiXiXiXiXiXrX<X).(.rX` _ ~ ~ E t.t.6.P.q.P.q.5.q.5.5.4.5.4.#.%.$.w.%.%.q.&.&.&.&.5.%.*.*.w.&.&.*.&.%.X.&.m #.",
"qXqX8XqXqXqXqXqXqXqXqXqXqXqXqXwXqXqXqX4X0X0X4X0X0XqXqXqX0X0X4XqX0X0X4XqX4X0X0X0X4X4X4X4X4X4X0X0X4X4X0XqXqXqXqXqXqXqXqXqXqXqXcXcXwXvXeXvXvXbXbXbXbXbXbXMXbXBXVXBXVXVXAXAX XO & l &.%.Z C d w q j j 9 w q j j j j j l n r - r i 2 2 2 % - t - 2 r r , % % & , - u i r r r t i p M M V 7.3.9.7.q.y.y.P.P.P.t.0 p M T 6.6.3.V y $ & &.*.1XAXBXBXBXbXbXbXbXbXvXvXcXvXvXvXvXvXqXqXqXqXqX6X0XqX0XqXqXwXeXeXeXeXeXeXeXrXeXiXiXiXiXiXiXeX<X).(.rXr._ 6.6.E t.t.6.9.9.P.P.5.9.5.5.5.9.V &.m.5.5.%.%.w.&.&.*.&.5.%.5.&.5.5.%.&.&.%.$.&.C $.",
"qXqXqXqXqX8X4XqXqXqXqXqXqXqXqXqXqXqXqXqX6X0X4X4X0XqXqXqXqXqXqXqX0X0X4X4X4X4X0XqX4X4X4X4X0X4X0XqXqX4X4X8X8XqXqXqXqXqX0XqX0XqXcXcXcXcXvXvXbXbXbXbXbXbXbXMXbXBXVXVXVXAXVX3X' x &.X.&.&.*.&.l w w d m k 9 w w 9 j j j l C n ; * r i - 2 & & r % 2 r , , & & & & , r i i 2 r t i M M M T 7.7.9.7.9.y.P.P.P.P.Q ; q n B T T V n w q X.s.@..XAXBXBXbXbXbXbXvXvXnXcXnXvXvXvXvXwXqXqXqXqX4X4X4XqXwXqXqXwXeXeXeXeXeXeXeXrXrXeXeXiXiXiXiXwXyX).(.rX' _ 6.~ E t.t.T 9.9.q.P.5.9.5.5.5.9.V m.w.m.&.w.%.q.&.&.&.&.%.#.&.&.4.&.%.&.&.C &.&.C $.",
"qXqXqXqXqX0XqXqXqXqXqXqXqXqXqXqXqXqXqXqX8X6X4X4X4XqX6X6XqXqX4X8XqXqX4X4X4X0X0X4X6X6X4X8X4X4X4X4X4X4X4XqXqXqX8XqXqXqX8XqXqXqXcXcXcXcXvXvXbXbXbXbXbXbXbXbXbXBXVXVXAXAXAXH b j.j.&.j.j.*.&.Z j w ; f m m l 9 w 9 j j j j n x - & t t , - % r % - r - - , & % & & 2 r r r , r i M M M 1.7.7.7.7.9.y.y.P.P.P.t w w q y M n n l X.o.@.s.s.P.AXVXBXBXbXbXbXvXcXnXnXvXvXvXcXvXvXcXcXcX6X4X4XqXqX0X0XqXqXeXeXeXeXvXeXeXeXwXwXeXeXeXiXeXeXyX).(.0X' _ 6.~ E t.t.T 9.9.q.q.5.9.5.5.4.5.%.5.w.&.5.5.#.w.&.$.&.&.&.%.&.&.&.5.%.5.&.n &.&.m $.",
"qXqXqXqXqXqXqXqX9XqXqXqXqXqXqXqXqXqXqXqXqXqX4X4X4X4X6X6XqXqX4X4X6X8X4X4X4X4X0X4X4X6X4X8X4X4X4X4X6X6X4XqXqXqXqXqXqXqXqXqXqXqXcXcXcXvXvXvXbXbXbXbXbXbXbXbXbXBXVXVXAXAXVXU.&.&.&.&.&.&.z k k l j 9 ; d z &.m g 9 9 f j j j n n t t t 2 & % - * & r r - , & & + & , r i i - r i M p M 1.3.7.4.7.9.9.P.P.P.6.* w w d j m l X.X.o.@.s.s.s.m.1XVXVXBXbXbXbXvXcXcXvXvXvXvXcXvXvXcXcXqX4X4X4XqXqXqXqXqXqXqXeXeXeXeXeXeXeXeXwXeXeXeXiXeXeXyX).(.0X(._ 6.~ E t.t.T 9.9.9.9.9.9.5.5.5.9.4.m.m.m.w.&.#.w.&.$.&.&.%.&.&.&.&.5.&.&.%.n $.&.m $.",
"6XqXqXqX6XqX6X6X6XqXqXqXqX6XqXqXqXqXqX6XqX6X4X0X8X4X6X4XqX0X4X4X6X6X4X4X4X4X4X4X4X4X0X4X0X0X4X4X6X6X6X6X9X8X8XqX8X8X8XqXqXqXcXcXcXvXvXbXbXbXbXbXbXbXbXbXBXVXVXVXAXAX1XZ l l Z &.&.z k k k k k k j w 9 m $.k l 9 9 j m C C C n r & t & % % & % r t - - & & & & , r i M 2 2 y M n 1.3.3.7.4.7.9.9.P.P.P.x * w 9 j e h h X.O.o.@.@.@.s.s.%XVXVXBXbXbXbXbXcXcXvXvXvXvXnXvXvXcXcXqX4X4X4X8XqXqXqXqXqXqXeXeXeXeXeXeXwXwXwXwXrXeXeXeXeXyX).(.<X(._ _ ~ E t.t.T 7.9.9.9.9.9.4.5.5.9.V w.5.%.w.&.#.w.&.$.&.%.%.%.&.5.&.5.%.%.%.n m &.m #.",
"9X9XqX8X8X6X6X6X6X6XqXqXqXqX8XqXqX8XqX8X8XqX6X8X6X4X4X4X4X0X4X4X4X8X4X4X0X4X4X4X4X4X4X4X4X0X4X8X6X6X8XqX8X6X8X8X8X8X8XqXqXqXqXvXvXvXvXvXvXbXbXbXbXbXbXbXBXVXVXVXAX2X0.&.j.&.&.X.Z z k k k l l l k k g g l k z Z j w d k k C n x - 2 - % $ % % - t r 2 2 , , 2 2 r i i 2 - i M N 7.4.3.4.4.9.9.P.E.E.5.q * w 9 e g g h [  . .o.o...@.s.W.eXVXVXbXbXbXbXcXcXvXvXvXvXvXvXvXcXcXcX4X4X4X4XqXqXqXqXwXqXeXvXvXvXeXwXwXwXwXeXeXeXvXvXeX;X).(.0X(._ _ ~ E t.6.T 7.9.9.9.9.9.5.4.5.9.4.q.m.m.5.%.#.w.&.$.&.&.%.#.&.&.&.%.%.%.%.n m &.C %.",
"9X6X9XqX8X4X4X9X9X9X9XqXqXqXqXqXqX8XqX8X8X4X8X8X6X4X4X4X4X4X4X4X4X8X0X4X4X4X4X4X4X4X4X4X4X4X8X8X8X6X6XqX8X8XqXqX8XqXqXqXqXcXcXcXvXcXcXnXvXbXbXbXbXbXbXBXBXVXVXVXrXW.&.&.&.k k l l k h k l k l g g l k k l k X.X.X.l 9 w 9 C C n y & $ % $ $ $ % - r 2 2 & , 2 & y y 2 O $ & t M T T B B T 6.7.y.E.P.q * * ; 9 9 g g [ h O.| O...|  .@.o.V.=XVXBXBXbXbXvXvXvXvXvXvXvXnXcXcXcXqX4X6X4X8XqXqXqXqXvXvXeXvXvXvXeXeXeXeXeXeXeXeXeXeXwX X).(.4X(._ 6.~ E t.8.T 8.9.9.9.9.9.5.4.5.5.m &.$.&.w.4.#.w.&.&.&.&.3.#.&.&.%.%.Z %.%.n m &.m m ",
"6X6X4X4X4X4X4X4X4X6X9XqX8X8XqXqX9XqXqX6X4X4X8XqX4X4X4X4X4X8X8X8X4X4X0X0X4X4X8X4X4X4X4X4X4X4X4X4X6X8X6XqXqXqXqXqXqX8X8XqXcXcXqXcXcXcXvXvXvXbXbXbXbXbXbXBXVXVXVXVXE.j.&.k k k k l l l l k k k k l g g g g k k h X.O.z Z j w w C C n q % % % % % % % - - , & $ X X 0 V     . . O & & & & & & - 4 v E 9.w % * ; 9 9 9 g h g X.[ [ | |  .@.| O.%.0XbXBXbXbXbXbXbXbXbXvXbXvXcXcXcXqX6X6X6XqXqXqXqXqXwXeXvXvXvXvXvXvXvXeXeXeXeXeXeXeXwX X).(.<X(._ _ ~ E t.8.T 8.9.9.9.9.9.5.4.5.9.4.q.5.$.5.%.#.w.&.$.&.&.3.#.&.&.%.Z %.%.%.n m &.Z m ",
"6X6X4X4X4X4X4X4X4X9X9XqX9XqX0XqX6XqXqXqX0XqXqX4X4X4X4X4X4X4X4X4X4X4X4X4X4X4X4X4X4X4X6X4X4X4X4X4X6X6X6X6X6XqXqXqXqXqXqXcXcXqXcXcXcXcXvXvXbXbXbXbXbXbXbXBXBXVXVX-Xm.&.X.&.Z &.X.k l l k k k k k k k l g 9 9 k k h z X.X.X.k j w x C n 0 o * - r r r r r 2 $ X X X % C %   . . + @ O + @ @ @ # # # c Q w * * ; 9 9 9 g h h g h h h ..@.@.o. .| =XBXbXbXbXbXbXbXbXbXbXvXvXnXcXcXqXqX9X9XqXqXqXqXcXcXeXvXvXvXvXeXwXwXeXwXwXeXeXeXeXcX X).(.4X_._ ~ ~ E t.8.T 8.9.9.9.9.9.5.4.5.9.3.q.q.%.4.#.#.5.&.&.&.%.3.#.&.%.#.%.V %.%.n C #.&.m ",
"6X6X6X4X6X6X6X6X6X9X6X6X6X6XqXqX9XqXqXqX4XqX8X4X4X4X4X4X4X4X4X4X4X4X4X4X4X4X4X4X6X6X6X4X4X4X4X6X8X6XqXqX6X6X8XqXqXcXqXcXcXcXcXcXcXvXvXbXbXbXvXbXbXbXbXVXVXVXMXW.&.z &.&.&.&.Z l l l h k k k k k k k l l l 9 l X.X.X.X.X.X.m l w d d d * % t M M y y y 0 O X X X X e 0 # & , t u 2 1 & @ @ @ # # u 0 q ; % ; f g e g [ h g h [  .@.@.o.o.s.s.=XBXBXbXbXbXbXbXbXvXbXvXbXvXnXcXqXqXqXqXqXqXqXqXqXcXwXvXvXbXvXeXqXwXwXwXwXeXvXvXvXcX X).(.3X_._ ~ ~ E t.6.T 7.9.9.9.q.9.9.4.5.9.3.q.m.%.4.V #.5.&.&.&.%.3.#.%.%.#.%.m %.%.n C %.&.m ",
"4X4X6X6X6X6X6X9X6X6X4X6X9X9X9X9XqX8X8XqX8XqX6X6X4X4X4X4X4X4X4X4X4X4X4X4X4X4X4X4X4X6X6X4X4X4X4X8XqX6X8X8X6XqXqXqXqXqXqXcXcXcXcXcXcXvXvXbXbXbXbXbXbXbXBXVXBXAX=X&.z &.&.%.&.Z k l h l h k k k k k X.X.k k k k w g X.X.X.X.X.X.Z C w 9 9 w % * M N M M M - X X X X X w x x y n N T E E Y v t t t 2 & ; w * % w 9 g j g h h [  ...+.@.o. . .s.s.1XBXBXBXbXbXbXbXbXbXbXbXbXvXcXcXqXqX9X9XqXqXqXqXqXcXcXvXvXvXvXvXvXvXvXwXwXvXvXvXvXcX X).(.3X_._ ~ ~ Q t.6.T 9.9.9.9.9.9.9.3.5.9.7.m.P.3.5.V #.5.&.&.&.%.3.%.4.%.#.%.V %.%.n C %.Z %.",
"7X7X4X4X6X6X4X4X4X6X6X6X6X6X6X6X9X6X6X6X8XqX6X4X4X4X4X4X4X4X4X4X4X4X4X4X6X6X6X6X4X4X6X4X6X6X4X8XqX6X6X6X6X6XqXqXqXqXqXqXcXcXcXcXvXvXvXbXbXbXbXbXbXBXVXBXBXrXW.&.&.&.&.Z m j l l h h h h k h h k k X.X.X.z k k 9 j X.X.X.X.X.Z m m q q q ; % - B V V n * X X X X X q j m k X.%.%.#.1.3.6.6.3.6.t.v ; w ; * w 9 9 9 9 9 9  ...+.+... .|  .s.h.rXBXbXbXbXbXbXbXbXbXbXbXbXvXcXcXqX9X6X6X6X9XqXqXqXcXcXvXvXvXvXvXvXvXvXvXwXvXvXvXeXcX X).(.yX(._ ~ ~ E t.6.E 9.9.9.9.9.9.5.4.9.8.3.m.q.V 4.V %.5.&.&.&.%.%.%.4.%.#.%.m %.%.V m %.m &.",
"7X7X4X4X4X4X6X4X4X6X4X4X6X6X6X6X6X6X6X8XqX6X6X6X4X4X4X4X4X4X4X4X4X4X4X4X6X6X6X6X4X4X6X4X6X6X6X8X6XqX8X6X6X8XqX8XqXqXqXqXcXcXcXcXvXvXvXvXbXbXbXbXbXBXBXBXVXU.5.&.&.&.Z l j f g l l h k h k k k X.X.k k X.X.X.X.X.j j X.X.X.X.k m m m q d y * o y V V n & X X X X X j j $.k &.&.&.&.&.4.7.6.7.y.E.v * * q w 9 9 9 9 9 g h  . .....| [ [ @.s.s.OXBXbXbXbXbXbXbXbXbXbXbXbXvXcXcXqX9X6X6X6X9XqXqXqXcXcXcXcXvXvXvXvXvXvXvXcXvXvXvXeXqX X).(.yX(._ ! ! R e.6.E 9.9.9.9.P.9.5.0.9.0.V V %.V 4.V 3.5.%.&.&.%.#.%.4.%.%.%.#.%.%.Z m %.m &.",
"7X7X4X4X4X4X4X4X4X6X4X4X6X6X6X6X6X8XqX9X9X6X6X6X4X4X4X4X4X8X4X8X4X8X0X4X4X6X6X6X4X4X4X6X4X6X4X4X4X6X6X6X6X6X8XqXqXqXqXqXqXcXcXcXnXvXvXvXbXbXbXbXbXBXBXBXrXV.&.Z %.Z m d j g g g l h h h z h z X.X.X.X.z | X.X.X.X.9 j X.X.X.X.k k m m j d 0 % % M V n $ X X X X - j l $.k X.X.o.&.&.&.*.5.5.q.P.0 ; ; 9 9 9 g g 9 9 g h [ [ [ [ [ [ ..a.@.@.%.bXBXbXbXbXbXbXbXbXbXbXbXnXcXcXcX9X6X6X6X9XqXqXcXcXcXcXcXvXvXvXvXvXvXcXcXcXwXvXvXqX'.).(.yX(._ ~ ! R e.6.T 9.9.t.9.P.9.5.4.9.6.0.V C 3.4.V %.5.&.&.&.%.V %.%.4.4.4.%.&.0.m &.4.V j.",
"7X7X4X4X7X4X7X7X4X4X6X6X6X6X6X9X6X6X8X6X6X6X6X4X6X4X4X4X4X6X6X6X4X0X0X4X4X4X4X4X4X4X4X4X4X6X4X4X4X6X6X6X6X6X8XqXqXqXqXqXqXqXcXcXcXnXnXbXbXbXbXbXbXBXVXVXOX&.Z &.&.Z l f g g g g l k h h z z z X.X.X.X.X.X.X.| X.X.m w l X.X.X.X.X.k k m k q 0 % * y - X X X X   q j k l l { { X.O.&.&.*.*.*.w.m.w w w 9 9 9 9 9 9 9 9 g h [ h h | ..@.+.@.| X.0XBXBXbXbXbXbXbXbXbXvXbXnXnXcXqX6X9X9X6X9XqXqXcXcXcXcXcXvXvXvXvXvXvXvXcXcXcXcXwXqX'.).(.yX(._ ! ! R e.6.T 9.9.t.9.P.9.5.4.9.6.V 9.5.9.4.N %.4.&.#.&.%.V %.%.%.%.4.%.0.3.V X.&.Z j.",
"4X4X7X4X4X4X4X7X4X4X4X4X6X6X6X6X6X6X6X6X4X6X6X4X6X4X4X4X4X6X6X6X4X6X6X6X4X4X4X4X4X4X4X4X4X4X4X4X4X6X4X6X6X8X8X9XqXcXcXcXcXcXcXcXcXnXcXnXbXbXbXbXbXbXVXVXV.Z &.&.&.m j f f g g g l z k z z | X.X.X.X.X.X.X.X.X.X.X.X.k 9 k X.X.X.X.z k Z m d q ; o o X X X X X X q g l g k { X.X.{ X.O.o.@.@.h.*.O.X.g 9 9 9 9 g g g g h [ [ [  .@.a.+.+.o.h | 0XBXBXbXbXbXbXbXbXbXbXvXvXnXcXzX9X6XcX9X9XqXqXcXcXnXcXcXvXvXvXvXvXvXvXvXcXcXcXcXcX'.).(.yX(._ ! ! R e.8.T 9.9.9.9.P.V.0.5.9.3.3.4.5.%.4.V %.5.&.#.%.%.V %.%.%.%.4.%.0.3.V m &.Z j.",
"4X4X4X7X4X7X4X4X4X7X4X7X4X7X4X4X4X4X6X6X4X6X6X6X6X4X4X4X4X6X6X6X4X6X6X6X8X6X6X4X4X4X4X4X4X4X4X4X4X4X4X4X6XqXqX9XqXcXcXcXcXcXcXcXcXcXcXnXvXbXbXbXbXBXVXvX5.Z &.&.m j j f f g g g g h z z k X.X.X.X.X.X.X.X.X.X.X.X.X.X.l g k X.O.O.X.z k m d d d - X   X X X X X w g g k { O.O.O.X.{ |  .@.d.h.o.s.h.o.l 9 g g g g g O.| [ | +.+.+... .| [ [ O.2XBXBXbXbXbXbXbXbXbXbXbXnXnXcXcX9X6X6X9X9XqXcXqXcXcXcXcXvXvXvXvXvXvXvXvXwXcXcXvXcX'.).).3X(._ _ R R e.8.T 9.t.9.9.P.9.3.5.9.6.3.%.m 4.%.V %.5.&.$.%.%.V %.%.%.%.4.%.&.%.V m %.Z j.",
"7X4X4X7X7X7X4X6X4X7X7X4X4X6X6X4X4X4X4X6X4X6X4X6X4X4X6X4X4X6X6X6X6X6X6X4X6X6X4X4X4X4X4X4X4X4X4X4X4X6X6X6X6X8XqX9X9X9XcXcXcXcXcXcXcXcXcXcXvXvXbXbXbXBXAX2X&.Z &.Z m j j j j l l g g h h z X.X.X.X.X.X.X.X.X.| | X.X.X.z z l g k X.O.X.O.z d q d d d = .     X X * j l k k h | o.o.o.O.|  .s.d.@.s.@.h.h.m 9 g g g h h @.@.[ h ......| [ h |  .@.2XBXBXBXbXbXbXbXbXbXbXbXnXnXcXcX9X9X6X9X9XqXcXcXcXcXcXcXvXvXvXvXvXvXvXvXwXcXcXcXqX(.).(.<X(._ ! R E e.6.T 9.y.9.9.P.9.3.5.9.6.N 9.5.4.V V %.&.&.$.#.#.V %.%.%.%.4.#.0.%.V m %.C Z ",
"7X4X7X7X7X7X6X4X7X7X7X4X4X6X4X6X4X4X4X4X4X4X4X4X4X4X6X6X4X4X8X6X4X4X6X6X8X4X4X4X4X4X4X4X4X4X4X4X4X6X6X6X6X8XqX9X6X9XcXcXcXcXcXcXcXcXnXcXnXbXbXbXbXBXAX*XZ Z Z Z k C Z j l l l l h h h h h | X.O.O.O.X.X.X.X.X.X.X.X.X.| X.f h X.O.X.X.X.k w w d d d % X     X j k h k X.X.|  .o.@.@.....d.s...a.s.d.h.j 9 h h h h h [ @.@.........| |  ...a.s.=XBXBXBXBXbXbXbXbXbXbXvXnXcXcXzX9X9X9X6X9XcXcXcXcXcXcXcXvXvXvXcXcXcXvXvXwXcXcXcXcX(.).(.4X(._ ! ! E 8.6.T 9.9.9.9.9.9.3.9.9.3.V 9.9.%.%.V %.4.&.$.$.#.V %.%.%.%.4.#.5.V m m %.x Z ",
"7X4X7X7X7X7X4X4X7X7X4X4X7X4X6X4X4X4X7X4X7X7X7X4X4X4X4X6X4X4X6X4X4X6X8X6X4X4X8X4X4X4X6X4X4X4X4X6X4X8X4X6X6X8XqX6X6X6X9X9XcXcXcXcXcXcXnXcXnXbXbXbXbXBXAX8.m Z Z m C m C j l j l g l l k h h X.X.O.O.O.X.X.X.X.X.X.X.X.| | X.k g h X.O.X.X.z k ; ; q d t o   X & Z k k k | | | ..o.o.....+.d.d.d.a.d.d.o.9 9 h h h h [ [ | ..+.a.a.+.+.+.a.a.s.h.#XBXBXBXBXbXbXbXbXbXbXbXnXcXcXzXzX6XqX9X9XcXcXqXcXcXcXcXcXvXvXcXvXvXvXvXwXqXcXcXcX(.).(.4X(._ R ! E 8.~ T 6.9.9.y.Q 3.3.9.9.3.T %.5.V 3.n %.4.%.$.$.#.V %.%.%.%.5.#.5.V 3.9.P.V.m.",
"7X7X7X7X7X7X4X4X7X4X7X4X7X7X4X7X7X7X4X7X7X7X7X4X4X4X4X4X4X4X4X4X4X4X6X6X6X4X6X4X4X6X6X4X4X4X4X6X6X6X4X6X6X6X6X6X6X9XcXcXcXcXcXcXcXcXcXvXnXbXbXbXbXBXVXZ m m m m d d d d f l k g g g g h h X.X.X.O.o.O.X.| | | X.X.X.| | X.X.g h z X.O.z k z l * $ ; y -   o m &.k k k h | |  ...@.+.s.d.d.d.d.d.g.g.s.o.g h h [ [ [ | | |  . .............s.s.T.BXBXBXBXBXBXBXnXbXbXnXnXnXcXzXzX9XcX6X9XcXcXcXcXcXcXcXcXvXvXcXvXvXcXvXcXqXqXcXqX(.).(.<X(._ ! ! E 8.~ T 6.9.9.P.T T 3.9.9.6.T C V V %.n 0.4.%.$.$.#.V %.%.%.%.4.%.%.E.V C M x w ",
"7X7X4X4X4X4X6X7X7X4X7X7X7X7X7X7X7X7X7X7X7X7X4X4X4X4X4X4X4X4X4X4X4X6X6X6X4X6X6X6X6X6X6X6X4X6X6X6X6X6X6X6X6X9XqXqX9X9XcXcXcXcXcXcXcXcXcXnXnXnXbXbXbXBXVXV m m l m d d d d l m l l g h k k g g X.h h O.o.o.O.| | h X.X.X.| | k k 9 h X.X.k k k k k * o % - $ 0 j.&.k k k g  .....+.a.a.d.s.d.d.d.d.d.d.f.f.o.| h [ | | | |  . . . . ....... .@.h.=XBXBXBXBXBXBXBXbXbXbXnXnXnXcXzXzX9X9X6XqXcXqXcXcXcXcXcXnXcXcXcXcXvXvXvXcXcXqXqXqX(.).(.<X(._ R ! E 6.~ T 6.9.9.P.3.T 3.9.9.3.V n n 3.%.q 0.%.#.#.$.#.N #.#.#.$.%.m C Q P.P.P.B.B.",
"7X7X7X7X7X7X7X4X4X4X4X4X4X7X7X7X7X7X7X7X7X3X3X3X3X4X3X4X4X3X4X4X4X4X6X6X4X6X6X4X6X6X6X6X6X6X6X6X6X6X6X6X9X6X6X6X6X6X9XcXcXcXcXcXcXcXcXnXvXbXbXbXbXBX0XZ m m j Z d d f f j j g g k X.X.O.O.k h h l l h X.O.O.X.h h X.X.X.X.k k g g h X.l l k k z d & o o o x &.k l l h h ..@.s.a.s.s.d.a.s.d.d.d.f.f.f.k.s. .|  .........+.+.+...............h.rXBXBXBXBXBXbXbXbXbXbXnXnXnXcXzXzX9X6X6X6X9X9XcXcXcXcXcXvXcXcXvXvXvXvXcXvXcXqXqXcX(.).(.<X' _ R ~ E 6.~ T 6.9.9.t.3.3.3.9.9.3.T M n 4.%.n 0.%.#.#.$.#.M #.#.#.#.#.m C q q n x M x ",
"7X7X7X7X7X4X7X7X4X4X4X4X3X3X3X3X3X3X3X3X7X4X7X3X7X3X3X4X4X3X4X4X6X6X6X6X6X6X6X6X6X6X6X6X6X6X6X6X6X6X6X6X6X6XqX6X6X6X6X9X9XcXcXcXcXcXcXnXbXbXbXbXbXBX4XZ m m d Z d d f f f f l g l k X.X.O.O.O.z X.h h g h z | h g h h | X.h h l 9 g k k l k k k z w $ o o w l 9 9 g h | ....@.+.s.s.d.a.d.d.d.d.f.f.f.k.O.h [  .+.@.+.a.@.+.a.+.+.+.+.+.+.+.h.VXBXBXBXBXBXbXbXbXbXbXnXnXcXcXcXzXqX6X6X6XqXcXcXcXcXcXcXcXcXcXcXvXvXvXwXcXcXqXqXcX).(.(.<X' r._ ~ E 6.~ T 9.9.9.t.6.6.3.9.9.Q T V 3.%.%.n 4.%.#.#.m %.B #.#.#.%.V V V C n j q q q ",
"7X3X3X7X7X7X4X7X7X4X4X7X3X7X7X3X3X3X3X3X7X4X3X7X7X7X4X4X6X6X6X6X6X6X6X6X6X6X6X6X6X8X6X6X6X4X6X6X6X6X6X6X6X6X9X9X6X9X9XcXcXcXcXcXcXcXcXcXnXvXbXbXbXbXqXV C C d Z d q f f f f g g l h h z X.X.O.O.O.&.X.O.X.| X.X.| | h | | | h g 9 w l k l l l l z j ; $ $ m &.k k h [ | | |  .| o.s.s.d.f.f.d.g.f.f.f.k.l 9 g h | ..@.a.a.+.a.a.+.+.a.a.+.a.h.AXBXBXBXBXbXbXbXbXbXbXnXnXcXcXzX9X9X9X9X9XzXcXcXcXnXcXcXcXcXcXcXcXcXvXcXcXcXqXqXqX).).(.yX' ` ! R E ~ ~ T 8.9.9.8.7.6.3.9.9.Q V V 4.#.%.p 4.%.#.%.m %.M %.%.%.#.V V n m $.C C j C ",
"7X7X7X7X7X4X4X4X7X7X7X7X7X7X4X7X7X4X3X7X4X4X4X7X4X7X6X6X4X6X6X6X6X6X6X6X6X6X4X6X6X6X6X6X6X6X6X6X6X6X6X6X6X6X9X9X6X9XcXcXcXcXcXcXcXcXcXcXnXvXnXbXbXBXVXm j C C Z d q d f f f l l l h h h X.X.X.X.O.&.&.&.o.o.O.O.O.O.O.O.X.| | k l w w l l l g l k k d % ; &.&.&.o.X.| | | | [ h [  ...d.k.k.d.d.g.g.f.k.l w 9 g h  ...+.+.+.+.+.+.+.a.a.a.s.h.iXBXBXBXBXbXBXbXbXbXbXnXnXnXcXzXzX9X9XzXzXzXzXcXcXcXcXcXcXcXcXvXcXqXwXqXqXcXqXqX9X).).(.@X] _ E H E _ ~ T 6.8.9.6.9.3.3.V.V.Q V 5.5.N %.n 4.#.#.#.m V M %.%.#.#.%.%.m $.$.m $.m m ",
"4X3X3X7X7X4X4X4X6X4X4X4X6X6X6X7X4X6X7X3X7X7X3X7X4X7X7X7X4X4X7X4X4X4X4X6X4X4X6X6X4X4X6X8X6X8X6X6X6X6X6X6X6X6X9XcX9XqXqXcXcXcXcXcXcXcXcXcXnXnXbXbXbXbXMXm j j m Z d d d d f j j l l k k h X.| X.X.O.O.O.O.O.O.O.O.O.O.O.X.X.X.| | X.k q 9 l g 9 f l g k ; 0 j j l k k | |  ...O.| [ [ [ o.f.f.f.f.g.g.f.k.l 9 9 9 g .. .....+.+.+.+.a.+.+.+.a.s.R.BXBXBXBXBXbXBXbXbXbXnXnXnXcXzXzX9X9XzXzXzXzXcXcXcXcXcXcXcXvXvXcXcXcXcXqXqXqXqX9X).).'.yX] _ ! E E ~ ~ T 6.9.8.6.9.6.3.6.9.T 3.9.5.C 3.n 4.#.$.%.#.%.M #.%.%.%.%.%.#.$.%.$.$.$.k ",
"7X7X7X4X4X6X6X6X6X6X4X6X4X7X7X3X7X3X7X3X7X7X3X3X3X7X7X7X4X6X4X4X4X4X6X6X4X4X6X6X6X6X6X6X4X4X6X6X9X6X6X6X6X6X6X6X9XcXcXcXcXcXcXcXcXcXcXcXnXnXbXbXbXbXvXC C j Z Z d d d d j g j l l k z z X.X.X.X.X.O.O.O.O.O.O.O.O.O.O.O.X.| h h | X.k 9 9 f 9 9 f w j n * w 9 9 9 9 g g | o.s.o. . .[ [ ..g.k.f.f.g.f.c.l 9 g 9 h  . . .....+.+.+.+.+.+.+.a.s.h.%XBXBXBXBXBXbXbXbXbXnXnXnXzXzXzX9X9XzXzXzXzXcXcXcXcXcXcXvXcXcXcXcXcXcXqXqXcXqX9X).).'.@X' ! E E Y ~ Q T 8.8.9.6.8.6.M B 6.T 3.9.9.N #.n 4.#.$.#.m %.M %.%.%.%.V %.#.#.#.&.$.$.$.",
"6X6X4X3X7X4X7X7X4X7X7X7X4X7X7X3X3X3X3X3X3X3X3X3X3X3X7X7X7X7X4X4X6X6X6X6X6X6X6X4X6X6X6X6X4X4X4X6X6X6X6X6X6X6X6X6XzXcXcXcXcXcXcXcXcXcXcXcXcXnXbXbXbXbXeXm m l &.Z d d d d d j l l h z k z z X.X.X.O.O.&.O.O.O.O.O.O.O.O.| h h h h h h k f 9 9 9 9 9 q w n q k m g g l g d g h @.a.a.@.o. .| ..d.k.k.f.f.c.j g 9 9 h [  . .....+.+.+.+.a.a.a.a.s.s.h.eXBXBXBXbXbXbXbXbXbXnXcXcXzX9X9X9XzXzXzXzXcXcXcXcXcXcXcXcXcXcXcXcXcXcXqXqX9X6X).).]. X' ! E E E ~ ~ T 6.8.8.6.9.6.T 3.Q T 9.V 4.V #.n 4.#.m #.m %.n #.%.%.%.#.%.$.%.$.$.{ $.{ ",
"6X7X7X3X3X3X7X7X3X3X7X3X7X7X3X3X3X3X3X3X3X3X3X3X3X3X3X7X7X7X4X6X6X4X6X6X6X6X6X6X4X4X4X6X6X4X4X6X6X6X6X6X6X6X6X6XzXcXcXcXcXcXcXcXcXcXcXcXnXnXbXbXbXbXvXm m l &.m d d d d j j l l k z X.X.z X.X.X.O.o.O.O.O.O.O.X.| | | h h z h h h h k f 9 w w w w q ; w j X.X.l f z k C w 9 h ..f.d.d.s..... .d.k.k.k.c.w l g g g g [  ...+.+.s.a.+.+.a.a.a.a.s.@.=XBXBXBXBXBXbXbXbXbXnXnXcXzX9X9X9XzXzXzXzXcXcXcXcXcXcXcXcXcXcXcXcXcXcXqXqXqX6X).). X X' ! E E E ~ ~ T 6.7.8.6.6.8.3.6.Q T 3.y 3.V #.M 4.#.m #.m %.n #.#.#.%.#.#.$.$.m l k l k ",
"7X7X3X3X3X3X7X7X4X7X3X7X3X3X7X3X3X3X3X3X3X3X3X3X3X7X4X4X6X6X6X6X6X4X6X6X6X6X6X6X6X4X4X4X6X6X4X6X6X6X6X6X6X6X6XzXzXcXcXcXcXcXcXcXcXcXcXcXnXbXbXbXbXbXAXV k m &.m d d d d f j l l l h h z X.| X.X.| O.X.O.X.| | | h h [ [ h | X.X.h | k f 9 w w w w w ; ; 9 X.O.k g l k C d j h h ..d.d.d.d.a. .a.f.k.k.c.9 g h h h g g h | +.a.s.s.a.+.a.a.a.s.s.s.oXBXBXBXBXBXbXbXnXnXnXcXzXzX9X9XzXzXzXzXzXcXcXcXcXcXcXcXcXcXcXcXcXcXqXqXqX9X6X) ). X X' _ E H ~ 6.~ Q 6.8.t.6.6.9.3.9.Q M M n #.V #.M 4.#.m m V V M #.#.#.#.#.m #.$.m m m $.l ",
"7X7X3X3X3X3X7X7X4X3X7X3X3X3X3X3X3X3X3X3X3X3X3X3X3X3X7X4X4X6X4X6X6X4X6X6X4X6X6X4X4X4X6X6X6X6X4X6X6X6X6X6X6X9X6X9XcXcXcXcXcXcXcXcXcXcXcXcXcXbXbXbXbXbXMXe.C Z &.C d d f d j j l l l h h h X.X.| | h | X.X.| h h | X.X.| | | z z | h h h l 9 ; % w w ; 0 ; w 9 X.X.k g d d k | h h | a.d.d.f.f.a.a.f.k.k.h.9 g h [ [ h h h h ..s.s.d.a.a.a.a.s.d.d.s.E.BXBXBXBXBXbXbXnXnXnXcXcXzX9X9XzXzXzXzXzXcXcXcXcXcXcXcXcXcXcXcXcXcXqXqXqX6X7X) ).;X X(._ E H ! ~ ~ Q 6.8.9.6.6.6.6.9.6.x M M V V #.M 3.#.m V V V M #.#.#.#.#.m $.#.C C j C j ",
"7X6X7X5X5X7X7X4X7X7X4X7X7X3X3X3X3X3X3X3X3X3X3X3X3X3X3X7X7X7X4X6X6X6X6X6X6X6X6X4X6X6X4X6X4X6X4X6X6X6X6X6X6X6X6X6X6XcXcXcXcXcXcXcXcXcXcXcXcXnXbXbXbXbXNX}.C Z Z C d d d d j j l g l g l h h h h | h h h z | |  .O.O.X.| | X.X.X.| h h h h w ; % * w ; w q w w g O.X.k q w k | | |  .+.a.g.f.f.d.g.f.k.k.&.9 9 h h [ [ [ h h  .+.a.a.a.a.a.s.d.d.s.s.E.BXbXBXBXBXbXnXnXnXnXcXzXzX9X6X9XzXzXzXzXcXcXcXcXcXcXcXcXcXcXcXcXcXqX9X6X6X7X/ ).;X X(._ E H ! ~ ~ T 6.7.8.8.9.6.6.9.6.x Q 3.N V #.M 3.#.m m V %.n V #.%.w.Q././.%.q q e e j ",
"7X6X6X7X7X5X7X7X7X7X7X3X3X3X3X3X3X3X3X3X3X3X3X3X3X3X3X7X7X7X4X6X6X6X4X4X6X6X6X6X6X6X4X6X4X4X4X6X6X6X6X6X6X9X9X6X6X6XcXcXcXcXcXcXcXcXcXcXcXcXbXbXbXbXNX{.j m C n d d d d d j g g l h h g g g z h h z | X.X.X.O.O.O.| X.X.O.O.O.O.| | | z f w * % * ; q 9 f d 9 k O.X.x w l | | | ....+.a.g.g.g.g.k.k.k.k 9 9 h h h [ [ [ | ....+.a.a.a.a.s.s.s.s.s.R.bXBXBXBXBXbXnXnXnXcXcXzXzX9X6X9XzXzXzXzXcXcXcXcXcXcXcXcXcXcXcXcXqXqX6X4X4X7X/ ).;X;X(._ E G ~ _ ~ T 6.7.6.8.9.8.3.9.6.M 7.5.C #.V M %.#.m m m %.4.m././.~.Q.Q.Q.m.%.#.m m C ",
"6X6X6X7X3X3X3X3X3X3X3X3X3X3X3X3X3X3X3X3X3X3X3X3X3X3X3X7X7X7X7X7X4X6X4X4X6X6X6X6X6X6X6X6X4X4X4X6X6X6X6X6X6X6X6X6X6X6XcX6XcXcXcXcXcXcXcXcXnXcXbXbXbXbXBXF.d m n d d d d d j j g g l X.z h h h X.X.X.z z X.O.h O.o.O.| O.o.O.O.O.O.| | | X.k j w ; * ; d 9 j l j f O.z j j f h | | ....a.a.a.g.g.g.k.k.h.g 9 9 h [ h h h [ |  .+.+.a.s.d.d.d.d.s.s.s.&XBXBXBXmXbXbXbXnXnXcXzXzX9X6X6X9XzX9XzXzXcXzXcXcXcXcXcXcXcXcXcXcXqX9X4X4X7X5X/ ).;X;X(.] E G ~ _ ~ Q 6.6.6.8.9.6.V 6.6.B 9.5.N 3.T n %.w.m././././.~.Q.Q.Q.Q.Q.Q.Q.Q.Q.Q.Q.Q.",
"7X7X7X7X5X7X3X3X3X3X3X3X3X3X3X3X3X3X3X3X3X3X3X3X3X3X3X7X7X7X4X4X4X6X6X6X6X6X6X6X6X6X6X6X6X4X6X4X6X4X6X6X6X6X6X9XkX6XcXzXcXcXcXcXcXcXcXcXnXnXbXbXbXmXAX{.x x x d d d d d j j g l k z z z z X.X.X.z h h z h g o.O.O.o.o.o.o.O.O.X.| | X.X.| k q w ; q l g m m l f l O.Z X.l g |  .....+.a.g.g.g.g.k.c.O.g g 9 g | | [ h h [  .+.+.s.d.d.d.d.d.s.s.s.=XBXBXBXmXbXbXbXnXnXcXzX9X9X6X6X9XzX9XzXzXcXcXcXcXcXcXcXcXcXcXcXqXqX6X4X7X3X3X/ ).;X;X(.] E G ! _ ! Q 6.8.6.8.9.6.T 6.6.B 7.5.V #.V V /./.~./.^.^.^.^.^.^.^./././././.~.~.~.~.",
"7X7X4X4X4X3X3X3X5X3X3X3X3X3X3X3X3X3X3X3X3X3X3X3X3X3X3X3X4X4X4X4X4X6X6X6X4X7X4X4X6X6X4X4X6X6X6X4X6X6X6X6X6X9X6XzXzXkXzXcXcXcXcXcXcXcXcXcXnXnXbXnXbXbXVX Xq y x x q d d d d j l k k k k X.z z k h h k k h h X.o.O.o.o.o.o.X.X.O.h |  .O.| | k 9 ; * j h l z Z k l g o.o.O.k e h  .....+.a.g.g.g.g.f.v.l g g g 9 h  .| [ [ h | a.s.d.d.d.d.d.d.s.s.s.1XBXbXmXbXbXbXbXnXcXcXzX9X6X6X6X6X9X9XzXzXzXcXcXzXcXcXcXcXcXcXcXqXqX6X4X4X7X3X/ ).;X;X' ] E G ~ _ ! Q 6.6.6.9.8.8.T 6.3.M n V 3.V V #.Q.Q.Q.Q.Q.Q.Q.Q.Q.Q.Q.Q.~.~.~.~.~.~.~.^.",
"7X7X4X4X7X7X3X3X5X3X3X3X3X3X3X3X3X3X3X3X3X3X3X3X3X3X3X3X3X7X4X7X4X6X6X4X4X4X4X4X4X6X4X4X6X6X4X6X6X6X6X6X6X6X6X6X6XzXzXcXcXcXcXcXcXcXcXcXnXbXbXnXbXmXmX0Xw q q d d d d d f g l l k k k k k k l l l h h h h X.O.o.o.o.O.O.X.X.h h | ..O.| X.k w * ; k X.X.z k z k g h s.o.X.l g | ....+.a.g.g.g.f.f.h.g g g g g g |  .| | [ h ..d.f.f.d.d.d.d.s.s.s.eXBXBXmXBXbXbXbXnXcXzX9X9X6X9X6X6X9XzXzXzXzXcXcXcXcXcXcXcXcXcXcXqXqX6X4X4X3X>X/ ).;X X' ] E G ! ~ E T 6.6.6.9.9.8.Q 6.3.M n n 5.V V #.Q.Q.Q.Q.Q.Q.Q.Q.Q.Q.Q.Q.Q.Q.Q.Q.Q.Q.Q.Q.",
"7X7X7X7X7X7X3X5X3X3X3X3X3X3X3X3X3X3X3X3X3X3X3X3X3X3X3X3X3X7X4X4X4X4X4X4X6X7X7X7X4X6X6X6X6X6X6X6X6X6X6X6X6X6X6X6XcXcXcXcXcXcXcXcXcXnXnXnXnXnXbXnXnXbXbXMXv w w q d d d d d j g l k k k k k j j j l l k h z X.O.o.&.o.O.O.X.z h h | o.o. .X.l * * w k X.X.X.X.X.X.h h d.s.O.k g h @.a.a.a.a.g.f.k.k.s.9 g g g g g g  . . .| | h  .s.a.d.d.a.s.s.s.j.BXBXBXBXmXbXbXnXnXcXzX9X9X6X6X6X6X9XzXzXcXzXzXcXcXcXcXcXcXcXcXcXqXqX6X4X3X3X>X/ ).;X;X' ] E G ! ~ E T 6.6.6.8.T 8.Q 6.3.B T n 3.N V #.Q.Q.Q.Q.Q.Q.Q.Q.Q.Q.Q.Q.Q.Q.Q.Q.Q.Q.Q.Q.",
"7X7X7X7X7X7X5X5X3X5X5X3X3X3X3X3X3X3X3X3X3X3X3X3X3X3X3X3X3X7X7X4X4X4X4X4X6X6X4X7X4X6X6X6X6X6X6X6X6X6X6X6X6X9XzXzXcXzXzXcXcXcXcXcXcXnXnXnXnXnXbXbXnXbXmXVXQ w w w w q d d d d f l k k k l j d j l l l k k z h O.o.o.O.X.X.h h h h  .@.o.O.X.g w w q k X.z X.X.X.| | O.d.s...| l g O.d.g.g.g.g.g.f.k.s.9 g h h h h g h .... . .[ h  ...+.a.a.a.s.s.m.BXmXBXbXbXbXbXnXnXcXzXzXzX6X6XzXzX9XzXzXzXzXcXcXcXcXcXcXcXcXcXqXqXqX9X7X3X>X;X/ ).;X X' ] R G _ _ E T 6.6.6.6.B 8.Q 6.3.T 9.6.T V N #.Q.Q.Q.Q.Q.Q.Q.Q.Q.Q.Q.Q.Q.Q.Q.Q.Q.Q.Q.Q.",
"7X7X7X7X7X7X7X7X3X3X3X3X3X3X3X3X3X3X3X3X3X3X3X3X3X3X3X3X3X3X7X7X6X4X4X6X6X6X4X4X6X6X6X6X6X6X6X6X6X9X6X6X6X6XzXcXcXzXzXcXcXcXcXcXcXnXnXnXnXnXnXbXnXmXmXVX0.x w w w w q d d f f l k k k j d d d j l l k z k h o.o.o.h | X.h | z | o.s.o.X.g 9 9 q q l O.h | o.O.| | ..d.O.s.O.h g h s.g.g.g.g.g.g.k.d.9 g h h h h h g | o... .| [ [ | ..a.a.a.s.s.oXBXmXmXbXmXbXbXnXnXcXxXzXzXzX6XzXzXzXzXzXzXcXcXcXcXcXcXcXcXcXcXqXqXqX6X7X>X>X;X/ ). X X' ] R G _ ~ E T 6.6.6.3.Q 8.T 3.3.T 9.7.M V M #.Q.Q.Q.Q.Q.Q.Q.Q.Q.Q.Q.Q.Q.Q.Q.Q.Q.Q.Q.Q.",
"7X7X7X7X7X7X7X5X3X3X3X3X3X3X3X3X3X3X3X3X3X3X3X3X3X3X3X3X3X3X7X4X4X6X6X6X6X6X6X6X6X6X6X6X6X6X6X6X9X9X9X6X6X6X6XzXcXzXzXcXcXcXcXcXcXnXnXnXnXnXnXbXbXbXbXbX8.M q q ; w w q d d d j l k l j d d d d j l k z l z o.o.O.h X.X.h z h O.s.s.O.l ; j 9 f j g o.X.| s.@.O.| ..f.| o.s. .h g ..f.f.d.k.g.f.k.h.9 9 h h h h h h | o.o...O.| | [ | ..+.s.s.s.*XmXmXmXbXmXbXbXbXnXnXcXxXzXzXzXzXzXzXzXzXcXzXzXzXcXcXzXzXzXcXcX9X9X6X6X3X>X>X;X/ ). X;X) ] R F _ _ Y T 6.6.6.6.Q 6.V 6.3.M M 3.V V B %.Q.Q.Q.Q.Q.Q.Q.Q.Q.Q.Q.Q.Q.Q.Q.Q.Q.Q.Q.Q.",
"7X7X7X7X7X7X5X3X5X3X3X3X3X3X3X3X3X3X3X3X3X3X3X3X3X3X3X7X3X7X7X4X4X4X6X6X6X6X6X6X6X6X6X6X6X6X6X9X6X6X6X6X6X6X9XzXzXcXcXcXcXcXcXcXcXcXcXnXnXnXnXbXnXbXmXNXG.B q q w w ; w q j d d j k m j j d d d d l k k l X.o.O.h k X.X.h h h o.s.o.g l ; j j 9 f g o.o.| o.s.s...O.d...| +.+.| g | f.f.f.k.g.g.k.d.g 9 h h h h [ [ [ o.@.@.s.@... .| |  .@.s.s.1XmXmXmXmXmXbXbXbXbXnXcXxXzXzXzXzXzXzXzXzXcXzXzXcXcXzX9X9X9X9XzX6X6X6X6X3X>X>X;X).). X X' ] R G _ _ Y E 6.6.6.6.Q 6.V 3.3.x y M 3.V B %.Q.Q.Q.Q.Q.Q.Q.Q.Q.Q.Q.Q.Q.Q.Q.Q.Q.Q.Q.Q.",
"5X5X7X7X7X7X6X7X3X3X3X3X3X3X3X3X3X3X3X3X3X3X3X3X3X3X3X5X7X7X7X4X4X7X4X6X6X6X6X6X6X6X6X6X6X6X6X6X9X6X6X6X6X6X9XzXkXkXkXcXcXcXcXnXcXcXcXnXcXnXnXbXnXnXmXmXwXQ q q q q ; ; w d d d j l m j j j d d d j l l l X.o.z h X.X.X.l k h d.s.| g h f 9 Z l g 9 h o.o...s.a.+.s.f.s. .[ +...h h f.k.k.k.k.f.k.s.g g g [ h h [ [ [ [  ...@.s.@.@..... . .s.m.bXmXmXmXBXmXmXbXbXbXnXnXzXzXzXzXzXzXzXzXxXcXcXcXcXzX9X9X9X9XqXcX9X9X6X4X3X:X:X;X).). X;X' ] R G _ ~ Y T 6.6.6.6.3.Q V Q 3.v M q 3.N V 4.Q.Q.Q.Q.Q.Q.Q.Q.Q.Q.Q.Q.Q.Q.Q.Q.Q.Q.Q.Q.",
"3X5X7X7X7X6X6X7X7X7X3X3X3X3X3X3X3X3X3X5X5X3X3X3X3X3X3X3X7X7X4X7X7X4X4X4X6X4X6X6X6X6X6X6X6X6X6X6X6X6X6X6X6XzX6XzXkXzXcXcXcXcXcXnXcXcXcXcXcXnXnXnXnXnXmXmXAX{.x q d q w ; ; w q d j l j j j j d d d j l j l X.X.k k O.X.X.k l X.d...[ g X.g j k X.h g f X.@...d.a.+.s.f.f...[ | s.| h s.k.k.k.k.k.v.o.g g 9 h | h [ | [ [ [ | ..@.s.@.@.......s.=XBXmXmXbXmXbXbXbXnXbXnXcXxXzXzXzXzXzXzXxXxXxXcXcXcX9X9X9XzX9X6X6X6X6X6X4X4X3X:X;X/ ). X;X' ] R G _ ~ Y Q 6.~ 6.Q 6.Q V Q Q Y 6.x 3.N V N w.w.m.Q.Q.Q.Q.Q.Q.Q.Q.Q.Q.Q.Q.Q.Q.Q.Q.Q.",
"7X7X7X5X7X7X6X7X7X7X3X3X3X3X3X3X3X3X3X3X3X3X3X3X3X3X3X3X3X5X4X4X7X6X4X7X6X6X6X4X4X6X6X6X6X6X6X6X6X6X6X6X6X6XzXkXkXkXcXcXcXcXcXcXcXcXcXcXcXnXnXnXnXnXmXmXNXMXe.q x d q 0 ; ; ; q j j j j j d d d d j j j l k z k z O.O.X.k g o.d...h X.X.k k l o.k k l g o.s.f.d...a.f.f.s.| h o.o.h s.k.k.f.k.k.v.k g g g g O.| [ | [ [ [ | | ..+.@.+.+.@.s.W.BXBXmXmXbXmXbXbXbXnXnXnXxXcXzXzXzXzXzXzXxXxXcXcXcXcX9X9X9X9X9X6X6X6X4X6X7X7X3X>X;X/ ). X;X' ] H i _ ~ Y ~ 6.~ 6.Q 6.Q T Q Q v 6.T T V B n V C p j C V V 4.4.w.w.w.w.w.Q.Q.Q.Q.Q.Q.",
"5X7X5X6X6X6X6X7X6X4X3X3X3X3X3X3X3X3X3X3X3X3X3X3X3X3X3X3X3X5X7X7X7X7X7X7X6X6X6X4X6X6X6X6X6X6X6X6X6X6X6X6X6X6X6X6XkXzXcXcXcXcXcXcXcXcXcXcXcXnXnXnXnXnXmXmXmXAX1Xx d x d q 0 ; ; ; q j j j j j d d d f j j l k k k z X.X.X.l j s.s...h X.k X.j l o.X.{ X.l h s.f.f.a...d.f.s.o.h h s.| s.k.k.f.k.k.d.l 9 g g 9 X...| [ [ [ [ [ |  . .....@.s.h.rXBXmXmXmXmXbXbXbXbXnXnXnXxXxXxXzXzXzXzXxXxXcXcXcXcXcX6X6X6X7X6X4X4X4X4X7X7X7X3X>X;X).). X;X' ] H i _ ~ Y ~ 6.Q 6.Q 8.Q V Q Q t M 3.N V B x V C p C m V B 3.V V V V #.q q C $.C #.&.",
"5X7X5X6X6X6X7X6X6X7X3X3X3X3X3X3X3X3X3X3X3X>X3X3X3X3X3X5X3X7X7X4X7X7X7X7X6X6X4X4X4X6X6X6X6X6X6X6X6X6X6X4X6X6X6XkXkXcXcXcXcXcXcXcXcXcXcXcXcXcXnXnXbXnXmXmXmXmXNX! d d d d q 0 ; ; ; q d j j j j j d d j j j l l k X.X.O.&.j j s.d...h k X.O.9 k X.o.h X.X.l o.f.k.d.+.d.f.d.@.| h O.| s.k.k.k.f.f.l X.a 9 g g g o.o.| [ [ | | |  . . ...s.h.T.BXBXmXmXmXmXbXnXbXbXnXnXnXcXxXxXzXzXzXzXzXxXxXxXcXcXcX7X7X7X7X7X4X7X7X7X7X7X7X3X>X;X).). X;X' ] H u _ ~ Y ! 6.~ 6.6.8.Q B Q Q i y Q N V B x C n w p V T B 3.Q V V T T y y M M - 0 0 ",
"5X7X7X6X6X6X7X6X6X7X3X3X3X3X3X3X3X3X3X3X3X3X3X3X3X3X3X3X3X7X5X4X4X7X6X6X6X6X6X6X4X6X9X6X6X6X6X6X6X6X6X6X6X6X6XkXkXzXcXzXcXcXcXcXcXcXcXcXcXcXnXnXbXnXmXmXmXmXAX{.x d d d d y 0 ; ; w q j j j d j j j j j j g l l k X.O.X.g l o.d...X.h O.k X.o.[ s.O.h X.X.[ f.k.f.a.a.f.f.a...h h | @.k.d.k.f.o.e X.9 9 g g g [ s.o.| [ [ | | |  . .+.s.m.bXBXBXmXmXmXbXbXbXbXbXnXnXnXxXcXxXzXzXzXzXzXzXxXxXcXcXzX7X7X7X7X3X3X7X7X7X7X7X7X3X>X;X/ ). X X) ] H S _ ! Y ~ 6.~ ~ 8.8.6.T Q ~ M T y V V B M C C n n p T B 3.3.V Q T V y y M M - 0 0 ",
"5X5X7X6X6X6X7X7X4X7X3X3X3X3X3X3X3X3X3X3X3X3X3X3X3X3X3X3X3X5X5X5X7X4X7X6X7X6X7X6X6X6XkX6X6X6X6X6X6X6X6X6X7X6XkX6XkXcXcXcXzXzXcXzXcXcXcXcXcXnXnXnXbXnXnXmXmXmXAX<Xd d x x n x x w 0 w w q j j j j j j j j j j j l k X.X.m j k | f...X.h @.g O.h.| s.@.O.l X.[ f.k.f.d.a.g.f.g.a.| h [  .f.a.g.a.| g h l 9 9 g h g  .s.o.| [ [ | |  ...s.h.1XBXBXmXmXmXbXbXbXbXbXbXnXnXnXcXcXxXzXzXzXzXzXzXxXxXxXcXzX5X5X7X5X3X3X7X7X7X7X7X3X>X:X X/ ). X;X) ] H S _ R Y ~ 6.6.~ t.8.6.T 6.6.Y 6.M T T V T 3.#.C m n M V 3.3.Q V 3.V p p M N r 0 0 ",
"5X5X7X6X7X7X7X7X4X5X3X3X3X3X3X3X3X3X3X3X3X3X3X3X3X3X3X3X5X5X5X5X7X7X7X6X7X7X6X6X6X6X6X6X6X6X6X6X6X6X6X6X7X6XkXkXkXzXcXcXcXkXkXcXcXcXcXcXcXcXnXnXnXnXnXmXmXmXAXvXM d d d n n x d q w w w q d j j j l j j j j j l l z X.j j Z j s.a.o.l @.g | s.s.O.s.o.X.h [ s.f.c.f.a.g.f.f.d.O.[ [ | d.a.g.+. .g h X.9 9 9 h h h @.@. .| [ [ [ | @.s.R.BXBXmXmXmXmXmXbXbXbXbXbXnXnXnXxXxXxXzXzXzXzXzXzXxXxXxXxXzX5X5X5X7X3X3X7X3X3X3X3X>X>X:X]./ ). X X' ] H S ] ! Y ~ 6.~ 6.t.t.6.T Q ~ M 3.Q T V V Q 3.#.N m %.T T 3.3.3.Q 3.V n n n N t r r ",
"5X5X5X7X7X7X7X5X7X5X5X3X3X3X5X3X>X3X3X3X3X3X3X3X3X3X3X3X3X3X3X3X7X7X4X7X4X7X7X6X6X6XkX6X6X6X6X6X6X6X6X6X6XkXkXkXkXzXcXcXcXkXkXzXkXcXcXcXcXcXnXnXnXnXnXmXmXmXAXAX~ q w w q d n d x q 0 w w q d j j j j j j j j j l k X.l k Z j X.s.o.g o.l | o.h.| @.s.O.X.g  .d.v.k.g.g.f.f.f.@.| [  .d.a.d.d. .g h o.9 9 9 g h h [ @.@. .| [ [ | s.m.bXBXmXmXmXmXmXmXbXbXnXnXnXnXnXnXxXxXzXzXzXzXzXxXxXxXcXxXcXzX5X5X3X5X3X>X>X>X>X>X>X>X>X:X]./ ). X X' ] H u ] ! Y ~ 6.~ 6.6.Q t.T Q ~ t x Q B V B T 6.V m m V M T 3.3.3.Q 3.V M M n V y y t ",
"5X7X7X7X7X7X7X5X7X7X5X5X3X3X5X3X3X3X3X3X>X>X3X3X3X3X3X3X3X3X3X5X5X5X5X7X7X4X6X6X6X6X6X6X6X6X6X6X6X6XkXkXkXkXkX6X6XkXzXzXkXkXkXkXcXzXzXcXcXcXnXnXbXnXnXmXmXmXNXAX@Xx d d 9 9 q d d d q w w w d j j j j j j j j j l l k l Z m j l h.X.g O.l ..h h.O.O.s.@.o.k h @.k.k.g.g.d.d.f.d. .[ o.d.+.g.k.+.g l ..h 9 g 9 g h h | o.o. .| [ o.s.1XBXBXBXBXmXmXmXbXnXbXbXnXnXnXnXnXxXzXkXzXzXzXzXxXxXxXcXxXnXzX5X>X:X:X:X:X:X:X:X:X>X>X>X:X]./ ). X X] ] R u _ R E ! 6.6.8.T B 8.Q Q ~ t n T B V M T 8.V V m V B T 3.3.3.Q 3.M B M n V t x t ",
"5X7X7X7X7X7X7X7X7X7X7X5X5X3X3X3X>X3X3X>X>X3X3X3X3X3X3X>X3X3X3X3X5X5X5X5X7X4X7X7X6X6X6X6X6X6X6X6X6X6X6XkXkXkXkX6X6X6XkXkXkXzXcXkXkXzXcXcXcXcXcXnXbXbXbXmXNXNXNXAXcXM d d d d f 9 w q d q q w w q j j j j j j j j j j l k Z m j j h.l j O.g o.h X.@. .s.d.o.o.h | f.z.g.a.a.d.d.c.@.| ..f.+.g.k.f.l h  .o.9 g g g g h h | o...o.| @.XXBXBXBXBXBXmXmXmXbXnXnXnXnXnXnXnXcXxXzXzX6XzXzXxXxXxXxXcXcXcX6X3X:X:X:X:X:X>X:X:X:X>X>X:X:X]./ ).;X X' ] R F _ R E E ~ ~ t.Q 6.Q ~ Q ~ x B B B B M E 8.V C V V B T 3.3.3.Q 3.C B B n B t n y ",
"5X5X7X5X7X7X7X7X7X7X7X7X5X3X3X3X3X3X>X>X3X>X>X>X3X3X3X3X3X3X3X3X3X3X3X5X7X7X4X4X7X7X6XkX6X6X6XkX6XzXkXkXkX6X6X6X6XkXkXkX6XkXcXkXkXkXcXcXcXcXcXnXnXnXnXmXmXmXNXAXAX~ d d d d d f 9 9 q q q q w w f j j j j j j j j j l k m k j d @.j j O.9 s.X.l @. .O.h.s.o.| h @.k.k.g.+.a.s.k.f...@.g.g.a.k.k.h [ h h.I.~ l g g g h h | | o.&.oXBXBXBXBXmXmXmXmXnXnXnXnXnXnXnXnXnXnXcXzXzXzXzXzXzXxXxXcXcXxXxX6X>X:X:X:X:X:X:X:X:X:X>X>X>X:X]./ ).;X X) ] H F _ ! E ~ ~ ~ 8.6.8.E 6.~ 6.v T B B B M T 9.C C N V B Q 3.3.3.Q 3.M B B n B y n y ",
"5X5X5X5X7X7X7X7X7X7X7X7X5X3X3X3X3X3X>X3X3X>X>X3X>X3X3X3X3X3X3X3X3X3X3X3X3X7X7X5X5X5X7XkX6XkXkXkXkXkXkXzXkX6X6X6XkXkX6XkX6X6XkXkX6XkXcXcXcXcXnXnXnXnXnXmXmXmXmXNXAX{.n j d j j d d d d q w w w 9 9 d j j j j j j j j l k k l j 9 o.l g o.g .. .l O.o...@.d.....h | f.k.k.a.+.+.d.k.s.s.g.k.g.k.k.X.[ l h.pXvX@XN.8.3.m #.%.0.B.1XBXBXBXBXBXmXmXmXmXmXnXnXnXnXbXbXnXnXcXxXxXxXzXzXzXzXxXxXxXxXxXxX7X>X:X:X:X:X:X:X:X:X:X>X>X>X;X]./ )  X X/ ] U u _ R H ! ~ ~ 6.~ 8.T 6.Q 6.v T B B B M T 7.V m C V B T 6.6.3.Q 3.M B N n B y n y ",
"5X5X7X7X7X7X7X7XkX7X7X7X5X5X3X3X3X3X>X3X3X>X>X3X3X3X3X3X3X3X3X3X3X3X3X3X3X3X5X5X5X5X7X6X6X6X6XkXkX6X6X6X7X6X6X6XkX6X7X6X6XkXkX6XkXkXcXcXcXcXnXnXnXbXnXmXmXmXNXNXAX<Xn d d d j j j j d d q w ; w 9 q q j j j j j j j l l l l j 9 o.[ d h.h  .o.k l s.s.| d.s...| h s.z.k.f.s.....d.d.k.a.l.g.k.k.X.h l o.E.AXAXBXbXwXwXwXqXvXBXBXBXBXBXBXBXmXmXmXmXnXnXnXbXbXbXbXnXnXcXxXxXzXzXzXzXxXxXxXxXcXxXxX7X>X:X:X;X:X:X;X;X;X:X>X:X:X;X]./ ). X X] I U u ' ! H ~ ~ ~ ~ ~ 6.Y 6.~ ~ x T B B B M T 3.V C M N M Q 6.6.3.3.3.N B B N V y n x ",
"5X5X5X5X7X7X7X7X7X7X7X7X5X3X3X3X3X>X>X>X3X>X>X3X3X3X3X3X3X3X3X3X3X3X3X3X3X3X7X7X7X7X7X7X6X6X6XkXkXkXkXkXkXkX7X6XzX7X6X6X6XkXkXkXcXcXcXcXcXcXcXnXnXnXnXbXmXmXmXNXAXbXB d d d j j l l j j q w w q w w w d j j j j j l j j l l j f X.o.9 s.O.h s.X.l O.f.+...f.+. .h o.k.k.f.f.s. .+.d.s.d.g.l.k.k.X.h h | h.=XAXAXAXBXBXBXBXBXBXBXBXBXBXBXBXmXmXmXmXnXnXnXbXbXbXbXnXnXcXxXzXxXxXzXxXxXxXxXcXcXnXxX7X>X:X:X:X>X>X;X;X;X:X>X>X:X;X(./ ). X X] ] U u _ ! G ~ ~ ~ 8.Q E Q T 6.~ v V B B T v T 3.N C C N M Q 3.6.3.3.3.V B N N V y M n ",
"5X5X5X5X7X7X7X7X7X7X7X7X3X3X3X3X3X>X>X>X>X>X>X>X>X3X3X3X3X3X3X3X3X3X3X3X3X3X3X3X5X7X7X7X7X6XkXkXkXkXzX6X6X6X6XkX6X6X6XkX6XlXcXcXlXcXcXcXcXcXcXnXnXbXbXmXmXNXNXNXAXAXr.x d d j j j l j d q q q w w 0 * % d j j j j l l j j k j 9 k s.w X.d.O.+.o.{ h @.f. .s.f.o.| | g.z.k.k.d...+.d.+.l.g.g.k.k.O.g X.h d.m.bXAXBXBXBXBXBXBXBXBXBXBXBXBXmXmXmXmXmXmXmXnXbXnXnXnXnXxXxXxXzXzXxXzXzXzXxXxXcXcXcXcX7X>X;X;X;X:X:X:X:X:X:X>X>X>X;X(./ ). X X] I G u ] ! G ! ~ ~ 8.Q Y ~ x 6.~ x V B B T M Q Q C C C N M Q 3.8.3.3.V V B V V V y M M ",
"5X5X5X5X7X7X7X7X7X7X5X7X5X5X5X5X3X>X>X>X>X>X3X>X>X3X3X3X3X3X3X3X3X3X>X3X3X3X3X3X3X7X4X6X6XkXkXzXkXkXzX6X6X6X6X6X6X6XlX6X6X6X6XcXlXcXcXcXcXnXnXnXbXbXmXmXmXmXNXNXAXAX<Xn j d j j j l j d d j d w w ; $ $ w d j j j j l l j l j d l o.9 g o.h.@.d.X.h h f.g. .d.d. .| ..k.v.k.d...a.k.+.g.l.g.l.k.O.g O.g s.f.&XAXBXBXBXBXBXBXBXBXBXBXBXBXmXmXmXmXmXmXnXnXnXnXnXnXnXxXxXxXxXxXxXzXxXxXxXxXcXcXcXzX5X>X;X;X:X:X:X:X:X:X>X>X>X>X:X(./ ). X X] I G u ] ! G R ~ ~ ~ Q Y ~ y 6.Q x B B B T B Q Q M C n M M Q 3.6.3.Q T V B C V M x M M ",
"5X5X7X5X7X7X7X7X7X7X7X7X7X5X5X5X3X3X3X3X>X>X3X3X>X3X3X>X>X3X3X3X3X3X3X3X3X3X3X3X3X7X7X6X6XkXkXzXkXkXzX6X6X6X6X6X6X6X6X6XkX6X6XlXlXcXcXcXcXnXnXnXbXbXbXmXmXmXNXNXNXNXMXB d d j j j j j j j j d w w ; $ * w w 9 j j j j j j j j f l X.l l h X.s.f.+.| h ..k.s.| f.s.| | d.k.k.f.+.g.k.k.a.k.g.l.k.@.9  .j ..k.h.rXBXBXBXBXBXBXBXBXBXBXBXmXmXmXmXmXmXnXnXnXnXmXnXnXnXxXxXxXzXzXxXxXzXzXxXcXcXcXxXxX5X>X;X;X:X:X:X:X:X:X:X>X>X>X>X(./ ). X X) ] G u ] ! G ! ~ ~ Q ~ E ~ y Q Q x M B B B M Q 3.n M n N M Q 3.6.3.3.T Q B V T x x M M ",
"5X5X5X5X7X7X7X7X7X7X7X7X7X7X7X3X3X3X3X3X>X>X3X3X3X3X3X>X>X>X>X3X3X3X3X3X3X3X3X3X5X3X7X6X6XkXkX6XkXkX6X6X6X7X4X7X6X6X6X6XkX6XkXcXcXcXcXcXnXnXnXnXbXbXbXmXmXmXNXNXNXNXAXr.d d j j j j j j j j d q d * ; ; w w w w j j j j j j j l l l X.j O.h | d.f.O.h h d.k.o.o.f.o.| s.v.k.k.a.+.l.l.g.l.l.g.k.d.9 | l [ k.f.E.AXBXBXBXBXBXBXBXBXBXmXmXmXmXmXmXmXnXmXmXmXmXnXnXnXxXxXcXxXzXzXzXxXcXxXcXxXcXxXzX3X>X;X:X;X:X:X:X:X;X:X>X>X>X>X(./ (.'. X) ] G u R R G ~ ~ ~ Q ~ T Q v T E v M B B B v Q 3.n C n N v Q 6.6.3.3.V Q B V T y x M B ",
"5X5X5X5X5X5X5X7X7X7X7X7X7X7X7X7X5X3X3X>X>X>X3X3X3X3X3X>X>X3X3X3X3X3X>X>X3X3X3X3X3X7X4X7X6X6X6XkXzXkX6XkX6X6X7X7X7X6X6X6X6X6XkXcXcXcXcXcXnXnXnXnXbXbXbXmXmXmXmXNXNXNXAX8Xx d j d j j j j j d d j d ; w w w w w ; w 9 j j j l l l g g &.g O.O.h O.f.s.| h | d.f.[ d.f. ...k.k.k.@.+.g.k.l.l.l.l.l.k.9 [ k g d.k.h.1XBXBXBXBXBXBXBXBXBXBXmXmXmXmXnXmXmXnXmXmXmXnXnXnXxXxXxXxXxXxXzXxXxXcXcXxXxXnXzX3X>X;X:X:X;X;X:X:X:X:X:X>X:X:X(./ (.(. X) ] G u R R G ~ ! ~ E ~ T E Y E T x x B B B v Q 3.n n n B M Q 3.6.6.3.V 3.B B T 0 n M B ",
"5X5X5X5X5X5X5X7X7X7X7X7X7X7X7X7X5X3X3X3X>X>X>X3X>X>X>X>X3X3X3X3X3X3X>X>X3X3X3X3X7X7X4X4X7X7X6XkXzX6X6X6X7X4X7X7X6XkXkX6X6X6X6XcXcXcXcXcXnXnXnXnXbXbXbXmXmXmXNXNXNXNXAXAX` n j j j j j j d f d k q d d d w w w ; * w 9 f g g l l l g k z k o.| h O.f.s.| h | h.@.| f.s. .k.k.d. ...g.k.l.l.l.l.l.k.q h X.9 +.k.f.m.bXBXBXBXBXBXBXBXBXBXmXmXmXmXmXnXnXnXmXnXnXnXnXnXxXxXxXxXxXxXxXxXxXxXxXxXxXxXkX3X>X;X:X;X;X;X:X:X:X:X:X:X:X>X(./ (.(. X) ] G u R R G ! ! ~ Q ~ ~ E Q E T t M B B B v Q 3.n n n B M Q 3.3.3.Q V V B M V 0 n M B ",
"3X5X3X5X5X5X5X5X7X7X7X7X7X7X7X7X5X5X3X3X3X>X>X>X>X>X3X3X>X>X3X3X3X3X3X3X3X3X3X3X7X7X4X7X4X7X6XkXkXkXkX6X7X7X7X6X6X6XlXkXkX6XlXcXcXcXnXnXnXnXnXnXbXbXmXmXmXmXNXNXNXNXAXAX<Xn j j j j j j f f l k d q j l j q w ; * w w w w 9 f l l g g O.l @.o.| h o.f.@.| h O.d.O.@.f...l.l.@. . .a.k.k.l.l.l.l.k.d h O.a  .k.f.f.&XBXBXBXBXBXBXBXBXmXmXmXmXmXmXmXnXnXnXnXnXnXnXnXxXxXxXxXxXxXxXxXxXxXxXxXxXxXzX3X>X;X:X:X:X:X:X;X;X;X:X:X:X:X)./ ).(. X) I U u R R G ! E ~ Q ~ ~ B ~ E Y 0 M B B M v Q Q M n n B M Q Q 3.Q T V T M M V 0 n B M ",
"3X5X5X3X5X5X5X5X7X7X7X7X7X7X7X7X5X5X3X3X3X>X>X>X>X>X3X>X3X>X>X3X3X3X3X3X3X3X3X3X5X5X5X7X4X4X7X6XkXkXkXkX7X4X7X7X7X6XkXlXlX6XlXlXlXlXcXnXnXnXnXnXbXbXmXmXmXmXNXNXNXAXAXAXAXE m j j j j j f j l d n 9 j k l j w * ; w w w ; ; ; 9 j g 9 h k o.s.o.[ h s.d.+.| [ ..s. .d.a.g.z.X.| | +.k.k.k.k.k.l.l.j g  .9 h f.k.f.h.rXBXBXBXBXBXBXmXmXmXmXmXmXnXnXnXnXnXnXnXnXnXnXxXxXxXxXxXxXxXxXxXxXxXxXxXcX6X3X>X;X:X:X:X:X;X;X:X>X:X:X:X:X)./ (.). X) ] U u R ! G R Y Q E ~ ~ v ~ E Y - M B M M x ~ Q n n n B v B T T Q Q B Q M B N 0 M M M ",
"3X5X5X3X5X5X5X5X7X7X7X7X7X7X7X7X5X5X5X3X3X3X>X3X>X>X>X3X3X3X>X3X3X3X3X3X3X3X3X3X3X5X5X7X7X4X7X6XkXkX6X6X7X7X7X7X6X6X6X6X6X6XkXlXlXcXcXcXnXnXnXbXbXbXbXmXmXmXNXNXNXNXNXAXAX@XC j j d d j j k k q j q l k k k j ; 0 w w w ; ; ; ; 9 f j e g h o.@.o.[ h s.f.o.| | @.s.+.g.g.k.h | | +.k.k.k.k.k.l.l.k g | l g +.k.f.d.E.AXBXBXBXBXBXBXmXmXmXmXmXnXmXnXnXnXnXnXnXnXnXxXxXxXxXxXxXxXxXxXxXxXxXxXxX6X3X>X;X:X:X;X;X:X;X:X>X>X;X:X:X)./ (./ '.(.] G u ! R F R E E Q 6.~ M ~ E Y - M M M M t Q T n n n B v B N V T V V V M M B t M M M ",
"3X5X5X5X3X5X5X5X7X7X7X7X7X7X7X7X5X5X5X3X3X3X>X3X>X>X>X>X>X>X>X3X3X3X3X3X3X3X3X3X3X5X5X5X7X4X4X7X6XkX6X6X6X7X7X7X6X6X6X6X6X6X6XkXlXcXcXcXnXnXbXbXbXbXbXmXmXmXNXNXNXNXNXAXAXrXj j d d d j j m d j w d k k k k C w j n q w ; ; ; w 9 9 j d q f h O.*.O.k [ s.h.o. .| s.g.g.g.@.h [ | ..k.k.k.k.k.l.l.k g | [ 9  .k.k.f.f.-XBXBXBXBXBXBXmXmXmXmXmXnXmXnXnXnXnXnXnXnXnXxXxXxXxXxXxXxXxXxXxXxXxXxXxX6X3X>X:X;X:X;X;X:X:X;X:X:X;X;X;X)./ (.] (.) ] G u R R F R E E Q T ~ Y ~ Y Y - E M M x t T T n n y B v B T Q Q V Q Q M M N t M M M ",
"3X5X5X5X5X5X5X5X5X7X7X7X7X7X7X7X7X5X5X3X3X3X3X>X>X>X>X>X3X3X3X3X3X3X3X3X3X3X3X3X5X5X5X5X5X7X7X7XkXcX6X6X6X4X4X6X6X6X6X6X6XkX6XlX8XlXcXcXcXnXbXbXmXmXmXmXmXmXmXmXNXNXNXNXAXyXj d d j d j j j 9 j w j k k k j j 9 l k k d 0 ; w w 9 l j q w 9 9 g X.&.O.X.| h.h.O.....g.g.f.h h [ [  .d.z.k.k.k.k.l.X.9 [  .w | k.k.f.f.m.bXBXBXBXBXBXBXmXmXmXmXmXmXmXnXnXnXnXnXnXnXxXxXxXxXxXxXxXxXxXxXxXxXxXxX7X3X>X;X:X:X;X;X:X;X;X:X:X:X;X;X)./ (.] _.] ] U u R R F R Y E Q B Y ~ ~ E Y 0 T M M x t T V n p n B v B V B T Q 3.3.M M B t x M M ",
"5X5X5X5X5X5X5X5X5X7X7X7X7X7X7X7X5X5X5X3X3X3X3X3X>X>X>X>X3X>X3X>X3X3X3X3X3X3X3X3X5X5X5X5X7X7X7X6X6X6X6XkXkX6X6X6X6X6X6X6X6X6X6XkX6XlXlXcXcXnXbXbXbXbXbXmXmXmXmXmXmXmXNXAXNX@Xd d d d d j j d d d w k m k m j f d k z z l d q w d l X.k d 9 9 w 9 d l k { k [ O.o.....+.s.h g h [ [  .g.k.k.k.k.k.l.o.9 [  .9 [ d.k.f.f.k.&XBXBXBXBXBXmXmXmXmXmXmXmXmXnXnXnXnXnXnXxXxXxXxXxXxXxXxXxXxXzXxXxXxXxX7X>X>X:X;X;X;X;X:X:X:X:X;X;X;X;X)./ (.] [.] I G u R R F R Y ~ ~ E Y Y ~ E Y x T M M v t T V n p y M x V n M 3.3.Q 3.x B n r n n M ",
"3X5X5X5X5X5X5X5X5X5X7X7X7X7X7X7X7X5X3X3X3X3X>X3X>X>X>X>X>X>X>X>X3X3X3X3X3X3X3X3X3X3X3X7X7X7X4X6X6X6XkXlXkX6X6X6X6X6X7X6X6X6X6X6X6XkXlXcXcXcXcXnXbXbXbXmXmXmXmXNXNXNXNXNXAX@Xd d d 9 d C j w j w d k m k l j 9 l k z z m d d j k X.O.k q q 9 9 9 w 9 9 9 g k h h | | +.h 9 g h h [  .a.k.k.k.k.l.l.s.9 [  .h g +.k.k.f.f.h.rXBXBXBXBXmXmXmXmXmXmXmXmXnXnXnXnXnXnXnXxXxXxXxXxXxXxXxXxXxXxXxXxXzX7X>X>X>X;X;X;X;X:X:X;X;X;X;X;X;X)./ './ [.] R G u R R v E Y Y Y Y Y E ~ Y Y Y M B M x t T T n p y M v V M 8.6.Q V Q x B n t n n M ",
"3X5X5X5X5X5X5X5X5X5X7X7X7X7X7X7X5X5X3X3X3X3X>X>X>X>X>X>X>X>X>X>X3X3X3X3X3X3X3X3X3X3X3X4X7X7X4X7X6X6X6XlXkX7X4X7X6X6X7X6X6X6X6X6X6XlXlXcXcXcXnXbXbXbXbXmXmXmXNXNXNXNXNXNXAX4Xd 9 9 9 j j q q d ; l k k l j f 9 l z z k k j d j X.s.o.k j j q j q q q 9 9 g { [ h h [ s.k 9 g g h [ | +.k.z.k.k.z.z.@.w [  .| e  .k.k.f.d.d.m.bXBXBXBXmXmXmXmXmXmXmXmXmXmXmXnXnXnXxXxXxXxXxXnXxXxXxXxXxXxXzXxXzX7X>X>X>X;X;X;X;X:X:X;X;X;X;X;X;X)./ ].).(.] ] H S R R c E Y Y Y B G Y ~ E Y B x M M v t Q V n p y M y x 6.6.Q V V T x B n t n n M ",
"5X5X5X5X5X5X5X5X5X7X7X7X7X7X7X7X7X7X5X3X>X3X>X>X>X>X>X>X>X>X>X>X3X>X3X3X3X5X3X3X3X3X3X5X7X7X4X7X7X6X6XkX6X6X4X7X4X6X6X7X6X6X6X6X6XlXkXcXcXcXbXbXbXbXbXmXmXmXmXmXNXNXNXNXNXvXq 9 9 j j j w C w q k k k j j 9 g l z z k l j f k O.d.o.k j m j m j j j 9 g l O.{ h h [ s.X.9 g g h [ | ..g.z.k.k.z.k.@.a h  . .9 | f.k.k.g.f.f.&XBXBXBXBXmXmXmXmXmXmXmXmXmXmXnXnXnXnXnXxXxXxXxXxXxXxXxXxXxXxXxXzX7X3X>X;X;X:X:X:X:X:X:X;X;X;X;X;X)./  X(._./ U H u R R c Y Y ! E Y v v Q E G v x M M v r Q V n p y M v 6.6.3.Q V V T x B n t M n M ",
"5X3X3X5X5X5X5X5X5X7X7X7X7X7X7X7X7X7X5X3X3X3X3X>X>X>X>X>X>X>X>X>X3X3X3X3X3X3X3X3X3X3X3X3X5X7X7X4X6X6X6XkXkX6X7X4X7X7X6X7X6X6X6X6XkXkXkXcXcXcXnXbXbXbXbXmXmXmXmXmXNXNXNXNXNXAXE q d j j f w C ; j k k l j 9 9 g l z z k l d f k o.s.o.h l &.l k l j j g l h O.[ h h | d.O.9 9 g h [ |  .g.z.k.k.z.k.s.a h  . .e [ a.k.k.f.f.f.h.wXBXBXmXmXmXmXmXmXmXnXbXmXmXmXmXnXnXnXnXnXxXxXxXxXxXxXxXxXxXcXzX7X3X>X;X;X;X:X:X:X:X;X;X;X;X;X;X)./ ;X(.[.] U G S R Y c Y Y E E Y v v Y E H B y M M x r Q B n p n M v 3.3.3.Q B T Q x B M t M x B ",
"3X3X3X3X5X5X5X5X7X7X7X7X7X7X7X5X7X7X7X5X5X3X>X>X>X>X>X>X>X>X>X3X3X3X3X3X3X3X3X3X3X3X3X3X5X7X4X4X6X6X6XlX6X6X6X4X7X4X7X7X6X6X6XlXlX6X6XkXlXcXcXnXnXbXbXNXNXmXmXNXNXNXNXNXNXAX|.d C j d 9 f d w j k k k j 9 f l k z z k k f f k s.s.o.h k o.X.X.k l k l h | O.X.h [  .d...g 9 g h [ |  .a.k.k.k.k.z.d.w g  . .h h +.k.k.k.f.f.f.E.BXmXmXmXmXmXmXmXbXnXmXmXmXnXmXnXnXnXnXnXnXnXxXxXxXxXcXxXxXxXzX7X7X>X:X:X:X:X:X:X:X:X:X;X;X;X;X)./  X(.[.] U F u R H c H Y Y E Y v B Y E Y Y t v M x 2 T B x y y n x Q Q Q Q B T Q x B B t M n M ",
"3X5X3X3X5X5X5X5X5X7X5X7X7X7X5X7X5X7X5X5X5X5X>X>X>X>X>X>X3X>X>X>X>X3X3X3X3X3X3X3X3X3X3X3X7X7X4X7X6X6X6X6X6X6X7X4X7X4X7X6X6X8X8XlXlX8X8XlXcXcXcXnXbXbXbXMXMXMXNXNXNXNXNXNXNXAX8Xm j j d 9 j ; q l k k l d 9 j l h z z k j 9 g X.d.d.O.h k o.O.O.h X.X.[ X.O.O.X.h [ | a.@.g g g h [ [ | @.k.k.k.z.k.f.w g |  .| 9  .k.k.k.f.f.f.h.1XmXmXmXmXmXmXmXmXnXnXmXnXnXnXnXnXnXnXnXnXnXnXnXxXxXxXxXxXcXzX6X5X>X>X:X:X:X:X;X;X;X;X;X;X>X;X)./  X(.[./ U F u R H c H Y Y Y H v v Y ~ Y Y t v M x - T M y q q M x T T Q Q M T T x B B t M x n ",
"5X5X3X3X3X5X5X5X5X5X5X5X7X5X5X7X7X7X5X5X5X5X>X>X>X>X>X>X>X>X>X>X>X>X3X3X3X3X3X3X3X3X3X5X5X5X7X7X7X6X6X6X6X6X4X6X7X7X6X6X6X6XlX6XlX6XlXlXcXcXcXnXnXbXbXbXMXNXMXMXNXNXNXNXNXAXNX%.j j d 9 j * j l k k j 9 d j l k z k k j 9 g O.d.d.| X.k o.o.o.| X.X.X.O.X.X.X.h | | a.s.h g g g h [ | @.k.k.k.z.k.k.9 g |  .| 9 | d.k.f.f.g.f.h.m.bXmXmXmXmXmXmXmXnXnXnXnXnXnXnXnXnXnXnXnXnXnXnXxXxXxXcXnXcXzX6X5X>X:X;X:X;X;X;X;X;X;X;X:X>X;X).J ].(.[.] U S 6 G H u Y H Y Y G v M H Q Y Y t v v x - T B y q q n x Q T T Q M Q Q x M B t n x M ",
"5X5X3X3X3X5X5X5X5X5X7X7X7X7X7X7X7X7X5X5X5X5X3X>X>X>X>X>X>X>X>X>X>X>X>X>X3X3X3X3X5X3X5X5X7X7X5X7X7X7X6X6X6X6X4X7X7X7X7X6X6X6X6XlXlXlXlXlXlXcXcXcXnXbXbXMXMXMXNXNXMXNXNXNXNXNXAXC j j d d q w j l k l j d j l g k z k m j f l o.d.s.k { l @...@.O.X.X.o.O.O.X.X.h | | a.d.h g g g h [ | ..k.k.k.z.z.k.e 9 |  ...9 [ a.k.k.k.f.f.f.f.&XBXmXmXmXmXmXmXnXnXnXnXnXnXnXnXnXnXnXnXnXnXnXnXxXnXnXnXnXzX7X3X>X:X;X;X;X;X;X;X;X;X;X;X:X;X).J ].(. X] U u u G Y u Y G H H v v v Y ~ Y v t v v x 2 T B y q q x x T T T Q M V Q y n B t x n M ",
"7X5X5X5X5X7X5X5X5X5X5X7X7X7X7X7X5X7X7X5X5X3X3X3X>X>X3X>X>X>X>X>X>X>X>X>X3X3X3X3X3X3X5X5X7X5X5X7X6X6X6X6X6X6X7X4X7X7X6X6X6X6X6X8XlXlX8XlXlXcXcXcXnXnXbXMXMXMXNXNXNXNXNXNXNXNXNXj j j d j w d l l k j 9 j j l g k z k m f f k s.d.o.h k k s.s.s.o.o.X.O.o.o.X.[ | |  .a.g.[ g 9 g h [ | ..k.k.k.z.z.z.l 9 [  ...l h +.k.k.k.k.f.f.f.h.wXBXBXmXmXmXmXmXmXmXnXnXnXnXnXnXnXxXnXnXnXnXnXnXnXnXnXnXzX7X3X:X;X;X X[.(.' ' (.[. X X;X;X).J ].(.[./ J F u H Y u Y G v G v v H Y ~ Y x x M x x - B B q q 0 x x V T T T M B Q x M B 0 x x M ",
"3X3X3X5X5X7X7X7X5X5X5X7X7X7X7X7X7X7X7X5X3X3X3X3X>X>X>X>X>X>X>X>X>X>X>X>X3X3X3X3X3X3X5X5X5X7X7X7X6X6X6X6X6X6X6X4X4X7X4X6X6X6X8XlXlXlXlX8XlXlXlXcXnXbXbXbXbXMXMXNXNXNXNXNXNXAXNXd j j j d ; j j l l j q j j l l k k k l f g X.d.d.o.h k k d.d.d.o.o.X.O.o.o.O.[ | |  ...g.| g g g h [ [  .d.k.k.z.z.z.X.9 [  ...[ g  .k.k.k.k.f.f.f.f.E.BXmXmXmXmXmXmXmXmXmXnXnXnXnXnXnXnXnXnXnXnXnXnXnXnXnXnX9X3X;X X[.` ` ` ` ` ` _ ` ' ` ` ' ' ) (.(.(.U F F u G G u Y G v G u v H Y ~ Y t v v x x 4 B M q q 0 n x V V B T M B x y M B - x n B ",
"3X3X3X5X3X3X5X5X5X7X5X5X7X7X7X7X7X7X7X5X5X3X3X3X>X>X>X>X>X>X>X>X>X3X>X>X3X3X3X3X3X3X5X5X5X7X4X4X6X6X6X6X6X7X4X4X6X6X6X6X6X6X8XlXlXlXlXlXlXlXlXcXnXbXbXbXbXNXMXNXNXNXNXNXNXNXNXd n d j d 0 j l l l 9 j j j g l X.k k j 9 j o.g.d.| h [ X.d.d.d.o.o.O.O.o.o.O.h | | | ..g. .h g g g h |  .a.k.k.k.z.z.o.9 h  ...| 9  .d.k.k.k.k.f.f.f.h.2XBXBXmXmXmXmXmXmXmXmXnXnXnXnXnXnXnXnXnXnXnXcXcXzX4X:X X[.r.` ` ` ` ` ` ` ` ` _ _ ` ` ` ` ` ` ' ` ` ` _ R R Y u G v v H 4 v v Y ~ H - Y v v v 4 B M q q y x x B T B T B M * t M B - n M M ",
"3X3X3X5X5X3X3X5X5X5X5X5X7X7X7X7X7X7X5X5X5X3X3X3X>X>X>X>X>X>X>X>X>X3X>X>X3X3X3X3X5X3X5X5X5X7X4X4X6X7X7X6X6X7X7X6X6X6X6X6X6X8X8X8X8XlXlXlXlXlXlXcXnXbXnXbXbXMXMXMXNXNXNXNXNXNXAXM d j j w d j l l j 9 j j j g k X.X.z j 9 k +.f.s.O.h h X.f.g.d.@.o.X.o.o.o.X.X.O.| | ..g...h g g g k | | @.v.l.k.z.z.@.9 h | .. .w  .+.k.k.k.k.f.f.f.k.m.BXBXBXBXmXmXmXmXmXmXmXmXnXnXnXnXnXnXxX9X3X;X[.[.` ` ` ` ` ` ` ` ` _ _ ` ` ` ` ` ` ` ` ` ` ` ` ` e.r.r.r.r.r.r.` ~ R R u v v Y ~ H t Y v v v 4 B M q q q x i B T B T V Q 0 y M B - M B M ",
"3X3X3X5X3X3X5X5X5X3X5X7X7X7X7X5X5X5X5X5X5X3X3X3X>X>X>X>X>X>X>X>X>X>X>X>X3X3X3X3X5X3X3X5X5X7X4X7X7X7X6X6X6X4X7X7X6X6X7X7X6X8X6X8X8X8XlXlXlXlXlXlXnXnXbXbXbXMXMXMXNXNXNXNXNXNXAX~ n n d ; d j l j q j j j j g z X.X.z j 9 X.a.f.a.X.[ X.{ f.g.d.@.o.X.s.o.O.X.X.O.| | +.g.+.h g g g l X.| @.k.l.k.z.z.d.e g | ....w [ +.k.k.k.f.k.f.f.k.h.2XBXmXmXmXmXmXmXmXmXbXbXnXnXnXxXzX3X X[.r.` ` ` ` ` ` ` ` _ ` ` ` ` e.r.r.r.e.` ` ` e.r.r.r.r.r.e.e.` r.r.r.r.r.r.C.Z.r.~ c G R v v v v v M 4 B x q q q x i B T B V V Q B x M E - n M B ",
"3X3X3X3X5X5X5X5X5X5X5X7X5X7X5X7X5X5X5X5X5X5X5X3X3X>X>X>X>X>X>X>X>X>X>X3X3X3X3X5X5X5X3X5X5X7X4X4X7X6X6X6X6X6X4X7X6X6X6X6X6X6X6X8X8XlXlXlXlXlXlXlXlXvXMXMXbXMXMXMXNXNXNXNXNXNXAXH.n d q w q j l j 9 j j j j l X.z O.k f g X.g.d.o.X.h o.k f.d.f.@.@.X.o.s.o.O.O.| |  .+.a.a.| g g g g [ | @.d.k.k.z.z.f.l g [  . .e [ ..f.k.k.k.f.k.f.k.k.E.BXmXmXmXmXmXmXmXmXbXnXnXxX7X XZ.Z.e.e.` ` ` ` ` ` ` ` ` ` ` ` e.e.` ` ` ` e.r.r.r.r.r.r.r.r.r.r.r.Z.Z.Z.r.r.r.r.r.` H 6 7 2 2 2 t t u i v 4 B x q w q x t M B B B M B T v M B - x n M ",
"3X3X3X3X5X5X5X5X5X5X5X5X5X5X5X7X5X5X7X7X5X5X5X3X3X3X>X>X>X>X>X>X>X3X3X3X3X3X3X3X3X5X5X5X7X5X7X4X7X6X6X6X6X6X6X7X6X7X6X6X6X8X6X8X8X8X8X8XlXlXlXlXlXlXvXMXbXNXNXNXNXNXNXNXNXNXAX@Xn d w q q j l d d j j j j l z k O.l 9 g O.f.a.O.k { @.k f.d.f.@.@.O.| s.s.o.O. .| ..+.g.a. .h g g g h | ..+.k.k.z.z.k.h 9 [  ...l h ..d.k.k.k.k.k.k.k.k.h.2XmXmXmXmXbXnXnXnXxX6X3XyX{.{.}.{.F.Z.r.` ` ` ` ` ` ` ` ` r.r.e.e.e.` ` ` e.e.e.` e.` ` r.r.r.Z.Z.Z.Z.Z.C.r.e.e._ u 7 7 7 7 1 > > : > 1 2 3 t t r 0 0 x t n M B B M B B v M B - x n M ",
"7X7X5X3X3X5X5X5X5X5X5X5X7X5X5X5X5X5X5X5X5X5X5X3X3X3X3X3X3X>X>X>X>X3X3X3X>X>X3X3X5X5X5X7X7X4X4X7X7X6XkXkXlXkX6X6X6X6X6XkX6X8X8X8X8XlX8X8XlXlXlXlXlXvXnXMXMXNXNXNXNXNXNXNXNXNXNX1Xn d ; q d j j f j j j j j k h X.X.j 9 l ..g.+.X.l X.@.l f.k.k.s.@.o.h o.s.o.o.O.| ....g.g. .h g g g h |  .+.k.k.z.z.v.| 9 [  ...h g  .a.k.k.k.k.k.k.k.k.k.E.BXmXbXnXcXzX7X:X$X|.|.{.F.F.F.F.|.}.|.|.|.{.C.e.` ` ` ` ` ` ` ` e.e.e.e.r.r.` _ ` e.r._ R ! G _ Z.Z.r.r._ R u 7 7 7 7 7 1 : # # : 1 7 7 7 7 1 2 < < 2 4 y x M B M B B v v B - x n M ",
"5X7X3X3X5X5X5X5X5X5X5X5X5X7X7X5X7X7X7X7X5X5X5X3X3X3X>X>X3X>X>X>X>X3X3X3X3X>X3X5X5X5X5X7X7X7X4X7X7X6XkXlXlX6X6X6X6X4X6X6X6X8X8X8X8X8XlXlXlXlXlXlXlXvXMXMXMXNXNXNXNXNXNXNXNXNXNX1Xj d * q q j j d j j j j j l h X.X.j 9 l s.g...| g X.@.e d.f.f.g.s.o.h o.s.@.@.o...+...a.g...[ g g g h [ | ..k.k.z.z.z.a.e h | ..| 9  .+.k.k.k.k.k.k.k.k.k.h.rXnX4XyX|.{.{.F.F.{.{.F.H.r.e.C.F.{.F.F.H.H.H.{.{.F.H.r.r.r.r.e.e.e.e.r.e.` ` ` ` e._ u 5 R _ G I R S 6 7 7 7 6 7 7 1 1 : : 7 7 7 7 7 7 7 7 1 > > 7 7 2 3 2 2 r x b M v v B - y n M ",
"3X5X3X3X5X5X5X5X5X5X5X5X5X7X7X7X7X7X7X7X5X3X3X3X3X3X3X>X3X>X>X>X>X3X3X>X3X3X3X5X5X5X7X7X5X7X4X6X6X6XlXlXlXkXkX6X6X6X6X6X6X8X8X8X8X8X8XlXlXlXlXlXlXMXMXMXMXMXNXNXNXNXNXNXNXNXNXaXj q * q d j d j j j j j l g k X.k d d z d.s.O.h g @.@.e @.f.g.f.d.+.h o.s.@.s.@...@...a.a...[ g g g l h | ..f.k.k.z.z.l.h g [ .. .9  .+.f.k.k.k.k.k.k.k.k.f.E.|.{.{.{.{.H.C.r.r.C.{.{.{.{.{.F.C.e.r.r.r.{.}.}.}.}.{.{.{.{.F.F.Z.Z.Z.r.e.e.e.r.C.R u 7 7 F 7 7 7 7 7 7 7 7 7 7 1 1 1 7 7 7 7 7 7 7 7 7 7 7 7 7 7 7 7 3 1 7 7 1 < & & - 4 - y M M ",
"3X3X3X3X5X5X5X5X5X5X5X5X5X7X7X7X7X7X7X7X5X3X5X3X3X3X3X3X3X>X>X>X>X3X3X>X>X5X3X5X5X5X3X5X5X5X7X6X6X7X6XkXlX6X6X6X6X6X6X6X6X6X8XlXlXlXlXlXlXlXlXlXlXMXMXMXMXMXNXNXNXNXNXNXNXNXNXaXd w * q d j j j j d j j k l h X.k q j O.f.o.O.l h s...g ..d.g.k.d.a.[ O.s.@.@.@.@.s.a.d.a. .| h l g l h [ O.f.k.k.z.z.l. .e h ....a | +.g.k.k.k.k.k.k.f.f.f.h.D.H.Z.Z.Z.r.r.r.C.F.F.H.H.H.A.C.C.H.H.F.{.F.H.C.H.H.H.}.+X|.{.{.F.F.C.C.C.r.}.+X}.S.I 7 7 7 7 6 7 7 7 7 1 7 1 7 7 7 7 7 7 7 7 7 7 7 7 7 7 7 7 7 7 7 7 7 7 > : 1 : : & & # # @ & r ",
"3X3X3X3X7X5X3X5X5X5X5X5X5X7X7X7X7X7X7X7X7X5X7X5X5X3X3X3X3X>X>X5X3X3X>X>X3X3X5X5X5X5X3X5X7X7X7X7X6X6XkX6XlXkX6X6X6X6X6X6X6X6X8XlXlXlXlXlXlXlXlXMXlXMXMXMXMXMXMXNXNXNXNXNXNXNXNXMXq w * w j j j j j j j j k h h X.j 9 j o.s.o.O.g h d...g | a.k.f.f.+.| X.s.@.s.a.d.a.a.d.a. . .h h g l h h | d.z.k.z.z.l.d.g g  ...9 [ ..a.k.k.k.k.k.k.k.f.k.c.m.C.r.e.` F.{.{.{.G.F.H.r.e.e.C.}.}.}.{.F.H.H.A.H.{..X+X}.{.{.F.r.r.r.e.e..X.X}.}..X.XZ.R 7 7 7 7 7 7 7 7 7 7 7 7 7 7 7 7 7 1 7 7 7 7 7 7 7 7 7 7 : 1 7 7 7 7 7 7 7 7 < & # # # @ ",
"3X3X3X3X7X5X5X5X5X5X7X7X7X7X7X7X7X7X7X7X7X7X5X5X3X5X3X3X3X>X>X3X>X3X>X>X3X3X5X5X5X5X3X7X7X7X7X7X6X6X6XkXkXkX6X6X6X6X6X6X6X6XlXlXlXlXlXlXlXlXlXlXlXMXMXMXMXMXMXMXNXNXNXNXNXNXNXAXQ 9 * q j j j j j j j j l h k k j 9 l s.s.O.X.g { s...g X.a.k.k.k.a.X.{ s.a.a.d.d.+.a.d.a... .h l g g h h | @.k.k.z.z.z.z.[ g  ...g h ..+.k.k.k.k.k.k.k.k.k.k.h.J.{.F.}.{.F.H.A.C.r.A.F.{.}.{.{.F.H.A.r.C.{.+X}.}.}.{.F.H.C.C.r.e.! C..X}.G.G.G.G.G.G.F.Z.` _ I u 7 7 7 7 7 A A 7 7 7 7 7 7 7 7 7 7 7 7 7 7 7 7 7 7 6 7 7 7 7 7 1 1 : & # @ O o ",
"3X3X3X3X3X3X5X5X7X5X7X7X7X7X7X7X7X7X7X7X7X7X7X5X5X5X3X3X3X>X>X>X>X>X>X>X5X5X5X5X5X5X3X5X7X7X6X6X6X6X6X6XkX6X6X6X6X6X6X8X8X8X8XlXlXlXlX8X8X8XlXlXlXMXMXMXMXMXMXMXNXNXNXNXNXNXNXNX}.q ; q j j j j j j j j k l X.k j 9 X.s.o.O.h g X.s.o.l X.a.f.k.k.s.X.h @.a.a.g.d.a.a.g.a... .| h l g g h [  .g.k.v.v.z.z.s.9  ...l h ....f.z.k.k.k.k.k.k.k.k.v.E.}.}.}.}.}.}.{.F.}.}.F.F.H.H.H.G.G.}.}.}.}.}.{.H.H.r.H.C.e.` ! e.}..X.X}.}.G.G.H.A.r.F.}.}.}..X.X{._ ] S A 7 7 7 7 7 7 7 A A A S A 7 7 7 7 7 7 7 7 7 7 7 7 7 1 < : # # @ O . . ",
"3X5X5X5X5X5X5X5X7X7X7X7X7X7X7X7X7X7X7X7X7X7X7X5X5X3X3X3X3X3X>X>X>X3X>X>X5X5X5X3X5X5X5X5X5X7X7X6X6XkX6X6X6X4X7X6X6X6X6X8X8XlX8XlXlXlXlX8X8X8XlXlX8XMXMXMXMXMXMXMXNXNXNXNXNXNXNXNXaX9 w d j d j j j j j k k l Z C d d O.s.O.O.l g O.s.O.l [ a.f.k.k.d.X.h o.s.g.d.d.d.g.g.+... .| [ h g g h h  .g.g.z.v.k.z.k.9 |  .h g  ...a.k.z.k.k.k.k.k.k.k.k.Q.D.F.{.}.}.+X+X+X+X+X.X.X{.F.}..X.X.X.X.X}.F.A.C.r.e.~ _ R ! }.OXOX+X.X.X}.}.F.A.r.}.}..X}..X}.}.}.F.{.|.+X+X{.r.R S 7 7 7 7 7 7 7 7 7 7 7 7 A 7 7 7 7 7 7 1 : : # # + . o & - ",
"5X5X5X5X5X5X5X5X7X7X7X7X7X7XkXkXkX7X7X7X7X7X7X5X5X5X3X3X3X3X3X>X>X3X3X3X3X5X5X5X5X5X7X7X7X7X7X6X6X6XkX6X6X6X7X7X6X6X6X8X8XlXlXlXlXlXlXlX8X8X8X8X8XMXMXMXMXMXMXMXNXNXNXNXNXNXNXNXNX~ w n j j j j j j j k l k m C q j o.@. .| g g O.d.| j h a.f.k.k.d.O.h O.s.g.g.d.f.d.g.+... .| | h g g h h  .g.g.k.z.h.z.z.[ [  .O.e  .+.+.k.z.k.k.k.k.k.k.k.c.v.m.e.C.H.H.H.F.{.{.}..X.X.X.X.X.X}.}.G.S.H.r.e.e.` ! R ` F.+X}.S.A.S.G.S.A.S.G..X.X.X}.}.J.}.G.F.S.}..X.X.X}.}.}..X+X{.r._ I 6 7 7 7 7 7 7 7 7 7 7 7 7 7 > : # @ # + & - 0 q w ",
"5X3X5X5X5X5X5X5X5X7X7X7X7X7XkXkXkX7X7X7X7X7X7X5X5X5X5X3X3X>X3X>X3X3X>X>X>X5X5X5X5X7X7X7X7X7X7X6X6X6X6X6X6X6X6X7X6X6XlX8X8XlX8XlXlX8X8X8X8XiXMXMXiXMXiXiXMXMXMXNXNXNXNXNXNXNXNXNXNX=Xw j j j d j j j k k k k k j 9 k @.o.O.X.g l o.d.X.j X.a.f.k.k.d.O.h | a.a.g.k.f.d.a.+..... .X.k h h h h  .a.a.k.z.c.d.z.s.h  .O.9  .+.+.g.k.k.k.k.k.k.k.k.k.c.c.~ R ~ _ r.r.r.C.H.H.F.F.G.G.G.S.A.C.e.` _ ~ ! _ F.OX+X.X.X}.J.J.S.A.A.}..X.X}.G.G.G.F.S.F.G.}.}..X.X.X}.}.}.G.G.J.}.}.}..X}.r.! 7 7 7 7 7 7 1 1 1 1 > 8 # @ + & t n q 0 0 0 ",
"5X5X7X5X5X5X7X7X5X7X7X7X7X7X7XkXkX7XkXkXkX7X7X3X3X5X5X3X3X>X5X3X5X5X5X5X5X5X5X5X7X7X7XkX7X7X6X6X6X6X6X6XkX6X6X7X7X6XkXlXlXlXlXlXlX8X8X8X8XMXMXMXMXiXiXMXMXMXMXNXNXNXNXNXNXNXNXNXNXNXM j j j j j j j X.z z k j j 9 X.o.o.O.k g h s.d.[ j X.a.f.k.k.d.O.X.| a.g.d.k.k.d.a.+..... .X.k l h h h [ ..s.z.v.v.{ z.f.g | O.9  ...+.a.k.k.k.k.k.k.k.k.k.k.c.m.I R / H R ! ~ ` e.e.r.e.r.A.C.A.J.+X+X+XOX+XOX+X.X}.G.F.A.}..X+X+X+XXX.X.X}.G.F.S.S.}..X.X.X.X}.}.G.G.G.G.F.G.}.}.}.}.}.G.{.{.{.` U > 7 7 1 : 8 8 # @ & t x M n q 0 q q x ",
"5X3X5X5X5X5X5X7X7X7X7X7X7X7X7XkXkX7XkX7XkX7X7X5X5X5X3X3X3X>X5X5X3X5X5X>X>X>X5X5X7X7X7XkX7X7X6X7X6X6X6XkXzXkX6X4X6XlXlXlXlXlXlXlXlX8XlXlXiXiXiXiXiXiXiXiXMXMXMXMXMXNXNXNXNXNXNXNXNXNX.Xj j j j j j m z X.z k n q j X.o.O.X.l g | d.a.h j X.g.k.k.k.d.O.X.h a.a.f.k.k.f.g.+..... .| X.h h h h [ | o.k.z.v.l k.l.h | | j |  .+.+.g.k.k.k.k.k.k.k.k.v.k.Q.U J / J J F F G F u 1 u ~ e.~ C.+XOXXX.X.X.X+X+X}.}.}.}.F..XXX.X.X.X.XG.F.S.F.}.}..X.X.X}.}.}.G.S.S.F.}.}.J.}.}.{.{.F.F.S.S.A.C.C.Z.I 8 8 8 # # # 2 M 3.%.V y 0 ; n n q q ",
"3X3X5X5X5X5X5X7X7X7X7XkXkX7X7XkXkX7XkXkXkX7X7X5X5X5X5X3X3X>X5X5X5X5X5X>X>X5X5X5X5X5X5X7X7X6X6X6X6XkXkXzXzXkX6X4X6XlXlXlXlXlXlXlXlXlXlXMXiXiXiXiXiXiXaXiXiXMXMXMXMXNXNXNXNXNXNXNXNXNXpXM j j j j j Z X.z k k j q l O.o.O.X.g l o.d.+.h g X.d.f.k.k.d.O.X.h ..g.f.k.c.k.g.a... .O.| X.k k h h | [  .z.z.z.*.s.z. .h [ l [ ..a.a.a.g.k.k.k.k.k.k.k.k.k.c.6.S S A A S S S S u 3 v ` e.~ ~ ~ ~ ` H..X.XG.G.G.S.S.G.}..X}.}.}.G.F.S.S..X.X.X}.}.}.}.}.G.F.S.S.S..X}.}.}.}.G.F.F.H.H.C.Z.r.` _ _ R . + @ # i T %.%.4.n ; ; 0 ; n y y y ",
"3X3X5X5X5X5X5X7X7X7X7X7X7X7X7XkXkXkXkX7X6X7X7X5X5X5X5X5X3X>X3X5X5X5X5X5X5X>X5X5X5X7X7X7X7X4X7X6XkXkXzXzXcXzX6X6X6X8XlXlXlXcXlX8X8XlXlXMXMXMXMXMXiXiXaXaXMXMXMXMXNXNXNXNXNXNXMXMXaXuXsXw.j j d j m m &.k k j 9 9 X.O.O.O.k g l @.d...h 9 X.+.f.k.k.d.O.X.h ..g.f.k.k.f.g.a..... .O.| h k h h | h  .z.z.z.h.O.z.+.h h k [  .a.a.a.g.f.k.k.k.g.k.k.k.v.v.Q.y.6.G S 7 7 7 u R e.S.S.H.F.G.G.S.e.~ ~ e.C.S.A.A.S.G.G.G.}.}.G.F.F.F..X.X.X.X}.G.G.G.G.G.}..X.X.X.X}.}.G.{.F.S.Z.r.r.` _ ! ! R H u = r x 6.3.9.B y * ; a q V C n q q q ",
"3X3X5X5X5X5X5X7X7X7X7X7X7X7X7X7X7XkXkX7X7X7X7X5X5X5X5X3X3X>X5X5X5X5X5X5X5X5X5X5X5X7X5X5X7X4X7X6XkXzXcXcXcXcXkX6X6XlXlXlXlXlXlX8X8X8XlXMXMXMXMXMXiXiXaXaXpXpXMXMXNXNXNXMXpXaXaXsX/.!.!.c.j j j l Z j &.k j j 9 j X.O.O.X.l g k s.d.@.h f O.+.g.k.k.d.O.X.h ..f.g.k.k.f.g.a... . .O.X.h h h X.[ h | k.v.v.v.g z.g.[ h X.h  .a.a.a.a.g.k.k.k.f.f.k.k.v.v.v.!.!./.P.6.~ e.H.H.A.C.r.e.r.C.C.H.F.G.H.r._ ` ` e.}.}..X}.}.}..X.X.X.X.X.X.X.X}.}.G.A.G..X.X.X.X.X.X}.}.S.H.C.r.e._ _ R R H v v M Q 3.3.0.%.#.M % * ; ; 0 q m C e w w &.",
"3X3X5X5X5X7X7X7X7X7X7X7X7XkXkX7X7XkXkXkXkX7X7X5X5X5X3X3X3X>X>X>X>X5X5X5X5X5X5X5X7X5X5X7X7X7X7X6XkXkXcXcXcXcXlXkX6XlXlXlXlXlXlX8X8XaXaXaXMXMXMXMXaXaXaXMXpXpXpXpXaXaXfXaXsX/.!.,.,.,.,.:.j d d m m k X.k j q 9 z | O.O.X.l g X.d.f.s.h 9 o.a.g.f.f.d.O.X.h @.g.f.k.k.d.g.a... . .o.O.X.h k X.h h [ k.v.z.v.j k.k. .h X.g | +.a.a.a.g.f.k.k.k.f.k.k.v.v.v.x.!.!.!./././.E.E.E.E.D.t.` ` e.C.F.F.F.S.A.S.A.S.A.G..X.X.X.X.X.XXXXX.X+X+X.X.X.X.X.XXX.X.X.X.X.XG.G.H.Z.r.r.` ! R R G v v M Q 4.%.4.9.V x x v * ; ; a w w C C e &.Q.!.",
"3X3X3X5X7X5X7X7X7X7X7X7X7XkXkX7X7X7XkXkX7X7X7X5X5X3X3X5X5X>X>X>X>X5X5X5X5X5X5X5X5X5X5X7X7X6X6X6XkXkXcXcXzXcXcXcXkXlXlXlXlXlXlX8X8XaXaXaXaXaXaXaXaXaXaXaXaXaXsXsX/.!.!.!.,.,.,.:.,.,.,.:.l d j m j Z k l j 9 k X. .O.O.k f l O.d.f.a.h 9 ..g.g.g.g.a.X.| [ @.g.f.k.f.f.g.+.+.....o.O.X.[ k k h h  .k.z.z.z.Z d.z.a.h X.9 | +.a.a.g.a.g.f.k.k.k.f.k.v.v.v.x.n.n.!.!.!.!.!.!.~././././.E.E.S.C.A.C.C.A.H.r.M.S.G.}..X.X.XXXOXXX.X+X+X.X.XOXOX+X+X+X.X.X}.}.{.F.H.r.` _ ! R H G v v B 3.%.#.%.4.M - % t x b % ; ; ; a w C w.~.!.!.!.",
"3X5X3X5X7X7X7X7X7X7X7X7X7X7XkX7X7X7X7X7X7X7X7X7X7X5X5X7X3X5X5X5X5X5X5X5X5X5X7X5X5X5X5X5X7X6XkXkXzXzXzXcXcXcXcXcXlXlXlXcXcXlXcXqX8XiXiXiXaXaXaXaXaXaXaXsXsX!.,.,.,.,.,.,.,.,.,.,.,.,.,.:.C d j m j &.k l d d &.| O.O.X.l g k O.f.f.@.h w @.a.g.g.g.@.X.[ | +.g.k.k.k.d.a.+.+...o.o.o.O.X.{ h h [  .k.z.v.z.j.s.z.k.h { 9 | +.a.a.g.g.g.g.d.f.k.k.k.k.v.v.c.x.n.n.n.!.!.!.!.n.!.!.!.!.!./././.E.r.e.r.e.A.F.}.}.G.}.}.}..X.X.X.X.X+X+X+X+X+X+X+X+X+X.X.X}.{.Z.e.~ R R G u r u B %.%.#.%.V t o o o o - v u % * * ; q *.~.^.!.!.!.!.",
"3X5X5X5X5X7X7X7X7X7X7X7X7XkXkXkX7X7X7X7X6X7X7X7X7X7X7X7X5X3X5X5X5X5X5X5X5X7X7X7X5X5X5X5X5X6X6XkXzXzXzXcXcXcXcXcXcXlXlXlXlXlXcXcX8XiXaXaXaXaXaXaXsXsX/.!.,.,.,.,.:.,.:.,.,.,.,.,.,.,.,.n.m d j m l &.l C 9 j X.| O.O.X.g g X.@.f.k.@.l 9 +.d.g.+.a.+.| | |  .f.k.k.f.a.+.a.+.....o.o.O.X.{ h h | o.k.z.v.v.h.o.z.z.@.h e [ ..g.a.a.g.f.g.a.a.f.k.k.k.v.v.v.x.!.!.!.!.!.!.!.n.!.!.n.n.n.n.!.Q.Q.D.A.r.r.H.H.F.F.F.F.G.G.}.}..X.X.X.X.X.X}.}..X+X+X+X.X.XG.H.r._ R G v i x B V 4.4.%.M 0 o o o o o o $ % * * * * #.^.^.^.^.!.!.!.!.",
"5X5X5X5X7X7X7X7X7X7X7X7X6XlXkXkXkX7X7X7X7X7X7X7X7X7X7X7X5X5X5X5X5X5X5X5X5X5X5X5X5X5X5X7X5X7XkXkXzXzXzXcXcXcXcXcXcXkXkXlXcXzXkXkX7X<X6.y.sXsX/.!.,.,.,.,.,.,.,.,.:.;.;.,.,.,.,.,.,.,.,.n.#.j l m k Z k j 9 l &.| O.O.k 9 l O.s.k.c.@.h g a.d.g.a.a. .| | | ..k.k.l.g.+.a.s.....@.@...o.X.h h h | @.k.z.v.v.v.z z.z.d.h l h  .g.+.a.a.d.f.s.+.a.f.k.k.v.v.v.x.!.!.!.!.!.!.!.!.!.n.n.,.:.>.>.=.&.N.F.F.F.{.{.}.G.A.r.e.S.G..X.X.X.X.X}.}.G.{.}.}..X.X.XS.r.` R H v t x N #.#.#.#.V r $ $ $ $ $ $ & - - ; ; ; ; ; } x.^.!.!.!.!.!.!.",
"7X5X5X5X5X7X7X7X7X7X7X7X6XlXkXkXkXkXkX7X7X7X7X7X7X7X7X5X5X3X5X5X5XkX7X5X5X5X5X5X5X5X5X7X5X7XkXkXzXxXxXzXcXcXcXcXkX6X6XkXkX6X3X;X[.r.r.7.=.>.,.,.,.,.,.,.,.,.,.,.,.,.,.,.;.:.,.,.,.,.,.n.&.j m k Z k l j f k X.X.O.X.j f [ o.d.k.c.@.k h g.f.f.a.s. .| | | ..k.z.l.+...d.s.s.+.s.s.o.O.X.h h h | s.k.z.z.v.v.l z.z.k.h l g  .a.a.a.a.a.k.d.a.a.g.k.k.v.v.v.c.!.!.!.!.!.!.!.!.n.n.>.>.>.=.4.t.N.H.H.F.F.{.}.}.}..X}..X.X.X.X.X.X{.F.{.H.H.r.r.e.e.` ` _ ! R G i M V 4.4.5.#.V 3.0.x - = % % & - r 0 0 0 0 t 0 q } -.n.!.!.!.!.!.!.",
"7X7X7X5X7X7X7X6X7X7X7X7X6XkXkXkXkX7X7X7X7XkXkX7X7X7X7X5X3X3X>X5X>X5X5X5XkXkX5X5X5X7X7X7X7X6XkXkXkXzXzXzXzXzXzXzX6X4X5X:X X[.[.Z.r.H.H.r.y.>.<.;.:.,.,.,.,.,.,.,.,.,.,.,.,.,.:.:.,.,.,.,.*.l k l &.l l d l X.h X.X.k g l | o.d.k.c.d.X.h +.a.d.d.s.| |  . ...f.k.k.....d.s.s.s.s.s...O.X.h h h X.d.k.z.z.v.v.9 v.z.z.[ h g  .a.a.a.a.a.k.d.a.+.a.k.g.k.v.v.v.x.!.!.!.!.n.n.,.:.>.=.{ e $.I.{.}.}.G.H.r.C.S.{.}..X+X.X.X}.}.G.F.S.H.C.r.r.` ] R ! R H R Y v M V 3.9.5.%.%.4.9.W.Q r & $ * - r r t t t 0 0 0 y n } -.-.n.!.!.!.!.!.",
"7X7X7X7X7X7X6X6X6X7X7XlXlXlXlXkX7XlXkX7X7X7XkX7X7X7X7X5X5X5X>X>X>X>X5X5XkXkXkX5X7X7X7X7X7XkX5XkXkXkXkXzXzXzX6X7X;X X[.r.r.r.r.r.r.r.r.r.r.y.m.>.;.;.,.,.,.,.,.,.,.,.,.,.,.,.,.,.,.,.,.,.>.g X.X.Z j j q Z X.h X.X.l g X.| @.f.k.k.k.o.O.+.+.+.@.@.| | | .. .+.k.k...| s.d.s.s.s.s...O.X.h h h O.d.k.z.v.v.v.q z.z.z...k 9 | +.a.a.a.+.f.d.a...s.g.g.g.k.v.v.v.x.n.,.,.>.-.-.=.u.q q q $.t.F.F.F.G.}.F.H.}.}.}.}.}.{.{.{.{.H.H.C.e.` _ ! R ! H G 3 v v B 4.3.5.%.V %.4.5.5.4.9.~ v - - 0 0 - 0 r t t y x n C V O.-.-.-.!.!.!.!.!.",
"7X7X7X7X7X8X6X6X6X6X8X8X8X8XlXkXlXlXlXkX7X7X7X7X7X7X7X5X3X5X>X>X>X>X5X5XkXkX5X5X5X>X5X5X5XkXkXkXkXkXkX5X>X;X[.Z.Z.r.e.r.Z.Z.Z.r.e.r.r.r.H.F.I.P.y.m.>.;.;.;.;.,.,.,.,.,.;.:.,.,.,.,.,.,.:.h O.X.m j j j k z h O.X.g l X. .s.f.k.k.k.X.o.d.d.a.+...O.| | s...| s.f. .| s.h.d.f.s.s...X.X.h h | o.f.f.z.z.z.z.l z.z.z.g.h 9 | +.a.a.a.a.f.f.a...d.a.g.g.k.k.k.v.x.n.>.<.-.=.$.C p N 1.V $.7.A.r.H.F.H.A.A.F.{.}.{.{.{.H.Z.Z.Z.r._ _ ! H I c G u u v B 3.9.q.5.N * * 5.%.%.%.%.4.t 0 t t t t t t t y x n V V #.V N O.-.-.-.n.x.!.!.",
"8X7X7X7X8X8X6X8X6X6X8X8X8X8XlXlXlXlXlXlX7X7X7X7X7X7X5X5X3X3X>X>X>X5X5X5X5XkX5X5X>X>X5X5XkXkXkXkX5X;X X[.r.r.r.r.Z.Z.r.r.r.r.Z.Z.e.e.r.r.Z.H.F.F.H.B.y.q.*.;.<.;.,.,.,.,.<.:.:.:.<.,.,.,.n.{ X.l j j 9 k z X.X.X.k f X.X.O.s.f.k.k.f.l o.d.f.d.s.@.o.O.| h...+...s.| | d.h.h.f.s.s.O.[ k h [ O.@.d.k.z.z.z.z.o.k.l.z.k.h 9 | +.a.a...a.d.d.a.+.a.a.g.g.f.k.f.v.v.Q.=.=.$.e q N 3.q.#.4.$.2.e.r.H.F.{.{.{.F.H.H.Z.Z.Z.Z._ _ _ ! R H H u 2 1 4 v T 4.5.9.V x a y q q %.m #.m 4.0.0 t t t t t y y n n V 3.V m 3.3.V * =.-.-.;.!.!.!.",
"8X7X7X7X7X7X6X8X8X8X8X8X8X8X8XlXlXlXlXlX6X7X5X5X7X5X5X3X3X3X>X>X>X5X5X5X5X5X>X5X>X>X>X>X>X;X;X[._.r.r.r.r.r.e.e.e.r.r.Z.Z.H.F.{.H.H.Z.r.e.r.Z.C.A.r.A.S.D.P.m.>.>.;.;.:.<.>.<.,.,.;.,.n.n.X.l j C j q Z z X.X.X.g k X.X...d.f.k.f.s.l s.g.f.d.s.s.@.o.o.@...d.+. .| ..f.h.h.d.s.@.o.X.k h [ | s.d.k.z.z.z.z.h.f.z.z.k.h 9 [ +.a.a.+...d.g.a.a.a.a.g.g.g.k.g.v.v.~.$.q p #.9.q.5.#.4.%.C 3.t.A.H.F.{.{.F.F.F.H.Z.Z.r._ R H H G c u i b x M u i 5.5.V r * * 0 #.#.4.%.4.4.w.M 3.r t r 0 t y x M V %.V V 0.3.3.B - % a } -.} -.n.n.",
"8X7X8X7X7X8X8X8X8X8X8X8X8X8XlXlXlXlXlXlX6X7X5X5X5X3X3X>X3X3X>X>X>X5X>X>X>X>X>X>X>X;X;X X_.r.r.r.r.r.r.r.r.Z.r.` ` r.r.Z.Z.Z.Z.Z.Z.H.H.F.F.e.` r.A.F.{.G.F.F.I.I.E.q.*.>.<.>.e ;.,.:.,.n.n.$.j l j d 9 &.l X.X.k g X.X.X...d.f.k.f.| g s.d.f.f.d.s.s.s.+...s.a. . ...d.f.h.h.s.a.@.o.O.X.h | O.@.d.k.z.z.z.z.c.s.z.z.k.h 9 [ +.a.a.a.+.a.a.a.a.a.a.a.g.a.k.k.z.v.h.M 1.4.5.q.5.4.%.4.V C 7.6.H.A.H.H.H.A.Z.C.Z.r._ ! R H c c i v v B Q Q %.E t B * % * * ; w %.%.4.%.%.4.%.4.3.0 t t M M n V 3.#.%.5.5.4.M ; ; ; % % w } } } } } ",
"8X8X8X8X8X8X8X8X8X8X8X8X8XlXlXlX8XlXlXlX6X7X5X5X3X3X>X>X>X>X>X>X>X>X>X>X>X>X;X X[._.` r.` ` ` e.` r.r.Z.Z.Z.Z.r.r.e.` ` ` e.r.r.r.r.Z.H.F.{.F.{.F.F.r.r.H.F.F.F.G..XY.E.E.E.y.m.Q.m.,.n.n.&.j m j d 9 m g X.X.l l X.X.h ..g.f.k.@.{ j s.f.f.f.f.h.h.o.+.h.s. . .o.s.f.h.h.d.s.@.......X.k | o...f.k.z.z.z.z.v.@.l.l.k.[ g [ +.a.a.s.a.a.a.a.a.a.a...g.f.k.k.v.v.h.#.4.5.5.4.#.#.3.%.V n 2.2.` e.r.r.C.r.r.` _ ] ! H G u v M B T 9.3.5.9.3.t c - % % * * ; w %.%.5.%.%.4.m 4.%.y n M M V T V 3.5.9.0.B * * ; ; * % % % 9 } } } } ",
"8X8X8X8X8X8X8X8X8X8X8X8X8XlXlXlX8X8X8XlX8X7X5X5X3X>X>X>X>X>X>X>X>X>X;X;X X_.` ` r.r.r.r.r.` ` ` ` r.r.r.Z.Z.Z.Z.Z.Z.Z.Z.e.` ` ` r.Z.H.F.H.F.{.{.F.G.}.H.r.C.F.{.}..X.X.X.X.X}..X.X.XE.E.m.w.j m j d d l l z X.g k X.X.h ..f.k.f.| X.j s.d.d.d.f.h.s.O.s.s.O...@.d.f.f.f.d.s.s.s.s.@.@.O.X.| o...f.k.k.z.z.k.v.*.l.l.l.| g [ a.g.a.s.s...a.a.a.+.a.a.a.f.v.v.v.c.w.q.3.M V V #.#.V 3.4.n T T ! ~ ` e.r.r.` ! R H G v v M T 7.q.m.P.P.6.i X X c 4 % % * * ; w %.%.4.C #.V %.5.4.V %.4.3.V 4.5.5.9.M - % % * ; ; * % % % % e } } } ",
"8X8X8X8X8X8X8X8X8X8X8X8X8X8X8XlX8X8X8X8XlX7X5X5X>X>X>X>X>X>X>X;X X[._.` ` ` e.e.r.r.r.r.r.Z.` ` e.r.r.r.r.r.Z.Z.r.r.r.C.H.r.` e.r.r.Z.Z.H.Z.Z.H.H.{.}.|.{.{.}.}.{.{.F.F.S.C.C.r.Z.r.e.` ~ 9.m m j j q j X.k k g X.O.X.g ..f.k.a.X.k j h.f.f.d.f.s.o.s.s.....s.d.d.d.f.d.s.s.s.s.s.s.s...O.X.| ..k.k.k.z.z.z.k.@.z.l.l. .h | a.a.a.s.d. .+.+.a.+.g.g.g.f.v.v.m.m.T y % 0 V V 3.3.4.5.3.p N M Y ! _ _ _ ! _ R c c v M V 9.q.5.q.9.B & X X X X 4 2 $ % * * ; q &.&.5.5.5.%.5.5.5.9.4.V 4.5.9.9.B % o $ o * * * * * $ $ % % o e { } ",
"8X8X8X8X8X8X8X8X8X8X8X8X8X8X8X8X8X8XaXaX8X8X5X5X>X>X>X>X>X;X X(.' ` _ ` ` ` e.r.r.r.r.Z.Z.Z.H.H.H.Z.r.e.e.e.e.e.r.Z.Z.F.F.F.F.{.{.Z.r.e.r.r.C.H.{.{.}.}.}.}.H.H.H.C.r.e.e.` ` ! R R R R ` ^ %.m j d 9 j &.X.l l X.O.k g o.f.f...X.k g h.d.d.g.d.s.o.@.....s.d.f.d.d.d.s.a.s.s.s.s.s.s.s.o.O.O.s.k.k.k.z.k.z.l.h.z.l.l. .h  .g.+.a.a.a.....+.a.a.g.g.g.g.v.h.B ; ; 0 y q 4.q.9.9.q.5.5.V n p v R ! ! ! _ H c v M 6.q.q.q.q.9.E & X X X X X o 2 4 * % % * * q $.%.5.5.5.5.5.5.3.%.4.5.9.9.B % $ $ $ o o % * * * * $ % % % o % w q ",
"8X8X8X8X8X8X8X8X8X8X8XaXaXaXaXaXsXsX/./././.sX=XyX3X;X;X X(.' _ ~ ~ _ ` ` ` ` e.r.r.r.r.r.r.C.H.H.H.Z.r._ ` ` r.Z.Z.H.H.H.F.F.H.F.F.{.Z.` e.Z.H.F.{.{.F.F.H.G.A.r.A.r.` R R I U / ] ] ] ] R %.l j 9 9 m &.k j k o.O.l l o.k.f. .X.l X.f.@.d.g.f.d.o.O...s.d.d.d.d.d.a.+.s.s.s.s.s.s.s.s.@.+.a.f.f.k.l.z.k.z.l.h.z.l.l.+.h ..g.+.a.a.+.d.....a.a.g.g.g.f.h.j ; ; ; w #.#.5.5.4.%.4.3.4.C p p - F H R R G 4 t T 9.P.P.q.3.x * & o $ $ o $ - t 4 t t t t 0 0 q m %.5.5.5.5.%.%.4.9.9.9.B % & & & # $ & & % % % % % % % % % $ % ; 0 ",
"8X8X8X8X8X8X8X8X8X8XaXaXsXsX/.m.>.>.>.>.>.,.n.Q././.+X_.(.] R R R R ! ~ _ ` ` ` ` ` ` ` r.r.Z.H.H.H.F.H.r.` e.e.e.r.Z.C.Z.Z.Z.H.{.|.|.{.Z.Z.H.H.F.{.{.F.{.F.F.A.F.e.` R U / / J J J / / / U %.l d d d m X.k j O.o.X.g l @.k.s. .h o.h.d...a.d.f.o.o.o.@.s.d.d.d.s.a.+.s.s.s.s.s.s.s.s.a.a.a.a.g.f.l.l.l.z.z.l.h.l.l.l.g.[ +.g.a.a.s. .d.a.+.f.a.a.g.f.O.q ; ; ; w q m #.5.4.4.4.5.#.4.n C y & 1 F G G E 8.I.3.9.9.T t 2 2 t 2 & $ & 2 t t t t i y y y y n C %.w.w.4.%.%.4.5.5.6.v & 1 4 4 - - - - - - - - - ; - % % % * % % 0 r ",
"8XaX8X8X8X8XaXaXaX1X#X/.Q.>.:.>.>.>.>.>.>.>.:.,.,.n.Q.E.t.H G G G G Y R ! ! ! ! ~ _ ` ` e.e.r.C.H.H.H.F.F.G.{.F.e.e.e.r.r.Z.F.{.F.F.{.|.|.}.}.}.}.{.}.{.H.F.Z.C.` _ I / / / / / J J J J J U V j d j j Z k l k o.o.X.l k @.f. .h h f.s.o...a.s.d.s.s.s.s.s.s.s.d.a.+.a.s.s.s.s.s.s.s.a.a.a.a.g.g.g.g.l.l.k.z.l.o.l.l.l.l.@.+.g.a.a.f...+.s.s.f.f.@.&.&.%.* ; ; a 0 q #.#.5.4.4.5.5.5.%.m m q - r M Q 9.P.E.9.3.V 3.T y x i t % & - t t t t t 4 i y y n V %.4.5.4.%.4.5.5.5.4.3.t u u c u t - - - r 0 r t t t t - % % % * % * t t ",
"aX8X8X8X8XaXsXsXE.w.>.:.:.:.:.>.<.>.>.>.>.>.>.>.>.>.:.,.n.Q.w.i t u v G Y Y E E ! ~ ~ ~ _ ` e.r.C.H.H.F.F.G.{.{.{.e.` ` Z.F.{.}.|.{.{.{.|.}.}.}.}.}.}..XC.` _ I U J / / / / / / / J S A S F m l j g k k k g X.o.O.k g k @.s. .g o.f... .+.+.d.a.s.@.s.s.s.s.s.s.a.a.a.a.a.a.a.s.a.a.a.a.a.g.g.g.g.g.f.k.z.k.k.X.z.l.l.l.k.[  .g.g.g.s.d...d.f.j.x 0 C x * ; ; 0 0 q %.%.w.4.4.9.q.5.4.#.$.e 0 0 n 4.P.P.4.1.3.9.P.0.V y & = 4 t r r r t t t 4 x n V #.%.4.4.#.4.m.m.5.%.5.9.V v G v t - 4 t t t t t t t x x x u % % % * % - y y ",
"aXaXaX1X#XE.Q.>.:.>.:.:.:.:.,.:.>.-.-.-.>.>.>.:.:.:.:.,.,.,.,.>.N , - t t v v Y R ! ! ~ ~ ` ` e.r.C.C.H.F.{.{.{.|.|.F.{.{.|.|.|.|.}.H.r.H.{.{.|.{.{.r._ ] J J J J J / / / / J J J U J S 7 v m m j f Z &.k h ..o.O.l g k @.a.| h h f... .+.+.s.@.@.@.@.s.s.s.a.s.a.a.a.a.a.@.a.s.a.a.a.a.g.g.g.g.g.g.g.f.k.k.k.X.z.z.l.z.z.+.[ g.g.+.s.f.O.&.m - > 1 M & ; ; ; 0 0 q %.%.5.q.4.4.%.5.5.m $.$.* 0 n N 1.V 3.9.4.%.3.r & - r t t r r t 0 0 t y t M V 4.4.4.%.5.P.P.P.5.#.5.9.C V u 2 - t t t t t t t t y x E T B t % % % & $ - y x ",
"sXsXE.w.>.<.>.>.;.>.:.:.:.:.:.:.:.>.>.>.-.-.>.>.:.:.:.:.:.,.,.,.n.4.; % * r t v G Y ! ! ~ ` ~ ` r.r.C.H.S.S.F.F.{.{.{.{.|.{.{.|.{.F.{.{.Z.r._ I U U J / / / J J J J J J J J J J J / / / J G C m j m &.X.&.O...o.X.g l k s.d.O.X.h f.o. ...s.+.+.@.o.@.@.s.s.s.d.a.a.a.a.+.s.a.a.a.a.a.a.g.g.g.g.g.g.a.d.k.z.z.o.z.z.l.l.z.k.[ d.f.@.s.h.x 2 > < < > 2 2 * ; ; ; 0 q %.%.w.q.q.5.5.q.4.N p C % * y q 3.9.9.6.%.m.y u i t r t r r t t y y 0 x v 3.5.4.%.4.9.P.P.5.4.5.%.4.$.4.3.t t t t t y y y t t t B Q T B Y i % % % & o - x x ",
">.,.,.>.:.:.>.>.>.>.;.;.:.:.:.>.>.>.:.:.:.;.;.>.:.:.:.:.,.,.,.,.,.!.!.w.0 % - r t H E ~ ~ R ! ` e.e.r.r.C.A.H.F.F.F.H.F.{.F.F.F.F.}.F._ U J J J J J J J / / J J J J S S S S J / / / / ] ] R C j j &.&.k X.......X.g g k f.d.o.X.| f.@. ...s.+...........s.a.a.s.s.a.a.a...a.s.s.a.a.a.g.g.g.g.g.k.g.a.g.l.z.v.@.z.z.l.l.z.z.@.d.f.@.Z - > < < < > > & - - ; * * 0 q %.&.q.q.4.5.5.5.5.1.r p % * q w T 0.V %.3.4.B x t t y y y y y y x B T T v T 3.5.m.q.9.Q 0 0 5.%.V 4.%.%.Q u t t t y y y t r M Q Q T E E R c % % % & $ 4 v x ",
",.,.,.>.<.>.>.>.;.;.>.:.:.:.:.:.>.>.:.>.:.:.:.<.;.;.>.>.:.:.,.,.,.,.,.n.!.m.#.; - r G E E E ! ~ ` e.e.r.r.r.r.C.Z.Z.r.r.Z.Z.C.Z.` ] J J J J J J J J J / J J / / / / J A S S J J / / / / I R n j Z &.k k k  .....k g g { f.f.@.X.X.f.@.o...s.s.@.........+.+.a.s.a.s.a.a.+.a.d.a.a.a.g.g.g.g.g.g.f.d.a.a.g.l.k.o.z.z.l.z.z.z.k.@.h.q & & > : < < > : > 2 t 0 0 y y q m $.w.5.q.q.q.w.4.V y N % 0 y n 3.5.q m 9.4.M t y y y y x M E M B 9.9.T v y P.P.P.3.0 ; 0 y 4.%.4.4.%.4.V t t t y t t t x T Q Q Q E E E Y c % % % % $ u Q Q ",
">.:.,.:.:.>.-.-.-.>.>.,.:.:.:.:.:.:.:.:.,.,.,.:.;.>.>.;.;.;.:.:.:.,.,.,.,.,.!.!.w.#.y i v H E ! ~ _ ` e.e.e.e.e.r.r.r.r.r.` ] J S J J J J J J J J J J J J J J J / / / / / J J J J / / / / H M j m l k l l O... .k g g X.@.s.h.l s...o.|  .@.s.@.s.s.......a.s.d.s.a.a.+.a.s.s.a.a.a.g.g.g.g.g.g.g.g.a.g.g.g.k.@.z.z.z.z.z.z.c.k 4 # : > > : : : > : > = t i y M M B #.q.5.q.q.q.q.q.4.N y N q y V 3.3.4.%.V m.3.M y t y M N V T 6.9.3.3.3.8.6.6.6.Q - * * ; n %.%.5.4.4.5.4.Q t t t t t y B T E Y Y Y Y Y Y Y u % % $ & % H e.t.",
"-.>.>.:.:.:.>.>.<.} } >.:.:.:.:.:.:.,.,.,.,.,.,.,.,.,.,.:.;.:.:.:.,.,.,.,.,.n.n.!.!.!.4.y r i G Y E ! ~ ~ ` e.e.r.e.e.` I S S S S S S S J J J J J J S S S S J / J J J J / / / / J S S J S u x j m j k l l X.+. .l g l o. .h X.l f.@.| [ [  . . ...........s.s.d.d.a.+.+.+.s.a.a.a...g.g.a.g.g.a.f.d.f.v.a.k.z.k.s.z.z.z.v.f.k - # : : : & & & & & & : > 2 u M B N 4.9.q.P.P.E.m.q.5.j C 0 p V n V 3.5.#.4.V 3.5.M i x B V V 3.9.9.3.0.5.9.9.6.E & * * ; ; ; n m %.4.4.4.%.4.V t t t y B B T E Y Y Y E Y Y R R u % % % & % ! B.U.",
">.>.>.>.>.>.>.:.:.,.>.} <.:.:.,.,.,.,.,.,.,.,.,.,.,.,.,.,.:.;.:.,.,.,.,.,.,.n.n.,.,.n.!.!.w.p r i v Y E ~ _ e.r.r.e.I S S S S A S S S S S S S S J J S A S J J J J / / / / / / / / / S A S J G j m j k k l g o.o.l g X.O.| g k [ d.+.o. .O.|  .| | | | [ | | ..@.s.a... . .....+.+. .f.a.f.k.k.f.v.v.v.v.f.k.z.v.&.v.v.f.&.t # # : : # # # : : : > > < 1 1 t T V #.5.P.E.E.E.9.5.5.5.n * ; 9 $.#.V 9.5.5.q.q.4.m.x M N 3.7.9.3.3.9.q.P.P.9.v # X o * * ; ; ; n m %.4.m 3.4.%.T i y v T E Y E Y Y Y Y R Y R Y Y u % % % & & ` R.Y.",
"-.>.>.=.>.>.>.>.:.,.,.,.} <.<.;.:.:.,.,.,.,.,.,.,.,.,.,.,.,.:.,.,.,.,.,.,.,.,.,.,.,.,.,.,.,.!.2.- r c R e.C.C.` G 7 7 7 A 7 7 A A A A A A S S S J J J J J / / J J J J J J / / / J / / U / ] R m k l j k k j g O.k j X.o.X.l g h s.a.@.s.@.o.........O.o.| | ..+...+.@.+.+.d.d.d.k.+.f.d.k.v.z.k.k.k.f.d.f.f.z.v.&.h.h.C = : 8 # : # 8 8 & : : : > > 1 1 1 r %.4.m.E.E.E.3.0 n 4.%.4.0 * * e $.m 3.3.3.q.9.4.m.q.9.9.9.9.9.0.9.P.P.P.9.Y $ $ = X o * * * * * q m #.5.3.5.3.3.M M E Y Y R R R H Y Y Y R R Y Y ! c % % % - 4 e.R.R.",
">.>.>.-.} -.>.>.:.:.,.,.,.,.,.,.:.;.;.:.:.:.:.:.,.,.,.,.,.,.,.,.,.:.,.,.,.,.,.,.:.,.,.;.;.;.=.1.R r..XOX+XOX@X%X*X[.U > 7 7 7 7 A A A A A S S S S J J J J J J J J J S S S J J J / ] ] ] ] ] R 0.k k l j 9 f 9 h X.q o.o.| X.X.g s.d.a.s.s.o.s.s.@.@.@.s. .o.h.c.s.a.d.f.+.d.f.k.v.k.f.g.k.k.v.k.k.f.g.| f.f.f.h.&.m y & & & & : : : : : : : : : > > < 1 1 1 q.E.E.q.T w w w w q 4.4.0 * * p m #.5.5.#.3.q.m.m.m.9.9.9.9.P.E.P.P.9.b X o O # = $ o % * * * * n V 3.%.V 3.M M E E Y Y Y R R R Y Y Y Y Y Y ! ^ r.H % % % 2 t e.R.R.",
">.>.>.-.-.=.=.>.>.>.>.:.,.,.,.,.,.,.:.<.;.;.;.:.:.:.:.:.,.:.:.:.,.:.:.,.,.,.:.:.;.;.-.} } 4.y..X.X+X.X.X+X.X+X+XOX*X*X[.F 7 7 7 7 A A A A A A S S S J J J J J J J S A S S J J / / / / / / U R %.l j f 9 q l z o.X.g s.O.O.O.o.k o.d.d.d.d.s.s.d.s.s.s.d.@.@.c.d.d.f.k.v.a.g.f.k.v.k.f.f.f.s.f.k.k.f.z w l Z x ; - & # : < : & & : : : : : : : > > > > 1 1 > 4.9.n a w w w w w q 4.4.r % * q C #.5.q.5.q.m.P.q.5.4.7.y.E.E.E.6.c # & = = & $ - t r - * % % * x V #.3.V B T E E R Y E R R R R H Y Y Y ^ e.D.Y.Y.Y % % % 4 u M.R.R.",
":.,.:.-.=.=.=.=.>.>.>.:.:.:.:.,.,.,.,.:.-.-.-.;.:.:.;.:.:.:.:.:.:.:.:.:.:.:.<.-.-.} $.7.I.Y.{.}.}.}.}.}.}.G.}.}..X.X+X+X@X` 7 7 7 7 A A A A S J J S J J J S J J J J S S J S S J J J J J J / R m d 9 q d m k o.@.X.X.@.O.@.| o.&.X.d.d.d.d.h.o.s.d.h.s.d.o.s.f.f.h.c.k.k.f.f.c.d.c.k.f.d.h.o.&.&.&.C & @ @ # # # # : : : : : : # : : : : : > : > > : < < 1 1 - a w w q q q q y p 4.4.2 o % * y V 5.m.m.P.9.4.7.0.9.E.E.E.t.v 5 F H G u - 2 u b t y t i t r 0 y V V V T T Y Y Y E R E R R R Y Y Y ! e.K.Y.T.oXoXY % % % 4 u M.R.R.",
":.:.:.>.-.>.=.{ u.>.;.>.>.:.:.,.,.,.,.,.,.,.,.;.>.:.:.:.:.:.:.:.:.:.:.;.<.-.} } $.7.I.F.G.G.F.F.F.F.H.A.C.C.A.A.r.e.H.}.+XOX@X_ S S J J S J J J S S J J J / / / / / / / / / / S S S S S J J H q w d j d m X.o.s.O.j.| &.O.X.j.X.X.h.s.d.s.h...s.d.h.s.f.X.h.d.d.f.h.k.f.f.k.f.h.h.h.o.d w ; = $ @ . O # # # # # & : : : # # # : : : : : : > < < > : < < 1 1 - w w q q w q q q q 4.3.4 o % % 0 V q.4.3.1.3.4.9.q.P.I.8.c 5 G H H v v t t x t t t y t t t y n T T T Q E Y E Y E R R E R Y R R ! e.D.Y.U.R.R.R.R.Y % % & t u N.T.oX",
">.>.>.>.>.>.>.*.{ } -.<.;.:.,.,.,.,.,.,.,.:.:.,.;.:.:.:.:.:.:.;.<.<.} } =.=.w.y.S.S.H.A.r.A.A.H.H.S.S.A.` _ ~ ` H..X}..X.X+XOX@X@Xr.F 7 J J J J S J J J J J J J J J J / / / / / J A A A S S F i j C C d m &.o.@.s.f.@.O.q d k d k *.o.O.o.h.o.s.s.s.h.s.&.h.s.s.O.@.h.j.o.&.k C j - $ O O O O @ # O @ # # : # # # # # # # : : : : : : : : > > > > : < < 1 1 - 0 w q q w q q q y 3.3.v - & % y N B T Q 6.9.P.E.P.9.u 6 F H Y H c t t x v v x x i y y y M T T T T E ! ! ! ! ! ! ! R E R R ! e.S.T.T.R.R.R.R.T.R.Y % % & t u S.oXT.",
">.>.>.>.>.:.:.:.>.} } -.<.>.:.:.:.,.,.,.,.,.:.:.:.;.:.;.;.;.<.<.} =.>.=.7.t.H.r.A.r.e.e.e.e.e.e.e.r.r.e.~ Y e.A.S.F.F.F.}..X.X+XOX*X@X` S S S S S J J J S S J J J J J J / / / / / / / / U J F G m C n n m &.X.O.j.j.o.l       . $ & % % ; d q d f f j d 0 ; 0 ; * % % & # . . O @ @ @ @ @ @ @ # # 5 # @ # # # & : : : : : : : : : : : : : > > > > > < < < < 2 0 w w w w w w 0 y #.3.T Q r v T 3.3.8.9.P.E.P.9.9.6.c G G G v u t x x x i y i x x M B Q 6.Q T Y ! ! R R R R R ! ! R R ! ` A.Y.T.T.R.T.T.T.R.T.oXG & & & t u S.oXoX",
">.>.>.>.>.:.:.,.,.-.{ } } } -.>.>.:.,.,.,.,.:.:.:.} <.:.<.} >.=.w.7.6.r.S.A.Z.e.e.e.e.e.e.e.e.r.H.}.}..X}.+X{.C.e.A.H.S.G.}.}..X+XOXOX*X@X] 7 A S S S A A S S S S J J J J J J J J / / / / J U R %.m C V x x * % % % $ . . . . . O O O . . . . . . . .   . . . . . . . O @ @ # # # @ @ @ @ @ # # # F # # : : : : : : : : : : : : : : : : > > > > < < > > > 1 1 2 n n y q w w 0 q %.9.3.x - - x M 7.P.P.P.9.5.9.W.6.H v u t y x i x x i x i t x B T 8.8.~ ! ! ! R ! R R R R R E E R ~ M.Y.oXT.R.T.T.T.T.T.T.T.T.G & & & u u D.oXoX",
">.>.>.>.:.:.,.,.:.,.>.>.-.} } >.>.>.;.;.;.:.:.<.<.} } <.=.4.9.t.t.r.r.r.e.e.e.e.` e.e.e.` e.r.A.H.F.F.F.{.}.}..X}.r.r.H.S.F.{.}.}..X.X+XOX*X|.H 1 7 A A A A A A A S S J J J J J J J J J J U U H &.V n x = .     . . . . . O O @ O O @ O O O O O O O O O O O O O O O @ # # # # # # @ @ @ # # # # # F O # : : : : : : : : : : : : : : : : > < < < < > > > > > 1 > M V M N M N 3.3.5.3.y i i Y t y 6.P.9.T 4.9.9.9.b c t t t i i y i i i t x T 6.6.6.8.~ ! ! ! ! R ! R R R R R R _ A.K.T.T.T.R.R.T.T.T.oXT.T.oXoXv & & & u u Y.oXT.",
">.>.>.,.:.,.,.:.>.,.n.,.:.>.>.>.-.-.-.-.>.>.=.{ =.=.w.q.t.r.C.r.e.e.e.e.r.r.r.r.r._ ~ ~ e.C.C.C.A.A.H.H.F.F.}.}..X+Xr.e.A.F.F.G.}.}..X+X+XOX*X=X|.R < 7 7 A A A A A A S S J J J J J J J J J F G M 4 #             . . . . . O O O @ @ + O + @ @ @ @ @ @ @ @ @ @ # # # # # # # # 8 # # # # # 8 : # # . # : : : : : 8 8 8 : : : : : : : : : : > > > < < < < < > > i T V #.3.5.5.Q M n y M V Q 0 y V 9.9.T 9.3.0.9.r t i x t t i i i i M M T 3.6.~ ~ ! ! ~ ~ ! ! R ! R R R R ! r.Y.U.R.R.T.T.R.R.T.oXT.T.oXT.oXoXc & & & t u Y.oXoX",
">.>.,.,.:.,.,.:.,.:.:.,.>.<.<.>.-.u.u.=.=.2.7.7.t.t.r.r.r.r.C.C.r.r.r.r.r.r.e.e.e.~ _ e.e.e.e.e.e.r.r.C.H.A.S.G.{..X.XH.G.S.H.S.G.G.}.}..XOXOXOX*X=X*Xr.F 7 7 A A 7 A A A A S J J J J J J S S A 7 .                   . . . . O O @ @ @ @ @ # # # # # # # # # # # # 8 8 8 : : : : : : 8 8 8 : # 8 #   @ # : : : : : : 8 : : : : : : : : : : > > > < < : : : > 1 M 6.9.5.3.V n y y M 9.q.9.7.0 i V 4.4.3.3.q.9.T t y t i y t t t v M M T Q T ! ! ! ! ~ ~ ~ ~ ! ! ! ! R ! e.J.R.T.T.T.R.T.R.T.T.T.T.T.T.T.&XoXOXu % & & u t T.oX&X",
"} >.>.:.,.,.:.:.:.>.-.<.-.{ { { =.w.7.t.e.e.r.e.r.r.e.e.r.r.r.r.r.r.r.r.r.r.C.H.F.F.H.A.e.e.e.e.r.r.e.e.r.r.C.G.}.}.}..X}.{.G.C.r.C.A.H.S.G..X+XOX@X%X*X=X*X@X|.Z.r.] S 7 A A S S S S S S S A 7 7 @                     . . . . O @ @ @ @ # # # # # 8 8 # : : : : : : : : < : : : : : 8 8 8 8 # # @ . . # # : : : : : : : : : > > > > < < < > : : < < < : : > < 7.y.3.V n y n V 3.4.5.4.#.N 0 M V q.5.9.9.4.%.3.t t t t t t i B B T ~ ~ ~ ~ ! ! ! ! ! ! R ! ! ! ! ~ e.S.T.T.T.oXoXT.R.R.R.R.T.D.U.R.T.T.oXoXoXt % % = u t XXT.oX",
"{ =.>.>.:.:.>.>.;.-.} } e p 1.6.8.e.r.e.r.e.r.r.r.r.r.e.e.e.e.` _ e.e.r.r.r.C.A.A.A.C.C.A.A.e.e.e.e.e.r.C.A.F.S.S.G.}.}.}.}.G.}.A.e.e.e.C.G..X+X+X+X+X+X+X+X+X+XOX+X|.|.' A A S S A A A A 7 7 7 < @ .                     . . . + @ @ @ @ # # 8 # : : : : : : : < < < < < < < : : : : 8 8 8 8 # # @   . O # # # : : : : : : > : > : > < < < : > > < < < : : > 2 6.1.M y q n 9.4.%.#.C e C N y 7.3.5.3.T 3.N %.Q t t t t x B B Q 6.6.! Y Y ! ! ! ! R R R ! ! ! ! ` N.T.oXT.oXT.&XT.T.oXT.T.T.T.R.oXT.oXR.T.T.&X4 % % & u t oX#XoX",
"C $.=.>.<.;.-.} } =.u.#.6.e.e.e.e.r.r.r.r.r.r.r.r.r.r.r.e._ ~ ~ e.e.e.e.r.C.C.r.r.e.C.A.A.H.H.e.` e.r.C.C.C.C.A.S.S.F.}..X.X.X}..XF.~ C..X.X.X}.}.}.}.F.G.}.}.F.F.}.Z.r.Z.] A S A A 7 7 7 < : 8 # O . .                 . . . O @ @ @ @ @ # # # : : < < < : < < < < < < < < < : : : : : : 8 # # # @   . O # # # & : : : : : > < < < < < < < > > > < < : : : > i n x 0 y n p n C e e p n n V y 3.V %.V T V M n T y t i M B Q 3.~ ~ ~ ! ! ! ! Y Y R ! ! ! ! ~ e.D.R.oXT.oXoXoX&X&XT.&X&X&XoX&X&XoXoX&XoXoXT.R.oX2 % & & t t OXOX&X",
"r r p =.>.>.>.=.$.T 6.e.8.` e.e.e.e.e.e.e.e.r.r.r.r.r.r.r._ _ e.e.r.e.e.e.e.r.r.C.C.A.A.A.C.r.H.r.e.e.r.r.C.C.C.A.H.F.{.}.}.}..X.X+X.X+XOXOX+X}.J.G.{.S.F.H.A.F.Z.e._ R U 7 7 7 A 7 7 > 8 8 # # < @ O O .     .         . . . O @ @ O @ @ # # # : < < < < < < < < < < < < < < : : : 8 8 : 8 # # # @   . O # # # # & : : : > : : : > < > < > > : > : > > : : t t.B n n y n y q n n n C #.%.5.y T V V T Q 4.9.1.3.x Y 8.~ E Q ! ~ ! ! R ! ! ! ! R Y E Y ! e.D.T.&X&X&X&X&XT.T.&XoX&XoX&X&XoX&X&X&XoXoX&X&XoXT.R.- % & & t u oXOXOX",
"7 > , a a e e n ~ ~ ~ ~ ~ _ _ e.e.e.e.e.e.e.e.r.A.A.A.C.C.C.H.A.r.e.e.e.e.e.e.r.r.C.C.A.S.F.F.F.F.F.C.e.e.r.C.A.H.S.F.F.G..X.X.X}.}.}.}..X.X+XOX+X}.S.S.S.S.C.r._ R I U : 8 8 @ > 7 8 8 8 : 2 2 v 4 @ .                 . . O O O O O @ # # # 8 : < < < < < < < < 1 < < < < < : : < : : 8 8 # # : @   . . @ # # # # & : : : : : : : : : > > > : > > > > : 1 t.P.3.3.y - % % M n n m 4.%.%.4.r E T M T 3.3.V 3.Q 6.t.6.~ R R R R R R R R R R R R R ~ 8.B.D.D.R.T.&X&X&X&XoX&X&XoXoXoX&X&X&X&X&XoXoXT.oXoXT.R.oX- % & & t t oXOXoX",
"#.=.w.>.>.>.$.M E E E ~ ~ ~ ~ _ e.e.e.e.e.e.r.r.r.A.r.e.e.r.r.C.C.C.e._ ` e.e.r.C.S.S.S.S.{.}.{.G.F.F.S.A.r.r.r.C.C.C.A.F.G.}..XXX.X.XG.G.}.G.}.}..X}.}.S.Z.e._ R I c $ X O 8 8 8 8 < 3 t i 3.9.9.v @ .                 . . O O O O O @ # # # : : < < < < < 1 1 1 1 < < < < < < < : : : 8 8 # 8 8 .     . + # # # & : : : > : > : : & # & : : : > : > > < 8.E.y.3.T * % % % M 4.4.w.w.%.&.4.r Y B 1.B B T 3.Q 8.e.8.R R R R Y Y R R R R H R R R _ A.K.R.T.oXoXT.U.R.T.&X&X&X&X&X&XT.oX&X&X&X&X&X&XoX&XoXoXoXoX- & & = t u OXOXT.",
":.:.:.:.,.,.,.m.#.Y Y E ! ~ ~ ~ _ e.e.r.r.C.C.C.r.C.C.r.r.r.r.r.r.C.H.e.~ ` e.r.C.A.S.G.{.}.}.}.}.}..X.X.X.XF.r.e.e.e.A.G.}.G.G.S.G..X}.F.G.G.A.S.F.H.C.r.` R I R Y x t $ + O # 1 2 i T 3.9.9.q.P.~ O .       .         . . . . O O O # # # : : : < < < 1 < 1 1 1 1 < < < < < < < : : : 8 8 # 8 # .     . o @ # # : : : > > : > > : : & & : : : > > > > 6.E.E.y.6.* % $ % V 5.4.4.%.%.#.%.%.y B B 3.6.3.Q 6.e.~ ! ! ! R R R R R R Y H H R Y ! e.D.Y.T.&XoXoX&X&X&X&XT.R.U.R.&X&X&X&X&XoXoXoX&XoX&X&XOX&XOXoXOX= & & - t c oXoXR.",
":.:.:.:.:.,.,.,.!.w.M Y Y E E ~ ~ ~ e.e.e.r.r.C.C.A.A.A.r.r.r.C.A.H.F.F.e.e.e.e.C.C.H.H.F.F.F.A.S.S.S.G.}.}..X.XA.C.A.C.S.}.}..X.X{.F.G.S.A.A.A.F.C.r.` ! H H R 6.9.3.M t 2 4 t B 6.9.9.9.9.P.P.y.Y . .       .         . . . . O O O @ # # : : < < < 1 1 1 1 1 1 < < < < < < < : : : : : 8 # 8 8 .       . . @ # : : : > : : : > > > & # # & # : > 2 6.E.E.E.E.7.- % % % %.%.%.4.%.#.V V T t Y B 3.T 3.6.~ R R R ! R R R R R R R R H H ! e.D.K.Y.Y.T.T.R.T.R.T.&X&X&X&X&XoXU.Y.U.oX&X&X&XoX&X&X&X&XOXOX#XoXR.* & & - t c OXR.oX",
":.:.:.:.:.:.:.:.,.,.m.#.M Y E E E ~ ~ ` e.e.r.r.r.r.r.C.A.A.H.H.A.H.H.H.F.{.F.H.e.e.e.e.e.e.e.` e.r.A.H.r.~ E ~ A.G.G.}.G.S.{.F.F.F.S.F.H.e.e.Z.e.` ! I H H G Y Q 7.9.T E Y T t.9.9.9.q.9.5.4.3.3.E @ . .   .           . . . . . O O # # # : : : < < < 1 1 1 1 1 < < < < < < < < : : : : : : : <             . # # # : : : : : < : > : : # # & & u 6.E.E.E.P.E.y.t % % % V #.#.4.#.1.M V B - t E 6.e.~ R R ! ! ! R R ! R R R R R R ~ e.G.Y.T.Y.Y.R.oXT.oXT.T.oXoX&X&XT.&X&X&X&X&XY.N.D.oX&X&X&X&X&X&XOXT.#XR.% & & - 4 v OXoXoX",
";.;.;.;.;.;.;.:.:.:.,.n.w.V M E E E ~ ~ ` e.e.e.e.e.r.A.H.A.A.A.A.A.H.H.F.F.F.{.{.r.e.` e.e.e.A.}.}.}.}.G.}.r.~ ` C.F.e.e.G.}.S.e.r.C.r.r.r.` _ ! R H H v v M B 3.P.P.B r t T P.P.q.9.4.3.%.%.4.5.6.# O . . .           . . . . . O @ # # # 8 : < < < < 1 1 1 1 1 1 1 < < < < < : : : : : : : : <             . # # # & : : : : : : > < < : & r T y.y.E.E.E.E.P.y.v % % % m V m #.3.C N V B = v e.~ R R R R ! R ! R R R R R R R ! r.K.Y.R.T.R.Y.Y.oXT.T.R.R.R.T.oXoXoX&XT.&XoXOX&XR.oX&XR.B.B.R.&X&X&X&X&X&XT.% & & - 4 v &XR.oX",
"<.<.;.;.;.;.:.:.:.:.:.,.,.!.w.V B Y Y E ! ~ ~ _ e.e.e.r.r.r.r.r.r.C.A.H.H.H.H.S.F.G.e.~ ~ e.F.G.}..XXX.X.X.X.Xr.! ~ S..Xe.~ r.}.F.e.e.` ` ~ ! R H G G v B E 6.P.E.E.P.Q - v T P.9.1.#.%.4.5.5.5.5.9.& . . . .   . .       . . . O O @ # # 8 8 : : 1 1 1 1 1 1 1 1 1 1 1 < < < < < : : : : : : : :             . @ # # # & : : : : : < < < r E 7.y.y.E.P.E.E.E.P.y.E % % % m V C N N V N V v 3 v Y R ! ! ! ! ! R ! R ! ! R R ! ` G.Y.Y.R.T.T.T.T.T.oXT.T.oXR.&XoXoX&XoXoXoXT.R.oXoXoXOX&X&XOXOXR.I.D.Y.&X&X&XoX& = = - 4 v &XoXoX",
"<.;.;.;.;.;.;.;.;.;.:.:.,.,.,.Q.&.M B Y E ! ~ ~ e.e.e.e.e.e.e.e.r.C.A.H.H.A.H.S.G.G.}.}.}..X.X.X.X}..X.X.X.X+X+XS.` e.G..XA.e.e.A.r.` ! R H H G G H B T 9.E.E.E.E.E.P.T % t r M V #.#.4.5.5.9.q.9.q.4 . . . . .   .       . . . O O @ # # # # : : < < 1 1 1 1 1 1 1 1 1 < < < < < : : : : : : < <             . + @ @ @ # # : : : > < < i 6.y.y.y.y.P.P.P.P.E.P.y.Q % $ % C #.#.%.V V 3.T E R R R R R R R R ! R R R R ! ! _ e.D.Y.XXoX&X&XoXoX&XoX&XoXoX&X&XoXoXoXT.T.T.Y.R.R.R.R.oXoXoXoXoXoXOX&X&X&XU.B.D.Y.* = & - 4 H %X#X&X",
"<.;.;.;.;.;.;.;.;.;.;.;.:.,.,.,.,.>.V Y Y E ~ ~ ~ ~ _ ` e.e.e.e.e.e.r.H.F.F.G.S.F.G.G.}.}.}.}..X.XG.G.G.G.}..X.X}..XC.C.G.G.S.e._ ~ ! H G G G v B 6.P.E.E.E.E.E.9.T V T % 0 y N T 3.4.5.9.%.V V V V 2 O O .       .       . . . O O @ # # # # : < < 1 1 1 1 1 1 1 1 < < < < < < : : : : > > < < : X           . O @ @ + O @ # & & > < 2 6.9.q.y.y.y.y.P.E.E.E.P.y.6.2 $ % C V V V V T T E Y R R R R R R R ! ! ! ! R ! ~ ` e.r.D.R.OXOXT.T.&XoXOXOX&X&X&X&XoXR.T.R.T.R.T.Y.R.T.R.Y.R.Y.R.R.Y.T.R.oXOX#XOX#X&XG.* * * - 4 Y &X&XOX",
"} <.;.:.:.:.:.;.;.;.;.:.:.:.,.,.,.,.Q.#.M E Y E ! ~ ~ ~ ~ e.e.e.e.e.r.H.H.A.A.S.F.G.G.}.}.}.}.}.}.G.S.F.S.H.S.F.F.S.G._ ` ` ! R H H G G v v B 6.P.E.E.E.E.E.3.n C V N V % 0 y V V %.7.3.V 0.5.5.4.5.v @ O           .     . . O O @ @ @ # # # : < < 1 1 1 1 1 1 1 1 < < < < < < : : : : < < < < &   X X         O O O O @ # # & & > 1 E 9.9.q.y.y.y.y.y.P.E.E.E.P.7.i & % N V V T T E R R R R R R R R ! R ! R ! ! ! ` e.A.D.Y.oXT.oXoXoXT.&XOX&XOX&XoX&XT.R.R.R.R.R.R.R.R.R.R.T.oXoXoXT.R.oXT.oXT.T.oXoXoX#XG.* = = - 4 Y OX=X&X",
";.<.} <.;.;.;.:.;.;.:.:.:.:.:.:.:.,.n.!.w.M M Y Y E E ! ~ e.e.e.e.A.H.H.H.H.H.S.S.G.G.F.G.G.G.G.G.}.A.S.H.r.e.e.e.e.` _ R G G G c u v v 6.y.E.E.E.E.E.y.1.C n e p n C V 0 y y V %.4.V 3.5.%.%.4.4.5.B @ O       . .     . . . O O @ @ @ # # 8 : < 1 1 1 1 1 1 1 1 1 1 1 1 < : < < < < : : < < < u Y c =         . o . . O # # & & > M 7.q.9.9.7.y.q.y.y.y.E.E.P.P.t.G r M V N B E ! ! R R R R R R R R R R R ! ! ` r.M.S.Y.T.oXoXT.T.T.oXoX&X&X&X&XT.T.oXR.T.R.R.T.T.T.R.Y.Y.R.R.R.T.R.R.oXOXoXoXR.R.R.R.T.oXA.* * & - 4 Y D.e.D.",
";.:.<.} <.<.<.;.;.:.;.;.;.:.:.:.:.:.,.,.n.Q.#.x M Y ! ~ ~ e.e.r.C.A.A.A.H.S.S.S.S.S.H.S.S.F.G.S.S.S.S.r.r._ ` ! Y H H G G c u c v Y 6.P.E.E.E.E.E.9.N n n p n e M 7.P.9.q x V #.5.#.N V V T 3.V 3.5.T # .     . . . . . . . . O O O O # # # 8 : < < 1 1 1 1 1 1 1 1 1 1 1 < < < : : < : < < < < M 7.6.G #       . . . O @ @ # : 1 M 6.y.y.9.9.9.q.y.y.y.y.E.E.E.P.t.E M M B Y ! ~ ~ ! ! R R R R R R R R R ! ` e.e.A.G.XX&XoX&XoXoXoXoXoXOXoX&X&XT.oXoXT.T.T.R.T.oXT.T.oXR.R.R.Y.R.R.R.R.R.R.R.oXT.oXR.T.R.T.A.* * & - t ^ &X&XN.",
";.:.:.<.} <.<.;.;.;.;.;.:.:.:.:.:.:.,.,.,.n.!.4.y Y E ~ ~ ~ ` e.e.r.r.C.A.A.S.S.S.S.H.C.A.C.C.C.r.r.r.r.r._ R H G G c u u v M E 8.P.E.E.E.E.E.9.V e p e p p N 4.P.P.P.9.y n M V 3.N V 4.B V M N 3.4.B # .     . . . . . . . O O O O @ @ # # # : : < 1 1 1 1 1 1 1 1 1 1 1 1 < < < : : : < < < < i N n M i @       . . . @ @ & 2 E 7.9.9.t.9.9.9.q.q.y.y.y.P.E.P.P.y.E M H R ! ~ ~ ~ ! R R R R R R R R R ~ ` C.A.K.T.oX&XoXoXoXT.oXoXoXoXT.OXoXoXoXT.R.oXT.T.T.oXR.R.R.T.oXoXoXY.oXoXR.oXoXT.Y.Y.R.R.R.T.R.R.S.& & & - 4 ^ R.B.oX",
";.;.:.:.} } <.<.;.;.;.:.;.:.:.:.:.:.,.,.,.,.n.!.m.#.M G Y ! ~ ~ ` e.r.r.C.A.A.H.A.H.C.r.r.e.` ` e.` _ _ R R H G c u i v Y T t.E.E.E.E.E.t.6.4.C p p n p V 4.9.9.7.9.9.9.x x N V V 3.N V T 9.3.4.3.%.^ .         . . . . . . . O O + @ @ # # # 8 : < 1 1 1 1 1 1 1 1 1 1 < 1 < : < : : > < < < < t M V 3.4.B $   . . . . O & i 2.6.7.7.7.9.9.7.9.7.q.y.y.y.y.P.P.P.y.6.H Y R R R ! R R R R R R R R R ! _ e.e.D.Y.T.T.&XoXoXT.oXT.&XT.T.T.oXoXT.oXOXoXT.T.oXT.oXoXT.R.T.T.oXoXoXR.oXT.oXoXoXoXY.Y.R.R.oXT.oXR.N.* * & - 4 Y I.OXoX",
":.:.:.:.>.;.;.<.<.<.;.;.;.:.:.:.:.:.:.:.,.,.,.,.n.!.w.N M M Y ! ~ ~ e.e.e.r.C.r.e.e.e.` _ ! R H R R H G G c u c v M B 3.P.E.P.P.E.P.6.t % M 1.e e C 3.9.3.V V Q 3.B 3.5.M n N V N 4.T 9.V 5.9.5.%.5.Y         . . .   . . . . O + @ @ @ # @ # : : < 1 1 1 1 1 1 1 1 1 1 < < < 1 < : : > > > : 1 x 4.5.4.4.T - .     o % r M 2.6.6.7.7.7.7.7.7.7.7.q.q.y.y.y.y.P.P.y.6.v Y Y Y R R R R R R Y R R R ~ ` M.B.Y.T.T.T.T.oXoXT.T.R.T.T.T.oXR.oXoXT.oXT.oXR.T.oXT.oXoXoXoXR.oXoXOXoXoXoXOXOXoXoXoXT.R.oXR.T.T.T.R.e.& & = - - ~ OXOXoX",
":.;.:.>.>.;.;.;.:.<.<.;.;.;.;.;.;.:.:.:.,.,.,.,.,.,.n.!.Q.%.p G E ~ ~ _ e.C.e.e.` _ ! R G G G G c F v u u v v M 6.t.E.P.P.P.E.t.Y % % * * p N m %.5.9.V 3.9.9.3.9.9.T 9.B n C V T V 3.V 9.P.4.4.W.9.v   . . . .         . . . O O @ @ @ @ # # : : < 1 1 1 1 1 1 1 1 1 1 < < < < : : < > : > > > M 5.4.3.n w 0 & $ - r x T T 1.2.6.6.7.7.7.7.7.9.7.9.q.y.y.y.y.y.P.y.t.G Y Y H Y Y Y R Y Y Y Y ~ ~ e.B.U.R.oXoXoX&XT.T.T.&XoX&X&XoX&XoX&XoXT.oXoXoXoXoXT.oXT.T.T.T.R.oXoXR.T.oXOXoX#XoXoXoXR.R.R.OXoXT.R.T.T.e.& & & - - ` OXOX&X",
";.;.;.;.;.;.;.;.:.:.;.<.;.<.<.;.:.:.:.:.:.:.:.,.,.,.,.n.!.!.Q.#.M Y E ~ _ ~ _ ! H G G G F u u u t i v v M 6.V.P.P.P.P.P.P.6.t % % * * * 0 y n %.5.4.V 9.4.4.3.V 9.9.Q 9.M y M V 9.3.V V 4.4.q.4.3.9.t     . . .           . O O @ O @ @ @ @ # : : : < 1 1 1 1 1 1 1 1 1 : : : < < : < > > < < < n #.p q q w 0 x t t y y N T T T 1.1.6.7.7.7.7.7.7.7.q.q.q.y.y.y.P.y.y.E Y Y Y Y E ~ ~ ! ! ^ ~ 8.N.D.R.T.T.T.T.T.T.T.T.T.T.R.T.R.T.T.T.T.T.oX&XD.oXOXoXT.OXoXoX&XoXY.R.Y.R.oXoXoXoXoXoXT.R.I.T.T.OXoXoXR.oXoXe.* * & - 2 e.OXOXoX",
";.;.;.;.;.;.;.;.;.:.:.<.<.<.;.:.:.;.:.:.;.:.:.:.,.,.,.,.,.,.!.!.w.M M v 3 3 c F F c u u 4 t i v M M E t.E.E.E.P.P.E.B.Y % X X % % * * * q e n #.5.N 3.N B M N V 5.5.3.9.V y M 3.9.9.q.q.P.9.q.P.q.9.t   . . . . . .       . . O O @ @ @ @ # # : : < < 1 1 1 1 1 1 1 1 1 : : < : : > > : < < < < 0 w w w w M 1.3.t 0 y y M M N V V T 6.6.7.7.7.7.7.7.7.q.q.q.y.y.y.y.y.6.H Y E R R ! ! ~ 8.8.e.D.U.T.T.T.T.R.R.R.U.U.R.T.R.T.T.T.R.R.&XoXT.&X&X&X&XoXOXoXR.oXR.oXoXOXoXR.oXoXR.oXoXoXoXT.oXoXoXoXoXoXOXOXoXOXe.& * & - 2 e.OXOXoX",
"-.-.-.-.-.-.<.;.;.:.:.;.-.;.;.;.;.;.;.:.;.;.:.:.:.:.:.:.:.:.:.,.,.Q.M - 1 2 5 u u 4 4 i v M B M Q 9.E.E.E.E.E.E.t.v X X X X X % % * * * q q j #.C T %.3.M B M V 3.4.0.9.3.y M 3.4.9.4.5.9.P.q.q.9.4.t . O .   .     .         . O @ @ # # # 8 : : < 1 1 1 1 1 1 1 1 1 1 : < : : > : > > > > < > 0 0 w n 3.3.%.3.0 - i y y p M N N N 1.3.7.7.7.7.7.7.7.7.7.7.7.y.y.y.y.6.G R R R Y Y ! ~ M.B.R.T.T.T.T.T.R.R.R.R.R.R.U.R.R.T.T.T.T.R.T.T.oXOXT.&XoXoX&XOXoXoXoXR.oXOXR.oXT.oXR.oXoXoXoXoXoXoXoXoXoXOXOXOXY.S.` * = = - 2 e.OXOXOX",
"-.-.-.-.-.-.;.;.;.:.:.:.:.:.:.;.;.;.;.;.;.;.;.;.;.;.;.;.>.;.>.>.>.>.>.i $ & 2 4 t i v M M M 6.P.P.P.E.E.E.I.~ 2 X X X X X X X % % * * * q q p m #.1.N 3.3.B V V 3.3.9.W.3.t M N 3.4.9.9.q.P.9.3.4.9.Y O @     . . . . . . . . . . O @ @ # # 8 : : : < 1 1 1 1 1 1 1 1 < < : : : > : : > > > : & 0 M V V 3.#.3.Q t - - y y p N N T T 1.1.2.7.7.7.7.3.7.7.7.9.7.9.q.y.y.7.E R R R ! ! e.D.U.R.T.T.T.T.R.R.R.T.#XR.R.R.U.R.U.U.R.R.T.R.R.U.U.T.R.T.oXoXT.&X&X&XoXT.T.OXoXT.&XoXoXoXoXR.oXT.oXoXoXOX&X#XOXN.Y.XXe.* = = - - r.XXOXoX",
"} } } -.-.-.;.;.;.;.;.;.;.;.;.;.;.;.;.;.;.;.<.<.<.<.<.<.-.-.-.} } } $.- 2 t t u i x x B 6.P.P.P.P.P.E.t.E $ X X X X X X X X X % % % * * 0 q e m %.3.3.3.3.3.5.5.V 9.9.P.3.t x 7.P.y.9.q.9.0.9.P.P.9.T @ O         . . . . . . . O O @ @ # # # : : : < < 1 1 1 1 1 1 < < < < < : : : : : > > & 2 3.V 3.3.#.3.T M - & * r y p M N T T V 1.1.7.7.7.7.4.4.7.7.7.7.9.y.y.t.7.~ H ! ^ ^ V.U.R.&X&XT.T.&XT.R.T.&XT.R.R.T.T.U.U.U.U.R.U.R.R.U.R.D.R.R.R.oXY.R.R.oXT.oXT.T.oXOXoXR.R.Y.T.OXOXoXOXoXoX&X&XOXY.D.oXOXOX_ * = = - - r.OXOX&X",
"} } -.-.-.-.-.-.-.-.-.-.<.;.;.;.;.;.;.<.<.-.<.<.-.-.-.} } } =.u.=.=.N B i x i i v 6.6.P.t.P.P.P.I.6.4 X X X X X o o o X X X X % % % * * 0 q q V %.4.M %.5.5.3.3.9.9.9.9.T y x 6.P.q.4.9.P.P.P.9.6.B 2 @ .     .       . . . . O O O O @ # # # : : : < < 1 1 1 1 1 1 < < < < < : : 8 : : & & = 2 V %.4.V N N M n - * - - 0 y p M N T N 1.1.3.7.7.7.7.4.4.3.4.7.9.9.y.t.7.6.E ! e.Y.T.T.&XT.&XT.T.&XT.&X&XT.T.R.R.T.R.T.U.U.U.K.U.U.U.U.U.U.R.R.R.U.D.U.R.R.R.oXT.U.Y.Y.oXoXoXT.OXoXoXoXT.oX&X&XoXD.XX&XOX#XOXe.= = = - - C.XX%XOX",
"} } -.-.-.-.-.-.-.-.-.-.<.<.-.<.<.<.;.<.<.-.} } } } } } u.u.=.$.p y y V 3.Q 7.t.V.9.9.y.P.P.t.Y & o X X X X o o o o o X X X X o % % * * 0 q p C #.C V V 3.V 5.9.9.q.9.9.6.B y V V 7.P.E.P.P.7.T r - < @ . . .           . . O O O O O @ # # # # : < : < 1 1 1 1 1 1 < < > > : > : : > > > & = 2 3.#.V n M n M M * & & ; 0 q y M N N N 1.2.2.7.7.7.7.3.3.4.3.3.7.9.t.t.7.6.6.t.D.B.U.T.&X&X&X&X&X&X&X&X&XT.R.T.R.T.R.R.U.R.U.K.U.D.K.R.K.U.R.R.Y.D.D.R.R.Y.D.R.Y.Y.R.R.oXoXoXoXoXOX&XOXOXoXoXD.D.oXoX#X&XOX&Xe.= * & - - A.%X%XOX",
"} -.-.-.-.-.-.-.-.-.-.-.-.-.-.-.-.-.<.-.} =.} u.} } } u.u.$.y r y x T 9.P.P.y.9.y.y.V.P.6.u o o o X X X X o o o o o X X o o o o $ % % * ; q q C %.%.%.4.4.9.q.9.9.9.7.Q N M T 0.7.E.P.P.7.V M M = .   @ . . . .           . O O O O @ @ # # # # : < < < < 1 < 1 1 < < < > > : : > : < > > & = 2 M M M M x y x x & * - r 0 0 y M M N N 1.1.3.7.7.7.7.3.3.3.2.2.7.7.9.9.6.7.7.V.&X&X&XB.B.T.&X&X&X&XoXT.oXT.T.T.R.T.R.R.U.R.U.U.U.D.K.K.U.U.R.R.T.R.U.Y.U.D.U.U.D.Y.R.R.T.T.R.oXOXoX&XOXoXY.N.R.oXOXOXOXoXXXOX_ = * & - - H.%X%X%X",
"} } } } -.-.-.-.-.-.-.-.-.} -.} } } } } } u.u.u.u.=.=.q 0 y y N 5.E.E.P.9.9.y.y.P.9.Y & $ o o X X o o o o o o o o o o $ $ $ o $ $ % % % * q y C %.%.4.9.9.q.9.9.7.V N n V 9.q.4.V 9.9.4.V V M M o X @ @ . .                 . O @ @ @ @ @ # # # : < < < 1 1 1 < < < < > > < : < < > < > & = = 2 n M M y y n M x r t r r t 0 0 y p N N N 1.3.7.7.7.7.7.7.4.1.1.2.7.7.7.6.7.9.V.&X&X&X&X&XT.B.B.T.&X&X&X#XT.T.T.&XT.R.R.R.R.U.D.U.D.B.B.U.U.R.U.U.K.I.D.B.B.K.D.D.D.U.B.R.R.U.R.R.OXoXOXD.N.oXoXOX&X&X#XOX.XOX_ * & & - - H.%XoXoX",
">.-.} } } -.-.-.-.-.} } } } } } } } } } u.u.u.C a e u.p y 3.m.E.P.9.7.9.9.9.y.6.i * & $ o o $ & & % $ o o o o X $ & = - - * - - * % % % % q q j %.4.q.9.9.9.3.V n V 3.5.q.q.5.#.3.4.9.3.V V T T $ = = # . . . .   .   .   .   . @ @ @ @ @ # # # : : : < < 1 1 < < < < > : : < < < < : > & = - r y M y y y M n t i t r v v i 0 q y p N N 1.3.7.7.7.7.7.7.7.1.1.1.2.7.6.2.6.9.B.&X&X&X&X&X&X&X&XU.M.B.T.&X&XT.T.T.T.T.oXT.R.T.R.U.U.B.B.U.D.U.U.U.R.U.U.U.D.D.D.K.D.K.D.U.U.D.R.R.Y.Y.e.D.Y.oXoX.XoX#XOXOXOXOX~ * & & - - H.OXOX%X",
"-.-.>.>.-.} } } -.} } } } } { } } } u.u.C q * - 0 a } &.E.E.q.7.7.9.y.t.9.T y - & % o & 1 2 2 & & & % % % % & - 2 4 4 r r t t t t t t t t y M 3.9.9.9.9.3.T V N 3.q.m.q.5.#.N V 3.7.3.#.3.V V B , = = & . . . . . .     .   . . . O @ @ @ @ # # : : : : : < < < < < < : : & < < < > > & t M n y x y y n n x y y u v G G v i 0 0 p n N N 1.2.7.7.9.7.7.7.4.1.1.1.1.2.1.1.6.7.B.&X&X&X&X&X&X&X&X&X&XR.B.B.U.T.&X&XT.T.T.T.T.T.R.R.R.R.R.U.U.U.U.R.R.Y.R.U.U.R.U.D.D.U.D.U.U.U.R.K.e.e.D.D.G.G.R.R.R.&X&XoXOX%X~ * & & - - G.XXY.OX",
"-.} -.-.>.-.} } } } } } } { { { u.$.p 0 0 r 0 q V %.=.u.4.4.4.9.y.t.8.T i t - $ @ 5 v v u u 4 2 - = & & = 2 4 r t t t t t i x x i v v x y 3.9.9.9.4.V N N V 7.P.P.m.q.#.#.#.V n V #.V #.V N N B - & = < . . . . .       . . . . . O @ # # @ # # # : : : : > < < < < : : & & & & & & & & v V B M M x n x y i i v H G G G G v t 0 y p M N 1.2.4.7.7.7.7.4.7.3.1.#.V N N T 6.6.B.&X&X&X&X&X&X&X&X&X&X&X&X&XU.V.B.T.&X&X&X&XoXT.T.R.T.Y.R.U.U.R.U.R.T.T.T.T.T.R.U.D.D.D.B.B.U.K.V.8.D.D.D.N.N.D.D.U.R.oXOXOXOX%X~ & & & & = G.XXOXXX",
"-.-.} -.} } } } } } } { { =.u.$.a 0 0 q q V 5.m.m.%.=.u.4.9.9.9.6.E v x 2 $ 1 c G G v v i u t t 2 = - 2 t t t u t i b x x v v B T T M x T 9.9.4.V V 3.7.9.P.P.P.4.C C V #.C p n V #.m V C N N M - - - 1 O O . . . . . .   . .   O O @ @ # # @ # # : : : # : : < < > < > & & & & % $ % & y n M M x M y i t v G G H G v G v v t 0 y y n N V 1.3.7.7.7.9.7.7.7.3.1.1.N N 1.3.3.R.&X&X&XT.T.#X&X&X&XT.T.T.&X&X&XT.B.V.K.&X&X&X&X&XT.T.T.&XR.R.R.U.R.T.T.T.oXoXT.R.U.K.U.U.B.B.8.e.D.B.B.D.B.B.D.D.D.U.D.oXR.oXoXR * & = % $ XX%XXXOX",
"-.-.} } -.} } } { { { u.=.p w q q q q %.m.E.m.4.#.e =.u.4.7.T M v v 2 = u G Y H v u u u i u 2 - 2 t t t t i b i x x x v v Y T 6.8.3.V 6.9.3.V V 3.5.9.P.P.7.M n N p n p n N N n #.V m m M M M M - - - < O O . . . .   .   . . . O @ @ @ # # @ # # : : : & & > > < = = = = = = = = & % % 0 x x x i i i v H H G G G G G G G v v 0 0 y p N V #.1.7.7.7.9.q.q.9.9.7.6.T V 1.3.6.T.oX&XT.R.R.T.T.T.T.R.R.T.T.&XT.T.T.&XU.B.V.B.T.T.&X&X&XR.R.U.U.U.R.oXT.T.T.oXR.U.T.R.U.U.t.^ B.D.D.B.B.B.B.D.N.N.V.B.D.D.G.Y.R.Y * & & % o .X%XXX%X",
"-.-.-.} } } { e $.$.C a 0 0 q q n 4.m.m.w.#.#.%.#.p $.$.%.i i u & 1 c Y Y Y v u u u u t - 2 t t t t t i v v v v x x x E 6.~ 6.6.6.3.3.3.V V 3.5.9.P.P.3.0 % 0 n j e C #.1.N n n V m C m C N M n 0 - - = @ O . . . .       . . . O + @ @ # # # # # # & & & & & 1 2 = = - - - - - - - - - y M x i i u G H H H H G G G G v v v v y 0 q y n N #.1.2.3.7.7.q.q.y.q.9.7.1.T T Q B.T.T.&XT.R.T.T.&XT.T.T.T.R.T.R.U.U.R.T.&X&X&XU.M.M.U.T.T.T.T.U.K.D.U.R.U.Y.U.T.T.T.T.R.U.8.M.R.D.D.B.D.D.B.N.V.t.N.N.N.D.N.D.D.D.v & & = % $ .XOXoXOX",
"} } } } } } u.$.a 0 0 0 q q V q.E.m.4.m V #.3.4.1.p p p N 2 & t G H H v v i r t t r - 2 t t t t u t v b i v b t x T Q 6.~ Q 6.6.6.T V V 3.q.P.m.9.T - * * * ; e V V V V N N N M N m C C n M n M 0 - 0 x 2 @ @ @ @ O .     . O O O O O @ # # # # # & & 2 u H ~ ~ G = - - - - = = 2 2 r x x i i v G H G H H G G G G G v v v v v i 0 0 y M M N #.1.3.7.7.7.9.t.q.q.7.1.T V Q R.oXT.&XT.T.T.T.T.T.&XT.T.R.R.T.T.U.R.R.T.T.T.&XoXR.B.8.M.R.T.T.U.D.K.D.D.K.U.U.R.R.U.8.6.U.R.U.D.D.U.Y.D.D.N.N.V.N.N.N.N.D.N.N.N.v & & = % $ G.J.Y.OX",
"} } } } } =.p w w w w y 3.m.E.w.%.#.%.3.3.4.3.B M r p a p t G G v u t u t 2 - - - 2 t t t t t u i i i v v i v T Q 6.6.Q 6.6.6.3.M N 3.5.m.q.0.M $ % * * * * * N #.V V V C V V n n C C C n n n n t n V T i 2 1 1 2 2 4 7 2 > & # & & & & 2 2 i v E T 7.y.t.y.y.t.v = - - - - = - r t y y i v G G G G G G G G G G G G v v v v M M 0 0 q p M N V 1.1.3.3.7.7.7.9.9.3.T V M t.T.T.T.T.T.R.T.T.#XR.R.U.T.R.T.&XT.R.R.U.U.U.R.R.T.T.oXoXoXV.M.U.R.R.D.D.D.D.B.U.R.K.^ D.T.T.R.U.U.T.U.Y.D.U.N.D.V.V.N.N.D.N.N.D.D.v & * = % $ A.D.D.G.",
"} } =.=.e a 0 q q N w.m.w.%.#.#.%.%.4.4.T M v i 2 o p $.C t r r 2 2 2 r - & - - 2 r t t t i i i v v b v Y Q 6.6.Q 6.Q 6.6.Q T 3.5.P.m.P.3.t X X o % % * * * * M V V M C C N N n n n C n n n q n T V M y r 2 2 r r u S E E Q T ~ 6.6.2.2.6.6.9.q.y.y.y.P.y.E.P.y.v - - = 2 t t u i i t v G G G G G G G G G G G G G v v v v x M p y 0 0 y p N V V 1.2.1.3.3.3.3.3.T N M Q R.oX&XoXT.R.T.T.T.R.T.R.oXT.R.U.U.R.T.T.R.U.U.B.U.R.U.R.&X&X&XR.B.8.t.U.U.U.D.D.B.8.8.R.T.R.R.T.R.R.U.R.U.D.D.N.D.N.N.N.N.t.N.t.D.D.v & * = & & D.D.S.e.",
"u.e q 0 0 w p 4.m.m.m.%.#.#.%.4.4.%.M n i t & $ - t p { p * * * - - - - - r 2 2 2 r t t t i i t t x Y Q 6.6.6.Q 6.6.3.3.V 3.q.m.m.q.T 2 X X X X $ % % * * * * n C C C n C n M M q n n n y C 3.3.N x q t i r r r r u i E T 2.6.7.7.6.7.7.7.7.q.q.q.y.P.P.P.P.P.y.u - - r t i x v v G G G G G G G G G G G G G G G G G G G Y M M y y 0 0 y p n N V 1.1.2.3.1.1.1.V n n B B.T.T.T.T.T.T.R.U.T.&XR.T.&XT.R.R.R.T.T.R.R.U.V.B.V.U.U.U.T.&X&XT.R.U.R.M.8.8.B.V.Q D.U.T.T.T.R.oX&XR.R.R.U.R.T.D.D.N.N.N.e.N.N.N.N.D.c = = = = & D.S.D.! ",
"a 0 w q V w.m.m.5.%.%.%.%.4.4.V n n M M o & - - & - ; { $.& % % & - - - 2 t 2 2 2 r t t t t t i E ~ Q Q Q 6.6.9.3.T V 7.P.m.m.9.E $ X X X X X X o % % % * * * y C V C n C n M n q j p V 3.3.N y q M B Q T u r r r r i E T 2.6.7.7.7.7.7.7.9.q.q.q.y.y.P.P.P.P.t.t t t i M M M H H G G G G G H G G G v G G G G G G G Y ` e.T y y y q 0 0 p n N N V 1.1.1.T V V M n n t.R.T.T.T.R.T.R.R.T.T.&XT.T.#XR.T.T.T.R.R.R.U.U.B.D.V.B.B.U.R.T.T.T.oXT.R.R.R.D.Y v V.T.U.U.T.&XT.R.T.T.T.R.T.Y.R.R.D.D.N.N.N.N.N.N.D.D.u * = = & & S.N.D.u ",
"0 q %.m.m.w.4.#.#.%.4.4.%.C j C C C n M & & & & % % % e $.r * , - - - - 2 t 2 2 r r t t t v M T Q T T 6.6.6.3.V 3.9.P.m.P.6.v X X X X o o X X X o % % % * * * y V 3.C C C n q t y V 4.%.V y y N 3.3.3.3.3.i u r r i i E T 2.2.7.7.7.6.7.7.7.7.q.q.y.y.y.P.P.y.t.t x M M Y R E Y H G G G G G G v G G G G G G G G Y ~ e.D.e.M y q q y q y p n n N V V 1.V V N N M M T R.R.T.T.T.T.T.U.U.T.&X&X&XT.R.R.T.R.T.R.U.R.U.D.U.B.B.B.V.B.K.R.T.T.T.T.R.R.R.^ N.Y.N.8.t.D.Y.T.oXT.T.T.R.R.R.D.D.B.D.D.D.D.N.N.B.D.D.D.t = = = & = D.S.M.2 ",
"5.m.m.5.#.%.4.4.4.4.#.j e C C C n n C t % $ $ $ $ % % q $.2 - - - - - 2 2 4 2 t t t u v T T T T Q 6.6.6.Q V V 9.P.m.P.6.u X X X o o o o o X X X o % % % * * * y N 3.m C e q w 0 M %.C q y M 3.3.3.4.3.B t r u t r i i E T 2.2.7.7.9.7.7.7.7.7.q.q.y.y.y.y.P.y.7.x M M E R R R Y Y H H G G v c G G G G v G G E ~ e.D.R.Y.B M y 0 0 q y p p p n N V V V V V N B M M 8.R.T.R.R.R.T.U.R.T.R.T.oXT.T.#XT.T.R.T.T.T.T.R.R.U.U.B.B.B.N.D.K.R.T.T.oXT.N.e.oXT.T.R.U.U.8.8.N.R.oXT.R.U.U.Y.D.D.D.D.I.B.N.N.N.N.D.D.K.4 = = = & - J.J.~ 2 ",
"q.&.#.%.4.4.4.3.C e e j m C C j j C C - % $ $ % % % % 0 $.r - - - 2 2 r r 2 t r t v E E T T T 6.8.6.T B 3.9.P.P.q.T - X X X o o o o X X X X o $ $ % % % % * * r T 3.C n q w 0 M B q y n N #.3.3.%.n - * - 2 u t t i i G E 1.2.6.9.9.9.7.7.7.7.q.y.y.y.y.y.y.y.6.Y Y Y Y R Y R Y Y H G H G G G G G G G G G Q e.D.R.oX&Xt.n n p q 0 q y y p n M N V V V V V N B M T U.R.T.T.&XT.R.R.R.R.R.T.T.oXT.oXR.R.R.T.T.T.oXR.R.R.U.D.D.D.D.D.D.D.U.U.B.8.R.oXT.&XT.U.U.B.U.U.V.8.t.K.T.U.D.D.D.D.B.D.B.N.N.N.A.D.D.N.J.4 - = = & 2 J.J.H v ",
"m %.%.4.4.V n e j j C C j e l m #.#.V 0 % % $ % & * * - $.y 2 2 r r r t r r i Y E E E E T 6.6.T T M x 0 7.P.9.Y $ X X X o o o o o o o o o $ $ % $ % % % % % % - T 3.n q 0 M Q 3.M n V C V 3.V y * * * * - 2 u u t t i i E T 6.7.9.7.7.7.7.7.7.y.y.y.y.y.y.P.y.Q Y Y Y Y R R R E Y Y H G G G G G H G H ~ e.D.R.T.OXoXR.B p y y y y y q y p n M N V V V V T V B M 6.R.T.T.T.T.T.&XR.T.R.R.T.T.T.R.T.T.T.R.R.T.T.T.T.R.U.U.U.U.D.D.D.D.B.B.8.t.R.R.R.R.T.R.T.R.U.U.D.B.D.U.e.8.e.N.D.D.D.B.D.D.N.N.D.D.D.D.D.G.- = = = & t J.A.2 ` ",
"%.%.%.m e e j C C j j j C m #.#.$.#.#.t % % = - - - - - $.N 2 r r t t r i H E E T T T 6.6.T B T 3.0.i % t t o o o $ o o o o o o o o o & - - = & & % $ % % % % * M M x V 3.6.6.M 0 x n V M y * * * * * - i i u u t t i i E T 2.7.7.7.7.7.7.7.7.y.y.y.y.y.y.y.y.E E Y Y Y Y Y R Y R R H H G G G G H ! e.D.R.R.oXoXoXoXe.n p y y y y p y p p M M N N N N V V V B M U.T.T.T.T.T.T.T.T.oXT.R.R.T.#XT.T.T.R.U.R.R.R.R.U.R.R.R.U.D.D.U.D.D.e.8.D.U.U.R.R.R.D.R.T.T.U.R.U.D.D.D.B.D.D.8.8.e.B.D.D.U.D.B.N.N.S.D.D.J.- = = = & t M.v 2 {.",
"V C j j j e j j j j C $.$.$.%.$.m %.#.x = - - - - - - - e u.0 r r r t v E T T T ~ 6.6.T B V 9.9.5.3.- . . . o $ % % $ o o o o $ & 4 t t t r 2 2 2 2 & * - - * % V 3.9.9.6.T x M 3.V y 0 * * * * * - M T T v t u u t u i M T 1.2.7.7.7.7.7.7.7.q.y.y.y.y.y.y.t.Y Y Y Y H Y Y R R Y R R H H H H E e.B.R.R.T.T.&XT.T.R.Q p p y y y p p p n M M N N N V N V V B M Q T.T.T.T.T.R.T.&XT.T.T.T.R.T.T.R.T.T.T.R.U.U.U.U.U.U.R.R.R.R.U.R.U.8.M.U.B.U.D.U.U.R.K.U.U.R.R.U.D.B.N.V.V.V.B.V.D.e.8.8.N.D.Y.D.D.N.S.A.D.D.- & & & = - b u u |.",
"p j C j j j j C m #.$.m $.$.%.#.%.%.%.M - - - - - 2 - - e u.y r t u v H E T ~ 8.6.T B Q 6.9.9.7.M % % & % $ $ % % % o o & % 2 c v i t r 4 r r t t - - t v v Q 8.y.y.9.3.M M T 3.9.V % % * * * - M M n p M t r t t r t i i E T 1.6.7.7.7.3.3.7.7.y.y.y.y.y.y.7.G H Y E Y Y Y Y Y E H Y R Y ! e.N.U.R.R.R.R.R.U.R.R.U.M p p y y y p p n N N N V N V N N N N N n 8.oXR.T.U.R.U.R.R.T.T.T.T.R.oX&XoXT.T.U.U.U.R.U.U.U.U.R.R.U.U.K.V.8.Y.R.R.U.K.U.B.B.D.D.R.U.D.Y.D.D.B.B.N.D.D.D.N.D.D.D.A.e.~ e.S.D.S.B.S.D.A.= & & & & - b 2 ! [.",
"j C l j C C #.m m m C C $.$.%.%.%.%.#.B - - - - - - - - e =.N v H v v E 6.8.6.V Q 6.9.9.9.3.t % & 4 - - & $ o $ o o & = - c v t r - - - - 2 t 4 = 2 t v T 8.9.t.t.9.1.3.3.3.4.7.3.x % % * - y T n q q M E u r r t r t i i N T 1.2.2.7.2.2.2.7.7.y.y.y.y.y.t.6.G Y Y H Y H Y Y Y Y E Y Y ~ M.B.R.oXR.oXR.U.T.R.R.oXV.y y y y y p p n N N N V V V V N N N N B x D.&XT.T.T.T.T.T.T.T.T.R.T.oXT.T.T.R.R.R.U.R.R.R.R.U.T.oXT.R.B.8.N.U.R.T.R.R.U.U.D.N.D.D.I.I.B.D.D.U.B.B.B.N.N.V.N.B.V.D.D.D.J.M.Y ! e.S.J.D.D.& & & & & - B = [._ ",
"j j C C m m $.m m m m #.$.$.$.%.%.%.%.B - 2 2 2 2 - - 2 0 u.$.E Y M T 6.T N 3.4.7.9.9.T t % = i B E y - $ o X # = - 2 t i t 2 4 - - r r r t 2 = t i T 8.y.y.P.9.3.7.9.9.0.%.%.M y y % - n n N n V N V M T i r r r r t i i M T 1.T 2.7.2.1.2.7.7.y.y.y.y.y.7.T G E Y Y Y H Y Y Y Y R ^ e.B.R.T.&XT.T.R.R.U.R.T.oXOX8.y y y y y p n M N N V V V V V N M B B M M oX&XoXoX#XT.T.R.T.T.T.T.T.R.R.T.R.R.oXT.R.T.R.T.oXR.T.oXR.t.8.R.T.R.T.R.U.U.U.D.D.I.D.D.B.D.D.D.N.V.N.N.D.D.N.B.B.D.N.D.D.D.Y.D.D.B.N.e.e.N.S.% & & & o & t 4 |.F ",
"e e m m m m $.%.$.#.m m m $.$.#.#.#.m V - - - - - - t i y p $.1.Q Q B V 3.5.9.9.8.Y = & 2 t Y E T x r % o & 2 - - t u i t 2 2 2 t u r - & * - y T 9.y.P.t.9.3.7.q.9.0.3.V q y M B y 0 M n n V V p y n n M i r r r r t t i p N N T 2.1.1.1.2.7.7.q.y.y.y.y.7.T u v H R Y Y Y Y ! ~ e.V.B.R.T.T.oXT.T.T.T.#XT.T.#XT.T y y y y y p n N N M V V V V V N N V M M ^ T.T.T.R.R.U.U.U.U.R.T.R.U.U.T.R.T.T.&X&X&XoXU.T.T.R.U.B.8.D.R.T.T.U.T.U.U.U.R.D.D.U.I.D.B.D.D.Y.N.N.V.N.D.V.N.N.N.N.N.D.N.D.D.D.D.D.S.G.G.e.^ % & & & o o 2 R Z.c ",
"e e #.C C m m m $.m C m $.#.$.$.$.$.m V r - - - - r i M M p $.$.V B 8.9.9.9.6.Y - & 2 G E Q Q B t % $ = 2 - t i t r 2 - - r t t t - - - t x T 9.9.y.y.8.%.7.9.3.5.V V n y n M B M x x 1.N 0 x n n M y y i r r r t r t r y p M N N N N 1.1.1.2.7.q.y.y.y.y.6.E G G v v Y Y R ~ 8.B.U.oXoXoX&XoXT.oXT.T.T.T.T.#X#XT.M y y y y p p M N N N V T V V V N V M M n M.oXT.R.R.T.U.U.U.U.U.U.U.T.U.R.R.T.&XoXoXT.oXR.oXT.R.8.e.T.T.T.R.T.R.R.U.B.U.U.D.D.D.D.D.B.D.D.D.N.D.D.D.D.D.B.N.N.N.N.N.N.D.N.D.D.S.S.S.D.G.A.% & % & o & 2 r.` # ",
"e e $.$.m m m $.#.m $.$.$.#.#.m $.#.%.V y t t x B M B V T V { u.4.9.9.9.3.v - & t v E ~ ~ T x & % 2 2 2 t t t 4 - ; - r t t t - - - t M 3.9.9.9.9.3.3.4.m.9.5.3.C y q N V V B T n V n #.n y 0 0 0 0 y i r r r r t u t r y y p p M M N 1.1.1.1.7.7.y.y.y.9.6.E H H Y G v Y e.B.R.T.oXoXoX&X&XT.T.&XT.oXT.&X#XOX#XD.y y y y y y p M N V V 1.1.T V N N V M n M U.oXT.R.U.U.U.U.U.R.R.T.R.U.R.R.R.T.T.oXoXT.T.T.T.V.e.U.T.R.U.R.R.R.U.U.K.D.U.D.D.Y.U.Y.U.Y.I.N.D.D.D.D.D.D.B.N.N.N.A.D.D.N.N.D.D.D.B.S.S.S.D.M.% & % & o 2 4 {.H . ",
"e e $.$.C m m C $.m m $.$.m m $.%.%.3.V y B Q 3.6.6.T N n p $.u.w.9.T t % & 2 v T Q T Y t $ & 2 2 - i u t r - * - 2 t t t - - - t B 4.5.9.9.9.4.4.5.q.P.9.9.3.y n M n V T V B V 3.T x N N x 0 0 y y i t t t r r r u t t t y y p p p N V 1.1.2.4.7.q.y.y.7.6.Y G Y Y ~ 8.t.t.B.oX&X&XT.T.&X&XT.oX&X&X&XT.&X&X&X&XN.y y y y y p p M N N V T 1.T V N N M M n T &XT.T.U.D.U.R.R.U.T.R.T.R.R.T.U.R.R.R.R.oXT.R.U.8.M.R.R.U.R.T.U.D.U.D.U.U.R.D.U.D.D.D.Y.D.R.Y.N.N.D.D.D.D.D.N.A.D.D.D.D.D.D.Y.D.N.N.D.D.N.N.S.e.& & & $   4 H [.u o ",
"9 9 $.m j C m C m j C m m C m $.#.%.%.3.3.3.0.7.3.B n N C #.u.u.4.- % = t v Y Y E v 2 o & - - - - t u r - ; - - t t r - - - t V 4.7.9.9.4.%.%.4.9.5.9.5.%.M n V 3.3.q N V N V 3.3.V q n M n 0 0 0 t r i r t r r r u t r r r y y p p N V #.1.1.3.7.9.q.q.7.6.H Y ~ e.B.R.T.&XR.B.B.T.oX&X&X&X&X&X&X&XoXoXT.&X&X&Xe.y q y y y p n n N V V T 1.1.V N C n M n 8.&XR.R.R.T.T.T.U.R.U.U.D.U.R.R.T.T.T.T.R.R.R.V.8.U.R.D.U.T.R.U.R.K.K.R.Y.U.T.D.Y.D.B.Y.Y.D.R.Y.D.D.N.D.Y.D.D.D.D.D.D.D.D.N.Y.I.Y.D.S.S.D.S.S.A.A.t & & # = 4 ` ` = = ",
"9 9 C m m C $.C m C m C m C C #.#.%.4.3.3.3.3.C n 3.9.4.V n p C #.- t v Y B x 4 & o & - 2 t 2 - r - - * ; - - t r - - - t B 3.3.9.9.4.%.%.4.5.q.9.9.3.C N V 3.3.3.Q N V V V V 3.T B q q q p y 0 0 - r t r r r r r i r 2 r t y y y p N V #.1.1.2.7.7.9.t.6.6.E e.N.R.T.T.oXT.&X&XR.B.V.T.&X&X&X&X&X&XoX&X&X&X&X&X6.q q q q q p n N V V V V 1.T N N M n x x D.T.T.T.oXU.R.T.R.U.R.R.U.U.U.R.U.T.T.oXR.U.8.M.U.Y.Y.T.U.U.R.U.U.B.D.Y.R.D.K.Y.Y.U.R.U.Y.I.Y.Y.R.Y.Y.D.Y.Y.D.D.I.Y.D.D.D.N.N.D.D.D.B.N.D.A.A.S.K.J.r.R 1 5 2 {.! = - ",
"9 9 C $.m $.m C m C m C #.#.%.#.%.%.%.3.#.M M %.5.9.9.T - % 0 p n M M B v 2 $ . & = - 4 u - - - & & - - 4 r 0 - * - i B 3.4.9.7.3.%.%.4.5.5.w.9.6.i % N #.%.3.V %.3.V %.%.V V 3.3.B t q n p y t 0 r i i t r t r u i u , r t y y p M N 1.1.1.2.2.3.7.7.9.2.6.e.I.R.oXT.T.T.oXoXT.&X&X&XB.V.T.&X&X&X&XoX&X&X&X&X&XQ y q q q y p M N N V T T T T N M M x x Q &XT.T.T.T.T.T.R.R.R.R.T.R.U.U.R.R.R.R.U.e.e.K.T.T.D.Y.U.R.T.T.U.D.D.D.Y.T.R.Y.U.R.U.D.D.Y.Y.U.Y.R.R.R.D.Y.I.Y.Y.D.D.Y.D.A.A.D.D.D.D.S.S.D.A.N.G.Y.S.N.J.G.R v {.H 2 - ",
"9 9 C m m m m n n C #.#.#.%.%.%.#.%.m C C 4.5.5.5.T 2 % & 2 y N C V x 2 o $ % & - t t 2 - - = - - - - 2 - - * ; y V T 3.4.3.#.V #.5.9.9.4.5.V t * % % M 3.V %.3.V T V V V V M V T x 0 y y y t 0 i v v i r t t t u i i - 2 r y p p N N 1.1.2.2.2.3.3.3.3.6.8.U.T.T.T.T.R.R.#XT.T.&X&X&X&XoXB.M.U.&X&X&X&X&X&X&XoXB q q q q y p n N N V 1.T T V N B M x x 8.T.&XoXoXR.#XT.T.T.R.R.T.T.T.oX&XT.R.D.8.D.R.T.Y.R.oXY.R.D.Y.Y.T.T.U.Y.D.R.T.Y.R.R.T.R.Y.Y.Y.D.Y.oXoXR.G.Y.G.Y.D.G.G.D.D.A.N.D.A.D.D.G.N.N.M.N.A.M.N.S.S.G.G _ r.H G 4 ",
"9 q m m m m m n m V #.#.#.#.%.%.C n #.4.4.5.3.b & % - r i i n n p N X $ & & - 2 r 2 - - - - - - r r 2 - ; - x V %.3.4.4.%.m #.4.5.5.5.5.V r % * * - 0 M V 4.3.%.V N V n n V x V M M 0 q t 0 t x i i t t u u u r t i u 2 , r p p M N N 1.1.2.3.2.3.3.3.1.7.t.R.T.U.T.R.R.T.&XT.T.&XT.&X&X&X&X&XB.V.R.&X&X&X&X&X&Xx 0 q q y y p p n N V T T V V N B M x v U.T.&XT.&XT.T.R.T.R.T.T.R.R.R.U.R.T.N.M.T.R.R.R.R.Y.Y.Y.Y.D.B.U.Y.R.I.R.D.R.Y.U.Y.R.R.D.I.D.D.D.R.oXY.XXY.D.D.D.D.D.D.G.Y.D.N.N.N.D.D.D.D.S.A.M.M.M.N.N.M.A.2 Z._ ` ! H ",
"w q j m C C m #.V m m m #.m n C 3.4.%.4.T i $ & - t b v v t - p a $.* & = t 2 - - 2 r 2 2 2 r r r 2 & - M Q 3.3.3.%.V m %.4.5.5.5.9.B = o % % * * ; n C V 3.%.n N 3.M n n y x x M B - - r t i i i u v v i u t r r i u 2 2 t p p p M N 1.1.7.6.2.2.3.3.3.9.B.U.T.T.R.R.R.T.T.T.&XT.T.T.&X&X&X&X#XT.B.B.T.&X&X&X&Xv 0 q q y y p p M N N V V V V N M M y Q &X&X&XT.&XR.R.U.R.R.U.T.T.R.R.R.U.e.D.T.OXoXR.Y.D.R.Y.R.R.R.R.R.D.R.T.Y.Y.Y.Y.Y.D.D.R.U.D.U.D.Y.D.G.R.Y.oXoXY.D.G.D.D.G.D.D.A.D.S.N.S.D.S.D.D.N.e.N.S.D.S.` c [._ ` _ ! ",
"w q e C C m #.V C n C n p C #.%.4.4.V r o & 4 i v v v y 2 o o e a $.p t r 2 t t t t t r r r r r 2 - v 3.4.3.3.#.C n #.4.5.5.5.3.B & X X o % % * ; ; n V V 3.3.%.N n M T n V M t B M - 0 i t 2 u u c G v u u r r r t u 2 , t p p p p N 1.7.7.7.2.1.1.1.7.8.I.R.R.R.U.R.I.R.T.R.T.T.R.R.T.T.T.T.&XoX&X&XD.V.T.&XoXM 0 q q q y p p N N N V V V N N N n y V.R.#X&X&XT.T.R.T.R.T.R.R.R.R.R.e.t.R.oXT.T.OXR.R.Y.R.Y.R.Y.R.R.Y.Y.T.R.D.U.D.R.R.T.R.R.U.Y.B.Y.D.D.D.D.R.oXR.R.R.G.D.G.D.N.D.D.D.J.D.D.D.D.M.A.S.A.S.D.D.J.Y ! Z.~ ` ` _ ",
"w w e C C C C C C n n N %.4.%.%.N p y - t b v M v t - X $ % % e p $.N t t i u u t r t t t t 2 - v Q 3.3.3.V C j m #.%.%.4.3.M & X X . X o % % * * ; n C m %.V %.M 3.n V N M t x M M r - t t c G c u v v i u r r r r r , , r M M p p N 2.7.9.7.2.1.1.3.9.t.R.R.oXR.R.T.T.T.R.U.T.T.T.T.T.oXT.T.T.T.T.&X&X#XY.B.D.v 0 0 q y y p n M N V V N N N N M x M oX&XR.T.T.U.T.T.T.T.R.U.R.T.B.8.U.T.R.oXoXR.R.T.R.Y.R.R.Y.R.R.D.D.U.Y.Y.D.Y.R.R.R.Y.Y.T.T.R.R.Y.G.G.I.I.Y.Y.R.Y.J.D.D.D.G.G.D.D.A.N.N.S.S.S.N.S.S.A.D.A.N.S.c r.` C.^ ` ~ ",
"0 p n C V #.m n n #.4.4.%.#.j e e p y i v v v u % X $ & & & - p C p #.i i u t t 2 r 2 2 2 r B Q 3.3.3.V C C m %.#.#.%.%.M $ X X o $ o . X % % * * * n C m %.M T M n M V B y M M M v t 2 u G c v u u v i u t r r r r r , 2 t M M M N 1.7.7.9.7.4.3.1.7.7.B.R.T.T.R.R.T.R.T.T.&XT.T.T.T.T.T.T.T.T.T.T.T.oX&X#X#XB.y 0 0 q y p p n N N V N N M n M M n 6.&X&X&XT.T.T.T.R.T.R.T.R.U.8.8.U.oX#X&XR.oXoXU.Y.R.R.Y.Y.Y.Y.R.R.Y.D.Y.R.T.Y.R.R.oX&XR.R.R.U.D.Y.G.G.R.Y.G.D.R.D.Y.J.D.J.J.G.Y.Y.A.S.S.S.A.A.S.S.N.N.S.S.S.e.u Z.` A.e.^ ~ ",
"n C m #.V n C #.%.4.%.#.j 9 9 e e q y v v 4 $ X % & & 2 2 t r t t t i i u t r 2 2 - - r M 6.3.3.3.N C m %.%.#.#.%.%.x o X o $ $ o o o o o % % % * * n C m %.V N M n x y M B y B M v u c u c c v c v i i r r 2 r r r r 2 r i M M M T 2.7.7.9.7.7.7.3.9.6.U.R.R.R.R.R.R.T.T.&X&XT.T.T.T.T.T.R.T.T.oXoXT.oX&X#X&XOXM 0 0 0 y p n n N N V N N M n N M x I.#XT.&XT.T.&XT.R.R.R.T.N.8.D.D.R.U.T.T.R.R.R.R.D.D.Y.Y.R.D.U.Y.U.U.D.N.D.U.Y.Y.D.D.D.D.U.Y.Y.B.Y.Y.D.Y.Y.Y.Y.Y.R.J.Y.D.G.G.Y.R.Y.D.G.S.A.A.N.S.A.N.N.D.G.G.^ R Z.` N.M.~ ~ ",
"N m n C #.4.4.7.4.#.e 9 e e 9 e q p y 2 X o % & - 2 2 2 t u u t t t t t t r 2 - - i E 6.7.7.3.V C V %.4.%.V V %.x o X $ & & & & $ $ $ % $ % % % % * q C m m %.V V B N V M y Y M M i u u c c v v v c i i t r 2 r r r r , r i M M N 1.2.7.9.9.7.9.9.7.7.V.U.U.U.U.R.R.R.R.U.R.T.&X&XT.R.T.T.T.R.R.T.T.T.T.T.oXoXoXM 0 0 0 y y p M M M N N N n M N M Q &XoXT.&XT.&X&XT.oXT.D.8.V.T.T.R.T.T.R.U.T.I.R.R.R.R.R.Y.Y.D.D.U.Y.Y.R.R.R.T.D.D.D.D.B.Y.R.Y.T.D.Y.Y.D.Y.R.Y.D.R.Y.Y.Y.S.S.N.G..XXXJ.J.J.S.D.S.S.N.N.N.A.N.D.H ` ` C.C.e.~ H ",
"C C 3.5.5.4.4.V e e e 9 e 9 e n n n y + % & & 2 t 2 2 t t t t t r t r t t t r t T 6.6.9.7.T V V 3.3.4.%.#.T v % X $ & = = = = & $ % % % % % % % % * w C C %.3.3.Q V M x M Y Y v v v c c c c v v v v i i u r 2 r r r r 2 r i M N T 2.1.2.7.9.7.7.4.7.6.U.U.R.R.U.R.T.T.T.R.R.R.R.T.T.U.U.U.U.R.R.U.R.T.oXoXoXOXoXM 0 q q y p p N N M N N N M N M M D.&XT.T.R.T.T.&XoXR.N.8.D.R.T.R.U.R.T.R.R.Y.R.D.R.R.Y.Y.D.D.U.Y.D.D.U.U.R.Y.R.U.Y.Y.Y.I.U.U.I.R.D.Y.R.R.R..XI.D.oXK.J.oX.XA.S.G.G.Y..XY.G.J.S.D.S.N.N.N.S.S.M.v r._ G.A.S.M.c ",
"4.4.5.9.3.y w e e e e 9 j j p p e n n - - - 2 t r r t t t t t t t t t t r x V 6.7.6.6.3.V V 3.0.3.%.%.V x $ X $ % & = = & = & & % % & % % % % % % % q q e %.3.Q x x T E Y G v v G G v G v c c v v v i i t r 2 2 r r r r r i M N T T T 1.7.7.7.3.3.6.8.R.U.R.U.U.U.U.R.R.T.R.R.R.U.U.U.T.R.T.R.T.R.R.R.#XoXoXOXoXB 0 q q q y p n M M M M M M M M T T.oXT.T.R.T.oXR.B.^ B.R.R.T.T.R.T.T.R.R.T.R.Y.U.U.Y.I.D.D.B.Y.D.Y.D.U.Y.Y.U.R.D.Y.Y.Y.Y.N.D.D.R.Y.R.R.D.Y.Y.Y.Y.Y.Y.Y.G.J.J.S.A.G.J.J..XY.Y.Y.J.D.N.N.M.N.S.e.H r.` S.A.S.N.! ",
"5.9.V t o % ; e e e e j C C e e q q n t r t t t r t t t t t t t t t t M 6.7.9.9.7.T N 3.7.4.3.%.%.V t o . $ & = - = = = & % % & % % * * * % % % % % 0 q n V N M T 6.Y H G G G G G H G G G G G G G v i u r r r 2 r u r r r i M M N N T 1.7.7.3.3.3.Q I.T.R.R.U.U.U.R.T.U.R.U.R.R.U.U.R.R.R.R.R.U.R.R.R.T.T.oX#XR.M 0 0 q q y p n n N M M M N M M V.oXT.T.R.T.#XT.t.t.T.T.oXR.U.T.T.R.R.T.U.U.U.D.D.D.U.D.R.D.D.R.D.D.D.U.D.D.Y.Y.Y.Y.R.R.Y.D.D.Y.Y.Y.oXR.Y.D.G.Y.XXD.S.Y.Y.J.J.Y.D.Y.Y..XY..XY..XXXD.S.S.S.A.S.! _ ` e.A.C.M.S.e.",
"V - $ o $ % * e j j C p j e q n N e n x t t t t t t t t r r t t t x 6.7.7.9.3.V V 3.9.0.4.3.3.B t $ $ $ = = - - - = = = & % & * & - - - - - * * * - 0 q n V 3.6.Q H G Y Y G G H G H G G H H G Y H H u u r r r r u u r r r i M M N N T 1.7.7.3.T T 6.R.R.R.T.R.R.B.U.R.U.U.U.U.R.T.T.T.R.R.R.U.U.U.R.R.R.T.T.T.U.x 0 0 q y y p n n N N M M M M T T.&XoXT.T.T.U.e.T.T.T.T.T.R.R.T.Y.D.U.R.Y.I.R.I.D.Y.Y.I.R.D.D.D.D.Y.U.Y.D.Y.R.Y.R.Y.D.A.D.G.R.Y.oXoXY.Y.D.G.G..XXXY.Y.J.XX.X.XJ.J.J.Y.oX.XY.Y.Y.Y.J.J.S.N.S.S.H e._ M.S.S.S.M.e.",
"o o o o % % 0 j n C j e q 9 n V C q e x t t t r r r r r 2 r i M T 3.3.7.7.1.V 3.9.9.7.3.6.M 2 & & 1 2 2 2 - - - = - - & % - - - - - - - ; * - 0 y M M 3.9.9.6.Y Y R R R Y Y G H H G Y Y Y H H Y H H r t r r r r u u r r r t M N N N T 1.6.3.T V T U.R.R.R.R.T.R.U.U.U.B.D.U.U.R.R.oXR.R.R.U.U.R.U.U.U.T.T.R.R.D.y 0 0 q y p p p n M N N n n n T T.&X&XoXT.8.D.&X&XT.T.T.R.R.U.B.D.U.D.U.D.I.U.D.Y.D.U.R.Y.Y.D.D.D.D.U.Y.R.R.R.R.R.oXR.Y.R.D.Y.R.D..XoXY.R.R.Y.R.Y.J.J.D.S.Y.Y.J.Y.J.Y.Y.XXXXXX.XY.XXJ.S.G.XXN.Y r.` S.A.M.e.~ ! ",
"o o o % % o ; j C j 9 9 e q j n q w y x t t t t r r 2 2 t T 3.3.3.3.V V V 3.4.4.7.3.6.B = = 1 2 u u 4 2 - - - - - - - - - - - - - - - - - - 0 y M B 8.8.6.Q Y E E E R Y H H G H H G H H H Y R Y H H r r r r r t t t r r 2 r M N M N N T 1.T N B 8.T.T.oXR.U.U.U.U.B.B.B.U.U.U.R.R.R.R.T.T.R.U.U.R.U.U.R.R.R.T.B.y 0 0 q y p p p p n N M M M n I.e.8.R.V.8.&X&X&XT.oXT.T.oXT.U.U.D.R.D.D.R.R.U.U.U.R.Y.Y.Y.Y.D.D.D.D.D.D.D.D.Y.Y.R.oXY.Y.oXY.R.Y.Y.R.XXI.oX.XR.oXR.J.G.S.D.J.J..XG.D.D.J.XXY.XXXXXXXXJ.G.G.J.8.! e.M.J.S.A.~ ! ! ",
"% o o % % o * C C C p q p p q 9 e p n y t t t t r r v Y T 6.4.3.3.N V 3.0.4.3.3.V x 2 & = 2 u c u 4 2 2 - = % % % * - = * * - - - - - - - - - M T 6.6.~ E E ! E Y R Y Y R H H H G H H Y Y H Y Y E v r r t t r r r t r r r r p M M M M T T N N T U.T.T.T.R.U.R.U.U.D.U.B.B.U.U.U.I.R.T.oXT.T.T.T.T.R.R.R.R.oXR.t.y 0 q q y p n p p n M M M M T #X&XN.v ^ T.&X&X&XoX#XT.R.T.R.R.T.U.U.U.D.U.U.U.R.D.U.R.R.Y.D.R.I.B.D.D.D.D.D.Y.Y..XY..XoXoXR.oXY.XX.XoXR..XY.J.G.D.Y.D.D.G.D.D.XXXXY.S.J.XXXXXXXXXXXXJ.D.J.Y.! _ ` S.G.S.A.C.` ~ ",
"% o o o o o % C n p q q q q w p n n n 0 t t r 0 x T Q 3.7.3.V C m V 0.3.3.V M t & & = 4 c u 2 = 2 4 - - - & & * * & & * * ; - - ; ; - r t - r T 6.~ E R R Y Y Y Y R R Y Y H H G G G G G G H R ! ` v r r t r r r r u r r r r p M M N B T T M B ~ oXT.T.T.U.T.U.U.U.U.D.B.B.B.I.U.U.U.T.U.oX&XT.T.T.T.T.R.R.oXT.e.y q y q y n n p n N M M N n 8.&XN.8.I.U.t.M.R.&X&XoXT.T.T.oXU.R.R.R.U.D.U.U.U.R.R.Y.R.R.U.Y.D.I.U.D.D.D.U.D.N.D.Y.R.R.D.R.R.Y.oXR.Y.R.Y.R.R.Y.Y.J.Y.XX.XY.J.D.J.oX.XJ.J.J..XoXY.XX.XJ.G.D.D.Y ` ` J.H.S.A.A.C.C.",
"o o o o o o o C j e e w q e n n n n M M t t M Q 3.6.8.9.3.n N 3.4.5.3.3.M - & # = 6 u c u 4 4 2 & & & = = - * * * * = - - - - - - 0 x i - 2 T Q Y R R E Y H Y Y Y Y Y Y Y H H H H H H G Y ! ` e.` r r r r r r t i i t r r r i M M M M T N N B B.T.T.T.T.T.U.U.U.U.U.B.U.B.U.D.B.U.U.R.U.T.oX&XoXT.R.R.oXoXoXoX8.q q y q y n n n n N M V V B e.^ U.&X&XoXT.T.M.e.R.&X&X&X&XoXR.U.R.U.U.U.R.T.R.Y.U.R.U.D.Y.D.I.U.Y.U.D.D.Y.N.D.D.Y.D.Y.Y..XY..XR.Y.Y.oXG.oXY.Y.G.D.J.XXXXXX.XJ.A.Y..XG.S.J..XJ.Y.Y..XJ.J.Y.e.R ` r.H.H.S.A.S.A.C.",
"* o o o o o o n e 9 p q C C n n p N V N B 3.3.0.9.8.B M V 3.4.7.0.3.N - $ $ & 4 u u t 4 4 2 2 & & & * & = - = - = - * - - ; - 0 t y t t Y ! Y Y E E E H Y H H Y Y Y Y Y H H H Y Y Y Y E ` e.S.G.Y r r r r t t t i i t r 0 t i p n n M B N V 6.T.T.R.R.R.R.T.U.B.B.U.U.U.U.U.D.U.U.U.R.R.T.oXT.T.T.R.T.oXoXOXoXT 0 q y p p p p p n N V V V N N.oX#X&XoXT.T.T.oXT.M.8.U.&X&X&XoXT.U.U.U.R.R.R.R.T.Y.Y.D.D.Y.Y.Y.T.D.Y.D.R.Y.U.R.Y.D.Y.G.D.Y..X.X.XoXR.Y.Y.R.R.Y.Y.G.G.J.J.G.J.Y.D.G.G.J.S.G.Y.Y.Y.G.J.J.J.Y.~ ! _ S.S.S.S.A.A.G.S.",
"p o o o o o o w e e p p n e e C p n V #.4.4.7.3.V n V 0.5.3.4.7.T 0 $ $ & 2 t t 4 2 2 2 - & % & & = - = - - - - = - ; - - - r t 0 y E E Y Y H Y Y Y Y Y Y Y H Y H H H Y H H H H H Y ~ e.A.D.R.G.v r r r r t t t i i i r 0 y y p p M N N B B D.T.T.T.R.T.R.R.U.U.U.U.U.B.U.U.U.D.U.D.D.U.T.oXoXR.T.R.R.oXT.Y..Xx y y y y p n p n N N V N M 8.T.T.oX&XT.U.T.T.oX&XoXR.M.8.B.R.T.oXT.T.R.U.R.R.T.R.Y.R.R.R.R.R.U.R.U.U.Y.R.R.D.Y.Y.Y.Y.I.D.Y.R.oXoXR.R.G.Y.Y.Y.Y..X.XY..XG.J.XXY.D.D.J.A.S.A.S.S.Y.J.J.G.J.G.Y _ _ XXG.G.G.A.C.C.A.",
"$.w o o o o o w e n n C C e j C #.3.3.4.9.3.#.m V %.5.4.3.4.V r o $ & = 2 2 2 - - 2 - & % & & & & & - - - - - - - = - - - - ; - H Q Y Y v Y G G H H Y Y Y H H Y Y H H G G H G H ~ ` N.K.R.T.XXA.r r r r r t t t i M i r r y y p M N V B B B T.T.&XR.R.U.R.R.U.R.U.U.R.U.D.B.U.R.D.D.B.U.U.T.T.T.T.oXR.D.Y.Y.I.y y y q p p n n N N N V N M t.oXoXT.oX&XT.T.T.T.T.T.R.R.U.8.8.B.R.R.T.R.T.T.B.R.oXR.oXR.oXR.U.Y.Y.R.R.T.R.U.D.D.D.D.Y.G.G.D.D.I..XR.D.D.Y.R.Y.R.Y.XX.XD.J..XJ.J.J.D.D.S.A.S.S.S.J.J.J.G.D.M.Y ` ` .XJ.S.G.A.A.A.C.",
"e $.- % o o o w e j e n e C #.4.4.7.9.3.V m V 4.5.5.%.V M y o $ $ = - = - = - - = & % % % & % % & & * = - - - - - - - - - * u R B v v Y Y H G H Y H G H Y Y H Y Y Y H H H Y ! 8.N.D.U.R.T.oXY.e.r r r r r t t y i M i i y y y p N T V B M Q oXT.T.T.U.T.T.U.R.R.R.U.R.D.D.D.B.B.U.D.D.U.U.U.T.T.T.R.R.Y.Y.Y.t.y 0 q q y p M N N M N N N N B.#X#XT.oXT.oXoX&XT.T.R.U.R.R.T.R.M.8.B.B.U.U.U.T.T.oXoXoXoXR.R.Y.U.R.T.oXR.D.U.Y.G.Y.D.G.Y.G.R.Y.R.Y.R.D.Y.Y.Y.Y..X.XY.XXJ.G.Y.Y..XY.G.J.J.J.D.D.A.S.J.J.S.G.` R _ r.G.J.G.S.S.S.H.A.",
"0 p ; % % $ o 0 C n e n V 4.4.3.9.%.m m #.4.5.5.5.%.n t o o # = = = & & & & % $ $ % % & & % & & & & & & & = - - - - - & - v Y v v b b v v v G G H H H G H Y H Y H Y H Y ! ^ e.B.U.U.R.R.R.T.Y.^ r r r r r t t y M M i p M n M N T V T T M t.R.oXR.T.R.R.R.R.R.R.R.R.R.U.U.D.U.B.U.U.U.D.D.U.R.R.R.R.R.oXoXR.t.y 0 q q y n N N N N N N N Q R.oXT.T.T.T.T.oXoXT.T.R.R.U.U.R.T.T.Y.N.8.V.U.R.T.T.oXoXoXR.Y.Y.Y.Y.D.Y.D.R.Y.U.D.Y.Y.Y.Y.R.Y.R.Y.D.D.D.I.D.Y.G.J.G.J.Y..X.XXXXXXX.X.XXXY.D.J.S.N.S.G.J.J.A.S.R ~ _ S.J..X}.S.S.M.A.S.",
"* - - - & % $ 0 n n V 3.3.3.4.3.m C m 5.5.4.4.4.N x - $ $ & = & & & & & & % $ $ % % & & & & & & & & & & = - - - - - t Y v v v v c c b b v G H G H Y Y G H Y Y Y Y Y ! 8.N.B.B.U.R.R.U.R.R.R.D.M r r r r r t y i M n M M M M M N T T T T M B.T.R.R.T.R.R.R.R.R.U.R.U.R.U.U.B.U.U.U.U.U.B.U.R.T.T.R.R.R.R.oXoXe.0 0 q y n n M M N N V V N 8.#XoXT.T.oXoXT.T.T.T.T.T.R.U.R.R.T.R.oXR.U.N.8.V.R.T.T.OXoXR.Y.Y.R.T.R.R.Y.Y.Y.Y.Y.Y.R.Y.D.Y.D.G.Y.D.G.D.D.I.D.J.Y.G.J.Y.Y.Y.J..XOXXXXXoXoXJ.D.J.A.S.S.J.J.G.C.Y _ _ .XJ..XJ.A.S.G.A.S.",
"r 0 0 0 - - 0 x V 3.3.0.5.3.V #.3.%.5.5.%.%.V q y n y & & & & & & & & % % % % & & & & & & & & & & & & = - - - - t t t t u b t x c v v b v G H Y H H H G G H H Y ! ~ e.D.D.Y.R.R.U.R.U.D.U.R.B.v r r r r r t y y M M N M M M M V T 3.T T B U.T.T.R.U.U.U.U.R.R.T.T.R.R.U.R.U.T.R.R.U.R.U.U.U.T.R.R.oXR.oXoXR.T q 0 q q p n M N N N V V N B.#X#XT.T.oXR.#XT.T.T.R.R.T.T.R.R.R.U.U.R.R.T.U.N.e.e.U.R.R.Y.Y.Y.R.R.R.R.I.R.R.Y.Y..XY.I.R.D.Y.D.D.D.N.D.D.G.D.J.Y.J.J.D.J.J.J.Y.Y.XXXXXXXXXXY.Y.G.S.S.J..XJ.e.Y ~ r..XG.J.J.S.S.S.C.H.",
"0 0 0 t y M 3.0.4.4.3.3.V V 4.5.5.4.4.#.n q w q n M v & & % % & & & % % % % & & & & & & & & & & & & % - - - * u v v c 4 t v c c t v v v v G Y H v G Y Y Y E ! ~ e.V.D.U.U.R.T.R.Y.U.R.U.U.U.V.t r 2 r r r y y y p N M M M N N T 1.T T M T R.T.T.R.U.U.U.D.R.U.U.R.R.R.R.U.D.D.U.U.U.R.R.U.R.T.R.T.T.R.R.R..XM 0 q y y p n N V N N V T V R.oXT.oXoXoXR.R.R.T.R.R.R.U.U.U.U.U.D.T.R.R.U.B.U.D.e.8.N.R.Y.Y.D.D.D.Y.G.Y.Y.Y.I.Y.G..XI.Y.oXY.D.D.Y.D.D.Y.D.R.D.XXY.Y.Y.G.J.Y.D.S.J.J..XJ.Y..XJ.J.A.S.G.G.G.~ ! ! S.G.J.G.Y.S.C.A.M.A.",
"0 q y N 3.7.4.4.9.3.V V 4.9.4.5.4.#.j q w 0 q q n n t % % % % & & % $ % % % & & & & & & & & & = & % * r t r v v v v i v t 2 t v b b v v v c v Y H Y E ~ 8.8.e.D.U.U.U.R.R.U.U.U.U.R.R.R.U.U.8.r r r 0 r t y y y y M M M N N T T T T N B T oX&XoXoXT.R.R.U.U.U.R.R.R.R.T.U.D.B.U.U.B.U.U.B.U.U.T.T.U.R.R.U.Y.y 0 q q y n M N N N V V V Q #XT.R.T.T.oXT.T.R.T.T.T.U.U.T.R.U.R.R.T.oXoXR.D.B.D.D.D.M.8.N.D.D.R.D.Y.G.R.I.G.G.I.Y.G.D.D.Y.Y.R.Y.Y.D.D.J.D.G.Y.Y.J.Y.G.G.Y.J.J.J.J.J.Y.G.J.XX.XXXG.M.A.G.S.~ _ ~ .XG..XG.XXJ.G.S.A.A.",
"q M 7.9.9.9.9.3.m V 4.9.4.4.4.3.C p e q q w w n V V x % % & & % $ $ % % % & % % & & & % & & * & & & = 4 c v v v v v v c v v t t v b v v v v v v v Y ~ e.N.D.U.U.R.R.R.R.U.U.K.U.U.K.R.U.R.Y.e.0 r r 0 r y y y y y n M V N V T T T T B T 6.T.#X&X&X&XT.T.R.R.U.U.U.U.T.R.U.B.B.B.U.B.D.U.R.R.R.T.T.R.U.R.R.R.y 0 q y p n N N N V V V V 8.T.T.T.R.T.U.U.T.R.R.R.T.T.T.R.U.U.U.R.R.R.T.R.U.U.Y.Y.R.Y.G.N.8.e.R.R.oXR.R.R.R.R.R.Y.D.D.G.D.Y.R.Y.I.D.D.D.Y.R.J.S.D.Y.Y.J.G.D.J.J.J.J.J.G.G.J..XJ.D.M.A.S.C._ ` e.XXJ.Y..X.X.X}.G.A.G.",
"3.4.9.9.#.V V V 3.9.5.4.4.#.n e n q w q N q V 3.V V x % % & % $ % % % % % & % % & & & = - - * & & 4 u c v v v c c v v v v v v c t v v v v v v v Y Q 8.V.D.U.U.D.R.U.U.U.U.U.K.U.U.U.U.R.U.Y.~ r 0 r r r r y y y y p N T V T T T T T B M 8.#X#XoXT.oXT.T.T.R.U.U.I.U.U.R.R.U.B.B.U.U.B.U.R.R.R.R.R.T.R.Y.T.t.q 0 q y y n N N V N V V V V.oXoXT.R.R.U.R.R.U.U.U.R.T.R.R.R.R.D.U.U.R.R.Y.Y.Y.Y.U.D.D.I.Y.N.M.^ e.Y.R..XY.D.R.Y.Y.R.Y.Y.R.D.D.Y.D.R.G.D.Y.G.Y.Y..X.X.XY.J.Y.J.Y.J.G.Y.G.J.J..XY.S.A.A.A.` _ _ A.G.Y.J.J.J..X}.G.}.}.",
"9.9.3.V V V 3.4.9.4.4.#.n w q e w w w n %.%.V %.m V M % % o % % % % % & & & & % & = - & 2 2 - t u v v v v v v v v v v v G v v v v t c v G v v Y Q 8.V.B.U.B.B.U.D.U.U.U.U.U.U.D.D.U.Y.U.R.I.6.r 0 0 r r r t y y p p N T V V T T T B N B M.&X&X&XoXT.T.T.R.T.R.R.T.R.U.U.R.D.U.D.B.U.B.R.U.U.R.R.R.R.R.R.t.V y y q q y n C V N N #.#.T t.T.T.&X&XoXR.U.D.U.T.R.U.T.U.U.R.T.B.R.U.R.Y.Y.Y.R.Y.D.D.D.D.D.D.Y.G.e.` e.D.R.T.Y.T.Y.R.R.I.Y.D.Y..X.XR.Y.Y.G.XX.XJ.J.G.J.J.J.XX.X.X.X.XJ.J.J.G.J.J.G.S.e.e.~ _ ~ J.J.J..X.X.X.X.X.X}.G.",
"3.#.V 3.3.3.4.3.3.V n w q w w q e n V %.m m m #.m V B % % % % & % % % % & & & & = & % - r 2 v v v v v v v v v v v G G H G v v v v v u t v Y 6.8.V.B.B.U.U.B.U.U.U.U.R.U.U.U.U.U.U.U.U.R.U.U.8.r 0 0 r t r t y y p p N N N V T T T B T B V.&X#X&X&X&XT.oXT.T.&XT.U.oXT.R.T.R.R.U.U.U.U.U.R.U.U.U.R.R.I.6.P.T y y y y p n C V N N V V V t.T.R.T.T.T.R.R.T.T.U.R.U.R.B.I.D.R.U.R.R.U.I.Y.R.U.R.D.U.D.D.U.I.Y.Y.Y.J.M.~ e.U.Y.oXoXoXR.Y.D.I..XR.Y..XY.G.G.J..XS..XXX.XJ.J.G.Y..XXX.XJ.S.J.J.J.J.G.A.` c u R ! XXJ.+X.XXXXX.X.X.X.XJ.",
"V %.3.3.4.4.4.#.C w 9 9 e q a e #.%.%.%.%.%.%.%.m 3.N % & & & & % % % % & & = & & & & u c v v v v v v v v v c c v G G H G v v v v B B Y B ^ V.B.U.U.U.U.U.U.U.U.U.R.U.U.U.U.U.U.U.K.U.U.U.U.~ r - r r r y y y y y p M N N T T T N M V B I.#X&XT.#X&XoXT.#XT.T.oXR.oXR.R.R.R.R.U.U.U.U.R.R.U.I.U.R.t.t.T.R.n y q y p p M N V V V V #.#.9.#XT.T.T.R.U.R.R.R.R.R.U.U.R.B.U.U.U.R.D.U.Y.R.D.Y.Y.U.D.Y.Y.D.D.D.R.Y.D.Y.Y.A.^ e.Y.R.OX.XR.Y.G.Y.J.J.J.Y.D.G.D.D.Y.J..XY.J.J.G.G.Y.Y.J.G.D.J.G.Y.Y.S.A.^ G & @ # e.J.J..X}..XXX.X.XG.G.",
"4.3.4.4.4.T t 0 n q q e q C %.4.#.%.%.m m m %.4.m V V & & & & % % % % & & % % & 2 u u v v v G v v v v v v c v v v v b b H Y Y B Y E ^ 8.V.8.^ L.U.U.B.U.U.L.U.U.U.U.R.U.U.U.U.U.U.U.U.K.R.R.8.r - r r r 0 y y y y p M M N T T T M M B T R.oX&X&X&X&XoX&X&X#XR.T.&XT.R.R.R.R.R.U.D.U.D.U.U.U.U.B.8.B.U.T.t.n y q y y p N N #.#.V V #.#.7.T.#XT.R.R.T.U.U.R.T.R.T.I.R.U.U.U.U.T.I.R.I.R.R.Y.I.D.B.D.D.Y.R.Y.Y.R.Y..XY.J.J.A.~ e.D.oXXX.XXXXX.XG.Y.J.Y..X.XJ.Y..XY.Y.Y.J.Y.J.XXG.Y.J.J.G.J.G.G..XJ.H.b & # & R r.S.S.A.A.A.A.S.M.M.",
"4.5.4.V r o o n n e 9 e m %.#.#.%.C #.%.4.4.%.4.m V B = & % % % & & & % = - u v v v v v v v v c v v c c v v v v v v v b v Y Y T ~ 8.V.B.L.I.V.Q V.E.U.U.U.U.D.U.R.T.R.U.U.R.R.R.R.R.R.R.D.U.8.2 - 0 r r 0 y y y y M M M M T T N M M T 8.oXT.#X&X&X&X&X&X&X&X&XT.T.T.oXT.T.R.U.R.R.U.U.D.B.U.8.M.T.U.U.R.T n n y y y n V 1.3.3.#.V #.3.4.V.R.oX&XT.T.R.R.T.U.T.U.U.R.U.U.R.R.R.T.T.I.Y.R.Y.Y.I.D.D.D.D.R.Y.Y.R.R.oXY.R.J.J.D.N.~ e.G..XY..X.XJ.J.G.J.Y..XY.D.J.J.S.Y.Y.G.Y.oXXX.XJ.G.S.J.XXJ.J.J..X}.r._ _ e.C.A.G.}..X}.A.J.J.H.",
"0.V - $ % % % x j C m %.m m %.%.%.%.#.4.4.4.%.V #.3.V - % & % & & % % 4 u v v G G v v v v v v c v v v v v v i v v v G v H Y ^ e.M.V.U.U.U.I.W.W.8.6.P.W.L.L.I.U.U.U.R.R.R.U.Y.R.R.U.U.R.U.I.~ 2 - - 0 0 0 0 y y p M M N V V T N M B B t.T.oXT.R.#X&X&X&X&XT.T.T.oXoXoXoXR.U.R.T.U.U.U.V.8.6.B.R.R.U.U.R.M M n y q y N V 1.3.3.1.#.1.3.4.4.5.V.R.T.T.T.R.T.T.T.R.R.U.U.R.T.R.R.R.R.R.R.R.Y.I.Y.oXY.U.D.I.Y.Y.Y..XY.Y.Y.R.Y.G.G.G.A.e.e.G.J..X.XXX.X.XY.Y.Y.J.Y.Y.J.J.G.Y..XY..XY.J.G.G.J..X.X.XJ..XXXG.H.C.A.A.C.C.A.S..XXX.X.XJ.",
"- o $ % % % q y C %.4.#.%.C 5.%.4.m $.4.#.#.%.4.%.3.V - - & % & & t v v t u v v v v v v v c v v c c v v v G v v v v G Y Q 8.t.B.U.U.R.U.R.R.R.U.U.V.Q M.U.U.U.R.U.R.U.R.U.R.T.T.R.R.R.R.R.Y.~ r - - 0 0 0 y y y p n M N V V N N M M E B.R.oXR.R.T.T.T.oX#XoX&X&XoXR.R.R.R.T.T.R.U.U.U.8.8.U.U.U.R.U.U.V.M M M p y p V 1.3.4.7.3.1.3.4.4.4.4.4.4.6.H ! D.#XT.T.oXR.R.T.R.R.T.R.U.R.R.R.R.R.R.D.Y..XD.U.Y.Y.D.D.G.Y.R.Y.Y.Y.Y..X.XY.D.D.` ~ M.G.Y.J.J.Y.J.Y.J.J.Y.Y.G.J.Y.J.J.G.J..X.XJ.J.S..XJ.G.J.}.G.F.F.A.S..XF.H.H.A.A.S..X.X",
"X o % % % * q q m #.%.V 4.%.5.%.%.4.%.V V #.#.#.#.3.V - = % & v Y G i c v v v c c v v v v c v v v v v v v c c v v G E ^ 8.B.U.U.U.U.U.U.R.R.R.U.U.U.B.Q 8.R.U.R.R.U.U.U.D.D.R.R.R.U.R.R.U.R.e.r - 0 0 0 y y y y p n n B N M N N M M Q U.T.&XT.R.R.U.U.R.T.T.T.oXT.oXT.T.oXT.oXT.R.B.8.V.I.U.I.D.U.I.I.3.N M M n p n N 1.1.3.3.3.3.3.4.4.4.4.4.4.4.B o $ Y N.oX&XoXR.R.T.R.R.T.D.R.U.R.R.Y.Y.D.Y.Y.Y.Y.Y.Y.R.Y.I.oXR.Y.Y.Y..X.XG..XR.Y.J.S.^ ! e.J.G..X.XJ..XXXXXG.J.Y.J.Y.J.D.J..X.X.X.XG.G.J..X.XS.}.}.S.A.H..X}.}.J.G.A.A.A.A.",
"X o $ % % % q j j V 4.#.3.%.4.4.#.%.V 4.V V V N %.3.M r r i Y Y v b u u v v v c c v v v v v v c v v c c v c c v Y ~ e.M.B.B.B.U.U.U.U.R.R.U.U.U.R.R.U.U.V.^ B.R.R.R.R.T.R.U.U.U.Y.R.T.R.R..XN.- - 0 0 0 y y y q y y p N B M N B B M 8.T.oXT.R.R.R.U.T.T.T.T.T.oXoXR.T.&XT.oX&XT.t.t.U.R.R.R.R.R.U.U.I.V V N M n n n N N 1.3.7.7.3.3.4.4.4.4.4.5.5.7.T Y ~ ^ E D.&XoXT.#XT.R.T.T.R.T.T.oXOXD.U.R.Y.XXoXY.oXoXY.R.oXoX.XY..XY.I.Y.Y.Y.G.J.G.Y.M.! ^ S.Y..X.XoXY.oXXXXXXXY.Y.G.D.J.Y.D.J.J.S.J.G.J..X}.J.J.J.S.S.S.S..X.X.X.XJ.A.S.",
"X o $ % % % q n j #.%.%.5.4.%.3.m m C #.#.#.N V T M M Y ~ ! v v v v c u v v c c v v c c v v c c v v v v v v Y ! 8.M.B.B.B.B.D.U.U.U.U.R.R.R.U.I.T.U.U.U.R.U.8.8.U.U.R.R.R.R.R.R.Y.R.R.Y.U.R.D.- 0 0 0 0 0 0 y y y p p M V N N B B B N.T.T.T.T.R.T.R.R.R.T.T.T.T.T.T.oXT.U.R.D.t.T.T.T.R.T.U.U.R.R.U.t.N V T N M n N V V V 3.4.7.4.4.3.4.4.4.4.4.5.9.4.3.9.B.e.- ~ oX&X&X#XT.#X&X&XT.oXT.R.R.R.oXoXR.oXR.OXOX.XoXR.oXoXR.R.R.Y.Y.G.Y..X.XJ.Y.J.Y.A.8.` D.G.XXoX.XY.Y.Y.oXoXXXY.Y.D.J.J.J.J.J.J..XJ..XXXG.}..XS.A.G.S..X.XXX.XOX+X",
"o o o $ % % q j q m %.4.M 3.V C m 5.V V #.3.Q V B T 8.~ H v v G v c v u u v v v c c c v v c v v v v v v H Q 8.8.B.B.B.B.V.B.B.D.U.U.R.T.R.R.R.U.R.R.R.U.R.R.R.V.Y L.R.R.U.U.K.R.Y.Y.R.Y.R.R.G.u r r 0 0 0 y y y p n M N N N N B M T U.R.oXT.oXT.T.R.T.T.U.T.R.T.T.T.T.R.U.e.V.T.R.T.R.T.T.U.U.U.R.B.T V V V V M M M V 1.V V 3.4.4.4.4.4.4.4.4.4.4.9.5.3.3.3.M u 2 c S.&X&X#X&XT.T.T.oXT.T.oXoXoXOXoXOXoXOXoX.XR.oXR.oXoXY.R.Y.R.Y..X.XXX.XG.Y.Y.Y.Y.A.^ ` M.J.D.Y.XXoX%XOXXXJ.D.J.Y.J..X.XXXJ.J.J.XXXX+XXXXXJ.S.}.}.}..XOXXXG.}.",
"o o o o o % w q q m 4.4.3.#.V 4.5.0.N V V T 6.6.t.e.E v Y H G G G v c v v v G v v c v v v G G v v v G Y 8.8.V.B.D.B.B.V.V.V.B.U.U.U.U.U.R.U.U.R.R.U.U.B.R.U.U.U.U.8.8.T.T.R.U.U.R.Y.Y.U.D.Y.D.v r r r r y y y y p M M N N N T N M 8.R.R.R.oXR.T.T.R.T.T.R.R.T.T.T.R.D.e.8.D.U.T.R.U.T.R.R.R.U.U.D.~ i V T T T V N N V 1.T V V 3.3.3.4.7.4.4.4.4.4.4.9.4.3.3.3.M - 2 4 8.E.T.T.&XT.R.oXoXoXoX&X&XOXoXT.OXY.Y.oXR.OX&XOX.XoXoXR.R.R..XXXXXXXY.Y..X.XY.XXJ.S.` ! N.Y.XXOXoXoXXXXXJ.G..X}.J..XJ.J.J..X.X.X+X+X.X.X.XJ.}..X.X.X.X}.+X",
"$ $ $ o % % ; q n m 4.4.3.#.4.%.V 3.T 3.6.8.t.N.~ Y ! Y Y Y H v G v v v G v G H H G v v v G v G Y Y ~ e.M.B.B.D.D.B.B.B.D.V.B.D.U.R.R.R.T.R.R.R.R.U.R.R.R.R.R.R.R.R.V.^ U.R.R.U.Y.R.R.R.R.Y.D.Y 0 r r y y y y y p M M N N N T E B D.oXT.R.T.oXoXT.oXT.T.T.T.T.R.T.U.~ V.R.R.R.T.T.U.U.U.T.U.B.D.D.Y r V T T T T V T V V V V V V 3.3.9.9.7.4.4.4.7.4.4.3.4.4.3.0.x & 1 t 9.P.T.oXR.T.oXoXR.oX&X&XOXoXR.OXY..X&X.XOX&XOXOXoXOXOXoXoXXXXXoXOXoXXXY.J.Y.XXoXXX.XJ.e.e.J.Y.XXOXXXJ.XXY.XX.X.X.XJ..X.XG..X.X+XXXXXG.G..X.XJ..XOX.X.X+X",
"& % $ o $ % ; j j j %.4.0.%.C V V T 6.8.t.V.8.T ! ! ! E Y Y Y Y H G G v G G G H Y Y G G G G Y ! 8.e.M.D.D.D.D.U.U.D.D.U.D.B.V.D.U.U.U.U.U.R.R.R.R.U.R.R.R.R.U.R.T.oXT.R.8.8.T.R.R.R.R.T.J.K.G.E r r r t y y y y p M M N N T E B B oX&XT.R.oXR.T.oXT.T.T.T.R.T.R.e.^ I.Y.U.R.U.R.U.D.U.R.R.R.U.B.B.v - N T 3.T T T T V V T 1.1.1.3.3.3.7.7.9.7.4.3.3.V M x y r t i = = 2 t 4.9.V.T.T.oXoXoXoXOXoXoXR.R.oXR.oXY.R.OXR.R.oXoXoX&XOXoXOXoX.XoXXXoX%XY..XXX%X%XY.XXJ.Y.e.e.G.J.XXXXXXJ..XOX.X.X.XJ..X.XG.XX}.XX.X.XOX+X.XJ.J.J..X+X+X",
"* & % % o % * q j j %.V 3.n V 3.6.6.t.e.^ Q Q Q ! Q E R E Y E Y Y G H H H G H H Y Y Y Y Y ! ^ e.B.D.D.U.U.D.D.U.U.D.U.D.D.U.B.U.U.R.U.T.R.T.T.T.R.T.T.R.U.R.T.R.U.T.T.T.oXD.^ D.T.&XoXT.oXT.I.E r r r 0 q q q y p M M V N T E B e.#XT.T.oXR.R.R.T.T.R.R.U.R.D.Q M.R.T.Y.I.U.U.U.U.I.U.U.U.U.B.B.e.u 2 M 3.6.6.3.T T T T 1.3.6.6.6.3.6.6.6.7.6.T v r & & & & & < = 1 2 1 < x 5.4.4.8.Y.OXoXT.OXR..XR.oXoXoX.XR.OXXX.XoXOXOX.XXX.XOXR.XXXX.XXX.XXXJ.XXXX.XXXY.XXOXXXXXA.e.e.G.XXXX.XXXOXJ.XX.XXXOX.X.XXXXXXXXX}.+XOX+X.XG.G.J.J.XX",
"% % % % % % % q q n V C V 6.t.8.t.N.^ Q ^ Q E E ! Y ! ! ! ! E ! R Y Y Y Y H H Y Y v Y ! 8.e.B.D.B.U.U.B.D.K.K.R.U.U.U.R.R.D.B.D.U.U.R.R.T.T.T.T.T.U.T.R.R.U.R.T.T.T.T.U.T.R.R.8.t.R.T.oXoXoXoX~ r 0 0 0 0 0 q y p M N T V N B E D.#XoXoXT.T.oXoXR.R.U.R.R.8.6.oXoXR.R.R.T.D.U.D.B.B.D.D.U.U.U.U.t.u = & T 6.7.7.6.3.T 1.3.6.6.6.6.6.6.Q E M t & # # # # = < = 2 2 2 1 = & = C 4.5.P.E N.oXR.R.OXOXoXoX&XOXOXoXoXoX.XoXR.oXOX.X.XOXOXXXXX.XoX%X%X.XoXoXXXXXXXoX.XoXXXXXXXY.M.e.J.OXOXOXOXoXXXXX+XOXXXOX.X.XXX.XOXOX}.XX.X.X.XXXOX",
"- = - * * * * 0 q n N Q 8.8.e.N.8.Q Q Q ! ! Y Y Q ! E ! ~ E R ! ! R R R Y Y Y Y Y ! ~ 8.N.B.D.K.D.D.U.U.U.U.U.D.U.U.R.Y.Y.Y.D.R.R.U.U.T.T.T.R.T.T.T.R.oXT.T.T.T.oXT.oXoXoXoXT..XA.~ U.oX&XOXoXe.t 0 0 0 0 0 q y p M N N T B B T &X&XoX&X&X&X#XoXoXoXoXR.6.D.oXR.T.R.Y.R.D.B.V.V.I.U.U.K.U.B.U.R.D.Y & & - T 7.9.9.7.6.6.6.Q Q E v u 4 = % $ $ # # # @ # = i E 3.3.3.E u & @ - %.5.q.9.6.e..XR.&X&XOXOXoXOX#XR.Y.R.oXoX.XY..XoX.XoXXXoXoX.XoX%XOXoXoXXXXXOXOXOXoXoXOX.XXX%XOXG.e.e.J.%X%XOXOX%X%X%XOX=X=X%X%X%XOXXXOXOX%XOXXX.XJ.",
"- 2 2 t y t - - y T 8.e.e.e.~ E Q Q Q Y ! ! ! Y ! ! ! ! ~ ! ! ! ~ ! ! R Y Y Y R ! ^ e.N.U.U.K.U.U.D.D.R.U.U.U.D.D.U.R.U.R.Y.D.U.Y.Y.D.I.R.T.R.T.T.T.T.R.R.oX&X&X#XT.&XoXoXOXXXY.G.Y.~ N.XXoXR.t.t 0 0 0 y y y y p M N B T B B t.&X#X#X&X&X#XoX#X&XoXN.B.oXoXR.oXU.I.U.U.t.U.U.D.B.U.R.U.U.U.R.R.U.e.c # $ & v E T T T E v 2 & . X X . o O + @ @ @ & u Y 6.6.7.7.7.7.3.T M & 2 4.&.5.q.E.Y ~ R.U.oXoXoXoXoXOXR.Y.oXOXoXoXXX&X.XY.OXoX%XXXOXXXOXXXXXoXoX%X%XoXoXXXXXXXXXXX.XXXOXOXY.M.e.S.oX%X%X%X%X%X=X=X%XOX%X=X=X=X=X=X%X%X.XM.",
"0 t t t - ; - t 6.N.e.8.~ ~ ~ ~ Q ~ ! Q Y ! ! ! ! ! Q ! ! ! E ! ! ! ! R ! ~ ~ ` e.N.A.D.D.D.R.R.R.U.B.U.D.I.Y.U.D.D.U.Y.D.D.Y.R.R.R.Y.R.Y.R.R.T.T.&X&XR.T.R.oX&X&XT.R.T.oXoX&XXXR.oXoXe.~ XXOXD.t 0 0 y y y y y p M V N T T B .X&X&X&X&X&XoXoX#XR.8.I.#XY.R.Y.R.Y.D.Y.R.R.T.T.R.T.T.T.R.T.R.R.T.J.K.M.Y 2 % $ o o o $ $ O o O O o . . . . . . + u Y 6.6.7.3.3.7.9.9.7.7.6.B * 1.4.5.q.q.Q H B.R..XXXR..XoXoX.X.XoXoXoXXXXXoX.X&XOXOXoXoX.XXXXXXX%XXXXXoX%XOXOXoXXXoX%XXXoXOXoXoXXXXXJ.e.~ M.Y.%X%X%X=X%X%X=X%X%X=X=X*X%XOX+XM.~ ",
"t t - - r t v e.e.t.6.E ~ ~ ~ ~ ~ ~ ~ ~ ! ! Y ! ! ! ! ~ E Y E ! ! ! ~ ~ ` e.N.D.D.D.D.U.U.U.U.V.D.U.D.U.D.D.D.D.U.U.U.U.D.B.I.Y.Y.Y.U.R.Y.R.T.oX&XoXT.T.R.T.T.&XT.T.U.oXOXoX&XY.&XXXoXOXY.~ D..Xt r r y y y y y n M V N T T ~ &X&XoXR.R.R.oXY.t.e.R.oXoXR.T.R.U.R.Y.Y.R.R.U.R.T.oXoXT.R.oXT.T.oXR.R.I.N.e.~ v t - & & $ @ O $ O + . . . o o . . o 4 E 6.7.7.6.1.7.9.9.9.3.1.#.#.3.4.q.P.t.v Y oXoXOXoXoXoX&XoX.XR..XoXXX.X.XoXOX%X%XoXoXoXoXoXOX%XOXoXXXXX%XoXOX%X%X%XOXoXY.XXXXXXXXOX%X%XM.! S.=X%X=X=XOX%X=X%X%X=X*X%XOXF.~ }.",
"- & % - M 8.e.e.8.~ ~ ~ ~ ~ ~ ~ ~ ~ ~ ! Q ! ! ! ! ~ Y Y Y ~ ! ~ ! e.^ N.B.U.U.Y.D.I.U.U.R.U.U.V.D.B.B.U.D.D.B.R.Y.Y.I.Y.I.D.Y.D.I.R.R.R.Y.R.T.oXR.T.T.T.T.T.T.R.T.T.R.OXOXOXOXR.oXOXOX.X.XXXe.~ y t y y y y y p p M T T T T t.oXoXOXoXT.T.D.8.D.T.R.U.oXT.T.R.T.oXR.Y.T.U.R.T.oXT.T.T.R.T.R.T.#XoXY.Y.D.N.A.e.e.~ ! R H G G c u u 6 1 & @ . . . . . & M 6.9.t.6.3.7.9.9.3.V #.4.4.7.P.E.7.v v M.XXoXoXoXoXOXOX&XOXXXY.Y.R.XXOX%X%X%XoXXXXX%XOXOX%XoXoXXXoXXX.XY.%XOXoXOX.XXX.X.X.X.XXXoXOX%XXXe.^ e.XXOX%X=X%X=X%XOXOXXXe.! XXXX",
"& & r ~ e.e.e.8.~ 8.~ ~ ~ ~ ~ ~ ~ ~ Q ! Y ! ! ! ! ~ Y Y Y ! ~ ~ 8.e.V.U.U.U.T.R.T.Y.D.D.D.U.U.B.B.B.t.D.D.B.B.Y.Y.D.D.U.Y.Y.I.T.R.R.R.R.Y.T.I.Y.R.T.oXR.oXoXT.T.T.T.#XoXoXoXY.Y.oX&XOXXXoXOXOXG.x t y y y y y p n N V T T T I.R.oXoXoXoXt.N.R.D.R.oXT.R.T.R.T.oXoXT.R.T.U.R.T.R.oXT.oXoXT.&XT.oXoXD.U.R.N.D.S.e.e.M.C.r.` ! Y Y Y H H G c c 6 # o o . $ u Q 6.t.6.6.6.9.7.7.4.4.7.q.y.P.P.v G ~ Y..XR.oXXXXXOXXXXXOX.X.XOX&XXXXXXXXXXXoXY..XY.XXXXG.XXOX%X%XY..XoXXXOXoXoXoXoXOXoXoXXX.X.X%XOXXXXXM.~ M.%X=X=X%XOXOXJ.e.^ XX%X%X",
"- Y e.e.e.~ ~ ~ ~ ~ Q ~ ~ ~ ~ ~ ~ ~ ^ ! ~ ! E ~ ~ ! ! ~ ! ^ ` e.N.V.U.U.T.R.R.T.B.Y.U.U.D.D.B.R.R.B.B.U.D.V.U.Y.D.I.I.R.Y.D.U.Y.Y.Y.I.U.Y.R.R.R.U.U.R.T.T.T.T.R.R.T.OX&XOXoX.XoX=XOXOXOXOXXX%XOXM t y y y y p p n N T T V 6.oXR.oXR.e.8.Y.U.Y.T.oXR.T.oXoXT.T.oXoX#XT.T.T.R.R.U.oXR.R.T.T.oXT.T.oXD.R.D.I.t.N.N.N.e.e.N.M.C.e._ ! R R Y ! R I U u < @ O $ & i E ~ ~ H v E 6.6.7.7.y.y.P.P.G v ~ D.Y.oXOXXXXX&XoXoXXX.XoXoX.X.XOXXXXXXX.XG..X.XXX.XXXOX.XY..XOXoXoXXXXXOXOX%XXXOX%X%X%XOXoX%X%X%XXX%XOXA.~ r.XXXXXXXX` e.%X=X=X=X",
"8.e.~ e.~ ~ ~ ~ ~ ~ ! ~ ~ ~ ~ ^ ^ ~ ~ ! ^ ~ ! ! Y ~ ~ ~ ~ e.` N.B.U.R.R.R.R.R.R.U.U.U.K.D.D.D.U.U.D.U.U.B.D.Y.Y.D.Y.I.Y.U.R.Y.D.U.D.D.D.U.R.D.R.Y.oXR.T.oXoXoXR.R.T.#XOXR.OXoX&XOXOX.XOX%X%XOXOXY t y q y y p n M T T T T V.OXR.R.8.N.oXY.Y.Y.R.oXoXR.T.T.U.R.oXT.R.oXR.R.T.R.T.&XoXT.R.T.oXT.oXY.R.Y.D.Y.N.A.A.M.N.A.N.N.S.e.A.e._ ! ! ~ ~ ! ! R H F 6 & @ @ $ & & @   o u 6.7.9.y.9.t.Y c v ~ S.Y.Y..X.XXX.XoXoXoX.XY..X.XR..XY..XXXXXXX.XY.XX.XXXXX.X.XY.XXY..XOXoXoX%XOXXXOX%X%X%X%XoXoXXXoXXXXX.X.XOXS.Y e.e.v C.=X%X=X=X-X",
"~ ~ ~ ~ ~ ~ ~ ~ ~ ^ Q Q ^ ^ ^ ~ ~ ! Q Q Q ! ! ~ ! ~ ~ e.e.B.U.R.U.oXR.R.R.U.R.U.K.D.U.U.B.B.K.D.V.V.D.U.B.B.Y.D.D.U.D.I.U.U.Y.D.B.Y.D.U.Y.oXI.R.Y.R.oXR.oXT.R.oXT.B.oX.XoXXXD.oXOX&X%XOXOXOXoX.XY y y y y y y n N T T T T R.&XN.e.XX.XD.R.D.D.R.Y.I.Y.R.U.T.T.T.T.T.R.T.oXT.oXT.T.T.R.R.T.&XR.oXT.D.R.D.R.G.A.N.N.M.N.M.M.A.C.M.A.M.e.` ~ _ ~ _ _ _ ~ ! R F 1 & # # # # # @ & i H Y v r & 4 c ~ A.D.J.G.G..XR.R.R.OX.XXXXX.X.XXX.X.X.XXXXXXXY..XJ.XXXXXXY..XoXXXY.oXXX.X.XOXOXOXOXoXOXOX%X%XXXY..X.XJ.Y..XXX.X~ 4 E .X%X%X%X*X=X",
"~ ~ ~ ! ~ ~ ~ ~ Q ~ ^ ~ ^ ^ ~ ^ ~ Y ^ ! Q E ! ! ~ ` e.D.U.R.T.T.U.U.R.R.U.R.U.B.U.U.U.B.U.U.V.B.U.B.U.U.D.D.D.D.D.D.D.D.U.R.Y.D.D.R.R.R.D.Y.U.Y.D.D.R.oXY.OXoX#X#XoXoXoXY.Y.D.XX%XOXOXXXOXOXOXOX~ y y y y y p M N T T Q Q oX~ N.OXOXR.&XoXR.R.R.Y.R.U.T.T.T.T.T.U.U.R.R.R.U.R.T.R.I.R.T.U.T.T.R.U.Y.R.Y.G.G.D.A.N.N.M.N.e.M.A.A.A.M.M.r.r.e.~ _ ` ` _ ` e.` ~ R G u 2 1 & # # & & # # & = c ! e.M.A.G.N.D.Y.Y.D.G.Y..X.X.X.XG..XR.R.R.Y.XXXXY.Y.oXY..XXXoXXXY.Y..XXXY.Y.Y.oXXXXXXXOXXXoXOX%XY.Y.XXXX.XXXXXXXG.H r.A.~ e.+X%X%X%X",
"~ ! ! ~ ! ~ ! ! ~ ! ! ~ ~ ~ ~ ! ! ! ~ ~ E E ! e.e.e.B.R.R.U.U.U.R.K.B.R.R.U.U.U.U.U.D.V.B.B.V.B.D.V.B.U.B.D.D.B.D.D.Y.R.D.R.R.I.Y.T.oXR.Y.Y.R.I.D.R.Y.R.R.Y..XY.R.oXR..XoXXXXXOXoXOXXXOXOXXXOXOXe.y y y y y p M V T 3.T T e.&XoXoX&XOXOXoXoXoXY.Y.I.I.D.U.U.I.T.U.R.T.D.R.U.U.R.U.R.U.U.B.U.oXR.R.R.Y.Y.Y.oXG.A.N.e.S.M.e.A.M.M.N.A.M.e.C.M.C.r.` _ ` ` e.~ ! ! ~ _ ~ ! R H G G c c c v Y ~ e.S.S.N.S.G.G.G.D.D.A.D.S.D.G.Y.Y.G.Y..X.X.X.XXXY..XXXXXoXoXXXY..X.XXXoXY.Y..XXXoXXXXXoXXXXXoXoX.XY..XXXXXXXXXG.Y S.OX%X.XC.Y Y D.OX",
"Q E ! ! Q ~ ~ ~ Q ! ! ! ! ! ! ! ! ! ! ! ! ! e.e.~ e.D.R.I.U.U.R.U.U.U.R.U.U.U.U.U.U.U.D.B.R.U.U.B.M.D.D.R.R.R.Y.D.D.U.D.D.oXR.Y.U.R.Y.Y.Y.oXY.Y.Y.Y.R.T.T.Y.Y.D.D.Y.oXOXoXoXOX.XoX.X.XXXXXOX=X%Xe.y y y y p p M T 1.1.T ~ XXOXOXY.D.OXOX.XY.R.R.D.D.D.D.D.B.D.D.D.R.D.D.U.U.R.T.D.U.R.R.R.R.oXoXD.Y.R.Y.R.Y.Y.D.t.M.A.N.M.r.e.r.M.A.M.M.e.e.M.M.e.e.` ` ` e.` _ _ ~ ~ ~ _ ~ ~ ~ ~ ~ ! ~ _ e.S.G.A.M.D.N.A.D.S.A.N.e.S.D.S.A.F.G.G.G.D.D.J.J.G.J.Y.XXY.OXXXoXXX.XY.XXXXXXXXY..XXXoXoXXXXXY..X.XXXXXXXXXXXG.Y S.XXOX%XOXOXOXC.! 8.",
"Y Y Q ! ! Q Q ! ! ! ! ! Y ! ! Q Y Y ! ~ 8.M.N.e.D.M.8.e.D.U.R.R.U.R.U.U.U.U.U.U.U.U.U.U.R.R.U.K.D.D.D.Y.I.D.U.D.D.D.B.D.R.oXT.D.Y.oXD.R.Y.oXoX.XY.I.I.Y.Y.I.D.Y.R.Y.R.oX&XR.&X.XY.J..X.X.XOXOXXXr.y y y p p p N 1.6.6.T Q Y.OXXXoXR.Y.Y.R.Y.Y.G.R.Y.D.Y.D.D.B.B.U.U.U.U.B.D.R.R.U.R.U.D.R.R.oXR.Y.D.Y.Y.Y.Y.R..XG.M.S.N.e.S.A.S.A.N.e.e.e.e.M.S.S.G.F.S.S.A.e.` e.e.e.r.r.M.e.M.M.r.C.C.H.G.S.G.G.D.G.S.A.S.S.D.S.A.A.S.A.A.S.S.A.A.A.A.D.D.G.Y.J.XX.X.X.XoXXX.XJ.e..XY.G.XX.XOX%X.XXXY.Y..X.XXXXXoX%XG.E XXXXoXOX%X%XoX%XXXXXM.",
"Y E ! Y Y ! ! ! ^ Y ! ^ ! ^ ! Y Y ~ ^ e.V.B.R.U.D.S.D.D.U.U.R.U.U.T.U.R.R.U.R.R.U.U.R.K.R.U.V.D.I.D.D.R.D.R.R.B.N.Y.Y.Y.Y.D.R.Y..X.XR.oXR.Y..X.XY.R.D.D.D.R..XR.R.D.R.XXOX.XXXoXY.XXXXOXOXOXXXOXe.y y y y p n N 1.7.6.T Y XX=XOX&XOXoXoXoXY.G.G.Y.D.R.Y.B.D.D.U.U.T.U.I.R.U.U.U.Y.R.U.D.R.Y.Y.Y.Y.Y.I.Y.Y.Y.R..XD.N.S.S.M.G.S.G.A.e.e.A.N.e.e.A.A.G.G.J..XG.G.S.N.C.e.M.M.e.N.A.A.A.}.G.G.F.S.S.G.S.D.D.D.A.S.S.D.G.G.D.G.D.M.A.A.A.M.A.G.D.J.D.J.J.XXY.Y.XXXXXXOXOXXXY.XX%XOXOX%XXXoXY.Y.XX.XXXoXXXJ.! OX%X%X%X%X%X%XXXXXOX%XXX",
"Y Y Y Y ! Q ^ Y ! ! ! Q Y Y T ^ 8.8.M.B.K.U.R.R.Y.U.K.U.T.U.R.oXU.U.U.U.U.R.R.T.U.R.U.T.R.R.I.&X&XR.Y.Y.R.R.Y.I.D.Y.R..XoXY.oXD.G.I..XY.oXR.R.Y.G.G.D.R.Y.Y.Y.D.R.oXoXoXOX&XR.XXXXXXOXXXXX.XXXOXr.y y y y p p N 1.7.3.T N.e.N.OX&X%X&X&XXXoX.XY.oXR.R.B.M.D.D.B.B.U.I.D.U.U.I.D.I.R.R.R.Y.oXY.Y.D.I.R.D.D.D.Y.Y..XJ.A.A.A.A.A.S.A.A.M.M.e.e.e.e.e.S.G.Y.Y.J.G.Y..XG.S.A.G.S.G.G.G.G.F.D.S.G.G.G.G.G.S.S.D.S.S.S.D.G.G.S.N.D.A.A.F.S.A.A.S.A.G.G.G.S.Y.A..X.XY..XOXXXY.XXoXXXOXOX%X%X%X%XXXXXXXY.XXA.Y XX=X%X%X%XOXOX+X%XXXXXXXY.",
"Y Y ! Y Y ! Y Y ! Y Y Y Y Q ^ 6.V.B.K.U.U.U.K.U.U.R.R.U.U.U.U.U.B.U.T.T.B.U.D.U.R.U.R.R.R.R.R.oXR.Y.R.R.Y.D.R.R.R.R.D.R.R.oXR.Y.D..XoXY.Y.R.R.Y.Y.Y.I.Y.R.oXR.U.oXR.oXoXY.XXXXOXXXXXOX%XOXXXXXXX~ y y y y p n N 1.3.3.T I.%XS.~ G.XX&X&XOXOXoX.XR.Y.D.D.V.D.D.B.U.U.R.R.R.R.R.oXoXY.R.oXoXY.Y.R.I.Y.R.Y.Y.G..X.XXXY.S.S.A.M.A.A.M.e.M.e.e.e.e.A.e.A.G.G..X.XXXXXoX.X.XJ.G.J.J.G.J.G.G.G.D.S.F.S.A.S.A.S.G.G.A.A.A.G.S.A.N.A.A.A.G.A.A.A.A.M.A.G.S.G.J.A.G.Y.Y.Y..X%XXXXX%X%X%X%XXXoXOX%XXXoXoXY.M.Y .XXX%XOX.X+XOXOX.XXXOXXXXXXX",
"E E Y Y Y Y Y Y Y Y Q Y ~ ^ 8.B.B.B.R.U.U.U.U.U.U.U.U.U.R.U.B.U.U.U.B.D.D.U.U.U.B.I.B.R.R.K.U.U.R.oXT.Y.U.R.Y.Y.R.oXT.oXY.oXoX.XY.Y.Y.D.R.Y.R.Y.R.Y.D.Y.oXoXY.R.R.oXR.oXY.Y.Y.OXY.OX=X%X%XOX.XOXY y y y y p n N 1.3.3.3.I.&XXXA.! e.XXR.oXoXY.Y.Y.Y.U.D.U.I.Y.D.R.oXT.T.U.R.Y.Y.R.R.Y.R.oXY.Y.I.Y.D.D.Y..XY.R.Y.XX.XS.S.A.M.S.A.S.A.A.S.G.A.M.e.M.e.S.F.XX.XXX.XY..XXXOXXXJ.J.G.G.G.F.G.S.S.S.S.S.S.S.S.S.A.A.A.S.S.G.e.A.N.A.A.N.A.S.S.S.S.S.G.G.G.G.D.G.J.G.J..XXXoXXX%XoXOXOXXXXX.XXXXXXXG.e.Y S.OXXXOXOXXX.XoXXX.XXXOXXXJ.XX",
"Y E Y Y Y Y ! Y Y Q ^ 8.8.t.B.B.L.R.B.U.B.U.U.U.U.U.R.U.U.U.B.D.U.D.B.D.R.U.R.U.U.U.U.T.R.B.U.T.oXoXT.T.R.R.R.Y.Y.T.oXT.R.T.R.R.oXoXY.Y..XR..X.XoXR.R.R.R..XR.oXR.R.oXY..XY..XXXXXY.XX%XOXOXOXF.M y y y y p p N 1.3.3.1.I.OXOX.XOXG.! Y.OXoXoXY.oXoXOXT.oXR.T.#XT.oXR.T.T.I.R.B.Y.oXT.R.R.Y.Y.D.G.A.N.A.Y..X.X.XY.J.A.A.M.e.M.e.A.A.D.D.S.M.e.e.A.M.D.D.XXXX.XY..XoXOX%XOXOXJ..XG.G.G.S.S.F.S.S.D.D.A.S.S.S.A.S.S.A.S.A.A.S.G.G.A.A.S.S.A.A.S.G.S.G.S.S.A.G..X.X.X.XY..XOXXXXXXXOXXXXXXX.XS.~ ^ %XOX%XOX%X%XXXXXXXXXXXXXXX.XJ.Y.",
"Y E E ! Y Y Y Y ^ ^ 8.V.B.B.U.U.R.R.U.L.B.B.U.U.U.U.U.U.U.R.U.U.U.V.D.B.D.U.U.B.U.U.R.U.U.U.R.R.R.&XR.oXY.U.T.oXoXOXY.R.R.R.oXXXoX.XoXY.Y.R.R.Y.Y.R.R..XY.Y.R..XR..XoXY..X.X.X.X.XD.XX%XOXOXXX6.M y y y y p p N 1.3.3.1.t.&XOXOXoXOXN.Q e.oXY.oXoXoXoX#X#XR.#XU.T.oXoXoXT.oX#XR.R.D.U.Y.R.I.G.Y.Y..XG.Y.I.XXoXXXXXXXJ.M.e.N.M.A.S.S.S.S.A.S.C.e.S.S.F.D.Y.XXXXXXoXOXOXOXXXXXXXOX.X.XJ.S.A.J.G.D.S.A.S.D.A.A.S.S.G.S.A.N.A.S.G.G.A.S.M.A.G.A.A.Y.S.S.S.S.G..X.X.X.XJ.S.XX.XXX.XOXXXXXXXY.S.^ Y .XXXOXOXOXXXXXXX.XOXOXXX+X+X.XXXXX",
"Y Y H H Y Y Q ^ 8.M.B.U.U.U.U.U.L.U.U.T.U.I.U.U.U.B.U.R.R.R.U.U.I.B.R.Y.U.B.D.U.R.U.R.K.R.U.D.U.oXT.R.Y.R.oXT.T.oXoXoXR.R.R.T.R.OX.XoXY.Y.R.Y.D.Y.Y.Y..XoXY.Y.oXoXY.Y..XoXY.XX.XXXXXOX%XXX.XS.M x y y y y y p N 1.3.3.3.9.=X%X&XOXY.oXoX8.Q N.R.oXoXOXOXR.#X&X#X#X#X#XD.R.oXT.oXY.Y.oXD.D.R.A.Y.D.G.G.Y.Y.Y..XG.XXJ.Y.S.e.e.S.G.S.G.G.D.N.G.G.S.S.A.S.Y.G.Y.Y..XY.XXXX.XOX%XOXXXOX.XOXS.G.F.J.J.G.S.A.D.G.D.N.A.N.M.N.S.S.S.S.A.A.G.S.G.S.S.A.S.F.A.A.N.M.S.J.J.G.G.S.J.G.G.G.G.J..X.X.X` e.G..XOX%X%XOXOXXXoXXXOXOXXXXXXXJ.XXXX",
"Y G c H Y ^ 8.M.V.B.U.U.U.B.I.B.U.L.I.U.L.I.L.B.B.U.U.B.U.B.R.U.U.R.T.D.U.B.U.T.T.R.oXR.D.D.T.oXT.U.Y.U.oXT.oX&XoXoXT.Y.R.T.U.Y.oXoXY.Y.Y.Y.Y.Y.Y.oXY.Y.Y.R.Y.oXR..XR.oXY..X.XY..XXXXXOXF.M.S.x v y y y p p p N 1.7.3.3.7.&X#X&X#X&XOX&XOXT.^ N.oX&XOXoXoX&X&X&X&X#X#XoXT.R.&XoXR.Y.oXoXR.R.Y.D.I.Y.Y.Y.I.Y.I..XXX.XOXJ.A.S.A.F.D.J.S.J.S.S.S.J.J.A.S.G.S.S.S.XXXXXXXXY.XXoXOXXX%XXX%XOXXX.X.XXXJ.D.G.S.S.S.M.A.M.S.A.A.A.M.S.S.S.S.S.A.S.S.A.G.S.A.M.M.M.S.G.G.S.A.A.A.A.A.C.A.A.S.S.~ e.G.XX.XOXOXOXOXXX.X.X.XXX.X.X.X.X.XG.G.",
"G H G Y 6.8.B.B.L.U.U.U.U.I.B.B.U.B.U.L.I.B.L.U.D.U.U.U.R.U.U.U.B.D.M.^ M.U.R.T.R.U.R.T.K.D.T.T.T.oXT.R.R.R.R.T.T.oXOX&XoXOXoXoXT.oXoXR.R.Y.Y.Y.I..XY.R.R.R.Y.oXR.R.Y..XY.Y.XXOXXX.XY.e.G.XXY.x x y p p p p n V 3.7.3.1.7.&X&X&X&XoXOX&X&XoXT.~ 8.R.oXOXOX&X&X&X&X&X&XoX&XoXoXoXT.R.Y.R.oXXXR.D.Y..XY.Y..XXXXX.X.X.XJ.D.S.M.A.G.D.G.G.S.S.F.A.S.S.G.S.S.A.D.D.R.OXOXXXOXXXXX%X%X%XOXOXOXOX.X.XXXXX.XG.G.S.S.G.G.S.D.A.A.G.A.F.S.S.A.A.N.A.A.N.A.A.S.M.S.A.S.S.A.S.S.F.C.A.A.F.A.C.H.~ ` G.G..XOXJ.XXXXOX.X.X}.XXXXJ.}.G.J.XXG.G.",
"v Y ^ 8.8.V.L.U.U.U.U.L.V.B.B.B.B.L.U.B.B.L.I.U.U.U.I.U.U.B.V.M.V.V.6.Q N.U.D.U.U.U.U.R.T.R.R.D.T.oXT.T.T.T.R.T.R.R.oXoXR.R.R.Y.R.R.oX.XR.R.R.Y.G.R.R.R.T.R.oXoXR.oXT.R.Y..X.X.X.XM.A.OXOXXX&XE i y y p p p M N 7.7.3.3.9.&X&XoX&XoX&XoXOXoX&XXXD.T N.R.D.#X&X&XOX#X#X&X&XT.Y.R.oXoX.XR.R.oX.XY..XY.N.D..X.XS..X.XY..X.XJ.G.G.G.G.G.G.G.A.G.S.G.A.A.M.S.G.D.S.Y.Y.Y.%XOXOXXXOX=XOX%XOXXXOXXXOX.X.X.XJ.G.A.A.S.S.S.G.S.S.S.F.S.S.S.S.A.A.A.S.S.A.S.A.A.A.S.A.A.C.C.A.A.C.C.r.C.M.C.~ ~ C.F.S.G.}.G..XG..X.X.XJ..X+X.XS.S.G.S.S.G.",
"Y ^ 8.V.B.B.U.B.U.U.L.I.B.I.B.B.U.I.L.B.B.U.U.I.D.V.B.B.U.8.V.V.8.8.6.t.D.U.U.B.U.U.K.U.U.U.R.U.U.R.R.R.T.R.R.T.U.R.Y.Y.U.N.N.Y.Y.oX.XoX.XoXY.Y.I.R.R.Y.R.R.Y.Y.D.U.R.Y.Y.R.XXS.C..X.XXXXX.XXX6.i y p p p M N V 7.9.4.3.P.&X&X&X&X&XOXT.oX&X&X&XoXG.Y 8.oX#X&X&XOXOXOX&XOXoXT.R.R.oXoXR.R.Y.Y..X.X.XD.Y.Y.Y..X.X.X.X.XJ.Y.G.G.Y.G.S.G.G.F.A.A.G.A.S.M.A.A.A.G.G.G.oXoXXX.X.XXX%XOX%XOXXXOXOXXX.XXXXXY.S.D.A.F.S.S.F.S.S.A.S.A.A.A.S.S.A.S.S.S.A.A.S.S.S.A.A.C.C.C.C.e.Z.C.C.C.r.^ ~ Z.e.F.S.G.G.A.G.J.G..XG.S.G.G..XJ.G.J..XJ.J.",
"6.8.V.L.U.U.L.R.U.B.L.I.B.B.B.B.V.B.B.B.U.B.B.U.U.I.R.V.8.B.B.M.V.K.B.B.U.B.B.B.V.D.U.U.D.U.U.R.R.R.R.U.R.Y.Y.R.K.B.B.M.t.U.R.oXY.R.oXoXR.R.oX.XY.R.Y.U.D.D.U..XY.D.I.D.U.J.M.e.OXOX}.` ! H b T M M p p p M N V 7.9.7.4.R.&XT.oXOXOXoXOX&XOX&X#X.XY.D.V.Q Y.&XoX&XR.oXOXOX&XoX#XOX&X%XXXY..XY..X.XD.Y.XXXX.XXX.XR.XX.XOX.XJ.J.S.A.G.G.S.D.S.A.G.A.A.S.e.M.S.G.Y.Y.G..X%X%XXXXX.XXXXXOXXXXXOXXXXX.X.XXX.XS.S.G.G.S.A.A.S.A.S.M.S.S.S.S.S.S.S.S.A.C.F.S.S.A.A.C.r.r.r.` C.r.r.e.R ~ e.C.Z.H.F.F.A.C.S.G.}.}.}..X}.S.G..XS.G.}..XG.",
"V.B.L.U.L.U.L.L.B.B.B.U.B.B.B.V.V.B.B.V.B.B.U.U.U.B.V.V.B.B.B.U.U.U.U.R.U.U.U.U.U.U.U.D.B.U.R.R.U.D.R.R.Y.R.D.D.D.D.Y.D.D.R.R.R.R.Y.R.oXR..XoXoX&XoXY.R.I.K.R.R.Y.D.D.D.e.e.J..XoX` & & # & Y N N N M M M M N #.4.9.7.4.T.&X&XOX#X&XoX&X&X&X&X&X.XoXoXoXR.e.e..XoXOX.XXX&X#XR.oXOXOXoXOXXXR.Y.G.I.G.R.R.oXOXXX.X.X.XXXOX}..XJ.G.G.G.G.G.S.A.A.J.G.S.S.M.G.G.G.D.G.G.Y..XoXXXXX.XXXXXXXXXOXXXG..XOXXX%XXX.XG.G.J.F.S.S.S.A.M.C.G.G.S.F.S.S.A.S.M.A.G.S.A.A.A.A.e.C.e.e.e.e.e.H ` C.r.C.C.H.F.C.C.H.H.S.G.G.G.G.}.J.G..XG.J.S.J..X",
"U.L.B.L.W.V.B.U.B.I.I.U.V.V.B.B.L.I.B.B.U.U.B.B.B.V.V.U.I.U.D.U.U.U.U.U.R.U.U.R.D.U.U.B.D.D.D.U.D.D.Y.T.R.U.R.R.Y.R.D.I.D.R.Y.R.Y.R.Y.U.T.R.oXoXoXOXOXOXT.T.oXR.R.Y.D.8.N.R.Y.J.r.& & & & 1 6.V T 1.V N 1.V N #.4.9.7.0.&X&X&XoX&X&XoX#XOX#X&X=X&X&XoXoXoXOXA.E N.#XoX&X&XOX&X&X#XOXoXoXOX.XR.G.D.D.G.Y.Y..X.X.XoX.X.XXXXXXX.XG.S.G.G.F.G.S.S.G.F.S.S.S.A.S.F.S.A.A.D.J..XOXXXOXXXXXXX.XXXoXOXOXXXXXXXXXOXXX.XXXJ.J.J.S.S.S.G.G.F.S.J.S.A.H.S.r.A.e.S.A.C.H.S.r.C.r.` ` ` Y ` Z.C.r.F.Z.C.C.C.C.C.C.C.S.S.G.}.G.G.}.}.J.}..X.X.X",
"W.B.P.P.P.V.L.B.V.B.B.B.V.B.B.L.I.B.B.B.U.B.V.U.U.B.B.U.U.B.V.K.U.D.B.U.U.D.U.R.U.R.U.D.U.U.D.Y.Y.N.Y.R.T.U.U.R.R.D.I.U.R.D.D.D.I.Y.R.Y.Y.Y.oXT.R.R.oXR.T.T.Y.Y.D.e.8.N.D.N.N.S.H 1 - = = v 6.1.1.1.V V 1.1.#.#.1.7.4.9.&X&X&X&XoXoX&X&X&X&XoX=X=X=XOXoX&X&XoXY.e.e.&XoX&X&X&X&X&X&XoXI.Y..X.XY.G.Y.D.Y..X.XY..X.X.X.XJ..XXXXX.XJ.J..XC.A.S.S.S.S.A.F.S.A.S.S.S.S.A.S.N.S..XOXXX.XOXOXOXXXY.OXOXOXXXXXoXOX.X.XXXJ.J.G.G.S.G.J.G.G.S.F.S.S.S.S.G.G.G.J..XOXA.C.A.C.r.e.! H _ e.C.C.Z.H.C.C.r.C.F.F.C.F.C.C.S.G.G.G.}.G..X.X}.}.XX",
"B.P.B.P.P.B.I.B.B.I.L.I.B.V.V.V.V.B.I.U.V.V.B.U.U.B.V.U.B.B.B.B.U.U.D.U.U.U.R.R.U.U.R.U.U.I.Y.R.D.V.U.D.U.K.U.U.U.D.Y.Y.D.D.N.Y.R.Y.R.R.R.Y.oXR.Y.Y.Y.B.Y.U.D.N.8.B.Y.D.D.N.S.A.5 = = 2 2 T 3.1.1.T #.V 1.7.4.4.3.7.4.9.&X&X&X&XT.#X&X&XoXoXoX&X&X=XOXOX&X&X&X&X&XN.~ .XOX&XoX=XOX&XXXR.XXY.Y.G.Y.Y.G.G.XXY..X.XY.G.OX.X.XY..XG.XXJ..X.XG.S.G.S.S.e.M.S.J.S.S.S.S.S.G.S.J..XXXOXXXXXXX.XY.J.OXOX.X.XJ..X.XXXOXOX.XY..X.X.X.X.XG.S.G.G.G.G.S.J.J.S.S.C.S.C.A.S.A.C.C.` G ` C.C.C.C.C.C.C.F.C.F.F.F.F.F.F.Z.H.H.G.G.G.G..X.XG.S..X",
"V.V.B.B.I.B.L.V.B.B.B.B.V.V.V.V.B.U.B.I.B.B.V.B.U.B.B.R.U.U.U.V.B.B.U.D.U.D.D.D.K.D.U.R.Y.D.N.N.M.B.B.K.U.U.U.U.D.D.Y.D.D.N.D.D.D.Y.U.I.I.U.U.D.D.D.U.I.U.D.e.e.R.R.Y.R.D.N.N.N.- = = - 2 T T 1.V V 1.#.1.7.7.7.7.9.4.9.&XoXoXoXT.&X&X&X&X&X&X&X&X&X&XOX&X&X#X#XOXoX.X! e.XXoXOX=X&XoXOXoX.XR.G..XG.Y.G.Y.G.G.Y.Y.Y..X.XJ.OXOXJ..X.X.X+XG.G.J.G.G.S.S.M.S.D.S.S.S.G.D.G.J.G.G.J.XX.X.XXX.XJ.J..X.XJ.G.J.J.XX*X%XOX.XG..XOXJ.OXXX.X.XG.J.G..XJ.}.S.S.H.C.F.F.A.A.C._ Y e.r.C.C.C.F.F.C.C.F.F.F.F.Z.Z.C.F.{.F.H.F.F.F.F.F.F.F.F.}.",
"M.V.V.P.U.U.B.B.V.V.V.B.B.V.V.B.B.B.V.B.V.B.B.B.B.B.B.U.U.R.U.B.B.M.V.B.B.D.B.B.D.K.U.U.Y.B.N.D.D.D.D.D.U.R.U.D.D.D.D.D.D.D.D.D.D.U.U.D.D.D.U.Y.Y.R.Y.D.M.8.t.Y.R.Y.Y.D.U.B.N.M.2 2 2 4 i 1.T T V 1.2.#.#.7.7.7.7.7.4.9.&X&X&X&X&XoX&X&X&XoX#XR.OXoXoXoXOX&X%X#XoX&XoX.Xe.~ Y.OXoXOXOXoXXXXXoXR..XR.D.G..X.XY..XY.F.Y.Y..X.XXXXX.XXXA..X.X.X.XG..XG.G.F.M.A.S.A.G.J.G.S.S.D.D.S..XXX.XXXJ.G..XJ.J.J..X.X.X.XOXOX.XXX.X%X%XXX%XOXOXOXOXXXXX.X+XXX}.S.S.S.S.F.C.r.` Y Z.C.Z.Z.F.Z.C.Z.F.F.F.F.C.F.C.H.F.C.F.Z.F.C.F.F.F.C.C.Z.H.C.",
"P.W.V.V.V.V.B.V.B.V.B.B.V.I.V.V.B.B.V.V.V.B.B.V.V.B.M.B.D.U.B.B.B.U.B.D.U.U.D.D.U.U.U.D.Y.D.D.D.D.U.B.D.R.U.U.D.D.D.D.D.D.B.D.I.D.Y.D.D.I.U.D.D.D.D.D.8.8.D.U.Y.Y.D.U.U.Y.D.N.M.- - = - t T V V V 1.3.#.#.4.9.q.q.7.4.9.T.&X&X&X&X&X&X&X&X&XoXoXoXoX&X&XOXOX=X%XOX=XOXOXXXG.! e.XXOXOX&XOXOXoXoXR.Y..XR.R.XX.XY.Y.Y..XY.XX.XJ.XXXX.X.XF.G.J.G.J.J.G.G.G.S.S.N.G.J.S.S.M.S.G.S.G.G..XJ..XJ.G..XJ.J..XXX.XXXOXXXOXOXXXOX.X%XXXOX%XOX%XOXOX%X+XOX+XJ.G.S.G.S.C.A.~ Y C.F.F.Z.F.Z.F.Z.H.F.F.F.F.C.H.C.Z.F.H.F.H.F.Z.F.C.C.C.C.Z.Z.C.",
"B.P.V.V.M.V.B.B.B.B.B.V.V.B.B.B.V.V.V.V.V.B.B.B.B.B.V.B.V.B.D.B.I.B.U.U.U.B.D.U.U.U.U.D.Y.D.B.I.R.U.B.B.U.R.U.D.D.D.B.B.D.B.D.V.D.D.D.Y.Y.D.I.D.D.V.^ N.Y.R.R.Y.R.D.U.U.U.D.B.e.4 2 4 u i T V V V 4.3.2.#.4.q.q.q.7.4.9.T.oX&X&X&X&XoXoX#X&XOXoXR.OX&X&X&X&X%X%XOXXX.XY.oX.XY.e.~ Y.Y.oXOX&X.XoXY.R..X.X.X.XY.D.Y.Y..XG.%XXXXXXXJ.G.G.}..XJ.J.J.J.F.A.G.J.J.S.S..XG.J..XG.A.G.J.G.J.G.S.J.G.S.G.G..XY..XXXXXOXXXOXXXOXY..XOX%XOX%X%X%XOXOXOX+X.XY.+X}.S.G.H.` R C.C.H.F.F.F.H.C.C.F.r.C.r.F.Z.H.e.C.C.{.Z.C.F.Z.r.C.F.H.C.H.F.F.",
"P.B.P.V.P.V.B.B.B.B.B.V.V.V.B.V.8.V.B.V.V.V.V.B.V.V.8.V.B.B.I.U.D.U.R.U.D.D.D.U.U.D.D.D.D.D.D.D.D.R.U.U.U.D.D.K.D.Y.Y.Y.D.D.D.D.D.D.U.D.U.D.D.D.8.8.N.B.B.Y.I.I.I.R.U.U.D.V.e.^ 4 2 4 2 x T T V 1.2.4.4.3.4.7.q.q.4.3.9.oXT.#XoX&XOX&X#XOXOX&XOX.XR.&X&XXXOXXXOXoXOXoXXXXXY.&X.XD.! A.XXXXXX.XR.Y.R..XY..XY.Y.XXY.Y.J..XXXXXOXXX.X.XG.J..X.XJ.J.J.S.S.A.G.J.J.G.G.G.J..XS.G.S..X.XJ.Y..XG.G.S.G..XY.G..X.XJ..X.X.XJ.XXOXOX%X=X%XOX%XOX%XOXOXOXOX%X+X}.G..Xe.! F.{.F.F.F.F.H.{.F.r.F.Z.C.C.C.Z.C.r.C.F.F.H.F.Z.Z.F.C.Z.H.F.F.F.F.",
"V.P.W.P.B.V.V.B.V.V.V.B.B.V.V.V.M.V.B.V.V.B.L.B.V.B.V.V.B.B.B.I.B.B.U.U.D.B.K.B.D.D.U.R.N.D.D.Y.R.D.D.U.B.D.D.D.Y.Y.Y.oXY.Y.D.D.D.Y.D.D.I.D.t.^ e.D.D.U.D.D.U.D.R.R.U.U.D.V.8.^ u 4 u - M T V V 1.1.3.4.4.4.9.q.q.7.4.9.U.#XoXT.&XT.&X&XoX.XoX&XoX&X&X&X&X&XOX.XXXXXXX.XoXG.Y.Y..X.Xe.! G..X.XI.I..X.X.X.XY.G.oXR.Y.XX.XG.J..XG.XX.XG.S.G.G.G.J.J..XF.A.C.S.G.G.Y.G.S.G.G.J.Y.J..XG.S.G.S.G.S.J..XJ.G.XX.X.XG.G..XG.XXOX%X=X%X%XOXOXOXOXOXOXOX.XOX+XXX.X` ! F.}.}.|.{.F.F.F.F.F.Z.{.C.F.F.C.Z.C.C.r.C.F.F.H.r.Z.F.F.H.F.F.F.C.F.",
"B.W.B.B.V.L.L.B.B.I.B.V.B.M.V.V.V.V.B.B.I.B.B.V.B.V.B.V.V.B.I.B.I.B.U.K.U.U.D.U.U.D.B.I.D.D.U.I.D.D.D.U.Y.Y.I.Y.R.Y.oXY.R.D.D.D.U.D.D.D.V.8.e.D.U.I.D.I.U.I.I.U.R.R.U.B.B.N.e.^ u 2 = & V V V V 1.3.4.4.4.7.7.q.q.7.7.9.D.D.R.&X&X&X&X#XOXoXoXOXoXoXOXOXOX&XOXY.R.R.oXR.Y..X.XY..XXX.XF.Y A..XoXXX.X.X.XY.Y.D..X.XJ.XXJ.J.Y.J.XX.XJ.G.G.G.G.F.F.M.S.F.G.G.G.G.S.G.G.G.S..X.XG.A.J.S.G.A.A.Y..XJ.G.G..X.X.XJ.Y..XJ..X.XOX=X=X=X%X%XOXOXOXOXXXXX.X}.OX+Xe.` +X}.}.}.}.}.F.F.{.C.F.C.H.C.H.Z.C.C.C.C.C.C.C.F.H.Z.C.Z.Z.F.F.F.F.F.F.",
"V.V.B.W.U.I.B.V.B.L.L.B.B.V.V.V.V.B.B.8.8.M.V.B.B.B.B.B.B.B.B.B.U.B.V.B.B.D.U.U.U.D.V.B.D.B.D.B.D.D.B.Y.D.D.R.R.T.Y.D.D.U.D.U.D.D.V.I.N.^ e.D.D.D.D.D.Y.R.I.Y.Y.U.U.D.B.M.B.e.` 2 $ $ - B B V T 1.3.4.4.4.4.5.q.q.7.7.7.B.B.V.D.Y.oX&XoXoXR.oXOXXXXX.XOXoX&XoXXXXX.XXXoXD..XY.G.oX.X.XY.F.~ ! Y..XoX.XY.I.R.Y.I.D.J.J.J.J.Y..XXX.XJ.G.J.G.S.S.F.S.G.J.J.S.S..XS.S.S.G.G.A.G.G.S.G.G.J.S.D.J.J.J..XJ.J.XXJ.XXXX.XXXOXOXOX*XOX*XOX.X.XOX+XXX.X.X+X+X%Xr.` +X+X+X}.|.|.F.F.F.F.{.F.F.F.C.F.C.C.C.F.F.F.F.F.H.C.C.C.C.H.F.F.F.F.r.Z.",
"W.V.B.P.B.B.V.V.V.B.B.V.B.V.M.V.V.V.8.8.V.B.V.V.B.B.B.V.U.U.B.B.B.U.U.B.V.B.U.D.D.D.D.Y.D.B.V.B.U.I.D.U.D.D.R.U.Y.Y.D.D.Y.U.D.D.D.B.8.t.D.D.B.D.D.D.U.R.Y.Y.Y.I.U.U.D.D.V.B.8.^ 2 $ $ # = t N 1.#.7.4.4.4.7.4.4.q.9.6.T Y V.B.U.D.Y.&XoXoXoXoXOXOX.XY..X&X&XOXXXOXOXXX.XD.oXXX.XXX.X.X.XY.G.e.E A.oX.X.XY.G.Y.I.e.Y.Y.Y.G.Y.OXOX+X.XS.F.G.G.J..XG.A.A.S.J.S.G.A.S.S.S.S.F.G..XA.A.S.G.G.G.J.J.J..XXXG..XXXOXOX%XXXXXXXXX%X=XOXOXOX.X.XXXOXJ.XX+XXXe.` OXXX.XOXOX+X}.|.{.F.F.{.F.}.}.H.F.C.F.e.C.F.{.F.F.F.H.C.F.F.Z.C.H.F.{.F.r.",
"L.P.P.I.P.B.I.B.V.8.8.8.8.Q 6.6.8.8.V.B.B.I.B.B.B.B.U.D.U.U.U.U.U.D.B.D.B.D.U.U.D.D.D.N.B.U.B.D.Y.D.D.D.D.Y.R.Y.R.R.Y.I.U.R.I.U.V.^ N.D.I.R.Y.I.R.R.Y.R.Y.R.oXU.U.U.D.D.M.M.8.e.1 $ & ' < & - x 1.4.4.4.4.4.3.4.q.q.3.x Y N.B.B.B.I.D.R..XoX.XOXXX.XR.oX&XXXOXOX&X%X&XoXoXoXXXXX&XOXY.XXY.Y.Y.N.Y e.G.Y.G..XXX.XG..XXXoX.X.XOXXXXXJ.S.F.F.F.S.G.S.S.G.S.F.S.S.C.C.S.A.A.G.J.J.J.G.G.A.A.G.G.J.G..XOX.XXX%X%X.XXXXXOXOXOX%X*XOXXXXX.XJ.OX%XXXJ..Xe.e..X.X+XOXOX@X+X+X+X}.|.}.}.F.F.{.F.F.F.F.H.C.C.Z.C.F.F.F.F.F.F.H.H.Z.C.Z.r.C.",
"B.L.P.P.I.P.V.8.V.V.8.8.8.8.Q Q 6.B.B.V.V.I.I.B.B.B.U.D.U.U.U.D.B.U.I.D.B.D.D.D.D.D.U.D.D.D.D.D.D.D.D.Y.Y.R.R.R.oXR.R.Y.R.R.D.t.N.R.R.U.Y.Y.D.D.R.T.R.T.R.R.R.Y.B.B.B.B.M.M.e.` = $ F U ` ` 5 & r V 3.7.4.4.4.4.q.q.2.2 Y N.V.N.N.N.N.D.D.R.Y.oXY.XXoXoXXXR.&X&X&X%X%XOXXXOX%XXX%XXX.X.XY..X.XY.D.8.Y A.I.Y.XXI.G.Y..XoXOXXXOXOXJ.XX}..XG.G.G.J.F.F.S.F.S.S.G.G.F.G.G.M.S.S.G.G.S.F.S.S.A.S.G.J..XOXXX.X.X.XOXOXXXXX.XOXOXOXOXOXOXOXOXXX+X+XXXe.e.OX+X+X+X%X%X%X%X+X}.+X}.F.F.F.{.F.F.F.F.F.F.F.F.{.F.F.F.F.F.F.H.C.H.Z.Z.Z.H.{.",
"L.I.P.B.V.B.V.B.B.V.8.6.6.6.8.Q 8.V.B.B.B.B.B.B.U.U.U.U.U.B.U.U.U.U.U.U.U.U.B.D.D.D.Y.Y.Y.Y.U.I.D.B.Y.R.T.oXOXoX&XOXR.T.D.M.e.R.T.R.R.R.D.B.D.8.V.U.Y.R.T.Y.R.U.I.U.V.B.V.e.e.` & o @ $ = R [.H & - N 4.4.7.7.7.q.q.M 1 Y B.N.N.D.N.B.V.N.G.I.oXXXoXY.R..X.XXX.XOXXX&XOX.XOX%XOX&XOX.XR..XR..XY.Y.I.D.Q e.A..XOXY.Y.G.D..X.XXXXXOXXX.XOX.X.X.X}.J.G.S.S.S.G.G.G.G.G.S.A.S.F.J.S.A.S.G.S.S.G..XY.XXOXXXXX.XOXOX%XOXXXOXOX.X.XXXXXOXOXOXOX.XJ.~ M.%X%XXXOX%XOX*X*X*X@X+X}.}.|.|.|.{.F.F.C.F.{.F.Z.F.}.F.F.F.F.F.F.}.F.F.F.F.H.C.F.",
"P.W.I.P.B.P.V.B.B.V.6.6.8.8.8.8.M.M.U.I.U.B.I.U.U.R.R.U.U.U.R.R.D.D.U.D.R.Y.D.D.D.D.Y.Y.U.D.Y.Y.Y.U.R.oXoXOX&XoXoX#XoXD.8.D.Y.R.oXR.R.U.D.Y.U.D.Y.I.U.R.R.R.Y.U.I.U.B.B.V.e.e.` & $ u 2 & & & = 1 & & M 4.9.7.7.q.7.& = v V.N.N.B.N.N.N.N.A.N.G.Y.G.Y.R.Y..XoXoXoXoXR.oX.X.XOXXX.XXXOX%X.XI.D.I.D.D.D.G.e.Y D..X.XXXXX.XoX.X.X.XOX%XOXOX.X.XG.J..X.XG.S.A.G.A.M.G.A.A.G.S.G.G.S.S.S.J.J.G.A.A.D..X.XY.OXOXXX%X%XXXOXOXOX.X}.J.XXOXOX%X+XS.^ ` .X%X%X*X%X@X@X*X}.*X*X*X}.+X+X|.|.{.F.F.C.F.F.F.}.F.F.C.H.F.F.F.Z.Z.e.Z.Z.F.H.F.F.",
"W.P.P.P.P.I.I.I.V.V.8.B.L.B.B.U.B.B.U.U.B.B.U.U.U.U.U.U.U.U.U.R.U.U.U.K.U.U.U.R.oXR.Y.D.D.D.U.T.Y.R.R.OXoX&XoXR.Y.U.M.M.R.Y.R.T.Y.T.T.R.oXT.Y.D.D.I.U.R.D.I.D.D.N.B.U.B.B.M.e.` @ & T T x v 1 = 1 = = - M 9.7.5.9.i & = 4 N.e.N.N.N.D.N.t.N.A.N.D.A.Y..X.X.X.XOX.XXXoXY.D.Y.oXY.XX&XXX%XOXoXY.I.I.Y.Y.D.A.e.M e..XY.XXXXY..XXXOX.XOXXXXXXX.XJ.G..X.XF.S.G.A.S.S.S.e.S.S.A.A.A.G.G.G.C.S.S.A.A.S.J.G..XOX%X%X%X%XOXXXXX%X.X.XJ.XXJ.+X+XF.` C.%XOX+XOX=X=X*X*XOXOX%XOX+X+X+X+X+X}.}.}.F.S.{.|.}.F.}.F.F.C.C.F.F.F.F.Z.{.Z.F.F.F.F.",
"U.P.P.B.V.I.B.B.L.L.I.U.U.U.U.U.I.U.U.D.B.U.U.B.U.U.U.U.U.U.U.R.R.B.U.R.R.R.oXoXOXoXT.D.Y.R.Y.U.D.R.oXT.T.R.Y.R.D.8.Y.oXOXoXY.U.OX&XT.oXoXR.D.U.I.Y.Y.D.I.Y.D.I.D.B.B.D.D.V.e.~ & 2 7.9.4.7.i 2 = = 1 - - M 9.5.N & 1 2 G N.N.N.N.N.e.e.e.r.r.N.N.A.D.G..XXXXX.XoXoXR.Y.D.R.&XOXXXXXOXOXOXoXoXoXY.XXY.Y.G.D.A.! ~ G.Y..X.XXXXXXXXX%XG.J..XG..X.X.X.XG.S.J.A.J.G.G.A.G.A.G.J.G.S.S.S.S.G.G.G.F.S.A.S..XOX%X%X%XOX%XOX%XXX.XG.+XJ.S..X}.` F.XX%X%X+X%X%X%XOXOXOXOX+X@X+X*X+X+XOXF.{.}.}.}.}.F.|.H.F.C.C.F.F.H.F.F.{.F.F.Z.Z.H.Z.Z.",
"R.U.U.U.U.L.B.V.B.L.R.R.U.B.U.U.U.U.U.R.U.R.R.U.U.U.U.U.U.R.R.T.T.oXT.R.oXoXR.T.oXoXoXD.R.U.U.oXY.R.R.Y.Y.R.R.e.N.OX&X&XOX#XoXY.oX#X#XoXT.R.oXR.I.D.U.U.D.D.D.I.D.D.B.D.U.N.e.~ & i 9.9.q.4.T E t 1 = 2 2 2 N 7.= & 2 4 ~ B.B.B.N.N.N.e.t.A.e.N.e.e.e.N.D.R..XXX.XoXR.XX.XY.R.oXXXY.OXOX.XXXXXXX.XY.G..XY.D.S.S.8.Y N.Y.XXOX.XOXOXOXXX.X.XJ.OX+XG.G.J.J.J.J.G.S.S.G.F.A.F.J.J.A.S.S.S.S.G.J.}.S.G.J..XOXOXXX=XXXXXOXOXOX.XJ.S.G.G.C.~ S.%X+X=X%X=X=XXXXX}.OX%X%XOX@X+X*X*X@X+X}.}.{.{.}.}.}.|.F.F.C.{.{.F.F.F.F.{.H.H.H.F.F.{.{.",
"R.R.U.U.B.L.I.B.U.U.R.U.U.B.B.B.U.U.U.R.U.8.M.U.U.U.U.U.R.U.U.T.T.oXU.T.oXR.T.D.R.oXoXR.T.Y.R.T.oXR.U.D.R.V.e.D.oX#X&X&XoXoXoXoXoXoXR.oX#X#XoXY.B.D.U.B.B.B.D.U.D.V.D.D.D.e.e.E < B 4.5.9.4.3.3.T G u - 4 4 - u # < 2 Y 9.V.V.B.D.N.e.e.e.A.N.A.r.t.A.A.N.D.Y..X.X.XR.oXXXXXR..X.X.XXX.XG..X.X.X.X.XY..XY..XG.D.A.G.~ ^ G..XXXXXOXXXXXXX.XOXOX.XG.S.G.F.S.J.S.S.G.F.S.S.C.G.J.G.G.S.G.G.G.S.G.G.A.J.G..XOXXXOXXX.X.X.X.XOXOX+X+XS.~ G.OX*X*X=X+XOXOX+X=X%X%X%X%X+X+XOXOX*XOX+X}.+X+X}.}.}.}.F.|.{.}.{.F.F.Z.Z.F.{.{.F.F.H.F.{.{.",
"R.U.U.U.U.R.W.U.I.B.B.R.U.D.L.U.U.R.T.R.U.U.U.U.U.D.T.U.B.I.R.U.R.R.R.oXoXoXoXoXR.T.R.oXD.Y.T.oXY.D.Y.Y.8.N.I.oXOX&X&X&X&XOXOX&X&XoXR.R.T.oXR.R.Y.U.U.R.U.U.N.Y.D.V.U.I.D.N.8.Y 2 N 4.4.5.4.4.3.3.7.T t = 6 3 # # 1 u y.9.8.D.B.B.e.t.D.N.A.A.N.r.D.N.N.D.t.N.G.D.Y.Y.oXG.Y.Y.XX.XXXXXXXY.Y.N.D..XY.D.Y..XXXY.Y.Y..XY.e.Y r.Y.OX%XOXXXXXJ.OXOXJ.G.J..XG.J.G.G.S.G.J.S.S.G.A.J.G.}.S.G.G.}.S.A.S.G.J.G.Y..XOXOXOX.XJ.OXOXOXXXJ.A.~ }.OX+X.X%XOXOXXXOX}.OX+X%X@X+X*X*X@X+XOX@X@X}.|.|.}.}.F.}.{.}.}.{.C.{.{.Z.C.F.F.F.F.F.Z.Z.F.Z.",
"U.U.U.L.U.U.U.L.R.T.T.T.U.R.R.R.U.R.U.U.U.T.U.D.R.U.R.U.U.U.R.R.U.D.U.T.R.T.oXoXR.R.oXOXoXoXR.D.D.V.V.e.R.Y.Y.oXOX&XOXOX&X&XOXOX&XoXoXoXoXR.R.oXD.R.Y.R.R.D.D.Y.D.D.D.D.B.V.8.v 2 N 3.4.5.5.7.3.4.9.7.Y t 1 5 < & & 6.y.q.t.D.B.D.N.N.A.G.S.A.N.A.D.S.A.t.e.N.D.D.D.I.A.D.A.Y.Y.XX.XXXY.Y.G.Y..XY.G.Y..X.XY.Y.Y..XY.J.D.D.Y ~ .XOX%XXX.X.XXX.XG.J.XX.XJ.}..X.XS.J.G.A.S.G.A.S.G.G.S.G.G.}.G.G.G.}.}.G.J.J.J.XXOXXXOXOXXX.XA.A.^ J.%XXXOXOXOXXXXX+X%X.XOX+X}.@X%XOX*X@X*X+X+X+X@X+X|.}.}.}.|.{.{.}.}.F.F.|.Z.F.F.F.{.F.F.H.C.r.Z.",
"U.T.R.L.V.L.L.R.T.R.U.U.R.U.R.T.R.B.U.U.U.R.R.D.R.T.U.U.R.R.U.U.R.R.R.R.T.T.oXoXR.R.oXT.oXoXD.Y.V.6.8.R.R.Y.R.R.oXOXOXOX&X&X&X#X#X&XOXY.T.R.oXT.R.U.Y.I.R.Y.I.D.D.D.N.V.V.e.8.v 4 M 1.#.4.q.4.4.4.5.9.6.T t 3 3 & t 9.y.P.V.B.N.D.N.N.N.S.N.A.A.N.A.A.A.e.A.A.N.D.D.N.A.Y.D.I.G..X.XY..XY.D.R.Y.Y.Y..XY..XY.I.Y.Y.R.Y.G.S.A.e.Y S.XXOX%XXXXXF..XG..X.XXX.XJ.J.J..XG.G.S.G.S.A.S.}.G.G.G.S.}.}.H.}.}.J.}.}.XXOXOX.XXXOXXXOXG.~ }..X*X%X%X%X+XG..X}.OX%X%XOXOX+X*X{.OX*X@X|.{.OX*X+X+X+X+X+XF.{.{.F.}.F.F.{.F.{.H.F.{.|.|.H.F.F.F.",
"L.U.L.U.I.U.B.R.R.R.U.U.U.U.U.R.U.R.U.R.R.U.U.U.U.U.U.U.U.U.V.U.B.R.U.R.T.R.R.R.Y.oXoXY.oX.XY.e.N.Y.R.R.R.R.Y.D..XOXoX&XoXOXOX&X#XoXT.D.D.T.R.T.D.D.D.V.U.Y.R.T.D.I.B.D.N.e.e.c 2 i T #.5.P.#.3.4.4.9.9.7.B < 1 & B 9.P.y.t.V.D.D.N.N.S.N.D.N.A.t.A.r.r.A.e.e.N.A.A.N.A.N.D.Y.S.Y.Y.G.Y.Y.D.D.I.D.Y.R.G.Y.I.S.D.Y.G.J.Y.D.Y.G.J.~ e.OX.XJ.OXJ..X.XF.}.J.S.J.G.G.J.G.G.J.}.J.S.S.G.S.G.G.}.}.G.}.}.}.J.G.G..X.XXXJ.XXOX+X}.` }.+X+XOXOXXXOX.X.X+X+X.X+XOXOXOX+X|.+X@X+X}.}.{.|.@X*X+X+X+X+X{.F.}.}.}.}.}.}.{.}.{.{.F.F.|.{.|.|.F.",
"V.U.L.V.U.U.U.R.R.T.U.U.U.U.R.U.U.R.R.T.V.U.U.U.U.U.R.U.U.D.K.R.U.U.V.U.R.Y.D.R.oXT.Y.R.oX.XN.G.D..XR.Y.oXoXR..X&X&XOX&XOX&X&XoXoXU.R.D.D.D.U.U.D.&XR.Y.R.Y.Y.D.D.I.D.D.N.e.e.c 2 & E #.q.m.#.#.4.#.9.9.9.6.t = - V 9.P.q.V.B.D.D.N.N.A.D.A.S.G.D.S.e.A.S.e.r.r.N.e.e.A.A.A.Y.F..X.XG.D..XY.D..XG.D.G.A.D.Y.Y.G.Y.Y..XY.G..XY..X.Xe.~ A..X.X.XOX.XG.G.G.S.}..X.XG.G..X.XG.G.G.S.G.A.S.G.S.S.G.}.G.G.J.J.G.}.}.J..X.XOXJ.` }.XXOXOX+XXX%XOX}..X%XOX}.+XOX+X+X+X|.+X@X+X{.OX|.|.+X+X+X+X+XOX|.{.{.}.}.F.|.|.}.}.|.|.F.H.{.F.F.{.Z.",
"t.B.U.L.U.U.R.R.T.T.R.U.R.T.R.U.U.R.R.R.U.R.R.D.D.B.U.U.U.K.B.D.R.R.U.T.R.K.Y.R.oXU.U.D.N.N.D.R.R..XoXR.OX.XoXOX&X&X&X&X&X&XR.G.U.D.R.I.G.U.oXoXR.R.U.T.I.D.I.Y.Y.Y.Y.I.N.e.e.c 4 $ t N 5.m.#.V 4.C 4.9.9.9.B % r M q.y.9.9.B.B.N.N.e.N.A.G.G.S.G.S.A.D.A.N.S.D.A.A.M.A.e.e.M.A.G.G.G..X.X.XY.G.G.D.Y.D.Y..XY..XR..X.XD.D..XoXR..XOXJ.~ e.A..XXX.XJ.J.J.S.G.OX}.}..X.X.XJ.}.J.}.G.}.G.G.+X}.G.}.G.J.S.G.J.F.G.G.XX.XA.` J..XXXXX.XOX%XOXOX.X+X=X.X+X+XOX+X+XOX|.+X+X}.+X@X+X+X}.}.+X+X+X}.}.{.+X+X|.}.{.|.}.}.{.+X}.{.|.|.Z.H.{.",
"x t.U.U.U.R.T.T.T.R.U.R.R.U.R.U.U.U.R.U.U.U.U.R.R.U.U.R.D.U.D.Y.D.U.U.Y.R.oXR.Y.D.Y.D.8.D.oXoXR.Y.oXoXY.OXoXoXoXoXOX&X&XOX%X.XY.Y.Y.N.Y.D.oXR.R.oXR.oXoXR.I.U.D.I.R.D.D.D.e.e.c 4 # . y 4.m.3.#.3.n #.3.#.3.3.& - N 9.7.3.6.D.N.N.D.D.A.r.A.G.D.A.N.D.G.D.A.D.G.S.A.A.M.A.e.M.N.M.r.A.D.F.D.Y.Y.S.e.Y..X.XXXOXXXOXD.Y.I.oXoX.XXX%X%XOXXXC.~ G.+XXX.XJ..X}.J.XXS.J.J.J.S.+XG.}.G.G.}.}.A.+X}.G.}.S.S.G.G.S.G.G.}..Xe.^ J.OXOXXX.X+XOX+X+XOXOX%XOX+X+X+X+X+X}.}.+X+X+X}.OXOX+X+X+X+X+X|.{.H.}.}.+X|.}.}.F.}.}.F.{.+X|.|.|.}.{.|.|.",
"Q x M.B.R.R.R.T.U.R.U.R.T.U.R.U.U.D.R.U.U.U.U.T.R.D.D.U.U.R.D.D.B.R.R.R.Y.I.U.Y.N.e.G.oXR.oXOXOXoX&XY.XXOXY.Y.oXOX&XOXoXoXoXoXR..XR.R.oXoXY.oXR.Y.R.T.T.R.U.U.Y.R.I.U.D.N.e.8.b u = + r 1.5.1.%.q.C #.#.p N 3.4 - 1.9.7.1.Q D.N.N.e.N.N.r.A.G.S.A.D.A.A.A.A.G.A.A.M.A.A.S.e.A.S.A.e.M.S.G.A.D.G.Y.D.G.Y.R..XY.Y.XX.X.XoXoXOXoXoXXXXXXXXX+XJ.~ e..XXX.XJ.G..X.X.XJ.G..X}..XG.G.S.}.}.+XG.}.G.}.G.F.A.G.A.S.G.S.}.e.e.J.+X%X+X%XOXOX+XOXOXOX+X%X+X}..X+X+XOXOX+X+X+XOX+X}.OX}.}.}.|.F.}.OX|.{.{.}.}.}.+X+X+X}.}.|.|.|.+X+X+X|.{.F.",
"M.^ b V.D.D.R.oXR.U.R.T.R.R.R.U.D.U.R.U.R.U.U.D.B.U.U.U.U.T.R.D.D.D.D.R.D.D.D.e.8.R.oXoXoXR.oXOXXXoXOXoXoXR..XOXoXY.&XoX.X.XXXoXoXR.Y.R.R.N.oXU.I.R.R.T.OXY.D.D.I.Y.Y.D.N.N.e.v u 6 & & M T V 4.q.V 3.7.N 4.9.i M 3.5.q.7.3.I.D.R.N.N.N.A.A.S.r.e.A.S.A.G.A.S.S.S.A.S.A.S.e.A.A.S.A.A.S.F.A.D.D.I.D.Y.Y.R.Y.I.Y..XXXXXXXXX.X.XG..XXXOXXXG.+X.Xr.! }..XS.G.}..X}.XXG.G.XX.XG..X}..X.X+X+X+X+X}.S.G.S.J.J..X}.S.e.e.J.+XOXOXOX.X.XOX*X+X+X.X%X%X+X+XOX}.+X@X+X+X}.+XOX+X}.}.}.}.{.}.|.}.}.|.}.}.+X+X+X|.+X}.+X}.+X}.|.F.|.@X|.|.+X",
"B.B.Q b M.B.R.R.U.U.R.T.U.D.U.T.D.T.U.U.U.B.R.R.U.U.R.B.U.T.T.U.D.B.D.D.U.e.^ e.Y.Y.Y.oXG.oXOX&XY.OXOXoX.XY.oXOX.XoX&XoXR.OXOXoX&X.XY.Y.oXOXR.U.T.#XT.R.R.R.D.D.I.R.R.D.D.N.e.v u u 1 $ - t N q.P.#.4.q.#.5.5.M q.4.4.q.q.9.V.B.Y.D.Y.D.D.N.A.A.A.S.D.A.F.G.S.A.A.A.A.A.e.N.A.e.C.C.A.S.S.S.e.A.A.D.D.D.I.Y.Y.Y..XXXXXY.XXXXXXR..XOXOXXX%X%X+XXXG.~ e..XG.A..X.XXXJ.J..X.X.XXX.X}..X.X+X.X.X}.}.}.G.J.G..XS.` e.+X|.}.OX.X%X=X%X%X=X=X+X%X%X%XOX%XOXOXOX+X+X*X+X+X+X{.+X+X}.}.{.}.}.}.{.F.}.|.|.}.|.}.}.+X+X}.}.@X*X|.|.@X+X@X{.",
"B.B.N.Y x B.U.T.U.U.U.U.oXT.M.R.D.T.U.I.R.T.R.R.U.U.R.R.T.U.T.Y.N.R.D.V.8.8.Y.R.T.Y.R..XR.oXXXoXoX.XR.oXY.oXR.R.oX.XoXOXR.R..XR.oXY.R.D.R.OXoXY.oXOXoXR.oX#XT.R.R.I.R.D.D.A.e.! u u 3 $ X % 3.5.5.1.q.m.%.q.q.2.m.5.4.9.9.9.e.D.Y..X.XG.S.e.G.D.D.J.G.A.M.G.M.A.A.M.A.M.A.e.A.A.M.e.S.S.A.A.A.A.A.D.D.D.D.Y.Y..XY.Y.XXI.oXoX.XXXXX.XXXXXXXOXOXOX.XH.e.~ S.S.}..X+X.XOXXXXX+X+X.X+X.XG..X.X.X+X+X.X}.G.G.A._ e.S.+X}.+X%X=X=X%XXX+X=X=X%X+X*X*X*X*X*X*X*X+X}.|.@X@X+XOXOX@X|.}.}.}.F.}.}.+X}.|.F.+X}.+X|.+X|.}.}.*X@XOX+X+X|.{.{.",
"U.U.R.D.Y Y B.R.T.U.R.U.R.D.V.R.U.U.T.T.R.R.U.U.D.U.U.U.oXR.D.U.R.R.M.e.V.D.R.R.T.oXoXR.R.oXR.XX.XY.oXoXY.I.Y.D.OX.XoXXXOXY.D.Y.D..XoXoXoX&X.XoXXXI.R.T.oXT.R.oXoXR.D.D.A.A.M.! u u 6 & $ - t.E.7.4.7.q.4.q.q.2.q.E.E.E.y.9.N.D.R.oXY.I.G.Y.G.G.S.S.A.S.G.A.A.M.A.G.A.e.r.e.r.e.e.r.A.A.S.A.A.A.A.G.A.G.I..X.XY.Y.Y..XI..X.XY.Y.G..XXXXXXXOXoX.XXXOX+X}.^ ~ }..XXX+X+XXXOX.X+X.X+X}..X+X+X+X.X.X.X.XG.A.^ r.G.G.XXF.+XXXOXOX+XOX%X*X*X%X.X}.+X*XOX*X%X%X%XOX{.OX+X+X+X+X+X|.+X|..X}.}.+XF.}.|.|.+X}.|.}.{.+X@X@X+X@X*X@X@X@X+X}.",
"U.R.U.U.V.B Y D.T.R.T.R.D.D.R.R.U.U.R.R.R.R.D.U.U.U.D.R.T.T.U.Y.D.6.t.R.T.&XOXoX&XOXoXoXoX.XR.oX.XR.Y.oXR.Y..XR.oX&X.XR.oXY.Y.oXoXoXY.R.&XOXOX.XoXXXoXoXOXR.oXR.oXoXY.Y.G.D.M.e.H = c 6 = & T y.7.P.E.7.q.y.q.1.q.E.E.E.E.y.e.N.R..X.X.XY.Y.G.S.G.A.A.A.G.A.C.A.S.S.S.S.A.C.A.C.e.C.A.A.S.M.A.S.M.r.A.F.D.J.J.Y.Y.Y..XG.G..X.XR..X.XXXXXXXOX%XOXXXOXXX+X}.e.^ G.J.G..X.X.X}..X}..X}..X.X.X.X+X.X}..Xr.~ e.}..XS..X.X+XOX+X%X%XOX%X=X=X=XOX+X}.+XOX*XOXOXOX}.H.{.OX}.}.+X|.+X+X}.|.{.|.}.|.|.}.}.|.}.}.{.+X+X}.{.+X+X*X*X@X}.|.+X",
"U.U.U.R.B.8.b Q T.T.U.U.T.R.T.U.R.U.R.T.T.U.U.U.D.B.U.D.D.D.U.8.8.U.oXOX&XoXT.oXoXOXOXOXR.oXR.Y.R.R.Y.oXR.Y.oXR.I..XY.Y.OXY.Y.oXoXY.oX&X&XXX&X.XOX.X.XOX.X.XR.R.OXR.Y.Y.A.S.N.M.! 6 < 5 4 = % i y y.E.9.E.sXE.N 7.y.E.sXsXy.e.I.R.XXOXXXY.G.D.A.S.S.S.S.S.S.A.S.S.A.S.A.A.A.C.C.r.e.M.G.S.A.A.A.A.M.A.A.C.S.G.D.Y..X.XY.Y.G.R.XXXXJ.J.XXOXXXoXOXOXXXOX+X+XOXA.! ~ S..X.X.XOX.X.X+XG.+X.X}.}.+X+X+XS.! e.}.+X+X.XXX.X+X+XOX%X+X=X=X=X%XOX*X+XOX*XOX*X+XOX*X+X+X}.OX}.}.|.|.|.|.}.|.+X}.+X}.+X}.}.}.F.+XOX+X+X}.}.+X+X@X+X}.|.+X|.",
"U.U.U.K.D.V.t.y Q B.U.R.oXoXR.R.R.U.R.oXU.U.U.U.B.D.I.D.Y.D.^ e.Y.T.OXoXoXT.T.oX&XOXOXoX.XY.Y.Y.R.oXY.R..XoXY..XY..XR.R.oXOXoXoXoXR.OX&XOXOX&X.XoXR.R.R.R.oX.XoXoXR.oXI.A.G.A.M._ R 1 = 2 2 & # o i E T E.sXE.- 1.7.y.sXsX7.N.Y.oXXXOXOX.XD.D.G.S.S.J.G.A.e.S.S.F.G.A.A.A.e.A.A.C.A.S.S.F.A.A.C.r.C.A.C.M.N.S.F.Y..X.X.XY.G.oXY.Y.J.XXOXXXXXXX.X.X.X.X.XXX+X.XG.` ! A..XXXXXXX.X.XG.+X+X+X+X+X.XF.~ H..X+XOXOX.X+X.X+X+XOX+XG.%X+X%X%X+X=XOX+XOX+X@X+X}.+X*X@X}.}.}.}.}.}.|.}.}.}.+X{.|.|.}.+X}.}.}.{.|.}.}.+X+X}.}.}.@X@X+X@X+X",
"U.U.U.U.U.B.B.t.v ^ U.R.oXoXT.R.T.U.R.R.U.U.B.U.R.U.B.V.M.e.D.D.R.oXoXT.oXOXoXoXoXY.R.R.R.R.oXR.D.oXY.R..XOXoXoXD.R.D.I..XY..XN.R.oXOX&XOXXXoXOXoX.XoXOXOXoXR.oXoXY.Y.D.Y.Y.D.S.r.` G 3 > 1 3 2 & % o % E t.H . r 1.y.E.oXY N.D..X.X.XY.XXG.G.D.S.S.G.G.S.F.A.A.S.G.A.A.C.C.A.S.r.C.S.A.S.A.C.C.C.C.M.A.A.M.M.A.D.Y..XY.Y.Y.oX.XXXXXXX.X.X.XOXOX.XXXJ..XXX+XOXS.G.e.H e.G.XX.X.X}.}..X.X+XOX.XM.~ }.+X+XOX}..X+XOX.X.X.X}.}.}.OX}.+XOXOX+X+X+X}.}.}.OX*X+X}.+X}.}.+X+X+XF.F.|.}.}.+X+X+X|.+X+X}.|.+X+X}.+X}.}.+X}.OXF.|.@X+X@X+X",
"U.R.U.U.U.U.B.U.V.x 6.T.oX#XT.oXT.&XR.R.I.U.D.U.R.D.V.8.B.oXR.U.R.T.R.oXOXoXOXR.Y.Y.Y.R..XoXoXoXY.oXoXR..XR..X.XR.Y.Y..XoXoXoX.X.XoXR.oXY..XT.OXoXR.OX&X&XY.G.R.Y.G.D.D.I.G.J.S.S.e._ G 6 = & = 2 1 2 1 & $ # & & - M E u ~ N.Y.R.I.S.OXOXY.J.G.S.S.S.G.A.A.G.A.G.G.S.C.A.A.F.A.A.S.S.G.A.C.A.A.C.A.e.C.A.A.M.A.S.S.D.G.G.F.Y.Y.XX.XXX.X.XXX.XOX%XOX.X.XOX+X+X}.J.G.C.~ ! G..X+X}..X}.}.OX%Xe.E G.+X+XOXOXOX+X}..X}.{.F.}.+X.X.X+X*X*X+XOXOX@X@X|.{.{.+X|.{.}.}.}.Z.{.+X+X}.}.F.}.|.+X@X+XF.F.|.|.*X*XOX+X|.}.+X+X@X|.+X@X+X@X+X"
};
