/* XPM */
static char *be5a589d976042e590466e159aab8fabuFLHmyeLv8qlnFBT[] = {
/* columns rows colors chars-per-pixel */
"128 128 256 2 ",
"   c #080407",
".  c #09060A",
"X  c #0C090D",
"o  c #140C0A",
"O  c #1B120C",
"+  c #0E0C11",
"@  c #120E11",
"#  c #180F10",
"$  c #151214",
"%  c #1B1719",
"&  c #26160C",
"*  c #331C0F",
"=  c #261C16",
"-  c #3B240C",
";  c #29221C",
":  c #36261A",
">  c #1E1A21",
",  c #231D24",
"<  c #252423",
"1  c #2A2524",
"2  c #2B2A25",
"3  c #2C2D2A",
"4  c #382B25",
"5  c #33322D",
"6  c #3B3429",
"7  c #2F2D33",
"8  c #333432",
"9  c #3A3A35",
"0  c #481B0A",
"q  c #51340B",
"w  c #472B18",
"e  c #4C3516",
"r  c #563918",
"t  c #693917",
"y  c #442C26",
"u  c #473628",
"i  c #563927",
"p  c #473D34",
"a  c #523C34",
"s  c #633E27",
"d  c #703A24",
"f  c #3A413C",
"g  c #5C450D",
"h  c #5C4314",
"j  c #5B4419",
"k  c #684808",
"l  c #714E08",
"z  c #795708",
"x  c #654A16",
"c  c #6C5318",
"v  c #775914",
"b  c #7D621C",
"n  c #5B422C",
"m  c #4A4336",
"M  c #554D37",
"N  c #564738",
"B  c #67462A",
"V  c #734B29",
"C  c #6C5323",
"Z  c #775629",
"A  c #684A35",
"S  c #734D36",
"D  c #6A523A",
"F  c #785638",
"G  c #3A3646",
"H  c #443D4C",
"J  c #3B4744",
"K  c #3D4C4C",
"L  c #3E4452",
"P  c #464A48",
"I  c #564C46",
"U  c #43514E",
"Y  c #48544F",
"T  c #5C5349",
"R  c #494755",
"E  c #455351",
"W  c #4B5753",
"Q  c #565956",
"!  c #665749",
"~  c #6F564C",
"^  c #775A45",
"/  c #665B54",
"(  c #57615C",
")  c #6D624E",
"_  c #7A644C",
"`  c #6B635A",
"'  c #776957",
"]  c #7C735B",
"[  c #50576D",
"{  c #655B65",
"}  c #5B656A",
"|  c #696766",
" . c #776C64",
".. c #7B7368",
"X. c #6C7173",
"o. c #777877",
"O. c #8E3B18",
"+. c #86590B",
"@. c #B15216",
"#. c #896509",
"$. c #936D0D",
"%. c #9A7509",
"&. c #876715",
"*. c #997515",
"=. c #A37C0B",
"-. c #A67913",
";. c #8C562C",
":. c #845C38",
">. c #AF5828",
",. c #89643A",
"<. c #946B30",
"1. c #A97736",
"2. c #B27231",
"3. c #C9611D",
"4. c #CB641D",
"5. c #C96726",
"6. c #D46C27",
"7. c #D77430",
"8. c #845C45",
"9. c #905E4C",
"0. c #896648",
"q. c #936A49",
"w. c #977349",
"e. c #876854",
"r. c #946B55",
"t. c #86785C",
"y. c #987557",
"u. c #A8794E",
"i. c #857A62",
"p. c #8B7D64",
"a. c #837769",
"s. c #8B7D6B",
"d. c #977A65",
"f. c #877C72",
"g. c #947E78",
"h. c #A67966",
"j. c #C6794D",
"k. c #7F8205",
"l. c #7A837B",
"z. c #8B811A",
"x. c #AB840C",
"c. c #B58C0B",
"v. c #AB8514",
"b. c #B38C16",
"n. c #BB9217",
"m. c #AF8A2C",
"M. c #B98438",
"N. c #C68A38",
"B. c #D08D37",
"V. c #D99730",
"C. c #D59739",
"Z. c #EEA933",
"A. c #E8A639",
"S. c #B3864A",
"D. c #8C8166",
"F. c #8E816C",
"G. c #948460",
"H. c #928265",
"J. c #94846C",
"K. c #98876C",
"L. c #9A8A6D",
"P. c #9D926F",
"I. c #8C8274",
"U. c #8A847A",
"Y. c #928573",
"T. c #968975",
"R. c #9C8C73",
"E. c #938679",
"W. c #958A7B",
"Q. c #9B8D7A",
"!. c #9F9173",
"~. c #9E917D",
"^. c #AA8A6C",
"/. c #A18E74",
"(. c #A29275",
"). c #A3937B",
"_. c #A9987C",
"`. c #C58646",
"'. c #D49448",
"]. c #DEA34F",
"[. c #546186",
"{. c #72778B",
"}. c #817E82",
"|. c #7B8785",
" X c #7C8296",
".X c #7F8AA3",
"XX c #8A8A84",
"oX c #958D84",
"OX c #9B9486",
"+X c #888F92",
"@X c #99979A",
"#X c #A39581",
"$X c #A89A86",
"%X c #A69A93",
"&X c #97A498",
"*X c #A9A497",
"=X c #B4AB96",
"-X c #898FA4",
";X c #9797A8",
":X c #9697AD",
">X c #9A9BAD",
",X c #979AB1",
"<X c #9B9CB2",
"1X c #A59BAA",
"2X c #B39BAB",
"3X c #A39CB2",
"4X c #9FA1AE",
"5X c #9EA1B3",
"6X c #A7A5A6",
"7X c #A3A4AD",
"8X c #ABAAAD",
"9X c #B3ADA9",
"0X c #A6B4A6",
"qX c #BAB4AA",
"wX c #A3A4B3",
"eX c #A8A7B5",
"rX c #ADACB3",
"tX c #A4A6BA",
"yX c #A5A9BB",
"uX c #AAACBB",
"iX c #B3ADB4",
"pX c #AEB1BC",
"aX c #B3B2B4",
"sX c #BAB5B3",
"dX c #B9B7B9",
"fX c #CF948A",
"gX c #C6B799",
"hX c #C4BAAA",
"jX c #C4A9B4",
"kX c #C3BCB3",
"lX c #C3BDB8",
"zX c #BEC1BB",
"xX c #CAC3B9",
"cX c #D4CAB0",
"vX c #D6CAB6",
"bX c #E4D6BA",
"nX c #F0E1BD",
"mX c #A6AEC2",
"MX c #ADADC2",
"NX c #B4AEC3",
"BX c #ABB2C6",
"VX c #B5B4C4",
"CX c #C7C4C3",
"ZX c #D4CDC2",
"AX c #DCD3C4",
"SX c #D7D5D7",
"DX c #E6DBC7",
"FX c #E2DED8",
"GX c #EBE2CB",
"HX c #F1E6CD",
"JX c #F6EBD5",
"KX c #FCF4DA",
"LX c #EFECE6",
"PX c #FBF8E8",
"IX c #FCFAF4",
"UX c #FDFBFC",
/* pixels */
"2 5 8 3 1 < < % $ $ $ ; ; 2 5 9 6 2 ; ; % $ % % = ; 2 2 2 6 p M m m M m 6 6 6 5 2 6 ; 6 2 6 4 u m m M ) D.M u 6 u T D.D.i.p.D.D.D.p.p.D.D.t.i.i.i.i.i.s.p.D.p.p.i.D.i.] i.p.i.] ] ) ) ! ! `  ...../ T I I I I I P P I T / | | | | | | | | | / T I H 9 9 9 9 8 9 ",
"< 5 9 5 3 2 < < % ; < < ; 2 3 2 2 2 ; $ % $ $ % % 1 1 p p m p 6 1 = % % ; ; 2 6 2 6 6 6 6 M M M m m u m p p 6 : 6 6 u M M M D ) t.i.D.K.J.J.J.J.D.p.i.] p.p.p.F.D.D.] ] t.i.i.i.t.t.t.i.a.] ' M M ! T / ' a...| T I I I I I P P I / ` ` ` ` ` ` | | | | Q I I Q ",
"3 2 8 1 1 ; 1 < % % 3 3 2 2 3 5 5 3 3 % @ $ % = ; 5 5 5 2 1 % % $ % = % ; ; 6 9 p p M m m 6 ; 2 4 6 6 4 6 u 6 p m M M D M M u : : 6 6 6 u u m t.p.T.J.F.F.p.p.p.p.a.i.i.t.p.t.] ] ] ' _ ' ] i.D.i.] ] ] ) ) ! T / `  .a.o.| Q I I I I I / ` ` ` ` / ` ` ` ` ` ` ",
"5 8 3 3 3 8 3 5 5 3 8 8 1 3 < < 3 < 2 3 2 ; ; < 2 5 5 5 3 3 % $ $ % % % ; 6 6 p m 5 2 % = = ; ; ; 6 9 m M m m M M 4 : 4 4 4 6 m 6 p m M M M T M u 4 u u u ' J.F.D.D.p.i.p.D.p.D.p.F.i.] t.] ' ] ' ] t.i.t.i.t.t.i.] ] ` ' ) ' ` /  .f....... .` / ` ` / Q Q T Q ",
"3 8 3 3 3 8 7 8 8 5 8 8 3 3 8 5 7 8 3 3 2 2 2 < 2 2 3 3 2 3 3 < % ; ; < 2 5 5 2 % % % % ; ; ; = 6 m m p 9 6 2 6 2 : 6 6 2 m M M M M M m 4 4 6 6 6 u u u m M M D ! ) D.D.D.i.t.i.t.t.i.i.i.i.i.t.i.i.D.p.i.i.i.t.p.D.i.i.t.t.i.] ] ' ) ) ' ! I M m m P I I I I I ",
"7 3 3 3 8 7 8 8 7 8 3 8 5 8 8 5 7 7 8 7 8 8 8 8 5 3 8 5 3 3 5 3 1 < < 2 5 5 5 5 5 % % ; ; ; 2 6 m 6 1 ; = ; 2 2 6 p m m M m m 6 9 6 6 6 6 6 6 u M M M ! M u 6 6 u u u u u m M M M ! M p.L.F.t.t.i.p.p.D.D.p.i.a.t.t.t.i.p.s.D.p.i.i.t.i.] ] ] ] ' ' ! ` I m P I ",
"P K J 9 8 7 3 3 3 3 3 3 3 7 5 8 7 5 5 8 8 8 8 8 8 8 8 9 5 5 8 8 9 8 8 9 8 5 3 2 < < % 2 3 5 5 5 9 9 2 ; 1 2 2 5 6 9 9 1 1 ; ; 2 6 6 m m p m m p 6 6 2 6 6 6 6 m M M M M M m 6 4 6 u u m M M M D ! ' D.T.J.D.D.t.J.i.] i.p.p.i.D.D.D.D.F.J.D.i.i.t.i.] ] ] ] ] ] ",
"K U U K K K K K K U K K J 9 8 3 3 3 3 7 3 5 3 8 8 8 8 8 5 5 5 9 9 9 9 9 9 5 8 5 9 5 8 5 5 5 5 5 5 5 2 5 5 5 5 9 9 p 5 ; 5 2 5 5 6 6 2 1 ; 2 ; 2 5 6 m p m p m 6 2 2 2 2 u u m M m M M M p 6 6 u 4 6 m m M M ) D.F.K.J.] i.i.t.p.i.i.i.D.D.t.D.D.D.t.i.i.t.i.D.F.",
"K K K K K K K K K K K K K K K K U E E E U U K J f 8 3 5 8 3 5 8 9 9 8 9 9 8 8 9 9 9 9 9 9 9 9 9 9 m 9 9 p p m 9 9 5 5 5 5 5 5 5 8 5 2 = < < 2 4 4 2 4 ; = 2 2 1 2 6 m m p p 2 ; 4 6 6 6 m m M M m m u p u m u m m m M M M ! ) ) D.D.J.D.J.D.t.D.D.D.D.i.t.t.t.t.",
"K K K K K K K K K K K K K K K K K E E K K U K E E E U E E E E E P J 9 9 9 8 8 8 8 9 9 9 f 9 f m 9 m 9 m m 9 9 9 m 9 9 9 9 5 8 8 5 4 2 1 2 2 3 3 3 3 < % ; 2 < 3 2 ; ; ; = 2 1 5 6 p m m 6 : 6 6 6 6 p u m M M m M m u u u p m m m m p : = ) t.t.G.t.t.t.t.t.t.i.",
"K K K K K K K K K K K K K K K K K K K K K K K K E E E E E E E E E E E E E Y Y Y E E U P P 9 9 9 9 m 9 f m 9 f 9 9 9 9 9 9 9 9 9 8 9 8 5 5 8 5 5 8 2 3 < 2 2 3 3 3 3 2 2 2 3 3 1 < < ; = 6 2 2 m m 6 5 ; 6 6 5 6 9 6 9 4 ; ; ; ; = = % $ % u M M m M t.) ] J.D.t.",
"*X+Xo.} Q W K J J K K K K K K K K K K K K K K K K K U K U U K U E U E E E U U E E E E E E E E W W W W W Y P J 9 9 9 9 9 9 9 9 9 9 9 9 8 9 8 8 5 5 8 3 8 5 8 3 3 3 3 3 2 < < 1 1 ; ; ; < < < 5 1 ; < 1 ; ; ; = = = ; ; ; ; = % # @ o o X O m M T m 2 # .       6 ",
"0X0X*X&X&X&X&X@X@X&X+X+X+X+X|.o.} E K K K K K K K K K K K K K U U U U K E E U E E E E E E E E E E W E W W W W W W W W W Q Q Q Y P 9 8 8 8 8 8 8 8 8 8 8 5 8 5 8 3 3 5 5 3 3 3 3 < 3 1 < 1 ; 3 = ; = % % % % % $ % # $ $ # # @ o o X .   X m T T M 5 ; ; $ @ X X ",
"@X&X&X&X&X&X&X+X+X+X+X+X+X+X|.|.|.|.|.|.|.|.|.|.|.|.o.X.} Q E K K K K K K K U U U E E E E E E E E E E W W W W W Q Q Q Q Q Q Q Q W W Q W W W W W U P 9 9 8 3 3 5 2 3 3 3 3 3 3 3 3 3 3 2 2 2 2 ; ; % = % % $ $ @ $ $ + X X . . X X X X X X % m m 9 2 < % $ X X X ",
"@X+XXXXX|.o.| Y 8 9 U ( } X.X.X.o.o.o.o.o.o.o.o.|.|.|.|.|.|.|.|.|.|.XXXX+X+X@X+Xl.| E E E E E E E E W W W W Q Q ( ( ( ( ( ( ( Q Q Q W W W W W W W W W W W W W W W W W Y J 9 3 3 3 1 1 1 1 < 1 % % % % % % $ $ $ $ + $ $ $ + X + X X X X . . . @ % % + X . . . @ ",
"[ [ [ R W [ [ } } | X.X.o.o.o.o.o.X.X.} Q W Y P 9 J W ( | X.X.o.o.o.l.l.|.XXXX+XOX@X*X=XqXxXcXcXbXbXcXhX*XOXl.| | | X.X.X.| } ( ( Q W W W W W W W E E E E E E W W W W W E W W W W W W W Y Y U J 9 8 1 % % % % % $ $ $ $ $ @ + X X X X X X + < 3 f U Y Y Y W W W ",
"gX=X*X$XOXW.U.o.X.| Q W R R R R R L L L G G R Q | X.X.X.X.o.o.o.o.o.X.Q P J Q } X.l.XXOX*X=XqXcXcXbXbXGXGXGXHXKXUXUXUXPXKXGXbXxX&Xl.( ( Q E E Y E U E E E E E E E E E E E E E Y E E E E E E Y Y E W W W Y Y Y Y Y U f 7 % % < 8 f J K U U U U Y Y Y Y Y Y Y W W ",
"vXcXcXhX=X=X*X%X%XOXoXoXU.U.U.f.f.o.o... .| | | Q Q W R P R R R R R W Q } | | o.U.XXXXXXXXXXXXXXXXXXOX&X&XhXLXIXUXUXUXUXUXUXUXHXxXzXdX0X0X0X4X&X&X&X+X+X|.o.X.} E U U U U U U U U U U U U E U U W W W W Y W W W W Y U U J 8 8 f J K K U U U Y Y Y Y Y Y W Y W W ",
"bXbXcXcXhXqX=X=X*X%X%XOXOXoXoXXXU.U.U.U.U.U.f.f.U.U.U.U.U.U.U.U.U.U.U.U.U.U.I...........I.OX=XqXqX*X*X=XxXAXFXLXUXUXUXUXIXGXqXU.X.| X.X.X.o.l.|.|.|.|.|.|.|.|.|.|.|.|.|.|.XXXXXX+XXXl.X.( ( Q W Y Y W W Q Q ( ( ( Q W Y J 9 J U U U U U Y Y W Q ( ` ] ..i.t.] ] ",
"GXbXbXcXcXhXqX=X=X*X*X%XOXOXOXOXoXXXXXXXU.U.U.U.U.U.U.U.U.XXXXXXoXOXOXOX%X*X=X=XqXhXcXcXbXGXJXKXIXIXIXIXPXJXcXIXUXFXLXPXIXLXLXJXAXxX9X%XXXl.o.X.X.o.o.X.X.| ( W P U Q ( } | X.o.l.U.W.OX$X=XqXcXbXHXIXUXUXPXGXvX=XOX..W P Q  .F.T.P.!.!.L.L.K.J.H.D.D.t.t.] ] ] ",
"JXGXDXbXvXcXhXhXqX=X=X*X%X%XOXOXOXOXoXXXXXXXXXXXXXXXU.XXXXoXoXOXOXOX%X%X*X=X=XgXcXcXbXGXHXKXUXUXUXUXUXUXUXUXPXUXUXUXUXUXUXLXSXdX;X+X{.} [ [ [ [ [ } } X.X.o.o.o.o.o.| | X. .o.o.o....... ...U.@XqXAXLXUXUXUXUXUXUXIXGXxX0X=X*X$X_._.(.P.K.H.G.t.e.0.^ Z <.<.1.<.",
"KXHXGXDXbXvXcXxXkXkXqX9X6X*X*X*X%X@X@XoXoXoXoXXXoXoXoXoXoXOXOXOX#X%X*X*X=X=XgXhXcXvXbXHXKXIXUXUXUXUXUXUXUXUXUXPXbXgXgXgXgXgXgXgXgXgXgXgX=X=X=X*X%X%XOXOXXXXX{.{.X.} } } } } X.o.o.}.XXoX%XqXbXPXUXUXUXUXUXUXUXPXbX=XJ.] ) N A ;.<.1.1.m.1.1.M.1.1.`.S.1.M.m.1.1.",
"KXJXGXDXAXbXvXxXxXkXsXsX9X9X6X6X6X6X;X@X@X@X@X@X@X@X@X@X@X@X%X%X*X*X=X9XqXhXcXcXcXbXGXJXPXUXUXUXUXUXUXUXUXUXIXGXUXUXUXUXPXGXvXhX=X%XoXE.f.f.f.a.f.a.a.a.a.f.f.f.f.f.f.f.I.E.E.Q.OX$X=XgXcXbXGXFXSXZXCXkXxXkX=XoXY.~.$X$Xu <.1.N.C.C.C.C.N.B.B.M.'.].'.M.N.N.M.1.",
"KXJXGXDXAXAXvXvXxXxXlXsXaX9X8X6X6X6X6X;X;X@X@X;X@X;X;X@X;X1X6X6X6X9XqXqXkXkXxXvXbXDXGXJXPXUXUXUXUXUXUXUXUXUXUXKXUXUXUXUXUXUXUXIXKXHXbXvXcXhXqX=X=X*X%XOXOXoXoXXXE.U.U.U.I.f.f.f.f.s.s.J.Y.T.(.$XgXgXbXHXKXPXPXPXPXKXnXcXV 2.N.A.A.A.A.A.B.A.C.B.].'.].N.B.'.N.M.",
"KXJXGXDXDXAXZXvXxXxXlXsXsXaX9X8X8X6X6X6X1X;X@X@X;X;X;X1X6X6X6X6X8X9XsXsXkXkXkXxXAXDXHXKXPXIXUXUXUXUXUXUXUXUXUXPXUXUXUXUXUXUXUXIXPXJXGXDXbXcXkXkXkXqX9X*X*X%X%X%X@X%X%X%X*X*X=X=XhXcXcXbXnXKXIXUXUXUXUXIXIXJXGXcXgX=X_.R.;.N.B.A.Z.Z.Z.Z.C.V.A.C.A.].'.N.C.C.C.M.",
"JXHXGXDXAXAXZXvXxXxXxXlXsXaXaX9X8X8X8X6X6X1X@X6X6X6X6X6X6X6X8X8X9XaXsXsXkXkXkXkXvXDXHXKXKXPXUXUXUXUXUXUXUXUXUXPXUXUXUXUXUXUXUXIXPXJXHXDXAXvXxXxXxXkXqX9X*X*X*X*X*X%X%X=X9X9XqXhXcXvXbXbXHXPXUXUXUXUXUXUXUXUXUXUXPXnXL.^.N.B.B.A.Z.Z.Z.Z.C.A.A.'.A.C.].N.C.C.B.M.",
"JXGXGXDXAXAXZXZXZXxXxXlXsXaXaXaXrX8X8X6X6X6X1X6X6X6X6X6X6X8X8X9X9XaXsXsXkXkXxXxXvXAXDXJXKXKXPXUXUXUXUXUXUXUXUXLXUXUXUXUXUXUXUXPXKXJXGXDXAXvXvXxXxXkXsX9X9X6X6X6X6X6X9X9XqXqXhXhXcXvXbXDXHXKXUXUXUXUXUXUXUXUXUXUXPXGX_._.`.B.B.Z.Z.Z.Z.Z.C.A.].'.A.].'.N.C.C.B.M.",
"GXDXDXDXAXAXZXZXxXxXxXlXsXdXaXaXiXrX8X8X6X6X6X6X6X6X6X6X8X8X8X9XaXaXsXsXkXkXxXxXvXvXDXGXHXJXKXPXIXUXUXUXUXUXUXLXIXUXUXUXUXIXPXKXJXHXDXDXAXvXxXxXsXkXsXaX9X9X9X8X8X6X9X9XqXqXhXhXcXvXbXbXGXJXPXUXUXUXUXUXUXUXUXIXKXbX_._.`.C.B.A.A.Z.Z.Z.B.A.C.B.A.A.C.N.B.B.B.M.",
"DXDXDXAXAXZXZXZXxXxXxXlXdXdXaXaXaX8X8X8X8X6X6X6X6X6X6X6X8X8X8X9XaXsXsXsXsXkXxXvXZXZXAXDXGXHXJXKXPXPXIXUXUXUXUXFXPXIXPXPXPXKXKXJXGXDXcX*XhXkXqXE.%XoXT / %X6X9X9X9X9X9XqXqXqXhXhXcXvXvXbXDXHXKXPXUXUXUXUXUXUXIXPXJXbX_._.`.'.C.A.A.A.V.A.'.].A.N.A.A.`.N.B.B.B.M.",
"DXDXAXAXAXZXZXxXxXxXlXlXdXdXdXaXaXiX8X8X6X6X6X6X6X6X6X8X8X8X8XiXaXsXsXsXlXkXlXxXvXvXAXAXDXGXHXJXKXKXPXPXPXPXIXFXJXKXKXKXKXJXHXDXcX*X%Xa./ m T f.f./ I I | XX@X9X9XiXqXqXqXqXkXhXhXcXcXvXbXDXHXJXKXPXPXPXPXPXKXJXHXcX_._.S.B.'.A.A.A.C.A.'.B.'.N.A.C.N.N.B.N.C.2.",
"DXAXAXZXZXZXZXxXxXxXlXlXdXdXdXaXaXiXrX8X8X8X8X6X6X8X8X8X8X8X8X9XaXsXsXsXlXlXkXxXxXvXvXAXAXDXGXGXHXJXJXKXKXPXPXFXGXHXHXHXGXcXa.m I 5 5 p 1 , = 3 5 p p I / I / o...XXOX9X9XqXhXhXhXcXcXcXvXbXDXHXHXJXJXJXKXKXHXHXnXcX_.^.u.`.`.].C.A.].].N.].C.`.C.C.M.N.N.N.N.M.",
"AXZXZXZXZXxXxXxXxXxXlXdXdXdXdXaXaXiXiX8X8X8X6X6X8X8X8X8X8X8X8XiXaXaXsXsXsXlXlXxXxXxXZXZXAXAXDXDXGXGXHXHXJXJXJXSXcXgX=X=X=X..T I T 8 % % $ @ @ @ $ $ @ @ @ @ @ @ % = T | OXqXkXhXkXhXhXcXcXbXbXDXDXGXGXHXHXHXGXbXbXhX).^.u.j.S.'.'.'.].C.`.M.'.N.C.B.M.N.N.N.N.M.",
"ZXZXZXZXxXxXxXxXxXlXlXdXdXdXdXaXaXrXrXrX8X8X8X6X8X8X8X8X8X8X8XiXaXaXsXsXsXlXlXlXxXxXxXZXZXAXAXDXDXDXDXGXGXDXAXf.) p m 6 6 1 = % $ @ + X + @ $ $ $ + @ X X X X @ @ , 9 o.f.OX%X9XkXkXkXhXcXvXbXbXbXDXDXbXDXbXbXbXbXhX#X^.u.S.u.'.'.'.'.'.2.'.N.2.B.N.M.M.N.N.M.1.",
"ZXZXZXxXxXxXxXxXlXlXsXsXdXdXaXaXiXrXrXrX8X8X8X6X8X8X8X8X8X8X8XiXaXaXaXsXdXsXsXlXlXxXxXxXvXZXAXAXAXAXDXDXDXxXf.p 6 4 1 = % $ $ @ + X X X X X @ @ + @ X . . + + + @ @ % 9 I ` o.%XkXkXkXhXkXcXvXvXbXbXbXbXbXbXbXbXvX=X#X^.u.u.u.`.'.'.N.'.1.2.`.M.B.N.M.2.M.N.M.1.",
"xXxXxXxXxXlXlXlXlXdXdXdXdXaXaXaXaXrXrX8X8X8X8X6X8X6X8X8X8X8X8XiX9XaXaXaXsXsXsXlXlXxXxXxXxXZXZXAXAXAXAXAX=XT p 1 $ $ $ @ $ @ @ + X X X X . . X X X X . . . X @ X X + @ @ $ 3 p T U.*X9XqXkXcXcXcXvXvXvXvXvXvXvXvXcX*XOX^.y.u.u.S.'.'.M.`.S.1.N.M.N.N.1.1.M.M.1.<.",
"xXxXxXlXlXlXsXsXsXdXdXdXdXaXaXaXaXrXrXrXrX8X8X8X8X8X8X8X8XrXrX8XiXaXaXaXaXdXdXdXlXlXxXxXxXZXZXZXZXZXZX%X .2 % $ @ @ @ + X . X X X X X X . . . X + X X . . . X + X X X + X $ 5 I  .oX*X9XsXkXxXxXcXcXvXvXvXvXvXcXcX%XOX/.q.w.w.S.'.].S.S.S.'.M.1.N.M.1.1.1.M.1.1.",
"lXlXlXsXsXsXsXsXaXaXdXdXdXdXaXaXaXaXrXrX8X8X8X6X8X8X8X8XrXrXrXiXiXaXaXaXaXdXdXdXdXdXlXxXxXCXZXZXZXZXZXxX%X5 % @ X X X X . . X X X X . . . . . . + X X . . . . . X X X + + @ % , m / f.qXkXkXxXxXxXxXxXxXcXcXcXcXcX@XoX/.e.y.q.S.S.w.S.S.1.M.M.1.M.2.1.<.1.1.1.<.",
"dXsXsXsXsXsXsXaXaXaXaXaXdXdXaXaXaXaXaXrX8X8X8X8X8X8X8X8X8XrXrXrXrXaXaXaXaXaXdXdXdXdXdXlXlXCXCXZXZXZXZX9Xp % @ X . . . . . X X X . . . X . . . . .   . X   . . . X @ @ @ @ + + $ 3 I XX9XsXkXkXkXkXkXkXxXxXxXxXxXxX@XoXT.0.r.q.S.S.S.u.S.1.1.M.1.1.2.1.<.1.1.<.;.",
"sXdXdXaXaXaXaXaXaXaXaXaXaXaXaXaXrXrXrXrXrX8X8X8X8XeXrXrXrXrXrXrXaXaXaXaXdXdXdXdXdXdXdXdXdXCXCXCXCXCXdXXX5 @ @ X X   . . . + X X X X X . X . . . . . . . . . . . . X + @ @ + X + # 5 +XaXsXsXkXlXkXkXkXkXkXkXkXkXkX@XoXg.e.r.q.u.u.S.u.S.<.<.S.1.1.1.<.<.1.1.,.1.",
"dXdXdXaXaXaXaXiXaXiXaXaXaXrXrXrXrXrXrXrXrXrX8X8X8XeXeXrXrXrXrXaXaXaXaXdXaXdXdXdXdXdXdXdXdXzXCXCXCXCXCX6X8 $ . . X X . . . + X         . X X X   . . . X . . . . . X + X X X + + + < P XX9XsXsXsXsXsXsXlXlXkXkXkXkX-X@Xg._ r.0.u.u.u.w.S.;.1.1.1.1.1.<.<.<.1.,.1.",
"dXdXaXaXiXaXaXiXiXaXrXrXaXrXrXaXrXrXrXrXeX8X8X8X8X8X8XrXrXaXaXaXaXaXaXaXaXdXdXaXdXdXdXdXdXdXxXCXCXCXCX9XT % . X @ X       X       .   . . . . . X .   . X X . X X X X X . + @ , % | 1X8XaXaXsXsXsXsXsXsXsXkXkXkXkX+X@Xf.e.d.e.u.u.u.w.S.,.<.1.<.1.1.<.<.1.<.i <.",
"aXaXiXiXrXrXrXrXrXrXrXaXrXaXrXrXrXrXrXeX8X8X6X7X7X7X8X8X8XrXrXaXaXaXaXaXaXaXaXaXaXaXdXdXdXdXzXCXzXCXCXo.< % + X . X X         . . .   . . . . . X X       . . @ + X . . X @ @ 1 o.1XaXaXaXaXiXaXaXaXsXsXsXsXkXsXsX+X@Xa._ e.0.y.u.u.w.S.;.<.1.<.1.<.;.,.<.g F <.",
"aXrXrXrXrXrXrXrXrXrXrXrXrXrXrXeXrXeX8X7X7X7X7X7X7X7X7X7X8XeXeXrXrXrXaXaXaXaXaXaXaXaXdXdXdXdXVXzXCXCXCXP 9 3 % X X X .           .       . . . . . . . . .   . X + + X X + $ p o.+X@XaXiXiXrXrXiXiXaXaXsXsXsXsXsXsX X;X.._ e.0.y.y.w.w.,.;.<.<.w.1.<.:.<.S.S.Z Z ",
"rXrXrXrXrXrXrXeXrXrXrXrXrXrX8XeXeX8X8X8X7X6X6X6X7X7X7X7X7X7XwXeXeXeXrXaXaXaXaXaXpXaXpXdXdXdXVXzXCX+X$ X % % + X . . X X . .         .   . . X $ $ @ + # : # + X + + X X % $ | eXpXaXiXrXrXeXrXrXiXiXaXaXsXsXsXsXqX{.@X.._ e.e.y.y.w.w.,.:.<.,.w.<.<.,.z.k.z c <.",
"eXrX8X8X8XeXeXeXeXeXrXeXeXeXeX8X7X7X7X7X6X7X7X7X7X7X7X7X7XwX7XwXeXeXrXrXrXuXuXpXpXpXpXdXVXVXVX| = e r e e : = o .   . @ $ @ X X X + @ = # @ 4 N : = a 0.r.^ ^ a : 4 4 u ^ A +XVXpXpXrXrXrXeXrXrXrXiXaXaXaXaXiX9X9X{.-X .~ e._ y.y.w.q.0.0.S.:.,.<.<.,.w.w.1.Z <.",
"eXrXeX8X7XeXeXeXeXeXeXeX7X7X7X7X7X7X7X7X6X6X7X6X7X7X7XwX8XwXwXwXwXeXrXuXuXuXpXpXpXpXVXVXVXdX^.,.C Z c C - - r - w : : O = = = = 4 4 u a 4 = ! N a u A 8.y.r.y.h.d.8.F 8.r.r.pXVXpXpXuXuXrXeXeXrXrXrXiXiXiXiXiXaXiX{.-X .~ ' e.y.y.w.0.q.,.,.,.q.,.<.,.<.<.,.,.,.",
"eXeX8X7X7X7X7X7XeXwXeXeX7X7X7X7X7X7X7X7X7X7X7X7X7X7X7X7XwX7XwXwXeXeXuXuXuXpXpXpXVXVXVXVX=Xw.b c c k c v c h w j r q j r : ; = % = : 4 : : = y a a a A 8.0.r.r.r.y.y.F y.e.^  .VXBXpXuXuXwX7XeXeXrXrXiXiXrXiXiXiXiX{.-XX.~ ' _ e.w.w.0.q.w.w.,.,.,.<.,.,.,.,.V ,.",
"wXwXwXwXwX7XwXwXwXwXwXwXwX7XwXwX7X7X7X7X7X7X7X7X7X7X7X7X7XwXwXwXwXeXeXuXuXpXpXpXVXVXVX(.,.c c k k k l l v c g x k x x q j : = O & = 4 : * 4 = y y i A 8.0.q.y.y.y.s S e.0.N   ` VXBXuXuXeXeXeXeXrXrXiXiXiXrXiXiXiX{.-XX.~ ' ^ q.r.w.0.q.,.,.,.,.:.,.F ,.F F V b ",
"wXwX7XwXwXeXwXwXwXeXeXeX7X7X7X7X7X7X7X7X4X7X7X7X7X7X7X7X7XwXwXwXwXeXeXuXuXuXpXVXVXVXL.Z Z C x k k v v v v z &.v r v v v c q - = i u @ X   w . = y B A 8.q.r.y.y.A q e i B e c G.VXpXpXuXeXeXeXeXuXrXrXrXrXrXrXiXrX{.+XX.~ ' ^ 0.r.y.0.0.w.0.F ,.,.,.:.,.:.Z Z Z ",
">X>X7X4X7X7XwXwXwXwXwX7X7X7X7X7X7X7X7X7X7X7X7X1X7X7X7X7X7XwXwXeXeXeXuXuXuXuXBXVXVXW.c C c j g k k l v &.&.&.&.&.&.c l &.l v h - 4 =       y . + : A 8.8.q.y.y.i * q q l z #.%.m.pXVXuXuXeXeXeXeXuXuXuXuXrXrXrXrXrX{. XX.~ ' ~ r.r.y.0.0.0.0.F ,.:.:.F ,.,.,.F ,.",
"4X4X4X>X>X>X>X>X>X7X7XwXwX7XwXwX7X7X7X7X4X4X7X4X4X7X7X7XwXwXeXeXeXeXuXuXuXpXVXVXpXC c j x q h k k v v &.&.&.&.&.&.&.c l &.&.l v w         w Z x u 4 # $ $ 4 e e - k k +.l z %.*.#.6XpXuXeXtXtXeXuXuXuXuXuXrXrXrXrX[.-X| ! ~ ~ r.y.y.0.0.,.0.F ,.;.Z F ,.:.,.Z Z ",
">X>X>X4X4X4X4X4X>X>X>X4X4X4X4X>X4X7X7XwX4X4X4X4X4X4X7XwXwXwXeXeXeXeXuXuXuXuXBXVX8Xc x x j r r x l &.&.l &.*.$.&.&.#.#.l z $.&.e q e       x z +.&.<.<.0.e.y q q q q q t z #.#.#.S.BXpXuXeXtXtXeXeXuXuXuXuXrXrXeXeX[.+X| ~ ~ ~ e.y.F 0.0.V S B ,.:.Z F F :.Z _ e.",
"4X>X>X>X>X>X>X>X>X>X>X>X>X>X4X4X4X7XwXwXwXwXwX7X4XwXwXwXwXwXeXeXeXeXuXuXuXuXBXVXOXc Z b h r h x c l v &.*.v l #.l #.#.l g #.*.&.e o # $ e c z #.*.&.$.-.1.x 0 q k l z #.#.#.#.#.P.BXpXyXyXyXyXeXeXuXuXuXuXuXrXrXeX[.+X| ! ~ ~ e.e.0.e.0.F F S ,.Z Z S :.Z V V V ",
"5X4X>X>X4X4X>X>X>X>X>X:X:X:X>X>X>X>X4X>X7X7X7X7X4X4X7XwXwXwXeXeXeXeXeXuXuXMXBXBXT.c Z x h h x c v b b &.&.$.$.*.$.#.#.z c q z z &.w * r x v #.%.%.=.=.v.x.=.q k z z z +.$.%.%.=.(.MXpXeXyXwXyXeXeXeXuXuXuXuXeXeXwX[.+X{ T ~ ~ e.e.e.^ ^ F F A :.V F S F F F Z V ",
">X>X<X>X>X>X>X>X:X;X:X:X:X:X>X>X>X>X>X>X7X7X7X4X>X>X7X7XwXwXeXeXeXeXeXuXuXuXBXVX) e j j j j g x l k v z z #.#.#.#.+.z z z z q k v Z q x +.z +.$.*.v.x.x.c.b.*.q k $.=.v.x.=.%.<.pXMXuXuXtXtXyXeXeXeXeXuXuXeXeX7X7X[.+XX.I / ~ e.e.e.e.D D S A F V S B :.,.u.V r ",
">X<X4X>X>X>X>X:X:X:X:X:X:X:X:X>X>X>X4X5X5X5X7X>X>X>X4X7XwXeXwXeXtXtXeXuXuXBXBXBXt.e - e r h k v v v l z z #.#.*.$.#.&.#.z k * - k q v x x x z %.#.z b.c.x.c.k k q z #.$.%.%.%.*.pXBXuXeXwXwXyXyXeXeXeXuXeXeXwX>X>X[ -X{ I / ! _ e.e._ F _ F S `.'.'.].].].].'.'.",
">X4X<X5X>X>X>X:X:X:X:X:X:X:X:X:X>X>X4X4XwX7X5X7X4X4XwXwXwXwXwXeXtXtXeXuXuXMXBXVXuXr e : e h x c x h x c v z $.*.*.*.#.z #.#.g * g g r #.x j v z v.b.%.=.n.%.q l z z l %.%.%.=.m.pXMXuXeXyXwXyXyXeXuXuXuXeXeXwX>X;X[.-X{ I / ! _ _ ^ ^ ^ _ S S `.`.`.`.`.`.`.`.`.",
">X5X<X5X<X>X>X:X:X:X:X:X:X>X:X>X>X>XwXwXwXwX5X5X5XwXwXwXwXwXwXwXtXeXeXuXuXuXMXBXVXa.e e - w h x j h h h c v *.$.#.#.+.$.*.z - r #.z v k &.k v #.%.=.x.b.v.k k k z k #.%.x.x.v.S.BXMXyXyXtXtXyXyXeXeXtXeXeXwXwX:X;X[.+X{ I / ! ^ _ ^ ^ ! i D F `.`.`.`.`.`.`.`.`.",
":X>X<X5X5X<X>X>X>X:X:X>X>X>X>X:X>X>X<X<X5X5XwX5X5X5XwX5XwXwXwXeXtXtXeXeXuXuXMXMXVXoXe e e : e h j h h h x b z &.&.l $.$.k x x l #.*.#.$.-.#.k *.%.=.x.x.q l k l z #.l +.%.=.-.eXBXMXmXyXtXyXyXyXeXeX5X4X4X>X>X:X;X[.+X{ I / ! ~ _ _ D A D A n V s V A F F :.:.;.",
"<X<X<X<X<X<X>X>X;X;X>X>X;X:X:X:X>X>X<X<X5XwX5XwXwX5XwX>XwXwXwXwXtXtXtXtXyXyXMXMXVX7Xj e e w w e h h j j h x v &.v v x.#.v v #.k *.%.v.=.$.$.l #.x.x.x.+.k k z z l +.%.%.#.w.BXMXBXMXyXyXtXtXtXyXyX5X>X>X>X>X:X:X-X[ +X{ I / ! ~ ' e.^ ^ ^ D D F V S D ^ F A i i ",
"<X<X<X<X<X<X<X>X:X:X;X:X;X>X:X:X:X>X>X<XwXwXwXwXwXwXwXwX5XwXwXwXeXwXtXtXyXuXMXMXVXVXn e r r e - w h j h h j c &.x &.=.&.v v *.v v b.x.x.=.l *.#.b.b.v.q q k z #.z z z #.*XBXBXmXMXmXyXtXtXtXtXyXyX5X;X;X;X;X;X;X-X[ +X{ I / ! ~ ' _ _ D A A N ^ B A ^ ^ F A n n ",
",X<X<X<X<X<X<X<X>X;X:X;X;X>X:X>X:X:X:X>X<X<X<XwXwXwXwXwXwXwXwXwXtXtXtXtXtXuXMXMXVXVXa.r r j r e w - e j h x x c c x &.l v *.*.$.l -.b.=.x.#.l %.x.#.z  .x q k z +.z G.BXBXmXmXmXmXmXyXtXtXtXyXyXyX>X;X;X;X;X;X;X-X[ {.{ H / ! ) _ ~ ^ D D A A F B A ^ _ 0.A B n ",
",X,X<X<X<X<X<X<X<X>X>X:X:X:X:X:X>X>X:X>X>X<X<X<X5XwXwXwXwXwXwXwXtXtXtXtXyXuXMXMXVXVXiXZ r r r r r & * w r j x x x c l &.#.l &.%.#.z c.%.=.=.z x.x.k +.VXBXVXuX1X7XBXBXBXmXmXmXmXmXyXyXtXtXtXyXyXyX>X;X;X;X;X;X;X-X[  X{ p / T ~ ~ ~ M A A A D D B A ^ _ ^ D D n ",
":X,X,X,X<X<X<X<X<X>X>X:X;X:X>X;X:X>X>X>X>X>X<X<X5XwXwX5XwXwXwXwXwXwXtXtXyXuXMXMXVXVX_.r r r h h r r r w & - r h j h c &.*.z $.$.%.z x.c.$.%.x.x.#.l #._.BXBXBXBXBXBXmXmXmXmXmXmXmXyXyXtXtXyXyXyXyX:X;X;X;X;X;X;X.X[  X[ p T I ! ~ ! ! N n A A D s A F ^ D D A i ",
":X,X<X<X<X<X<X<X<X>X>X>X:X:X:X:X:X>X>X>X>X>X<X<XwXwXwX5X<X5XwXwXtXtXyXuXuXMXMXNXVXiXv q r j q h q x x e : - - * r r c z z %.l v.&.*.$.n.%.n.c.c.z l #.m.BXBXBXBXBXmXmXmXmXmXmXmXyXyXyXtXtXtXyXyXtX;X;X;X;X;X;X;X XR o.{ H T I ! ! ! ! a N n N A i n A F F D A i ",
",X,X<X<X<X<X<X<X<X<X<X>X:X:X:X:X>X>X>X>X>X>X<X<X5XwXwXwXwX5X5XwXtXtXuXuXuXMXNXNXNX8X<.x q h q r x x h r x h w - w x r l &.l *.l $.$.*.*.%.c.n.c.k z #.b.$XBXBXBXBXmXmXmXmXmXmXmXyXyXyXyXyXtXtXyX5X;X;X;X;X;X;X-X{.[ X.{ H T I T M ! ! N N i N A r n A e.F D n i ",
",X<X<X<X<X<X<X<X<X<X<X:X:X:X:X:X:X>X:X<X<X<X>X>X<XwXwXwXwX3X3X3XtXtXuXuXMXNXNXNXVXiXx j c - r x x h r x c c h c <.c c x x k l &.&.*.&.z #.c.n.n.q z $.c.M.BXBXBXBXmXmXmXmXmXmXmXmXyXyXyXyXyXyXyX5X;X;X;X;X;X;X;X{.[ {.{ p I N I I N N M n i N n r i ^ ^ D A A i ",
",X<X<X<X<X<X<X<X<X<X<X:X:X:X:X:X:X:X>X<X:X>X>X<X<XwXwXwXwX3X3X3XwXtXeXuXMXMXNXNXVXVXZ q w h x x h j h c v h h &.*.v *.&.c x l z l -.l l #.c.n.*.k z $.c.v.%XBXBXmXmXmXmXmXmXmXmXmXyXyXyXmXmXyXyXwX;X-X+X{.{.XX+X{.[ {.{ 9 I m N m N T N u i N n e i D D A A A u ",
":X<X<X<X<X<X<X<X<X<X<X:X:X:X:X:X:X:X>X,X:X>X>X<X<XwXwXwXwX<X<X3X3XeXeXtXuXNXNXNXVXVXi w h x h j x h x c c h v x.z c v.*.*.*.&.v +.x.l l #.c.n.*.l z %.c.b.S.BXBXmXmXmXmXmXmXmXmXmXmXyXyX5X+Xo..... . . . ... . . ...........a...` m ! p N m m i w u D D D n A i ",
":X<X<X<X<X<X<X<X<X<X<X:X:X:X:X:X:X:X<X<X<X>X<X<X<X3XwXwXwXwXwXwX3X3XeXeXuXpXNXNXVXf.w C x h h j h x c c h c v.&.z &.b.v.%.*.#.#.#.c.l l #.c.n.*.z z %.c.b.m.6XBXBXBXmXmXmXmXwX>X@XoXU.U.E.U.f..... . . ....... . ...` / ..../ P 7 7 , > , 3 3 1 , 4 u n A N A u ",
":X:X<X<X<X<X<X3X<X<X<X:X:X:X:X:X:X:X>X>X:X,X:X<X<XwXwXwXwXwXwXwXeXeXeXiXuXpXNXVXiXq Z C h h h h j c v c h %.%.z *.z n.b.%.v.*.#.$.x.l k +.c.n.*.z z %.b.b.b._.mXyXwX@XXXU.f.a.a.f.I.f.a.a.U.E.U.a.f.W.E.f.a...Y.W.U.P 7 7 7 1 , 7 7 7 7 7 7 7 7 7 1 1 1 1 1 = $ ",
":X:X<X<X<X<X<X<X<X<X<X<X:X:X:X:X:X<X<X,X:X,X,X<X<XwXwXwX3XwXwXwXeXeXiXiXiXpXdXjX9Xx :.r r h h j c v c r #.%.z &.-.z b.n.$.v.v.x.x.=.l k z =.n.&.z z %.b.b.b.m.H H R / T  .f.I.E.E.W.W.E.E.W.W.W.I.a. ./ ..Q.Q.W.E.f.E.W.W.E.I.f.f.| I 7 7 7 7 7 7 7 7 7 1 > $ @ ",
":X:X<X<X<X<X<X3X3X<X>X:X:X:X:X:X:X<X,X,X,X<X<X5X5XwXwXeXwXwXwXeXeXeXeXeXiXiXjXjXjX,.c h h h x Z v c h v %.#.k $.%.v n.n.#.=.v.v.x.$.z l z %.n.*.z +.%.b.c.b.b.'.'.'.`.r./ R R R R I / / / a.Y.#X#XQ.Q.E.I.W.Q.Q.W.E.Y.W.W.W.E.Y.E.E.W.E.E.I.I.` , , % = i A e r ",
":X>X<X<X3X3X3X3X3X<X<X:X:X:X:X<X<X<X,X<X<X<X<X<X5XwXwXtXtXeXeXeXeXeXiXiXiXjXjXjX=XZ x r h x <.v x q c $.#.l z x.z v n.b.$.%.x.c.x.$.z l z *.n.%.z #.%.x.b.c.b.B.B.B.B.7.B.'.'.'.u._  .a.s.a.a.f.f.a. .i.W.W.W.Q.Q.Q.W.W.I.Q.Q.Q.E.g.a. .` I m D F ,.F : * - x r ",
">X>X>X3X3X3X3X3X3X3X>X>X>X>X:X:X,X,X<X<X<X<X<X<X5XtXtXeXeXeXtXtXeXeXiXjXjXjXfXj.2.Z h c &.b c x g k v &.l k =.=.t =.c.v.#.%.c.c.x.%.#.z +.#.v.%.l #.%.%.x.c.b.n.B.7.B.B.B.'.j.j.`.B.'.B.'.'.'.`.^.a.a.I.I.E.E.W.Q.Q.OXQ.Q.~.W.f.` I a i F F i & o O : & w u.'.'.",
">X3X3X3X3X3X3X3X3X3X3X>X>X:X:X:X<X,X<X<X<X<X<X<X5X5XtXtXtXwX:X+Xf.f.f.h.4.6.6.7.5.C C x c x x h c l z c k *.c.#.l x.x.$.$.x.c.b.b.v.$.&.z #.v.b.l %.%.%.%.x.c.n.B.B.7.j.`.`.'.'.'.B.7.7.5.;.d d.Y.E.a.I.W.W.W.E.I.f...` Q I I n F 0.:.q.q.y = : : y w w V @.C.C.",
"1X3X3X1X1X3X3X3X3X1X1X3X>X>X:X:X:X,X,X<X,X,X,X,X-X+X}.o.....f.f.f.a.f.f.f.g.d.u.2.Z x Z x h x c c v c v &.v.n.&.x.x.%.$.%.b.x.b.n.b.*.&.z v.n.c.l =.$.%.%.%.v.n.N.j.`.'.B.7.7.5.>.;.V B ,.:.F 8.f.I.I.U.a.a. .T I p u u N 0.B - B Z ,.,.S : w u n S F F A 0 @.5.",
"1X1X2X1X2X2X2X2X2X2X1X1X1X:X:X:X:X:X-X{.o....... .....f.f.f.f... .a.U.U.E.E.W.f.E.Z b c x j x x k c &.#.=.x.%.z n.c.v.x.v.x.=.n.n.b.*.#.*.b.c.%.#.%.#.%.%.%.%.b.M.2.>.5.@.O.r 8.r.w.A V Z F S A / ` ..` T m N 0.w.y.N   4 & & * Z :.V ,.0.0.F q.q.y & & * O & l ",
"1X2X2X2X2X2X2X2X$Xh.j.j.j.^.oX{./ / / `  . . ...f.f.f. . ...f.f.f.U.E...U.U.E.E.Y.0.c c v v &.&.*.&.&.*.x.=.#.&.n.n.x.v.x.b.n.n.b.b.b.$.%.c.c.z %.%.%.$.%.=.x.n.b.D ^ 8.:.V A * * - V ,.8.:.:.r 4 m T ~ 0.0.n 4 : O = 4 u u u i F q.,.,.0.N 4 : : = : ; & O & & ",
"2X2X2X#Xj.5.6.6.7.5.@.>.5.6.7.7.7.S : 4 m ! / `  .a.f.U.E.E.U.E.E.W.f.f.I.f.| R R I x &.*.&.v &.v z *.b.=.#.&.v.x.b.b.v.b.b.b.b.b.b.b.b.c.c.c.%.=.x.=.%.=.x.v.M.w.y o & * w r * * - Z q.0.0.:.V w r S 0.8.n = : : 4 4 y u F 0.,.y.y.F ,.D 4 y y y y i D N O & & ",
"5.6.7.5.@.5.5.6.6.6.6.6.6.3.5.5.6.6.7.7.2.;.a N ! `  ...a.a.a.../ R H H H H H H R R ,.C j g x v l x &.=.$.&.v.%.x.=.=.v.v.x.x.x.x.x.x.x.x.c.n.b.=.&.j : = % , 4 y y w : : s i y u i F q.y.y.F r i B ,.F q.n u n A 0.^ 0._ _ i * r :.,.,.A y y u D ! T T N & & ; ",
"5.>.>.>.5.6.7.3.5.6.6.6.7.7.7.7.6.7.7.7.7.7.6.6.5.u ! a.f.T 7 7 7 7 G G G H H H R H T r r r q q k k z l l *.#.+.#.$.%.%.x.=.=.x.x.x.x.v.b.c.m.: $ $ $ % % % % , y u y y w i V 0.q.u.y.i r :.w - V ^ ,.q.w.w.r.r.y.y.D o % o & & e F ,.F A ! ! T I T T ! ! & = M ",
"5.6.7.>.>.>.5.5.6.7.7.6.6.6.6.6.6.6.5.3.@.;.d.Y.Y.E.Y.s.s.a.Y.OXo.G H G H H H H R R R D j j j &.*.*.&.*.z v.b.b.b.b.b.n.n.n.b.n.n.b.b.j ; $ $ $ $ $ $ $ % % % = , u V F F 0.:.N * w w w w :.: O w 0.^ _ r.y.~ m I m u u y u y i D D ! ! ! ! ! ! / D.R.R.i.& ; T ",
">.5.5.6.7.6.@.O.@.5.6.6.6.3.3.>.>.q.e.a.a. . . .a.g.E.W.E.a.s.I.E.Q.#XoXP 7 G G G H H G $ . .       . X X X + & & - - e q h e ; % $ $ % $ + @ @ $ $ $ $ % % % > = a 8.i & w 4 A B B i r r 8.S y u _ y.q.y.! p y u u u u A ^ ' / ! ! T T ! ' J.!.(.(.(.(.i.= : ! ",
";.>.5.7.7.6.4.@.O.;.9.e.a.a.a.a.a.a.a.a.a.f.s.a...a.a.a.f.E.W.E.I.a.f.Y.Q.#X$XOXXXo.Q 7 % . . .   . . X + @ $ $ % % % % % > > > % % % X X @ @ $ % % % % $ % % % e.^._ N B A S S ^ r.8.B B :.q.F i F 0.0.q.u u u a A ^ ~ / / / / / / ] R.(.).(.!.R.R.(.(.t.& ; ! ",
"7 7 w ;.@.;._ ' '  .....a.a.a.a...a... .a.a.a.f.s.s.a.a.a.f.I.E.W.W.W.OXQ.E.I.f.f.../ 8 > X .     X X X + @ $ % % > > > > , , > > % @ . X + + @ $ % % % % u d.^.^.^.d.s B 8.y.^ S 0.i w i B F ,.B D ^ ^ ^ ^ _ ! ! T T ! ! T ) p.R._._.).).).)._._.).).).] & ; ! ",
"5.5.6.6.7.7.A T ! / ' ..a.a.a.a.a.s.I.....a.f.I.g.g.I.W.W.f.s.E.W.W.I.s.s.f.../ I ' _ u 1 X . . . . X X X X $ > > , , , , , , , > % . . . X X @ $ $ 4 d.y.y.h.h.h.^.h.r.i B 0.y.: O O - :.:.S F u D ^ _ ! T T T T T I ` I.R.!.!.)._.).$X(.L._._._._.).).] = ; ! ",
"3.3.3.4.4.4.6.7.2.F ! ! ) ' ..a.a.a.s.f.f.E.s.s.E.W.W.Q.W. .s.s.a.f. ./ I I N _ d.^.y.4 ! $ . . . X X + + @ $ > , , , < , , , , > $ . . . X = a 8.e.r.e.r.r.y.d.h.^.h.h.~ # o O o o o * S F F D m T / T / / ! / ' T.).).).).).).).).).).R.).).).).).(.!.' = ; ! ",
"5.5.@.4.4.4.5.6.6.6.7.<.n T ! '  .a.f.s.f.I.Y.Y.Y.E.s.a. . .` I m p a e.^.^.d.S s B F i A 4 .   . . X X + $ $ $ > , , < , , , , , X O : : u i i ^ 8.8.8.0.q.r.y.y.h.h.h.d.a 4 4 : : 4 A D ! / T T T T / / ' s.R.).).).).).).).).).).).R.R.R.).).).).(.(.) = ; / ",
"4.4.6.3.3.3.4.6.6.6.6.7.7.7.F N ! ' ..a.a.a...` / ! I m p m D e.d.^.e.i S s F ^ ^ ^ e.A F = . . . X X X + $ $ % > , < , , , < , 1 i i B B B S w i A S ^ 8.8.9.r.r.y.h.h.h.r.a a N N T T T ! T T I T ` i.R.).).).(.).(.).).).).).).).Q.).).).).).).).).Q./ = : ! ",
"3.3.5.3.3.4.4.@.3.5.4.4.6.6.7.7.7.q.a 1 p p 6 6 p N ^ L.K.d.~ o o & & r V F F n A 0.0.A F 4 X X . X X X + + % % , , , , , , , , i B 0.0.V B ,.s i w i A S ^ e.0.9.r.r.y.h.d.r.~ ! ! ! ! ! ! / ] p.L.(.(.L.R.(.!.(.(.).).).$X).).).).).).R.).).).).).#X#X! = : ' ",
"@.@.@.3.3.3.3.3.3.3.3.3.3.@.@.@.@.@.V u u N _ y.d.d.u O   o     o & & w B ,.F 0.^ q.y.D D ! X X X X X X @ $ $ % > , , , < < , 6 S V ,.q.F : & r S S u i s S 8.e.0.0.0.0.r.r.e.e.T ! ! T / D.!.).(.(.(.(.(.(.(.R.L.L.R.R.R.R.R.R.(.R.R.).R.).).).$XR.).#X! = : ' ",
"@.@.@.@.@.@.@.@.@.@.@.O.O.O.O.w A w.y.q.y._ u o o o o o o o O O O O & - i ,.q.y.q.F D 0.q.9.+ . . . X + + @ $ % > , , , , 1 n ,.F y   o O o O B i i i w y s S 9.q.r.r.r.q.8.e.! !  .R._._._.$X(.R.(.(.).(.(.(.R.L.L.J.L.R.L.K.K.K.K.K.R.R.).R.J.).).#X).! = ;  .",
"4.3.@.@.@.@.O.O.O.w w w 0.w.@.:.0._ n : 1 p m u 4 : = 4 y u u a m ! n ^ w.F 0.q.y.:.V S B ^ < X . X X X + @ $ $ % , , , 6 4 % , O O & = = O & i i i i u y w s S 8.9.r.r.r.0.^ R.(.(.(.(.(.).).)._.(.).).R.H._._.).(.(.R.R.R.R.).R.K.K.H.t.J.J.H.J.K.R.).T = O a.",
"@.@.@.O.O.w w B 0.w.:.S F B t i 4 p a u 4 4 : 4 4 y u u a D _ _ _ ^ F q.r.A * & - S S V S B A i 4 4 6 a ~ _ e.e.e.y.y.h.h.N : : = ; : : = 4 y i a N N a i w w i S ^ 8.8.F A K.(.(.(.(.R.(.(.(.(.(.(.R.(.R.L.R.(.R.H.K.R.K.J.K.R.R.t.K.R.R.R.K.p.p.p.H.p.N = O ' ",
"t 0 w S S.<.:.,.0.B B O = = w r = = = : : : 4 4 y N ! ^ _ ^ F y.y.N       O & & - B B B B i s ^ y y y a ~ e.r.r.r.y.y.d.d.a : 4 : : y n N I I m I N m a i w i r s S 8.8.^ _ (.(.(.(.R.(.(.R.R.).(.(.(.(./.L.H.H.H.R.(.).R.R.) t.R.(.(.(.(.R.R.K.p.p.p.p.N = = ' ",
"w.,.,.,.S s s B B V i O O & & d : 4 4 4 u N ! ^ ^ ^ i 0.q.i O o o o     o O O O & F s w A n n D a 4 y y A 8.q.r.r.r.h.h.y.y 4 u N ! ! T I I I I m m N i i i s A S S F S A p.(.(.(.(././.(./.R.(.(.(.R.R.(.R.R.K.J.J.J.p.J.(.(.R.K.K.t.H.J.K.J.J.s.J.J.J.N = = a.",
"S t x t t V V Z :.Z V = = : : d i u a ! ^ ^ D 0.e.a O O O & o O 4 p u 6 4 4 : a ^ r.e.A F 0.& = : 4 y y i A 8.8.9.9.y.h.r.u N I T T T T T I I T ] R.T.u r i A S F F F S n R.(.).(.R.R.L.L.(.(.R.)./.R.L.R.K.R.R.K.i.R.L.K.K.K.R.K.K.p.p.H.J.K.t.i.J.p.J.m & = u ",
"- q V V V V V V :.Z V : = = y i O.D ^ 0.0.a : a D i = = 6 u u u y u : 4 N e.y.0.0.0.F i n n i n a y y u u a i s 8.8.r.r._ N N N N N I ! / t.K.(._.).p.w w i A S F F S A D _.).).(.R.L.L.K.L.R.R.R.).).(.(.R.t.L.R.R.L.L.K.K.K.J.J.J.J.J.H.p.s.J.J.J.K.p.u & o 1 ",
"* q V V V x V V Z :.F ^ ^ A i A O.B = u N N : = 2 : 4 : : u u : n 0.q.q.,.w.q.F A ^ i A F F i n 4 y y a y y i A ^ 9.e.e.! N N N I ' K.(.L.L.)._._._.i.w w i A S ^ F A B _ (.(.).(.L.K.R.L.R.L.R././.R.p.J.R.(.R.L.R.R.R.K.K.K.R.p.J.K.K.K.J.s.T.K.J.s.p.M ; = / ",
"& e V V V B Z F :.V S F F w : 4 i d = O = 4 : : : : 4 : u F ,.,.:.q.w.F : * y :.0.F S B A A y u 4 y y a y y s A 8.r.e.e.N N ~ p.(.(.(.(.).)._.).R./.p.w w i s S F S A i R.).(.).).(./././.R.R.R.K.J.R.R.R.L.K.R.K.K.R.R.R.R.K.R.R.R.K.J.K.J.s.D.J.J.p.i.p.s.T ..",
"& w B V B B V :.:.B w 6 m u = # * d s y u 4 6 4 6 A ^ F B S ,.,.u   X O & * B Z F S A A i A 4 u 4 4 y y 4 y A ^ r.r.r.^ s.R.(.R.(./.(.(.(.(.(.(.).)./.w w i s S S A A _ _._.).(.(.R./.R.R.K.i.R.(.(.R.R.R.R.R.R.R.R.R.R.R.R.R.T.R.R.R.R.J.Y.J.D.J.s.D.s.F.i./ ..",
"A B :.,.,.t r r r i : O = 4 4 6 y 4 4 4 : N _ 0.S F 8.Z i o O = = O & O & & i V :.D B A D m p p 4 4 4 y y a A ^ ^ r.^ J./././.(.(.(.(.(.(._./.R./.(.).A w r i B B A A d.)._.).(.).).R.t.K.R.R.R.R.R.R.R.L.K.R.R.R.R.R.K.R.R.R.R.).K.R.Q.Y.J.R.R.J.F.D.s.F./ ..F.",
"0.u O o w s s r i s i : : 4 4 4 4 a ^ 0.F F 0.0.B : % : 4 : : = = = : : = : u D ^ ! N I I I I u 4 4 y y y i A A S A t.(./.(./.R.(.L.(.L.R.(.(.R.R.R.(.^ w r i s B A A K./.).).R.K.K.R.(.R.L.R.L.R.L.R.R.K.K.L.L.R.R.T.K.R.R.Q.R.R.Q.R.R.~.T.R.Q.R.R.T.F.s.` ..F.",
"d o o o w B r r r B e : : y D ^ F B ^ F A ; ; 9 4 u 6 : = = : : : : : : u 0.^ ! I I N I N N m 4 4 4 y u y y i B D _ (.(.(.(.(.(.L.L.K.K.R./.(.(.R.(.(.~ w i s s A S e.)._.K.t.i._.).(./.R.R.K.K.R.R.R.R.R.L.K.R.T.R.R.R.R.Q.R.Q.T.R.R.T.T.Q.T.T.~.~.Q.T.' ..Y.F.",
"& w o o * r B B B B F 0.F B S ,.F u O = 4 : : ; = = ; : : ; : : w i D T I I I I I N m N I T I 4 4 y u N i B S ^ ^ t.(./.).(./.L.L.K.L.L.R./.R.).(.(.R.D w i s A S S _ J.(.).(./.).!.p.p.R.(.R.R.R.R.R.R.R.R.R.R.R.T.R.R.R.Q.R.R.R.Q.T.T.R.Y.J.D.J.T.T.F./ s.Y.F.",
": * = = * B F q.q.F F 0.0.B & # = & & & O O = = = = = : : = y N N N N N N I I I I I ! ] J.R.! 4 4 y i A A S ^ ^ A K.(.(./.(.R.R./.R.L.K.K.L.R.L.R.(.(.! w r s S S S J.).(.).(.(.(.(.L.R.).R.t.R.R.).(.R.R.R.R.K.R.R.R.R.K.T.T.T.R.R.R.~.~.~.T.Y.s.Y.Y.' ' T.T.F.",
"y u ^ 0.w.,.,.q.q.F i w w B : & & O O O & = = = = = : n N N N p u m m u m N ! t.p.K.K.K.L.R.M 4 4 y i i S S ^ ^ A L._.(.(./.R.L.L.R.R.K.K.K.L.R.(.(./.D w r B S S S /.(.(.(.R./.(.R.R.R.R.).R.K.L.J.i.J.R.R.R.R.R.T.R.R.T.T.T.R.T.R.T.T.R.T.T.Q.Y.s.F.` s.T.T.E.",
"0.0.:.,.,.:.B e r s S Z Z V y O & = & = = = = 4 p N N M N N N m m m u N ) p.K.L.K.K.L.L.L.L.! : y y i i A A ^ A D /._._._._.(.(.(.(.(.R.R.L.L.R.R./.L.A r i B S S F d.(.(.(.R.(.R.L.L.R.R.R.R.R.L.K.K.R.R.t.J.R.Q.R.T.R.R.R.R.R.T.R.R.R.~.R.T.T.T.a.T ` W.Q.OXQ.",
"0.0.n & : B B F ,.:.,.,.F Z i & = = = 4 p m m m p p a m N I N N ! ' H.K.d.t.L.L.L.R.L.L.R.(._ : 4 y i i B A A A ^ (.).(.).)._.).).(.(.R.R.R.L.H.p.L.K.B i r A 8.8.F 0.q./.(././.(.L.R.R.R.R.R.R.R.K.R.R.R.).R.T.s.t.T.R.R.R.R.R.T.Y.R.R.~.R.Y.R.R.Q.a.` a.I.W.W.",
"  o O & r B :.,.0.,.8.F S F i u ! N p a p m p m m a a p m ! t.K.K.K.L.L.L.P.K.t.K./.R.K.L.R.K.: 4 y i i s A S A t.(.(.(.(.R.R.(.).(.).).).H.H.R./.L.e.A B s A :.q.q.q.0.q.q.n a a.(.(.(.(.(./.R.K.R.R.R.R.).Q.R.R.R.R.T.] a.T.R.~.Q.Q.R.T.R.T.Y.T.Q.T.W.I.E.Q.W.",
"o o o O w B ,.F ,.,.F _ e.' T T I N N N N N N N N I ~ p.K.K.K.L.L./././.(.(.(./.(.L.t.(.R.(.L.a 4 y i s B A D A /.(.)./.(.(.(.(.).(.p.H.R./.R.R.L.p.n F F S F F F 8.q.q.0.0.0.0.F 4 6 G._.(.).)._.).).).).).#XQ.).Q.Q.~.R.Q.Q.Y.] I.~.#X~.T.Q.Q.T.Q.Q.Q.Q.W.W.Q.",
"; & & & - r Z _ t.i.' / ! ! T T I I I I I I ! ' s.K.K.L.L.L.L.L.K./././.(.(.(./.(.(.(./.s.K.).) : y i s B S A e._._.).).).(./.K.p./.(.R.R.L.L.L.K.' : F 0.0.^ ^ 0.^ ^ A u = % = 4 y 4 = S q.e.R.(.).).).).).).).).).~.~.).~.~.~.~.).~.F.F.Q.#X~.~.).~.~.~.OXQ.Q.",
": 6 : : a t.' ) ' ) ~ ! ! ! ! ! ! T T / ] i.K.K.K.R.K.K.K.L.K.K.L.R.L./.(.).(.(.).)./.).$X~.Q./ 4 y i s A F D /.$X$X_.).).i.)./.R.R.R.(.(.).(.).(.R.i.m O O O $ $ @ + + X 4 ~ e.0.q.q.0.F :.r.' ] ).(.).).).).).).#X).~.~.#X~.#X#X~.#X).).~.Q.i.s.$X$X$X$X$X$X#X",
"; a ] ] ) ) ~ ) ) ) / ! ! ! ! ! ` i.K.L.R.K.K.K.K.K.J.J.K.L.L.K.R.R.K.R.R.(.).).(.(.).).Q.$X#X~.y y i s S ^ e.$X).).p.K.R.).(.).).)./.(./.(.(.(.).R.R.s.s.p.i.i.' / ! T I 3 % # u ! N A 0.r.h.e.m s.R.).).).).).).).~.R.Q.Q.~.~.~.~.~.).).#X).~.$X~.Y.s.Q.~.F.s.",
") ~ ~ ~ ! / ~ ) ! ! / ! ! ' J.R.R.L.R.L.H.H.H.J.p.J.K.J.K.K.T.R.R.R./.K.R.K.).).).).).Q.#X).#X#X! y i B S ^ p.W.i.).#X).Q.R.R.R.(.R.(.R.(.R.(.L.(.R.R.R.p.p.i.i.p.p.p.s.] ' '  .` T p 3 = = = 5 ` i.Y.F.T.J.T.T.T.R.R.Q.R.~.R.).Q.Q.Q.R.).Q.~.).Q.Q.~.Q.Y.' a.a.",
"! ! ! ! ! ! ! ! ! / ] D.K.D.p.L.R.R.L.L.L.K.K.K.H.K.R.R.K.K.R.R.R.R.R.R.Q.R.K.R.R.).).).).Q.).#X' y i A 8.^ i.a.$X#X).).R.R.R.K.L.R.R.L.R.R.L.(.R.R.R.R.R.s.J.s.J.F.i.i.F.Y.T.Y.s.i.i.s.s.F.Y.Y.J.Y.Y.Y.J.Y.Y.Y.s.F.s.Y.Y.Y.Q.Q.Q.~.R.Q.).#X~.Q.~.).Q.i.#X$X$X#X",
"T ! M M ! ! ~ ' p.K.K.K.L.L.L.R.H.K.H.L.L.J.L.L.R.R.R.K.R.R.R.R.).R.T.R.Q.R.R.).Q.Q.Q.Q.).).#X#X) i i A F 0.t.$X~.a.T.).R.R.R./.(.(.(.R.R./.R.).L.L.K.R.R.T.s.s.s.F.F.Y.i.s.R.~.Q.Q.).R.T.Y.Y.Y.J.F.J.Y.s.Y.Y.s.s.s.I.Y.Y.Y.Y.T.T.~.~.#X).~.Q.Q.T.' Q.#X#X~.~.OX",
"T M m ) ] p.K.H.H.H.K.H.K.K.K.K.L.R.K.K.R.R.R.K.R.R.R.R.R.R.R.R.R.).R.R.R.Q.Q.Q./.Q.Q.R.Q.).#Xs.a y i A ^ 8.0.$X$X).).R.t.).$X_.$X$X).(.).R.)./.K.R.R.R.Q.Q.Y.s.Y.Y.T.J.Y.Y.T.Q.Q.~.~.~.#X~.~.T.Q.T.Y.Y.s.s.F.F.F.F.Y.F.F.Y.s.a.E.E.I.Y.I.I.I.] E.Q.#X~.~.~.Q.Q.",
"! ) p.H.H.H.H.H.H.H.H.K.K.H.H.t.p.t.i.K.K.K.R.K.R.R.R.R.R.K.J.p.T.R.R.R.R.R.R.R.R.T.R.R.J.R.Y.s.A i i S 0.r.y.$X$X_.)._.$X/.t.T.$X_._.).).).).R.R.Q.R.Q.).Q.T.T.T.Y.Y.Y.I.F.s.F.Q.#X).).~.#X#X#X~.Q.T.F.F.I.I.F.F.F.Y.F.I.F.F.I.f.a.a.s.a.` a.a.I.I.E.E.I.E.T.E.",
"G.H.H.H.H.H.H.H.H.H.H.H.H.H.K.H.H.J.K.K.R.L.K.K.K.p.R.R.R.R.T.R.J.R.R.R./.R.Q.R.T.i.i.p.D.p ; u S S S F 8.q.d.$X$X)._.$X$X$X#X$X).i.#X$X$X$X).R.Q.R.R.).).Q.Y.Y.Q.W.W.I.Y.Y.Y.F.Y.T.T.Q.#X~.#X~.#X~.~.).Q.Q.T.F.Y.Y.Y.I.E.Y.Y.~.f.f...!  .s.U.f.a.U.f.f.I.I.E.E.",
"t.H.G.H.G.t.t.G.G.H.t.H.H.H.D.K.J.p.H.K.J.K.K.J.J.K.J.K.K.J.J.J.K.R.K.T.R.R.J.t.K.T.K.s.p.; 4 A S S :.0.q.q.d._._._._.$X).).).$X$X$X#Xs.s.#X#X).)./.W.).Q.Q.T.T.T.~.T.Q.W.W.T.F.F.Y.Y.Q.Q.Q.Q.T.Q.T.Q.Q.~.~.~.#X#X#X#XOX~.W.E.E.f.' ..f.U.f.I.I.U.f.U.U.U.I.I.f.",
"G.G.H.t.t.t.t.t.t.t.t.H.H.t.t.D.H.H.L.J.J.K.R.J.T.K.K.J.J.R.R.R.J.T.K.K.] p.K.K.K.R.K.H.' 6 6 F S F 8.q.q.0.y.)._._._.)._.#X$X$X#X).).).Q.R.) R.W.Q.Q.).~.Q.~.Y.Y.R.Y.T.T.W.T.s.Y.W.Y.T.~.#XR.T.Y.Q.T.~.T.Q.~.$X$X#X~.OXQ.W.W.a. .W.W.I.I.I.U.U.U.a.f.U.f.U.U.I.",
"G.G.G.t.t.t.e._ _ t.t.H.p.p.H.K.H.K.H.H.K.J.J.J.J.K.J.K.R.R.R.T.K.i.i.K.K.L.R.L.R.L.K.H.' % 1 y A 8.8.8.q.q.A t.K./._.).).).Q.$X).$X).).Q.Q.W.W.s.i.R.R.Q.Y.~.T.W.T.F.T.T.Y.Y.Y.Y.s.I.T.T.T.Q.~.Q.~.Q.OX#X~.Q.~.OXW.E.W.I.s...W.Q.Q.Q.U.E.E.U.U.f.I.U.U.f.I.U.U.",
"G.H.H.H.t.t._ e._ t.H.H.K.K.L.K.L.J.K.K.J.K.R.K.K.J.Q.).).).K.i.R.Q.R.K.L.K.L.R.L.L.p.t.] $ : ; p = F q.q.^ < ] p.J.p.K.).R.Q.Q.).).Q.).)./.#XQ.T.T.R.' T.).#X).Y.Q.~.Q.W.Q.Y.Y.I.E.I.E.E.E.Q.Q.T.#XOX#XOX~.~.E.g.W.Q.I.' Q.OXQ.~.Q.oXW.W.E.U.U.U.U.U.U.I.U.f.U.",
"L.L.K.G.H.H.L.H.H.K.K.i.K.K.H.K.L.R.R.R.R.R.R.R.R.R.T.K.p./.$X).).).).).R.J.K.J.K.H.K.p.) u q.^ N 4 1 6 N = N d.H.J.p.s.s.i.T.).).).).R.R./.).).).Q.Q.Q.Y.a.a.).~.W.T.W.~.W.T.T.Y.Y.I.Y.W.I.Y.T.Q.Q.OX#XOXQ.Q.E.I.s.] W.OXOXQ.W.OXQ.W.OXoXE.E.E.E.U.I.U.U.U.I.U.",
"H.K.H.H.K.L.K.K.L.H.K.L.K.L.K.K.K.R.R.R.R.R.R.Q.J.t.s.R.R.).).).).).R.R.).R.L.R.L.K.p.i.! n :.q.8.q.^ u 3 u h.y.H.K.J.J.J.s.F.s.s.R.T.T.T.Q.Q.R.Q.R.Q.Q.Q.Q.Q.T.] Y.Q.W.T.W.Q.W.Q.Q.E.E.s.E.I.T.W.~.~.OXOXQ.W.Y...I.oXQ.E.E.Q.Q.W.W.OXW.E.oXoXoXE.E.E.U.U.U.E.U.",
"_ _ K.K.R.R.L.L.L.L.L.K.K.K.L.J.K.K.R.R.R.T.i.T.R.R.R.).).#X).$XR.R.K.R.Q.R./.K.L.R.J.s.! ; S q.F :.q.0.4 A w.e.J.J.J.J.Y.F.Y.J.Y.s.s.s.Y.R.R.R.R.J.R.Q.).).Q.~.).#XY.' T.Q.W.T.~.W.Q.W.W.E.E.Q.T.Q.Q.Q.W.Q.a.f.E.E.W.W.W.W.W.Q.E.W.I.oXoXE.OXE.E.OXE.E.E.oXE.E."
};
