/* XPM */
static char *_a394215e20744669a20c3b8df4ace28YUSQHZKCx5UZiUIk[] = {
/* columns rows colors chars-per-pixel */
"256 455 256 2 ",
"   c #09060A",
".  c #0C090C",
"X  c #080506",
"o  c #140C09",
"O  c #1B120C",
"+  c #120D12",
"@  c #180F12",
"#  c #151213",
"$  c #1D1A1C",
"%  c #1A1617",
"&  c #0E0B11",
"*  c #26160B",
"=  c #241A13",
"-  c #221C1C",
";  c #291C15",
":  c #321A0D",
">  c #28221C",
",  c #37261B",
"<  c #3A270F",
"1  c #1E1921",
"2  c #221C23",
"3  c #261E26",
"4  c #321E22",
"5  c #2B2A25",
"6  c #2C2D2B",
"7  c #272425",
"8  c #372B24",
"9  c #2E312E",
"0  c #33322D",
"q  c #3B3428",
"w  c #343531",
"e  c #3A3A35",
"r  c #2F2B34",
"t  c #1C221F",
"y  c #583909",
"u  c #472B19",
"i  c #4B3417",
"p  c #563917",
"a  c #4B2B0C",
"s  c #653A11",
"d  c #452C26",
"f  c #463729",
"g  c #573827",
"h  c #483C34",
"j  c #543831",
"k  c #633D26",
"l  c #693C30",
"z  c #461D0B",
"x  c #3A413D",
"c  c #5C4217",
"v  c #5C430C",
"b  c #684708",
"n  c #795609",
"m  c #664917",
"M  c #775815",
"N  c #6F4F0E",
"B  c #5B422A",
"V  c #4B4337",
"C  c #564738",
"Z  c #534A36",
"A  c #67462A",
"S  c #78552A",
"D  c #684935",
"F  c #734D37",
"G  c #6A533B",
"H  c #785639",
"J  c #724E28",
"K  c #7B6521",
"L  c #3A3648",
"P  c #353E60",
"I  c #443D4D",
"U  c #623F40",
"Y  c #3C4B4B",
"T  c #3B4546",
"R  c #3E4352",
"E  c #3C4869",
"W  c #464A49",
"Q  c #574C45",
"!  c #44514E",
"~  c #49534D",
"^  c #5C5348",
"/  c #484656",
"(  c #455251",
")  c #4B5653",
"_  c #565957",
"`  c #554C56",
"'  c #665848",
"]  c #775A45",
"[  c #665B55",
"{  c #6D534A",
"}  c #7A634A",
"|  c #6B6359",
" . c #776957",
".. c #7D735A",
"X. c #6C624D",
"o. c #51566C",
"O. c #5C6666",
"+. c #686967",
"@. c #776C64",
"#. c #7C7368",
"$. c #777877",
"%. c #6C7074",
"&. c #5F6060",
"*. c #923916",
"=. c #845B0B",
"-. c #B35417",
";. c #896509",
":. c #9A7509",
">. c #876616",
",. c #9A7516",
"<. c #926D0E",
"1. c #A37C16",
"2. c #A57A0B",
"3. c #835C38",
"4. c #8A552C",
"5. c #886439",
"6. c #946D2F",
"7. c #A97737",
"8. c #AE742F",
"9. c #B35826",
"0. c #CD641D",
"q. c #C96727",
"w. c #D46B27",
"e. c #D57231",
"r. c #D36723",
"t. c #855C46",
"y. c #8A5C4C",
"u. c #886648",
"i. c #936A49",
"p. c #886954",
"a. c #956B55",
"s. c #82755C",
"d. c #88795C",
"f. c #987557",
"g. c #97744A",
"h. c #A9784D",
"j. c #857A63",
"k. c #8B7D64",
"l. c #8B7D6B",
"z. c #83776A",
"x. c #947C65",
"c. c #877D73",
"v. c #8E7369",
"b. c #A67966",
"n. c #C97A49",
"m. c #79827C",
"M. c #7F820A",
"N. c #AB8417",
"B. c #B48B17",
"V. c #BB931A",
"C. c #AE850B",
"Z. c #B7892D",
"A. c #978330",
"S. c #C29617",
"D. c #CC9034",
"F. c #EAA635",
"G. c #E19D38",
"H. c #B3864A",
"J. c #8E816D",
"K. c #8C8165",
"L. c #928265",
"P. c #94846C",
"I. c #9A8A6E",
"U. c #98876C",
"Y. c #8D8274",
"T. c #8A857B",
"R. c #938572",
"E. c #968975",
"W. c #9C8C73",
"Q. c #958A7B",
"!. c #9B8D7A",
"~. c #948678",
"^. c #9E917D",
"/. c #9D9275",
"(. c #8C937D",
"). c #A18E75",
"_. c #A29175",
"`. c #A3937B",
"'. c #A9997C",
"]. c #A8876B",
"[. c #96845B",
"{. c #CD8F48",
"}. c #E7A949",
"|. c #DC9D4C",
" X c #73778B",
".X c #56658B",
"XX c #827E85",
"oX c #7A8686",
"OX c #7B84A3",
"+X c #888985",
"@X c #958D83",
"#X c #9B9386",
"$X c #999799",
"%X c #899291",
"&X c #A49785",
"*X c #A69B96",
"=X c #AAA598",
"-X c #B3AB95",
";X c #9696AC",
":X c #9B9BAD",
">X c #9697A7",
",X c #9C9BB1",
"<X c #969AB0",
"1X c #8B90A3",
"2X c #A19EAB",
"3X c #A59CA7",
"4X c #A39DB2",
"5X c #B29AAA",
"6X c #9FA1AD",
"7X c #9FA1B3",
"8X c #9EB1A5",
"9X c #A4A3AB",
"0X c #A9A6AB",
"qX c #ABAAAE",
"wX c #A7A4A5",
"eX c #B3AEAD",
"rX c #B5ACA5",
"tX c #BAB3AB",
"yX c #A3A4B4",
"uX c #ACACB3",
"iX c #A3A6BA",
"pX c #ABACBC",
"aX c #A7A8B8",
"sX c #B3ACB4",
"dX c #B4B2B4",
"fX c #B9B6B7",
"gX c #ADB2B8",
"hX c #98A498",
"jX c #C5BAAA",
"kX c #C3BCB5",
"lX c #C3AAB6",
"zX c #C9B195",
"xX c #CAC3B9",
"cX c #D6CAB7",
"vX c #D4CAB0",
"bX c #E5D7BA",
"nX c #E9D8B5",
"mX c #EADBB4",
"MX c #A9AEC2",
"NX c #ABB2C6",
"BX c #B6B5C3",
"VX c #B4AEC3",
"CX c #C3B6C1",
"ZX c #DCD3C3",
"AX c #D2CBC2",
"SX c #E6DBC6",
"DX c #E3DDD4",
"FX c #ECE2C9",
"GX c #F6EBD4",
"HX c #FCF5D9",
"JX c #F4E7CB",
"KX c #FCF9E7",
"LX c #FDFBFC",
"PX c #FDFBF4",
"IX c #EFECE6",
"UX c #BAC6B3",
/* pixels */
"5 > 0 e w 6 5 5 5 6 5 7 7 7 $ # # % $ # # - 7 5 6 > 6 6 6 0 5 5 5 5 7 7 7 $ $ % > # # + # % # # % - > = > > > q h h V e V V f f V f V f 0 5 > > > > > 5 > 5 q 5 5 0 q , > e q , q q q f f h V f Z Z Z Z Z Z Z ' ' Z V q q q q q q q q , f B B G  .K.K.J.J.K.s.K.J.J.k.E.J.J.K.K.J.k.j.K.J.k.k.K.J.k.j.k.K.k.k.j.j.k.k.J.J.k.k.k.k.k.j.l.j.j.j.s.....s.d.K.k.j.j.j.j.j. ......... .X.' ^ ^ ^ ^ [ | @.#.#.#.#.@.| _ ` ` Q Q ` ` ` Q W W W W W W W W Q _ _ [ [ [ [ | [ | +.+.+.+.+.| +.+.+.+.+.+.[ [ _ ` W W h h h e w w 0 0 0 w w ",
"> > w V w 0 5 5 5 5 7 7 7 7 $ $ % $ > > $ > % - - > 5 6 6 7 > 5 5 5 5 7 - $ + # % # + # # % % # $ > > = > 0 q h V h w w V q q f V 0 q > = % = = % > > > 5 5 8 5 > q q > 8 0 5 0 q 8 f V f V V V V V Z Z Z Z Z V f f V q q 8 8 8 8 f q q f f i V B Z G } ..j.K.E.J.K.j.P.J.J.P.J.R.P.J.J.J.k.j.l.J.J.j.l.J.j...j.j.j.j.j.J.J.K.k.J.l.j.j.j.s...s.s.j.j.k.k.j.j.j.j.j.j.j.......s. .X.X.X.' ' ^ ^ ^ ' ^ | @.#.#.#.#.@.+._ ^ ` Q ` Q W Q ` Q Q W W W W I W Q _ ` _ [ [ | | +.+.+.+.+.| | +.| +.+.| | | | [ _ ` Q W h h e e e e w w ",
"> - e W w 0 5 6 7 7 7 7 7 7 > $ $ $ 7 7 7 > > > $ > 5 6 6 5 5 5 7 7 5 7 $ % + # % # + % # # $ % # = > > > 0 V h h V V V e q e 0 > > = % % % % > = > > 5 5 5 0 5 > q q q 8 q 0 f q q Z Z V Z Z V V V Z V V V V f f f f q f , q 8 q q q q q V V Z Z Z Z G G G '  .l.j.K.K.J.J.E.E.P.P.P.P.J.K.J.J.K.l.j.j.j.s.....j.j.j.j.j.J.J.k.k.J.K.K.j... .s.s...s.j.j.j.j.d.s.s.s.j...s.s.s....... .X.X.' Z Z Z ^ ' ' ^ ' | @.#.$.$.#.@.[ _ ` W W Q Q Q Q Q Q Q W W W W W Q ^ ` [ [ [ [ [ | | | | | | | | | +.+.+.+.+.+.+._ _ Q W W W W W Q ",
"- > 6 V w 5 7 5 7 7 7 7 $ 7 t % $ 7 7 6 7 7 5 5 7 5 6 5 5 5 6 5 5 7 5 7 7 $ # + + # # # % # % $ % > 0 5 5 5 q w e e e e e > > = % $ % % O % % % = = > > 5 5 5 0 5 0 q q 0 8 q V h V ^ V Z Z C V f q f 8 V q q f f f f q q , , q q q V f V Z Z Z Z Z G G Z G ' C ' ' ' V Z ' ..s.j.E.R.P.J.P.P.J.k.j.j.J.l.s.j.j.j.J.R.K.k.j.j.j.s.j.s.l.j.......j.j.s.j.j.j.j.k.s.....s.......s.....s... .X.' Z Z Z ' ' ' ' ' X.^ ' | @.#.c.c.$.@.+._ Q Q Q Q Q Q Q Q Q Q Q W W h W W Q ^ [ [ [ [ [ | | | | | | | | | +.+.+.+.+.| [ ^ ` ^ [ [ [ ",
"> 7 7 6 e 7 7 5 7 > $ $ % - 7 $ $ 7 5 6 5 5 5 5 5 6 5 5 5 5 6 5 5 7 5 5 7 t % # + # # # $ # % $ $ 5 0 > e 0 0 q q 0 w q 5 7 $ % % % # % % % % % % $ > > > 5 5 e 5 5 8 q V h V V V Z Z V Z Z V q V q 0 q q q q q q q q q , , 8 q q V Z Z V Z ' G Z Z Z G G G G f f , , q q , q q f G  .s.K.J.E.P.J.J.J.P.P.J.j.j.j.j.l.J.P.J.l.j. .....j.k.s.j.j.j.j.j.j.k.k.j.k.d.s..... ... ............. . .X.X.' X.' X.' ' X.X.X.^ Q Q ^ | @.c.c.c.#.@.[ _ Q Q Q Q ` Q Q Q Q W Q W W W Q Q ^ [ [ | | | | | | | [ | +.+.| [ _ _ _ [ [ [ [ [ [ ",
"5 5 7 6 e 7 7 7 7 t $ > > $ t $ $ 7 7 5 9 6 6 5 5 5 5 5 6 6 6 0 6 6 5 5 5 7 % # + + # # $ % > $ > 0 0 5 0 0 0 0 5 0 > - > > $ % # % # % - % % = = > > 5 0 0 0 e w q q V V V V V Z Z V V f , q 5 5 q 8 q q 8 , , , q f 8 q q q q V V Z Z Z Z ' G C Z Z Z C Z f , 8 , , q q , q q q f f V Z Z R.R.P.E.E.P.E.E.k.k.K.j.s.s.j.j.k.k...j.j.....k.j.j...j.k.s.s...X...s.s..... ... . . . .....s.........X.X. . . .X. .X.X.X.^ ^ ^ Q V ' | @.c.T.c.c.@.[ _ ` Q Q Q ` ` Q Q Q Q Q W W h h | | | | | | | [ [ [ [ _ _ [ [ | | | | | | | | ",
"6 5 5 5 e 5 5 5 7 7 t 7 7 5 7 > > # % $ 5 7 7 5 5 5 5 5 6 6 6 0 6 6 6 6 5 7 $ # # # % % $ > > > > 0 5 5 0 0 5 > > 5 5 > % % % # # % % $ - % % $ = > > 5 q q w V h h V V V V V V V e > , = > > > 8 q 8 f q > 8 q q q f 8 q V V V V Z V ^ Z Z G Z Z V Z V f , , , , > f f q q q f f V f V Z V  .j.j.P.E.R.l.J.R.J.J.J.K.j.k.k.k.j.k.j.j.s.j.j.s.s.....j.s.s. .s. ...s. .X.X. . . . . . ...j.d.j.j.d.j........... .X.X.X.^ ^ ' ^ ^ ' ' ^ | [ | #.c.c.c.#.+.[ Q Q W ` ` ` Q Q Q Q Q Q | | | | @.+.| | | [ [ | | | | | | | | | | | | ",
"6 5 6 7 6 w 6 6 6 7 7 5 7 5 6 5 5 $ $ $ 7 $ $ 7 7 7 7 7 7 5 5 6 6 6 0 6 9 6 7 % % % % % $ 7 > 7 > 5 5 0 5 0 > 5 5 5 5 > % # + # # $ $ % % % $ $ $ > > 0 q q h V V h V V V V V , > = = = = = = > 0 0 8 q q > q f f q q f V Z V Z V G V Z Z C Z f f q q q > > , 8 , q f q q q q f V V V V Z Z G Z C '  .l.l.j.J.K.l.J.P.J.k.j.J.j.J.l.j.s.s.s.j.k...s.j.s.s.s.k.s.......X. ... .X... ...s.j.j.j.j.s.j...j.j.........X.X.X.X.X.X.X. .X.| X.^ Q ' X.| @.#.c.c.#.@.[ _ Q Q Q Q Q Q ^ @.@.@.+.+.+.+.+.+.| | | +.| | [ [ | | | [ [ [ [ ",
"6 w w w > e 6 6 6 5 5 5 6 6 5 6 6 5 6 7 7 7 7 7 7 7 7 7 7 5 7 5 6 5 6 6 6 6 6 > $ > % % $ > > $ > 5 5 0 5 0 5 5 5 5 7 > % # # # % % % # % % $ - $ > > e q q h V V V V V Z q > = = % % = % % % > > 0 5 q q 0 h V Z Z V Z Z Z Z Z V V Z V Z f q > , 8 q q 5 , q f q V f f f q f V V V V Z Z ' Z G G ' C ' Z Z ..J.k.P.J.J.K.R.J.K.J.K.J.K.s.j.j.j.....j.....s...d...k.s........... ...s............... ...s.s...j.j.j.....j.s.s.j....... .| ' X.' ' ' ' | @.#.z.z.z.#.@.[ ^ Q Q ^ ^ [ [ [ | | | | | | | | [ [ [ [ _ _ [ [ | [ [ | ",
"6 0 w w 7 6 9 6 6 9 6 5 6 6 6 0 6 6 6 w 6 6 6 7 7 7 7 5 $ 7 7 7 5 7 5 5 7 6 6 7 7 7 $ $ > 7 7 > 5 6 6 5 0 0 0 5 5 5 5 5 $ % # # # $ $ # $ $ % > > > 5 e q h e e V e q 5 e > % % % % = = = > > > > 5 q q q q V V Z Z Z V f Z V Z Z V f f q , q , , 8 8 q q , V V q q f f f V V Z Z Z Z Z ^ ' Z G Z V f , f f q f f ' j.P.K.P.L.K.K.J.J.j.j.j.s.s.s.s.k.j.j.k.j.d.d.K.K.k.d.........s......... . . .........s.j.j.j.j.s.s.j.d.j.s.s.s.......X.X.| X.| | X.| | X.| | #.$.c.$.@.| @.@.+.| | [ _ _ _ _ _ ^ _ _ _ _ _ _ _ _ ^ _ ^ _ | ",
"0 6 9 w 7 5 6 6 6 9 6 6 0 6 6 6 6 6 6 0 0 w w 6 6 6 6 6 > > 7 7 6 6 7 7 7 7 5 7 7 5 7 > > 5 5 5 5 6 0 0 0 5 5 5 5 5 5 5 > # # # + $ > # % % - 5 5 5 0 0 0 8 0 w 0 5 $ - $ # % $ % = > > > = > > > 0 f q V f V V Z Z Z Z V Z Z Z f q , , , > q 5 , > q q q , V V q V V V Z Z Z Z Z Z Z Z G ' V f f q q q f f f q q q f ' d.R.P.P.J.L.U.P.J.J.j.j.j.k.k.d.d.k.K.K.d.K.K.k.K.d...s.s... . . .X..... . .....s...s.s.s.s.j.j.s...s.s.s.s.s.s..... . ... ...X.X.X.X.X.[ ' ' | @.#.#.#.#.#.#.#.#.@.@.+.+.+.+.| [ [ _ ^ Q ^ Q ^ ^ Q _ _ ",
"9 0 w w 7 5 6 6 6 6 9 6 9 w 0 6 6 6 5 6 6 6 6 5 5 w 0 6 6 7 5 6 5 6 6 5 5 5 5 7 7 7 5 6 7 5 6 5 5 5 0 0 6 6 6 5 5 5 6 5 7 # # # + % $ $ $ > 7 6 5 5 5 > 0 5 5 7 % % % % % # # % $ > 5 > > > > = > 0 e V V V V V V V Z Z f f V f > 8 , , > 8 q > > , f q f q f V V Z Z Z G Z Z ^ Z ^ Z V V f f q f q q f q q f q q q f V V  .K.U.P.L.L.P.P.P.J.K.K.j.j.s.d.j.d.j.k.k.k.k.k.k.k.K.k.d.k. ...s.j.k.s.s.s.s.s.s.s.s.s...s.j.s.s.j.j.k.j.d.j.j.j.#..... . . ... . . . .| ' ' ' ^ ' X. .#.#.#.#.#.@.@.+.[ ^ Q Q Q Q Q ^ ^ Q Q Q ^ ^ _ ",
"9 0 w w 7 7 6 6 6 6 6 6 9 0 0 w w 6 6 6 6 9 9 6 5 9 w w w 6 6 0 w 6 6 5 6 5 5 7 7 5 7 5 7 7 7 7 7 5 5 5 6 6 6 6 5 5 6 6 5 % # % % $ 7 $ $ > 7 5 6 5 5 5 0 5 5 7 % # $ % $ % # % > > > 5 > > > > > 0 > C V f V V V V f q 5 > 8 q 5 , > , , 0 8 > , 0 V f V V Z Z Z C C Z Z Z Z ^ Z V q , q q f q q q q f q q q f V q V Z V Z ' '  ...d.P.J.K.P.P.K.j.j.s.s.d.k.d.j.d.d.d.k.k.l.J.J.k.K.j.k.K.k.k.K.s.j.k.j.j.s.j.j.s.j.s.....s.j.J.k.j.k.K.....j............. . .....X.| ' ' | ^ ^ ' ' ^ [ ^ ^ ^ Q V V W Q W W Q Q Q Q Q Q Q ^ Q ",
"5 6 w w 6 > 6 6 6 6 9 9 6 0 0 6 w 0 6 6 6 w 9 6 9 6 6 6 w 6 6 6 9 9 w 5 6 6 6 5 7 6 7 7 7 7 7 7 5 7 5 6 6 5 5 6 5 5 6 5 5 5 > 7 > % $ $ - > 7 7 7 5 0 0 0 5 5 7 - # % % $ % # % > > > > > % % > q f q Z V f f V e f 8 5 5 5 5 q 5 5 > 5 q 0 5 , , , Z V Z G ^ Z Z Z G Z Z Z f f q 8 q , f q q q f V f f f f f V V V Z Z Z Z G G G Z G ..L.J.J.k.K.J.k.s.d.d.s.d...s.s.s.j.s.s.j.j.k...s.j.s...s.d.s.s.j.k.k.j.k.k.s.j.s.s.j.j.s.j.k.k.K.j.s.j.s.......j.j.j.j... ...X. .X.X. .X.|  .| Q Q V V V V V W W W V W ~ Q Q Q Q Q Q ^ Q ",
"7 6 w 6 w 7 6 6 6 6 6 6 6 6 w 6 6 6 6 6 0 w 6 6 9 w 0 6 w 0 6 9 9 6 9 9 6 w 9 6 5 5 6 6 6 7 7 7 5 6 5 6 5 7 7 5 5 7 7 7 6 6 5 7 7 7 7 7 5 6 6 0 6 6 0 0 0 0 6 7 7 % % $ % % % $ > > > > - $ 5 e V V e V f q q q 5 5 5 > 5 > 5 0 > 0 5 q q q q f V V Q Z ^ ^ ^ Z Z G Z V f q 5 5 , 8 q 8 q q q f q f f f f Z f V Z Z Z Z G Z G G ' Z V f ' X...j.k.P.J.k.j.K.d.j.k.d.s.s.s.....s...s.s............. ...s.j.k.j.j.k.j.j.j.j.k.j...s.j.j.j.K.K.j.j.......j.j...j... ... . . . . . . . .X.X.X.^ ^ ^ [ V Q V W W V Q Q Q Q Q W W Q Q ",
"w 6 w w w $ w w 9 6 6 9 6 w w w 9 6 9 9 w w 6 6 6 9 w 6 0 0 6 w w 9 w 9 6 9 w 9 6 6 6 6 6 6 6 7 5 6 5 7 7 5 5 5 6 5 7 7 5 7 7 7 7 > 7 5 5 7 0 0 0 6 0 0 0 0 6 5 > $ % $ > $ $ $ > > > > > > 5 e Z f 0 q 5 > 5 5 5 5 - = > > 5 > > 0 0 0 f h h V Z Z Z Z Z Z Z Z V V q q 8 5 , 8 8 q q 8 q V f V V V V V f Z Z C ^ Z Z Z G Z Z V f q q q q q f V Z '  .X. . . . . ...K...K.j.j...s.j.j.s.s.......s.s...s.s.d.d.j.k.K.j.s.s.j.s...s.d.d.d.d.K.j.j.s.......j.s................... . .|  . . . .| X.| | ^ V e Q V V W Q ~ ~ Q Q V Q ",
"w 9 6 w 6 $ 9 w 9 6 6 w w 9 9 9 6 6 9 9 6 9 9 6 6 w 9 6 0 0 6 9 9 9 w w 9 9 w w w 9 9 9 9 9 0 9 6 5 5 6 0 6 5 5 5 5 5 7 6 5 7 5 7 > > 5 7 7 6 6 0 9 w 6 5 0 6 6 5 7 % % % > 7 > > > > 7 5 0 6 e V 5 0 0 5 = 5 > > > > > w > > 5 5 0 q h f Z V V Z Z V ^ ^ V q V f q 8 q q e 5 , , q 8 8 q q f V V f V Z Z Z ^ ^ Z Z Z f f f q q q f f q q i f f f f f f V Z Z Z Z G } ' X.s.J.J.P.J.K.j...........j.s.s.d.K.k.k.k.j.s.s.j.j.s.s.s.s.s.s.d.K.k.J.K.K.j.j.k.j.s.j.....j............. ... . . . . .|  . .' ^ Q Q W W V V Q Q Q V Q ",
"6 9 6 6 5 $ 9 9 9 6 6 w w 9 6 6 9 w w 5 6 9 w 6 5 w 9 9 w 0 6 6 9 9 9 9 9 9 9 w w 6 9 9 w 6 w w 0 0 0 0 0 0 0 0 0 9 6 6 9 9 6 6 6 5 7 > t 7 7 7 5 5 5 5 6 5 5 w 0 7 $ $ $ $ > 7 5 > 5 5 5 0 e e V 5 w 0 5 > > > % - 7 > 7 5 5 5 q e f V V V V V Q V q V q 8 5 , f q 8 , 0 0 0 8 0 q q f q f q f ^ V Z ^ ^ Z ' ^ Z V q q q f f , f f f q q f f f f V Z Z Z Z Z ' G G G G Z f G X.P.P.R.K.j.s...s.j.k.K.k.k.k.K.j.K.k.k.k.j.j.s.s.s.s.....s.s...j.k.k.j.k.K.J.k.j.j.j.j.s...j...j.j....... . . ... . .| | X.X.| | ^ Q V V V V V Q ",
"6 6 5 5 7 $ 6 6 9 6 6 9 9 6 6 6 6 9 6 6 6 9 9 6 9 w 9 9 w 9 6 6 9 9 6 6 w w 9 w 9 6 6 w w 6 9 0 0 w 0 0 0 w w w 6 6 6 6 0 0 0 e e 0 0 5 5 5 5 7 7 7 > > 7 $ - 7 6 5 - 7 > - - > 5 5 0 w 0 0 w 0 e 0 0 w 7 > - $ - - 7 > 5 5 0 5 h V V V V V V Z f 0 > > > > 5 > 8 0 > 5 5 f q q q q q V q Z V V Z Z Z Z G Z Z V f q q q q q f , q f q q V V V Z Z Z ^ ^ G Z Z G Z Z V Z V q V f Z '  .j.P.K.s.k.K.R.J.J.P.P.P.J.P.J.k.k.k.K.d.s.j.......d.s.k.s.d.k.j.j.j.j.k.k.j.j.j.j.j.j.j.j.l.....#......... . ...X. . . . .| | ^ Z Q V V W ",
"T e e w 6 7 6 6 6 6 6 6 9 6 6 6 6 6 5 6 6 6 6 6 9 9 9 w 9 9 9 9 6 6 9 6 w w 9 9 9 6 7 6 w 9 w 0 0 0 9 6 w w e w 0 6 6 0 w 0 w e w w w 0 w w e 9 6 6 5 7 % % > $ $ 7 > 7 > 7 7 5 5 0 q w 0 0 w w e 0 w e 5 $ = > > > 5 5 0 0 w 0 h V h V V V V 0 > 0 > > > > 5 > 0 e 5 5 q h q q q q f Z q C ^ Z V V Z V f q q q 8 f q f q f f q f Z V Z Z Z G Z Z C C Z Z Z V f q f f f V f f f f f Z Z ' ..X...K.I.I.R.P.P.P.J.L.K.k.P.J.K.P.K.P.k.s.s.d...k.j.d.k.k.k.j.j.k.l.K.K.j.j.j.K.j.j.j.s.j.j.j.#....... .#... . . . .X. .X.| | ^ ' ^ ",
"! W W W T T L e w 6 6 6 5 6 6 6 6 6 6 6 6 6 6 7 6 9 9 9 6 9 w w 9 9 9 6 9 w w 9 9 9 6 w w 9 w 0 0 w 9 9 w e w 0 6 0 0 0 w w e 0 w w w w w e e w w 0 0 5 6 6 5 5 7 $ > 7 $ 7 5 6 5 0 0 w w 0 0 q e e e e 0 > > > > 5 8 5 5 0 0 5 5 e e h e e > - > 0 5 > > > 0 > q h e 5 e V q V q V h f V Z V h q q 5 8 5 , , q q q q f q q f V Z Z Z Z Z Z Z G Z Z Z f q , q 8 f q f q f f f f Z V Z Z V Z G G G X.s.k.J.E.E.J.K.J.J.K.K.d.d.d.R.K.s.j.....j.j.k.k.k.j.j.j.j.K.K.K.j.j.j.j.j.J.J.J.k.j.s.j...j............... . . . . .@. .| | ",
"! ! W ! ! ! ! Y Y W T T e e w 9 6 6 6 6 6 5 5 5 6 6 6 7 9 6 9 9 9 9 6 5 6 9 w 9 9 9 w w 9 6 9 9 0 9 9 6 0 0 w 0 w 0 w w w w w 0 w w w w w w w w e w 6 6 0 6 0 6 7 5 7 > > > 5 7 > 5 5 0 0 0 0 w V e e e 0 5 5 > 6 0 5 5 > e h e w e w e w 5 > - > 0 > > > > 5 8 0 V h 0 V V V V V V e h q 0 > > 5 > 5 0 0 5 5 q 0 5 h V f V Z Z ^ V Z Z ' V V V V q q q q , f q q q V q f f Z Z Z Z Z Z Z Z Z G Z V f f Z ..j.j.k.R.J.L.P.d.s...K.K.K.j.....s.s.s.j.j.s.s...j.j.K.K.K.K.j.j.k.K.J.J.K.k.k.K.j.j.s.....s.s...j.....#.#.#.#.#.j.#.",
"W W ! Y Y ! Y ! ! Y Y Y Y W W W T x w 9 6 6 6 6 6 6 7 7 6 6 6 6 6 6 6 6 6 9 w 9 9 9 w w 6 w w 9 0 9 0 9 6 0 w w w w w w 6 w 9 0 w w w e e w w w e w 6 5 0 w 0 6 6 0 0 0 0 w w 0 5 5 > 5 5 q 0 w V 0 0 0 5 5 5 > w 0 0 w w e e e e e e e q 6 > > 0 5 7 5 5 w 5 0 q h e w h f V h e q 5 > > > 7 > 5 > 0 0 8 q 5 q q q V V V V Z Z Z V V f f 0 5 , , , q q q q f q f q f V Z V Z Z Z Z G Z Z Z V V q q f q i f V f V ' s.P.L.L.d.d.K.K.P.k.s.d.......s.....s.s.s.s.j.j.j.j.j.j.s.d.K.K.K.K.K.K.K.K.d.d.s.d.k.j.K.K.j.j.k.j.j.j.j...",
"W ! Y Y Y Y Y Y Y Y Y Y Y Y ! ! ! ! Y T T T e e w w 6 6 5 6 5 7 6 6 5 5 7 6 9 6 7 6 9 w 6 9 9 w w 9 w w 0 0 w w 6 0 0 w w 0 w w e w e e e e e w w e 0 5 0 e 0 6 w 0 0 0 0 0 w 0 0 0 0 6 5 5 5 5 e 5 0 0 5 5 0 0 w 0 6 e e w e e e e h h 0 5 $ > w 5 7 6 5 q w q e e e w e 0 w 5 > > 5 > > 7 7 > 5 5 0 e q h f q f q V V V Z V V q 0 5 5 q > > , q , q q f V f f V V V Z Z Z Z Z Z Z V f V q f q q q f q f f Z f f V Z ' s.K.R.P.K.K.P.L.k.k. ...s...s.s...s.j.d.j.........k.s.d.d.d.d.K.k.K.K.K.K.k.s.j.j.j.k.k.K.K.k.d.k.K.j.j.",
"Y Y Y Y Y Y Y Y Y Y Y Y Y Y ! Y Y Y Y Y Y Y Y Y Y W W T T e 9 6 9 5 5 5 6 6 6 6 6 6 6 6 6 6 w w w w 6 9 w 0 9 6 0 w 6 w w 6 w w e e e e e e e w w e 0 0 w w 0 0 w e w w 0 0 0 0 0 0 w w e w e 0 0 0 0 0 5 5 5 6 e 0 0 0 0 0 e e e e h e w 5 5 > 0 5 5 0 0 w w 0 w e w 5 > > > - - 7 6 5 7 7 5 5 0 w 5 e V h f h h V q V V q 5 q > 5 5 5 0 , 8 8 f q f f V Z Z Z f Z Z Z ^ Z Z f V q , f q , f q 8 q 8 f Z V Z V V Z Z Z G X.s.d.J.P.R.P.P.P...s.j.j.s.j.s.j.k.j.j.s.s.s.j.j.k.K.K.K.K.j.k.L.d.K.k.k.d.j.j...s.s...s.d.s.j.K.k.J.",
"Y Y Y Y Y Y Y Y Y Y Y Y Y Y Y Y Y Y Y Y Y Y Y Y Y W Y Y Y ! Y W T T T e w w 9 6 6 6 9 9 6 9 w w w 9 6 9 w 9 6 9 w w 7 w w 0 w w 0 w e e e e e w w w 0 0 e w e w w w e w e w 0 e e e e e e e V V e e e 0 0 e 0 0 0 0 e 0 5 5 0 0 0 0 0 e e 0 0 5 0 0 5 0 e e w 0 q w w 7 > - - % > 6 5 5 7 7 5 6 5 w q q h e q e h h 5 5 > 5 > > , 5 > 0 e 0 8 0 q f V V V Z ^ Z Z Z Z V f f 8 8 f 8 , f f q q q q f f Z Z Z Z V Z Z Z Z Z Z V Z Z ' k.I.L.L.J.K.K.J.K.k.L.L.K.d.s.....s.s.d.d.k.d.K.j.d.j.d.d.d.d.k.d.d.j...s.s.s...s.s.d.s.j.k.",
"Y Y Y Y Y Y Y Y Y Y Y Y Y Y Y Y Y Y Y Y Y Y Y Y Y Y Y Y Y ! ! ! Y Y ! ( ! Y Y T T e w w 6 9 9 9 9 5 6 9 6 9 w 9 w 6 5 0 9 w e w 9 e e e e 9 e w w w 0 0 0 e w w 0 0 e e e e w e e e e e e e e e w V h 0 e e 0 e e e e e e 0 5 0 5 5 5 w 0 0 0 5 0 0 5 0 0 5 w 0 0 w w 6 - - - % $ 5 6 6 > > 5 5 > 5 0 5 h e 5 5 q > > 5 5 > > > 5 > > 0 h q q V f V V V Z Z Z q f q q q q q 8 0 f f q f V V V V Z Z Z Z Z Z Z V Z Z Z f f f f f f f Z X.d.K.d. ... ...J.P.P.P.k.j.s.d.k.k.k.k.K.K.K.K.K.j.j.k.j.k.k.d.d.s.d.s.s.d.s.s.s.d.s.j.s.",
"T Y Y Y Y Y Y Y Y Y Y Y Y Y Y Y Y Y Y Y Y Y Y Y Y Y Y Y Y Y Y Y Y Y ! ! ! ! ! ( ( ( ! ! Y T x e w 6 5 6 6 6 w w 9 6 5 9 6 e w w w e e e e e e w w w w 0 0 e e w w w e e w e e e 0 e e e e e 0 e e V V e e e e e e e e V e e e V e 0 0 0 5 5 0 0 0 0 0 0 0 0 0 e w w w 0 5 > - % > 7 > 5 5 5 6 5 5 5 5 w e > > > > > 5 6 0 5 > 5 5 > q 0 V h V Q V f V V q > 0 > 8 q , q q , q , f h q f Z V Z Z V V G V V Z V V q f V f q f Z f f V V f B G G Z G Z Z X...d.j.K.P.J.K.L.K.K.K.K.L.K.K.J.K.k.L.J.K.d.K.k.K.k.j.s.s.s...s.....d.s.",
"Y Y Y Y Y Y Y Y Y Y Y Y Y Y Y Y Y Y Y Y Y Y Y Y Y Y Y Y Y Y Y Y Y Y ! ! ! ! ! ! ( ( ! ( ! ! ! ! ! Y T x e 9 9 9 6 6 7 9 w w 9 w w w w w w w w w w e w 0 w e e e w w e e w e e e 0 w e w e e e e 0 V V e e e e e e V V V e e e h e e e e 0 0 0 0 0 0 0 6 6 6 5 0 0 0 0 0 0 5 > - 7 5 > > 7 5 5 0 0 5 5 0 0 $ 7 - - > > 8 7 7 > 5 0 0 e q V e V e w w q > > > > > 0 q e q q 8 f f Z h V Z Z Z Z Z V V f f q q q q q f V f f V f f V Z V Z Z Z G Z Z G G G ' G Z Z X.X. . .K.J.J.K.L.P.K.K.s.d.K.d.K.....d.j...d.s.d.d.s.d.....s. .",
"Y Y Y Y Y Y Y Y Y Y Y Y Y Y Y Y Y Y Y Y Y Y Y Y Y Y Y Y Y Y Y Y Y Y ( Y Y Y Y Y Y Y ( ! Y ! ! ( ( ! ! ( ( ( ! W T T e e e 9 9 w 6 6 9 9 9 w 0 w w 0 0 w w w w w w w e e e e e e 0 0 e e w e e e w e e 0 e e e V e e e e e e e e e e e e e e e e w e 0 0 6 5 7 5 5 6 6 5 5 6 7 > 6 6 7 7 5 5 5 6 6 6 5 5 7 7 $ > 7 > - e > 8 6 5 w e w 0 w w 0 5 > > 5 > > > > 5 q q e q e f V V ^ V Z V f V q , q 8 , > 8 f f q q V f f f V f V Z Z Z Z Z C Z Z Z Z Z Z Z V V V f V V Z ' ..j.R.L.P.L.d.d.d.s.s.................s.d.d.d.s.s.s...",
"Y Y Y Y Y Y Y Y Y Y Y Y Y Y Y Y Y Y Y Y Y Y Y Y Y Y Y Y Y Y Y Y Y Y Y Y Y Y Y Y Y Y ( Y Y Y ! ! ! ( ( ( ( ( ( ! ! ! ! ! ! W T e w w w 9 9 9 0 0 0 0 w w w w w w w w e e e e e e e e w e e e e x e e e e e e V h e V h e e e e e V h e e e e e e e e 0 0 e 6 0 6 5 5 7 7 7 7 > 7 7 7 5 5 0 0 0 0 6 6 5 > > 7 $ - > > 5 6 > 5 0 5 6 5 5 5 > > 5 > > > 5 > > > 0 8 0 q q V V V C Z C V h 8 q 8 8 q q 5 , 8 V q , 8 f V f V V V Z Z Z Z Z Z Z Z V V q f f f f f V V V V V Z Z Z Z ^ ^ ..L.d.s...s.d.d... . ... ...d.d.d.d.d.d.d.s...",
"Y T T Y Y Y Y Y Y Y Y Y Y Y Y Y Y Y Y Y T T Y Y Y Y Y Y Y Y Y Y Y Y Y Y Y Y Y Y Y Y Y Y Y Y Y Y Y ! ! ( ! ! ! ( ( ! ! ( ( ( ( ! ! W W T x e e w w 0 w w w 0 w w w 0 w w w w e e e e e w e x V V e e e e e e h V V V e e e e e V V e e V x e 0 w e e q 0 e 0 w w w w 9 6 5 7 5 5 6 6 5 5 5 5 5 8 5 0 6 7 > - - $ $ $ 7 7 > 5 6 6 6 7 - > > $ > 7 > % 0 5 5 > w 0 0 e e V V Z Z h q q > 8 q 5 8 q 5 8 q q f e q V Z V Z Z V Z V Z Z Z V q q f f f f f f f V V V V V V V V V e 8 = % O Z ..d.d.d.d.L.k.s.d.s.......d.d.d.d.s.j.j.d.",
"Y Y Y Y Y Y Y Y Y Y Y Y Y Y Y Y Y Y Y T T Y Y Y Y Y Y Y Y Y Y Y Y Y Y Y Y Y Y Y Y Y Y Y Y Y ! ! ! Y Y ( ! ( ( ! ! ( ( ! ! ( ( ( ( ! ! ! ! ! ! W W T T e w w w 0 w w w 0 0 w w e e e e e V e x V e e V e e e e V V e e e e e V e V e e V e e e 0 e e 0 0 0 0 0 e w e e 0 w 0 6 6 0 w 0 6 5 7 7 7 7 5 5 7 7 7 7 > 7 7 5 5 5 5 5 5 5 5 > $ > $ $ > > - 6 7 > > 5 0 0 0 e e 0 5 7 > 5 q 5 5 q 5 8 q 8 e q q V V V Z Q V Z Z V V f q q q q q q V f f V V h h f f V f f q , > = % % % O > q V Z G ' X.d.P.L.K.d.s...d...d.d.d.d.d.s.s.",
"Y T Y Y Y Y Y Y Y Y Y Y Y T Y Y T T T T T T T Y Y Y Y Y Y Y Y Y Y Y Y Y Y Y Y Y Y Y Y Y Y Y ! ! ! Y Y ! ! ( ( ! ! ( ( ! ( ( ( ( ( ( ! ! ( ( ( ( ( ( ! ! ! W T T x e e w 0 w e w e e e e x e e V e e V V e e V V e V e V e V e e V e e e e e e 0 w e 0 0 0 0 0 w w w e w w w w 0 0 0 0 0 0 0 6 5 5 7 7 > 7 5 5 7 7 5 5 6 9 0 6 6 6 6 7 > $ 7 > > 7 7 5 > 7 5 5 7 5 5 5 > > > - = q e > 0 5 5 5 e V h Z V f V f q V f q q q 8 q 5 q f f q h h h f h V f f q q > > > = % % % % % % O q f V Z Z V Z V d.U.L.P.K.K.K.d.s.d.d.d.......",
"T Y T Y Y Y Y Y Y Y Y Y Y T T Y Y Y Y Y T Y T Y Y Y Y Y Y Y Y Y Y Y Y Y Y Y Y Y Y Y Y Y Y Y Y Y Y Y Y ! ( ( ( ( ! Y Y ! ! ( ( ( ( ! ( ( ( ( ( ! ( ( ! ! ! ! ( ( ( ! W W W W W x V e e e e e e e e e e e e e V e V W V V e e e e e V e w w e e e 0 e e e w e e w w 0 e e 0 0 0 w 0 w 0 0 0 0 6 6 0 6 6 7 7 5 7 7 7 5 5 5 6 6 9 0 6 0 6 5 7 7 5 7 7 7 7 7 6 9 5 7 7 7 7 $ > > - = q 0 > 0 5 5 q V V V V V V h 5 > 5 q 5 5 q 8 q 0 e f e e h h f f q 5 > > > > = = = = = = = % % # O 5 q V Z Z Z V V V X.K.K.K.K.k.K.L.L.d.d.d.d. .",
"Y T T T Y Y Y Y Y Y Y Y Y T T Y Y Y Y Y Y Y T Y Y Y Y Y Y Y Y Y Y Y Y Y Y Y Y Y Y Y Y Y Y Y Y Y Y Y Y Y Y ! ! ( ! Y Y Y Y ! ( ( ( ! ( ( ! ! ! ! ( ( ! ! ! ( ( ( ( ( ( ( ( ( ( ~ ! W W T x e e e w e e e e e e e e e e e e e e e e e e w w e e e e e e e w e e e e w e e w 0 0 0 0 0 0 w 0 0 0 0 0 0 6 7 6 0 5 7 6 5 5 7 5 7 5 6 5 6 5 6 5 5 6 5 5 5 5 6 5 5 5 7 > 7 > > 7 - - 7 0 0 7 > 0 5 V Q e e 5 > > 5 > > 0 5 0 8 q 0 q 0 e q e e q 0 > > 7 - = > > > > = = = = % % # # # o = q V Z Z Z Z V V q Z G K..., f d.K.L.L.K.L.s.",
"T T T T T Y Y Y T T T T Y T T T T T T T T T T Y Y Y Y Y Y Y Y Y Y Y Y Y Y Y Y Y Y Y Y Y Y Y Y Y Y Y Y ! ! ! Y ( ( Y Y ! Y ! ! ( ( ( ( ! ! ! ! ( ( ( ( ( ( ( ( ( ( ( ( ( ( ( ( ( ( ( ( ~ ~ ~ ! W W x x V x w 0 0 e e e e e e e e w w e e w w e e e e e e w e e e w w w 0 w 0 0 0 0 w w 0 0 0 0 0 0 0 0 5 5 0 0 6 6 5 6 5 5 5 6 6 5 5 7 5 5 5 5 6 6 6 6 6 5 5 5 7 - 7 $ $ 7 $ $ > > > - > 5 e V > > 5 - 7 > 5 > 5 q 5 w q e e q 0 0 q 8 5 > = = > > > > - > > > = = % # # O # o o . > q Z Z Z Z Z Z V q > O ..q X X > , V ' K.L.k.",
"+Xm.+._ ( Y T T T T T T T T T T T T T T T T T T T Y Y Y Y Y Y Y Y Y Y Y Y Y Y Y Y Y Y Y Y Y Y Y Y Y Y Y Y Y Y ( ( Y Y Y ! ! ! ! ! ( ( ! Y Y ! ( ! ! ! ! ( ( ( ( ( ( ( ( ( ( ( ( ( ) ( ~ ~ ( ( ( ( ( ( ~ ~ W V x e e e e w w 0 0 e w e e w e e e e e e e e e e e 0 e e 0 w w 0 w w w w 0 0 0 w w w w w 6 5 6 0 0 6 0 w 0 6 5 5 6 6 6 6 6 7 5 7 7 7 7 5 6 6 5 5 7 $ $ - $ - $ > - > > > > 5 Q e $ = > - 7 7 5 7 7 5 5 0 0 w q > > > > > > > > > > > > > > - % % % # # # # o o . . . > V Z Z Z Z Z Z f 0 > . o X X X X X X X Z d.P.",
"wXwX=XhXhX%XoX$.+._ ( Y T T T T T T T T T T T T T T T Y Y Y T T Y Y Y T Y Y Y Y Y Y Y Y Y Y Y Y Y Y Y Y Y Y Y Y ! ! Y Y Y Y Y Y Y Y Y Y Y Y ! ! ! ! ! ( ( ! ( ( ( ( ( ( ( ( ( ( ( ) ( ~ ( ( ( ( ( ( ( ( ( ( ( ( ( ~ ~ ~ W x e w w e e e w w e e w w e e e e w e e e 0 e e 0 w 0 w w w 0 0 0 0 0 6 9 w 0 5 0 w w 6 6 0 0 6 6 6 6 6 6 6 6 6 5 5 5 7 5 7 7 5 7 5 7 - > - - > 7 > > > 7 7 7 7 W 0 % - > > 7 7 7 > > 5 5 > > > $ = - - - > > > > > > - > = = % # # # + o o o . . o . o > V Z Z ^ ^ Z Z V q > o .   X X X X X X X = ' ",
"=X=X=XhXhXhXhXhXhX$X$X%XoXm.%.O._ ( Y Y T T T T T T T T Y Y T Y Y Y T T Y Y Y Y Y Y Y Y Y Y Y Y Y Y Y Y Y Y Y Y Y ! Y Y Y Y Y Y Y Y Y ! Y Y Y Y Y Y ! ! ( ( Y ( ( ! ( ( ( ( ( ( ( ( ( ( ( ( ( ~ ( ( ( ( ( ( ( ( ( ( ) ) ) _ ) ~ ~ W W T e e e e e 0 w e e e w e e w 6 e w w e e e e w w w w w 0 0 6 w w 6 w w w w 0 6 w 0 6 6 6 6 0 0 6 6 5 6 6 5 5 7 7 7 > 7 7 $ 7 7 7 7 7 7 7 - > > > > h 7 - > - - > 7 > - > = % % % % % - > - - - > > - - % % % # # # + + + + o o o o o . . o % f Z Z ^ ^ Z Z V q > # # # .   X X X X X X X ",
"=X=X8X8XhXhXhXhXhXhXhXhX$X%X%XhX%X%X%XoXoX$.%.O._ ( Y Y T T T T T T T Y Y Y Y Y Y Y Y Y Y Y Y Y Y Y Y Y Y Y Y Y Y Y Y Y Y Y ! Y Y Y ! ! Y Y Y Y Y Y Y Y ! Y ! ( ! ( ( ( ! ( ( ( ( ( ( ~ ~ ~ ~ ~ ( ( ( ( ( ( ( ) ( ( ) ( ) ) ) ) _ ) ) ) ~ ~ W W W e e e e e e e w w w w w w e e w w 0 w e w w w 0 0 w w 7 w w w w w 6 0 6 6 6 6 6 6 6 6 6 6 6 6 6 5 5 5 5 7 7 5 5 7 7 7 7 7 7 > > > > 7 7 0 > - - - - $ - $ $ % = = = = - - = > - $ $ - - % % # # # + + o o + + + o o o o . . . . > V Z ^ ^ ^ ^ V V 0 > $ % $ # + . . .   X X X ",
"8XwX8X8XhXhXhXhXhXhXhXhX$X%X%XhX%X%X%X%X%X%X%X%X%XoXoXm.%.%.O._ ( Y Y Y T Y Y Y Y Y Y Y Y Y Y Y Y Y Y Y Y Y Y Y Y Y Y Y Y Y Y Y ! ! ! ! ! Y Y Y Y ( Y Y ! ! Y ( Y ! ! ( ! ! ( ( ( ( ( ~ ~ ~ ( ( ~ ( ) ) ( ( ) ) ( ) ) ) ) ) ) ) ) ) ) ) _ ) ) ) ) ) ) ~ W W x e e w w w 9 w w w w 0 0 w w w w w w w w 0 5 w 0 w 9 0 0 0 6 6 w 6 6 6 6 6 6 w 6 6 5 5 5 6 5 5 5 5 5 5 7 7 7 7 7 7 > 7 7 $ > w > > - - $ % = = = % % = % % % % % % % $ % @ # # # # # # # o o o + o + o o o .   X X X % V Z ' ^ ' ^ V V q 5 $ $ > $ + + + . . . X   ",
"8X8XwX8X=XhXhXhXhXhXhXhX$X%XhX%X%X%X%X%X%X%X%X%X%X%X%X%X%X%X%XoXoXoX X%.O.O.) ( Y Y Y Y Y Y Y Y Y Y Y Y Y Y Y Y Y Y Y Y Y Y Y Y Y Y ! ! ! Y Y Y Y ! Y Y ! ! Y ( Y ( ( ( ! ( ( ( ( ( ( ~ ~ ~ ~ ( ( ( ( ( ( ( ( ) ) ) ) _ ) ) ) ) ) ) ) _ _ _ _ ) ) ) ) ) _ _ ) ) ~ W W x e w w w w 0 0 w w w w w w w w 0 0 w w w w w w 6 0 w w w 6 6 9 9 9 w 9 6 6 5 5 6 6 5 5 5 6 7 5 5 7 7 7 7 7 7 7 - 7 w - - > > - % $ - = % % % % # # # # # % # # # # # # # # # # # # + o o o + . X X X X X X . q Z ^ ^ ^ ^ C V q 7 > > > % # # # . . .     ",
"8XwX8X8XhXhXhXhXhXhXhX$X$XhXhX%X%X%X%X%X%X%X%X%X%X%X%X%XoXoXoXoXoXoXoXoXoXoXoXoXoX$.%.O.O.) ( Y Y Y Y Y Y Y Y Y Y Y Y Y Y ! Y Y Y Y ! ! Y Y Y Y Y Y Y Y ! ! Y Y Y ( ( ( ! ( ( ( ( ( ( ~ ~ ( ( ~ ( ( ( ( ( ( ) ) ) ) ) _ ) ) ) ) ) ) ) _ _ _ _ _ ) ) ) ) _ ) _ _ _ _ ) ) ) ~ W W x e w w w 0 0 w 6 9 0 0 6 6 w w 0 w w w 9 w w w 9 w w 6 9 6 6 6 6 6 5 6 5 5 5 5 7 7 7 7 7 7 7 5 7 7 7 7 5 6 $ $ - - - $ $ - - % % % % # # # # # # # + # # # # + + # + o o . X X   . X X X X X X X . > Z Z ^ ^ Z V V q 7 > > > % # # + . + + .   ",
"hXhXhXhXhXhXhXhXhXhXhX%X%X%X%X%X%X%X%X%X%X%X%X%X%X+X+XoXoXoXoXoXoXoXoXoXoXoXoXoXoXoXoXoXoXoXoXm.%.O.O._ ) ! Y Y Y Y Y Y Y Y Y Y Y Y Y Y Y Y Y Y Y Y Y Y Y ! Y ! ! ( ( ( ! ( ( ( ( ( ! ( ( ( ( ~ ) ) ) ) ) ) ) ~ ) ) ) _ ) ) ) ) ) ) ) ) _ _ _ _ _ ) ) _ _ _ _ ) _ _ _ ) _ _ _ ) ) ( ~ W W T e w w 9 9 6 6 7 6 6 6 5 5 6 9 0 w w 9 w 6 9 6 6 6 6 6 6 6 6 6 6 5 7 7 6 6 7 5 7 5 5 7 7 7 7 5 6 7 $ $ - $ - - $ $ % # # # # # # # # # # + # # # o o o o . .   X X . X         . .     . % V Z Z Z V V V 0 5 > > 7 # + + + + + + . . ",
"%X%XhX$XhXhXhXhX%XhX%X%X%X%X%X%X%X%X%X%X%X%XoX%X%X+XoXoXoXoXoXoXoXoXoXoXoXoXoXoXoXoXoXoXoXoXoXoXoXoXoXoXoXm.$.%.O.O.) ( ! Y Y Y Y Y Y Y Y Y Y Y Y Y Y Y Y W ! ! ( ! ! ( ( ( ( ( ( ( ( ( ( ( ( ~ ) ~ ~ ( ( ) ) ) ) ( ) ) ) ) ) ) _ _ ) ) ) ) ) _ _ ) ) _ _ _ _ _ _ ) ) ) ) _ _ ) ) ) ) ) ) ) ) ~ ~ W W x e 5 6 6 6 5 5 5 6 0 0 6 5 5 6 w 6 6 5 6 6 6 6 6 6 6 5 6 5 5 5 6 5 5 5 5 5 5 7 7 5 6 7 > - - - - - $ $ % # # # # # # # # # + + + + o .       . . X . . . . . . . . . . . . . o 8 V Z V V V e 6 5 > > > % # + + . o . . . ",
") _ O.%.$.m.oXoXoXoX%X%X%X%X%X%X%X%XoXoXoXoXoXoX+XoXoXoXoXoXoXoXoXoXoXoXoXoXoXoXoXoXoXoXoXoXoXoXoXoXoXoXoXoXoXoXoXoXoXoX$.$.%.+.O._ ( ! W Y Y Y Y Y Y Y Y W W ! ! ! ! ( ( ! ( ! ( ( ( ( ( ( ( ~ ) ( ( ( ~ ( ( ( ( ( ) ) ) ) _ ) _ _ ) ) ) ) ) _ _ _ _ _ _ _ _ _ _ ) ) ) ) ) ) ) ) ) ) ) ) ) ) ) ) ) ) ) ( ~ ! W W e w 5 6 9 6 6 5 6 5 6 7 5 6 9 6 5 6 5 5 5 6 6 6 5 6 6 5 5 5 5 5 5 7 7 > 6 7 7 - $ - - - - $ % % % % # # # + o + + + + . o .   . . . . . . . . + . . . . . . . . . . O 0 q e h q 0 7 > 7 > # # # + + . .       ",
"$.%.&.) W T e x W ) &.O.%.%.$.m.m.m.m.m.m.oXm.m.oXoXoXoXoXoXoXoXoXoXoXoXoXoXoXoXoXoXoXoXoXoXoXoXoXoXoXoXoXoXoXoXoXoXoXoXoXoXoXoXoXoXoXoX$.%.%.O.&.) ( ! Y Y W W W ! ! ! ! ! ! ! ( ( ( ( ( ( ( ( ( ) ) ( ~ ( ( ) ) ) ) ) ) ) _ _ _ _ _ _ _ _ _ _ _ _ _ _ _ _ _ _ _ ) ) ) ) ) ) ) ) ) ) ) ) ) ) ) ) ) ) ( ) ( ) ( ) ) ( ~ ~ W x e w 6 6 6 6 6 6 5 6 5 6 5 6 6 5 5 5 6 6 6 5 6 5 5 5 7 7 7 7 6 > 7 - $ > - - - $ % % % % # # # # + + . . + . o + o o + + + + + . . . . . . . . . . . .     # > 5 5 5 > > > - % # + + + . . . . .   ",
"%X%X+X+XoXoX$.$.%.O._ ~ T e w e T ! ) &.O.+.%.%.%.$.$.$.$.$.$.$.$.$.$. X$.$.$.$.$.$.$.$.$.$.$.$.oXoX$.$.oXoXoXoXoXoXoXoXoXoXoXoXoXoXoX+X+X+X%X%X%X%X+X+XoX$.%.O._ ( W W W ! ! ! ! ! ( ( ! ( ! ! ( ) ) ( ( ( ( ( ) ( ) _ _ _ _ _ _ _ _ _ _ _ _ _ _ _ _ _ _ _ _ _ _ _ _ ) ) ) ) ) ) ) ) ) ) ) ) ) ) ) ) ) ( ( ) ) ) ) ) ) ) ) ) ) ~ ( W W x w w 6 5 5 5 5 6 5 5 5 5 7 6 7 5 7 5 6 5 7 7 7 > 5 $ $ $ > > - - $ $ % % % % # # # # # # + . + + + # + + + + + + + + . . . . . . .     .         + % $ % $ $ % $ # + + . . . . . .     ",
"$X$X%X%X%X+X+X+XoXoX X$.$.$.$.%.+._ ~ T e 9 w w L Y ( _ O.O.O.%.%.%.%.%.%.%.$.%.$.%.%.$.$.$.$.$.$.$.$.$.$.$.$.$.$.m.m.oXoXoXoXoXoXoXoXoXoXoX+X%X%X%X%X%X%X%X#XhX#X#X%X+Xm.$.+.&.) ! Y ! ! ! ! ! ( ~ ~ ~ ( ( ( ( ) ) ) ) ) _ _ _ _ _ _ &.&.&.&.&._ _ &.&._ _ _ _ _ _ _ ) ) ) ) ) ) ) ) ) ) ) ) ) ) ) ) ) ( ( ( ( ( ( ( ) ) ) ) ( ( ) ( ( ( ( ( ~ W T x e w 9 6 5 5 7 7 7 7 7 7 7 7 7 7 > > 5 $ $ $ $ $ $ $ $ $ % % % # # # # # # # # + + + + + + # # # + + + + + . . . . . . . .   .         . # # $ $ # + . . .           X . % ",
"$.m.+X+X+X%X%X+X+X+X+XoXoX X$.$.$.$.$.$.$.%.%.+.&.) ~ T w 9 6 9 e Y ! _ _ O.O.O.O.+.+.%.%.%.%.%.%.%.%.%.%.$.$.$.$.$.$.$.$.m.m.m.oXoXoXoXoXoXoX+X+X%X+X%X%X%X#X#X#XhXhX=X=X8X-X-X-X=X=X#XY.#.| ) ! ! ~ ( ( ( ( ) ) ) ) ) ) _ _ &._ _ &.&.O.O.O.O.O.O.O.O.&._ _ _ _ _ _ ) ) ) ) ) ) ) ) ) ) ) ) ) ) ) ) ) ( ( ( ( ~ ( ( ( ( ( ) ( ( ( ( ( ( ( ( ) ( ( ( ( ( ~ ! W W e w 6 7 7 7 7 7 7 7 7 > 9 $ $ $ $ $ $ $ $ $ % % % # # # # # # # # # # + + + # # # # + + + + + . . . . . . .                   . . . X   . X X X . # $ 6 w x W ",
") / / / ) _ &.O.%.%.$.$. XoXoXm.m.oX X$.$.$.$.$.$.$.$.$.$.%.%.+._ ) W e 9 7 6 9 e T ! ) _ _ O.O.O.+.O.+.%.%.%.%.%.%.$.$.$.$.$.$.$.m.m.m.oXm.oXoXoX+X+X%X%X%X%X#X#X#XhXhX=X=X-X-XrXtXxXxXvXvXvXvXjX-X*XQ.$.| _ ! ) ) ) _ ) _ _ _ &.&.O.O.O.O.O.O.O.O.O.O.O.&.&._ _ _ _ _ ) ) ) ) ) ) ) ) ) ) ( ( ( ( ( ( ( ( ( ( ( ( ( ( ( ( ) ( ( ~ ~ ( ( ( ( ( ( ( ( ( ( ( ( ( ( ~ ~ ~ ! W T e e 9 7 7 > 6 $ $ $ $ $ $ % $ % % % % # # # # # # # # # # # # # # # # # + + + + + . . . . . . . .     . . .       X X X X . # t 6 e x Y ! ~ ~ ~ ~ ",
"o.o.o.o./ / / / / / / / / / ) _ &.O.+.%.%.$.$.$.$.$.$.$.$.$.$.$.$.$.$.$.%.%.+.&._ ! T w 9 6 6 9 e T ! ) _ O.O.O.+.%.%.%.%.%.$.$.$.$.$.$.$.m.m.oXoXoX+X+X+X+X@X#X#X#X#XhXhX=X=X-XrXtXjXxXvXvXvXvXbXbXbXbXbXbXvXvX-X&XT.@.&._ _ _ &.O.+.+.+.%.%.%.%.+.+.O.O.O.&._ _ _ _ _ ) ) ) ) ) ) ) ) ( ) ( ( ( ( ( ( ( ( ( ( ( ~ ~ ~ ~ ~ ( ( ( ( ( ( ( ( ( ( ( ( ( ~ ~ ! ~ ~ ( ~ ~ ! ( ( ~ ~ ~ ~ ~ W W W e w 7 7 $ $ $ % % % % % % # # # % % % # # # # # # # # # # . . . + . . . . . . . . . . . . .   . . # $ 7 9 x T ! ~ ! ! ~ ~ ! ~ ~ ~ ~ ",
"+.+.&._ _ ) ) / / / / / / / / / / / / R R / / / ) _ &.O.+.%.%.%.$.$.$.$.$.$.$.$.$.$.$.$.%.%.+.&.) ! T w T L e w e Y ! ) _ O.+.+.%.%.$.$.$.$.$.$.m.m.m.oX+X+X%X@X@X#X#X#XhXhX=X=X-XrXtXjXvXvXvXvXcXbXbXbXbXbXFXFXSXbXbXbXvXvXvXtX-X=X@XY.#.+.+.%.%.%.+.+.+.O.O.&._ _ _ ) ) ) ) ) ) ) ( ( ( ( ( ( ( ) ( ( ( ( ( ( ~ ( ( ~ ~ ~ ~ ~ ( ~ ~ ~ ( ( ( ( ( ~ ~ ( ! ! ! ~ ~ ~ ~ ~ ! ! ! ! ! ! ~ ! ~ ~ ~ ~ ! W W x w 0 5 - $ % % # # % % % # # # # # # # # # # # + + + + + . . . . . . . . . . + $ 7 w x W ! ! ~ ! ! ~ ~ ! ! ! ~ ~ ~ ~ ~ ~ ",
"&X#XQ.T.c.#.@.+.+._ _ _ ) / / / / / / / / / / / R R R R L T R / / _ _ &.+.+.%.%.%.%.$.$.$.$.$.$.$.$.$.+.%.%.%.%.O.O._ ! T e w w T ! ) O.+.+.%.%.$.$.m.m.m.m.(.+X%X%X#X#X#XhX=X=X-X-X-XtXxXvXvXvXvXcXbXbXbXbXbXSXFXFXbXbXbXFXFXGXKXPXKXHXJXbXxX-X#XT.#.@.| +.O.&._ _ _ ) ) ) ) ) ) ) ( ( ( ( ( ( ( ( ( ( ( ( ( ( ~ ( ( ( ( ( ( ( ~ ( ( ( ! ( ( ( ( ~ ( ! ! ! ! ~ ~ ~ ! ! ! ! ! ! ! ! ! ~ ~ ~ ! ! ~ ~ ~ ~ ~ ~ ~ W W x e 0 5 - % % % % # % # # # # # # # # + + + . + + . . . # t 6 w x Y ! ! ! ! ! ~ ~ ~ ~ ! ~ ~ ! ! ! ~ ~ ~ ~ ~ ~ ",
"-X-X=X*X&X#X@XQ.T.T.c.$.@.+.+.[ _ _ ) / / / / / / / / / / / R R R R L R L L L W W ~ _ &.+.+.%.%.$.$.$.%.%.$.$.$.$.$.%.%.%.%.%.%.O._ ) W T e e T ! ) &.+.%.%.$.m.m.(.+X%X%X#XhXhX=X-X-XrXtXjXvXvXvXcXcXbXbXbXbXbXFXFXFXSXFXFXJXKXLXLXLXLXPXKXHXGXFXSXcXvX-X=X(.m.+.&.) ) ) ) ) ( ( ( ( ( ( ( ( ( ( ( ( ! ( ( ( ( ( ( ( ( ( ( ~ ( ( ( ( ! ! ( ! ! ! ! ( ! ! ! ! ! ! ! ! ! ! ! ! ! ! ! ! ! ~ ~ ~ ~ ~ ~ ( ~ ~ ~ ~ ~ ~ ~ ~ ~ ~ W x e w 5 7 $ % % # # # # # # . . . . % t 6 9 x T Y ! ! ! ! ! ! ! ! ! ~ ~ ~ ~ ~ ~ ~ ~ ! ! ~ ~ ~ ~ ~ ~ ",
"zX-X-X-X-X=X&X&X#X#XQ.Q.Q.T.T.T.c.$.$.@.+.+._ _ _ / / / / / / / R R R R R R R R L L L L L L W W / _ _ &.&.+.%.%.%.%.$.$.$.$.$.$.$.$.$.$.%.%.+.+.O._ ~ W T T W ! ) O.+.$.m.(.@X#XhXhX=X-XrXtXjXvXvXcXcXbXbXbXFXFXFXFXFXFXFXJXHXKXLXLXLXLXLXPXPXHXGXJXFXbXbXcXxXxXtX8XhX%Xm.$.O._ ) ! ! ! ( ( ( ( ( ( ( ! ( ( ( ( ( ( ( ! ! ! ( ! ! ( ( ( ! ( ! ! ! ! ! ! ! ! ! ! ! ! ! ! ! ! ! ! ! ! ! ! ~ ~ ~ ~ ~ ~ ! ~ ~ ~ ~ ~ ~ ~ ~ ~ ~ ~ ~ ~ ~ ~ ~ W T w 9 7 $ % # % $ t 6 w e x T T T Y Y ! ! ! ! ! ! ! ! ! ~ ! ! ! ! ! ! ~ ! ! ~ ~ ~ ~ ~ ~ ",
"vXjXjXtXrX-X-X=X=X*X&X#X#X#X@X@XQ.T.T.T.c.$.#.#.@.@.+.| +.&._ _ ) / / / W W R R R R T L R R T L L L L L R R R W W ) _ &.+.+.%.%.%.$.$.$.$.$.$.$.$.$.$.$.$.%.%.+.O._ ~ W W ~ ) &.+.m.T.@X#XhX8XrXjXxXvXvXbXbXSXFXFXFXFXJXGXHXKXPXLXLXLXLXLXLXPXKXKXHXJXFXbXcXcXxXUXUXUXtXeXeX8X8XhX+Xm.%.O.O._ ( ! ! ! ! ! ( ! ! ! ! ! ! ! ! ! ! ! ! ( ! ! ! ! ! ! ! ! ! ! ! ! ! ! ! ! ! ! ! ! ! ! ! ( ! ~ ~ ~ ~ ~ ~ ~ ~ ~ ~ ~ ~ ~ ~ ~ ~ ~ ~ ~ ~ ~ ~ ! ! ! W W Y T w 9 9 9 w w e x x T T Y Y Y ! ! ! ! ! ! ! ! ! ! ~ ! ! ! ! ! ! ! ! ~ ~ ~ ! ~ ~ ",
"vXvXjXjXjXtX-X-X=X=X=X*X*X#X#X#X@X@XT.T.T.T.T.T.c.c.$.$.#.$.#.@.+.+.+.+.| _ _ ` ` ~ / W R R R R R R T R R R R R R R R R R R W / ) _ _ +.+.%.$.$.$.$.$.$.$.$.$.$.$.$.$.$.$.$.%.+.+.&._ _ _ &.| #.m.@XhX8XUXxXvXbXFXFXGXHXHXKXHXIXLXLXLXLXLXLXLXLXPXPXPXPXIXDXcXxXUXUXUXUXtXeXeX8X8XwX8X8X8X8X$X%XoXoX$.O._ ) ( ! ! ! ( ! ! ( ( ( ! ! ( ( ( ( ! ! ! ! ! ! ! ! ! ! ! ! ! ! ! ! ! ! ! ! ! ( ~ ~ ~ ! ! ! ~ ~ ~ ~ ~ ~ ~ ~ ~ ~ ~ ~ ~ ~ ~ ~ ! ! ! ! ! Y Y T w w 9 w e e x T T T Y Y ! ! ! ! ! ! ! ! ! ! ! ~ ~ ( ! ! ! ! ! ! ! ~ ~ ~ ) ~ ",
"vXvXvXvXjXjX-X-X-X=X=X=X*X*X*X#X#X@X@X@X@X+XT.T.T.T.T.c.c.c.c.$.$.$.$.$.#.@.@.+.+.+.+.+._ _ _ _ ~ ~ W W W R R R R R R R R R / W / / / / ! ~ ) ) _ +.+.%.$.$.c.T.T.+XT.T.T.T.T.+X+X+X+XT.T.T.m.#.#.+.+.+.@.m.T.#X-XxXbXGXKXKXKXPXLXLXLXLXLXLXLXLXLXLXLXLXLXPXJXbXxXUXUXUXUXUX8X8X8X8X8X8X8X8X8XhX8X8XhX$X$X%X%XoX$.+.O._ ) ( ( ( ( ! ! ~ ( ( ! ! ! ! ! ! ! ! ! ! ! ! ! ! ! ! ! ! ! ! ! ! ( ! ! ! ~ ~ ~ ~ ~ ~ ~ ~ ~ ~ ~ ~ ) ( ~ ( ~ ( ! ! ! ! ! Y Y T 9 9 w w e x T T T Y Y Y ! ! ! ! ! ! ! ! ! ! ! ~ ! ! ! ! ! ! ! ! ! ~ ~ ~ ~ ~ ",
"vXvXvXvXvXjXjX-X-X-X-X=X=X=X*X*X*X#X#X@X@X@X@X+XT.T.T.T.T.T.T.c.c.c.c.$.$.$.$.$.$.$.$.$.$.%.@.@.@.@.+.+.+.+._ _ _ ` ~ / / / / W / / / / / ) ) ) _ _ _ _ _ &.+.+.%.$.$.T.T.+X@X#X#X#X#X#X#X&X*X=X=X=X-XrXxXZXDXDXDXAXAXxXAXIXLXLXLXLXLXLXLXLXLXLXLXLXLXLXLXLXGXSXxXUXUXUXUXUX8X8X8X8X8X8XhX8XhXhXhXhX$X$X$X$X$X%X%X%X%X%X%XoXm.%.+.O._ ) ! ! ! ! ! W ! W ! ! W ! ! ! ! ! ! ! ! ! ! ! ! ! ! ! ! ! ! ! ~ ~ ~ ~ ~ ~ ) ( ) ) ) ( ~ ~ ( ~ ( ( ( ( Y Y Y T 9 9 w e x x T T T Y Y ! ! ! ! ! ! ~ ~ ! ! ! ! ~ ! ! ! ! ! ~ ! ! ! ~ ~ ~ ( ( ",
"bXvXvXvXvXvXjXzXrX-X-X-X=X=X*X*X*X*X#X#X#X@X@X@X@X+X+XT.T.T.T.T.T.T.T.c.c.c.c.$.$.c.$.$.$.$.$.$.$.$.$.#.#.#.#.#.@.@.@.+.+.+.| [ _ _ _ _ ` ` ) ) ) _ _ _ &.&.+.+.+.$.$.m.T.@X@X@X@X#X#X#X&X=X-X-XtXxXxXZXPXLXLXPXLXLXLXLXLXLXLXLXLXLXLXLXLXLXLXLXPXPXPXKXIXGXbXxXUXUXUXUX8X8X8X8X8X8XhXhXhXhXhXhXhXhX%X%X%X%X%X%X%X%X%X%X%X%X%X%X%X%X+XoXm.$.%.O.&._ _ ~ W W W W W W W W W W ! W ! ! ! ! ! ! ! ! ! ! ~ ~ ~ ~ ~ ~ ~ ) ) ) ) ) ) ~ ) ( ( ( ( ( Y Y Y x w w e x x T T T Y W ! ! ! ! ! ! ! ! ! ~ ! ! ! ~ ! ! ! ~ ~ ~ ~ ~ ~ ~ ) ) _ &.",
"bXbXvXvXvXvXjXjXjX-X-X-X-X=X=X=X=X*X*X*X#X#X@X@X@X@X+X+X+XT.T.T.T.T.T.T.c.c.c.c.c.c.c.c.$.$.c.$.c.c.$.c.c.$.c.c.c.c.$.$.$.#.#.#.#.#.#.#.#.#.@.@.+.+.+.+.&.&.&.| +.+.+.+.#.Y.(.#X=X-XtXtXtXtX-X=X=X=X-XrXxXZXIXIXPXLXLXLXLXLXLXLXLXLXLXLXLXLXLXKXJXbXvX-X-X&X#X%X%X%XhXhXhXhX%X%X%X%X%X%X%X%X%X%X%X%X%X%X%X%XoXoX%X%X%XoXoXoXoX+XoX+X+X+X+X+X+X+X+X+X+XoXoXm.$.+.+.&._ ( W W W W W W W ! ! ! ! ! ( ~ ~ ~ ~ ~ ~ ) ) ) ) ) _ _ _ _ ) ) ( ( ( ( ( Y Y e w w e x T T T Y W ! ! ! ! ! ! ! ! ~ ~ ( ( ! ! ~ ~ ! ! ~ ~ _ _ | |  .@.#.#...",
"bXbXbXvXvXvXvXjXjXtX-X-X-X-X=X=X=X*X*X*X#X#X#X@X@X@X@X+X+X+XT.T.T.T.T.T.T.T.c.c.c.c.c.c.c.c.c.c.c.c.c.c.c.c.c.c.c.T.T.T.T.T.T.T.T.T.T.T.T.T.T.T.T.T.T.T.T.Y.Y.Y.Y.z.z.#.#.#.#.#.#.j.J.R.#X=X-XrXrXtX-X=X*X#X#X*X=XtXxXZXDXIXPXLXLXLXLXLXLXLXLXLXLXKXGXSXvXtX*XT.$.+.&._ ) _ _ O.+.%.$.$.m.oXm.m.m.oXoXoXoXoXoXoXoXoXoXoXoXm.m.m.m.m.m.m.m.oXoXoXoXoX+X+X+X+X+X+X+X+X+X+X@XT.$.%.+.| _ ~ W W W W ! ! ~ ~ ~ ~ ~ ) ) _ _ _ _ _ _ _ _ _ _ _ _ ) ( Y Y e w e x T T W ! W ! ! ! ! ! ! ~ ~ ~ ! ~ ~ ~ ~ ~ ) [ | | #.#.#.#.j.j.j.j.#.....",
"bXbXbXvXvXvXvXvXjXjX-X-X-X-X-X=X=X=X*X*X#X#X#X#X@X@X@X@X@X+XT.T.T.T.T.T.T.T.T.T.T.c.T.c.c.c.c.c.c.c.c.T.T.T.T.T.T.T.T.T.T.T.T.T.T.+XQ.@XQ.Q.@X@X@X@X@X#X#X#X&X&X&X&X&X&X&X*X&X&X&X&X&X&X^.!.!.E.Q.Q.(.(.Q.Q.Q.T.T.Y.Y.Y.T.#XcXPXLXLXLXLXLXLXLXLXLXPXKXGXFXbXcXtXrX=X$X@X+X$.%.+._ ! W W W W ) _ &.O.+.%.%.%.%.%.%.%.%.%.$.$.$.%.$.$.$.$.$.$.$.$.m.m.m.oXoXoX+X+X+X+X%X%X#X#X#XhX=X=X=X=X=X&X#X(.Y.@.| ^ ~ ~ ) ) _ _ _ &.&.O.O.O.O.O.&._ _ ) ) ( W x e x T Y ! ! ! ! ! ! ! ! ! ! ! ! ~ ) [ X. ...j.j.K.K.K.k.s.j.j.s.s...........",
"bXbXbXbXvXvXvXvXjXjXtX-X-X-X-X-X=X=X=X=X*X*X#X#X#X@X@X@X@X@X+X+XT.T.T.T.T.T.T.T.T.T.T.T.T.T.c.c.c.c.T.T.T.T.T.T.T.T.T.T.T.T.T.T.+X@X@X@X@X@X@X#X#X#X&X&X*X*X*X=X-X-X-X-XzXzXzXjXvXvXvXvXvXvXvXvXvXvXvXvXtX-X-X=X#X(.Y.Y.z.=XKXLXLXLXLXLXLXLXLXLXLXLXPXKXGXZXxXtX-X=XhX$X#X@X@X+X+X+XoX$.%.+.+._ ~ W T T T W ! ) ) _ O.O.O.+.+.%.+.+.%.%.%.%.%.$.$.$.$.$.m.m.m.m.T.+X+X+X+X#X#X#X&X=X-X-XtXvXvXvXvXvXbXbXvXxXrX=X^.J.| X.| | +.+.O.O.O.&._ _ ) ( ! x x T Y ! ! ~ ! ~ ! W ~ ^ [ | ....K.K.L.L.L.L.L.L.K.K.K.d.d.d.s.s.s...........",
"bXbXbXbXcXvXvXvXjXjXzXrX-X-X-X-X-X-X=X=X*X*X&X#X#X#X@X@X@X@X@X@X+XT.T.T.T.T.T.T.T.T.T.T.T.T.T.T.T.T.T.T.T.T.T.T.T.T.T.T.T.T.+X@X@X@X@X#X#X#X#X#X&X&X&X*X=X=X-X-X-X-XzXjXjXvXvXvXbXbXbXmXFXJXGXHXKXKXKXKXKXPXPXKXKXGXSXjX-XvXLXLXLXLXLXLXLXLXLXLXLXLXLXPXPXKXGXFXZXxXtX=X*X#X+X+Xc.$.$.$.$.$.$.$.$.$.$.%.%.+.&._ ~ W T T T T ! ) ) _ O.O.O.+.+.+.%.%.%.$.$.$.$.m.m.m.m.T.+X@X#X#X&X&X=X-X-XjXvXvXvXbXFXJXHXKXPXPXKXKXHXFXvX-X*XQ.z.@.| &._ _ ) ( ! T T W ~ ~ ~ _ |  .#.j.P.R.I.I.I.I.I.U.U.U.L.L.L.L.K.K.k.d.d.d.s.s.s.s.........",
"FXbXbXbXbXvXvXvXvXjXjXjXtX-X-X-X-X-X-X=X=X&X&X#X#X#X#X@X@X@X@X@X@X+X+XT.T.T.T.T.T.T.T.T.T.T.T.T.T.T.T.T.T.T.T.T.T.T.T.T.T.@X@X@X@X@X@X#X#X#X#X&X&X&X*X=X=X-X-X-XtXjXjXvXvXvXvXbXbXbXFXJXGXHXHXKXLXLXLXLXLXLXLXLXLXLXPXGXvXSXLXLXLXIXcXcXcXZXZXZXAXZXZXZXZXZXZXZXcXcXxXxXtXrX=X$X$X%X+X+X$.$.%.%.%.%.+.%.%.$.$.$.$.$.%.%.%.+.&._ ~ ! W W W W ~ ) _ &.O.+.+.+.%.%.$.$.m.m.T.+X@X#X#X&X=X-X-XtXvXvXvXbXFXGXHXPXLXLXLXLXLXPXHXGXFXbXvXvX-X=X(.m.@.&.) _ | @.#.K.R.!././././._._./.I.I.I.I.I.R.P.L.L.L.L.K.K.K.d.s.s.s.s.s......... .",
"FXSXbXbXbXcXvXvXvXjXjXjXjX-X-X-X-X-X-X=X=X*X*X*X#X#X#X@X@X@X@X@X@X@X+X+XT.T.T.T.T.T.T.T.T.T.T.T.T.T.T.T.T.T.T.T.T.T.T.+X+X@X@X@X@X#X#X#X#X#X&X&X*X*X=X-X-X-X-XtXjXjXjXvXvXvXnXbXbXFXJXGXHXKXPXLXLXLXLXLXLXLXLXLXLXLXLXPXbXSXLXLXLXPXSXcXxX-X&X*X$.%.$.$.$.$.c.+X+X+X%X%X%X%X$X%X%X%X%X@X+X+X+X+X+X$.$.$.%.+.+.+.+.+.+.+.+.%.%.%.$.$.%.%.+.+.+._ _ ! W W W ~ ) _ &.+.+.@.#.m.T.(.(.#X&X=X-X-XvXvXvXbXJXHXPXLXLXLXLXLXLXLXPXHXGXFXbXbXvXvXxXjX-X=X#X#X^.^.^.^.'.'.'.'._._._._._./.I.I.I.U.U.P.L.L.K.K.K.k.d.s...s.d.d....... . .} ",
"FXFXbXbXbXbXvXvXvXvXjXjXjXtXtX-X-X-X-X=X=X=X*X&X*X#X#X#X#X@X@X@X@X@X@X+X+X+XT.T.+XT.T.T.T.T.T.T.T.T.T.T.T.T.T.T.T.T.T.@X@X@X@X@X#X#X#X#X&X&X&X*X*X=X-X-X-X-X-XjXjXjXvXvXvXvXnXnXFXJXHXHXKXPXLXLXLXLXLXLXLXLXLXLXLXLXLXLXJXSXLXLXLXLXLXLXLXPXIXIXAXdX>X+X%.+.O.o.o.o.o.o.o.o.o.O.%.%.%.%. X X X X X$.$.$.XX$.$.$.$.$.%.%.+.+.+.+.&.+.+.+.+.%.%.%.$.$.$.%.%.+.+.&._ _ _ _ _ [ | +.#.m.(.#XhX=XtXvXcXbXJXHXPXLXLXLXLXLXLXLXLXKXKXKXHXGXFXZXvXvXvXtX-X=X=X&X&X&X'.'.'.'.'.'._._._./.I.I.U.P.P.L.K.K.K.d.d.d.d... ...} } u.} u.u.} } ",
"JXFXFXbXbXbXcXvXvXvXvXjXjXjXtXtX-X-X-X-X=X=X*X&X*X*X#X#X#X#X#X@X@X@X@X@X@X+XT.T.T.T.T.T.T.+XT.T.T.+XT.T.T.T.T.T.T.T.@X@X@X@X@X@X#X#X#X#X&X&X*X*X=X=X-X-X-X-XzXjXjXvXvXvXvXbXnXnXJXJXHXHXPXLXLXLXLXLXLXLXLXLXLXLXLXLXLXLXKXKXLXLXLXLXLXLXLXLXLXLXLXLXLXLXLXIXDXAXdX$X+X%.o.o.o.o.o.o.o.o.o.o.o.o.o.O.O.%.%.%.%.%.%.%.$.$.$.$.$.$.$.$.$.%.%.+.+.+.+.+.+.+.+.%.%.$.$.$.$.#.#.#.@.@.| | |  ...#.(.&XtXvXFXHXPXLXLXLXLXLXLXLXLXLXPXLXLXPXLXLXHXbXjXUXtX-X-X-X-X=X&X'.'.'.'._._././.I.U.L.U.L.L.K.d.d.d.u.} u.} G A 5.5.6.6.6.6.6.6.5.",
"JXJXFXSXbXbXbXcXcXvXvXxXjXjXjXtXrX-X-X-X-X=X=X*X*X*X#X#X#X#X#X#X@X@X@X@X@X@X+X+X+XT.T.T.T.+X+X+X+X+X+XT.T.+X+X+X+X+X@X@X@X@X#X#X#X#X#X&X&X&X*X*X=X-X-X-X-XzXjXjXvXvXvXvXvXbXnXFXJXHXHXKXLXLXLXLXLXLXLXLXLXLXLXLXLXLXLXLXLXLXLXLXLXLXLXLXLXLXLXLXLXLXLXLXLXLXLXPXPXKXGXFXZXxXtXwX%XoX%.O.o.o.o.E E E E E E o.o.o.o.o.o.O.+.%.%.%.%.$.$.%.$.$.$.$.$.$.$.$.$.%.+.@.@.@.@.#.#.$.T.T.@X@X#X#X#X#X#X&X=X=XtXvXDXPXLXLXLXLXLXLXLXLXLXLXLXLXLXLXKXbXvXUXtX-X=X=X=X&X'.'.'._._./.I.I.U.L.K.[.d.g.g.u.} u.6.S 5.6.5.3.J 6.6.6.6.6.6.6.6.6.",
"JXJXFXSXSXSXbXcXcXcXvXvXxXjXjXjXjXtXtXrXrX=X=X=X*X*X*X*X#X#X#X#X#X#X#X@X@X@X+X+X+X+X+XT.T.T.+XT.+X+XT.T.T.T.+X@X@X@X@X@X@X@X#X#X#X#X#X&X&X&X*X*X=X-X-X-X-XzXjXjXvXvXvXvXbXbXnXFXJXHXHXPXLXLXLXLXLXLXLXLXLXLXLXLXLXLXLXLXLXLXLXLXLXLXKXPXPXPXLXLXLXLXPXPXLXPXPXPXKXHXGXJXFXbXbXbXcXvXjXtXrX=X$X%X X XO.o.o.o.E E E o.o.o.o.o.o.o.o.o.o.O.%.%.%.%.%.$.$.$.$.$.c.c.T.T.T.T.T.T.T.T.Q.@X#X&X=XvXFXIXPXPXLXLXLXLXLXLXLXLXLXLXLXLXPXPXPXKXKXGXbXxXUX8X=XhX#X#X^.^././.I.I.L.[.[.g.g.i.H 6.6.7.7.6.6.7.7.5.7.7.7.5.S 6.7.6.7.7.6.6.6.6.",
"GXJXFXSXSXSXSXbXcXcXcXxXxXxXjXjXjXtXtXtXrXrXrX=X=X=X=X*X*X$X$X$X#X#X#X#X#X@X@X@X@X@X+X+X+X+X+X+X+X+X+X+X+X+X@X@X@X@X@X@X@X@X#X#X#X#X&X*X&X&X*X-X-X-X-X-X-XzXjXjXvXvXvXbXbXnXFXJXJXHXKXPXLXLXLXLXLXLXLXLXLXLXLXLXLXLXLXLXLXLXLXLXKXbXvXvXvXcXbXbXbXbXSXSXSXSXSXbXbXbXbXbXvXvXvXvXvXjXjXjX-X-XrX=X=X=X$X#X@X+XoX X X%.O.o.o.o.o.o.o.o.o.o.o.o.o.o.O.O.%.%.$.$.$.$.$.c.T.T.+X#X#X$X=X-XtXxXvXcXFXKXLXLXLXLXLXLXLXLXLXLXLXLXLXPXGXbXvXzX-X&X^.(.(.(.(.T.Y.J.K.d.u.u.5.5.6.6.6.6.6.8.4.8.8.6.Z.7.6.7.h.7.Z.Z.Z.h.4.7.8.7.7.7.7.7.6.7.",
"GXJXFXFXSXSXSXbXcXcXcXxXxXxXjXkXjXjXtXtXtXrXrXwXwX=X=X=X*X*X*X$X$X$X$X$X$X$X$X$X@X@X@X@X@X@X+X+X@X@X@X@X@X@X+X@X@X@X@X@X@X@X#X#X#X#X*X*X*X*X=X=X-X-X-X-XzXjXzXvXvXvXvXvXbXnXFXJXGXHXKXPXLXLXLXLXLXLXLXLXLXLXLXLXLXLXLXLXLXHXJXFXvXzXzX-X-X&X&X&X&X&X&X&X-X-X-X-X-X-X-X-X-X-X-X-X&X&X*X&X&X&X*X*X&X&X&X#X#X#X@X@X@X+X+X+XXX X X X%.%.O.O.%.O.O.O.O.O.O.%.%.%.%.$.$.$. X+X+X+X+X@X#X*X=XtXcXSXPXLXLXLXLXLXLXLXLXLXLXLXLXLXLXLXKXJXbXvX-X&X!.K.#. .X.' f B J m >.>.6.,.8.8.8.8.8.Z.6.Z.8.,.Z.8.7.Z.7.7.H.H.Z.H.4.Z.8.7.8.Z.7.7.6.h.",
"GXJXJXFXSXSXSXZXcXcXcXxXxXxXxXkXkXkXtXtXeXeXrXrXwXwX=X=X=X*X*X*X$X$X$X$X$X$X$X$X$X$X%X@X$X%X@X@X@X#X#X@X@X@X@X@X@X@X#X#X#X#X#X#X#X*X&X*X*X*X=X=X-X-X-X-XzXjXvXvXvXvXvXbXbXnXFXJXHXHXKXLXLXLXLXLXLXLXLXLXLXLXLXLXLXLXLXLXLXFXbXbXvXzXzX-X-X'.'.'.`.!.!.Q.~.~.~.~.~.~.~.R.R.Q.Q.Q.!.!.Q.Q.Q.Q.Q.Q.Q.Q.Q.@XQ.@X@XQ.Q.T.T.T.T.T.T.+XT.T.T.c.c.XX X$.$.$. X XXXXXXXc.+Xc.+XT.T.+X@X#X#X#X#X#X=X-XxXDXIXPXLXLXLXLXLXLXLXLXLXLXLXLXPXKXFXvX-X&X`.!.P.J.j...g J 3.S 6.,.8.8.Z.Z.Z.Z.Z.Z.6.D.8.8.Z.Z.7.H.H.H.{.{.{.Z.6.Z.Z.Z.Z.Z.Z.7.6.7.",
"GXJXJXFXSXSXSXZXcXcXcXcXcXxXxXkXkXkXtXtXtXtXrXrX0XwXwXwXwXwX*X*X$X$X*X$X$X$X$X$X$X$X%X%X$X$X$X$X$X$X%X$X$X$X$X%X$X$X$X$X$X$X$X*X*X*X*X=X=X=X=X=X-X-X-XjXjXjXjXvXvXvXvXbXbXFXJXJXHXHXKXLXLXLXLXLXLXLXLXLXLXLXLXLXLXLXLXLXLXFXnXGXPXPXKXKXGXJXSXvXjX-X&X!.Q.~.~.Y.Y.c.c.c.c.c.z.z.c.z.z.z.z.c.c.c.c.c.c.c.c.c.c.c.c.c.T.c.c.c.c.c.c.c.c.c.T.T.Y.T.Y.T.Q.Q.Q.@X@X@X#X#X*X*X*X*X=X*X*X*X&X#XQ.T.Y.T.#X=XtXAXDXIXPXLXLXLXLXLXLXLXLXPXHXJXbXvXzX-X/...' G J 6.7.6.8.8.Z.D.D.D.D.D.D.D.7.D.8.Z.Z.D.8.{.Z.{.|.{.{.Z.6.Z.Z.Z.Z.Z.Z.8.6.Z.",
"GXJXJXFXSXSXSXZXZXcXcXcXcXxXxXkXkXkXfXtXtXtXeXeX0X0XwXwXwXwXwX*X*X3X*X$X$X$X$X$X$X$X$X$X$X$X$X$X$X$X$X$X$X$X$X$X$X$X$X$X$X*X*X*X=X=X=X=X=X=X-X-X-XrXtXjXjXvXvXvXvXvXvXbXnXFXJXJXHXHXPXLXLXLXLXLXLXLXLXLXLXLXLXLXLXLXLXLXLXGXbXHXLXLXLXLXLXLXPXPXKXHXJXbXvXjX-X=X&X&X@XQ.~.c.c.z.c.c.z.z.z.z.z.z.z.z.z.z.z.z.z.z.z.z.z.c.c.c.c.c.c.c.c.c.c.c.c.c.c.Y.Y.~.~.Q.!.^.&X&X&X-X-X-XzXvXvXvXbXbXFXFXDXDXDXAXAXkXtXrX=X=X=X=XrXrXtXtXtXrXrX-X-X-X-X&X&Xk.i i S 6.8.6.Z.D.D.D.D.D.D.D.D.D.8.D.D.D.Z.D.7.Z.D.{.|.{.{.{.7.D.D.Z.Z.Z.Z.Z.6.Z.",
"GXGXFXFXSXSXSXZXZXcXcXcXcXxXxXxXxXkXkXtXtXtXeXeXeX0X0XwXwXwXwX3X3X3X3X3X$X$X$X$X$X$X$X$X$X$X$X$X$X$X$X$X$X$X$X$X$X$X$X$X*X*X*X*X=X=X=XrXrXrXrXrXrXtXjXjXjXxXvXvXvXvXbXbXbXFXJXGXHXKXPXLXLXLXLXLXLXLXLXLXLXLXLXLXLXLXLXLXLXKXnXHXLXLXLXLXLXLXLXLXLXLXPXKXHXJXFXbXbXvXvXjX-X*X&X#X@X@XT.T.c.c.c.c.c.c.c.c.$.$.$.$.$.#.#.z.z.z.#.#.#.z.z.z.z.z.c.l.l.l.l.c.l.J.J.R.R.W.!._.&X-X-XzXvXvXnXnXJXHXPXLXLXLXLXLXLXLXLXLXPXIXDXZXxXrX#Xz.' ' ' z.Q.-XbX&Xd g 6.8.Z.8.D.D.D.G.G.G.G.D.G.G.8.D.G.D.D.D.8.Z.|.G.|.|.|.{.7.D.D.D.{.{.Z.Z.6.Z.",
"GXJXJXFXSXSXSXZXZXcXcXcXcXxXxXxXxXkXkXtXtXtXeXeXeXeX0X0XwXwXwXwXwX3X3X3X>X>X$X$X$X$X$X$X$X$X$X$X$X$X$X$X$X$X$X$X$X$X$X$X*X3X=X=X=XwX=XwXrXrXrXrXtXtXjXjXjXvXvXvXvXcXbXbXbXFXJXGXHXKXPXLXLXLXLXLXLXLXLXLXLXLXLXLXLXLXLXLXLXKXnXHXLXLXLXLXLXLXLXLXLXLXLXPXKXHXHXJXFXSXbXcXvXjXjXjX-X-X*X&X#X#X@X@X@X@XT.T.c.c.c.c.c.c.c.z.z.z.$.$.#.z.z.z.z.#.z.z.z.z.z.z.z.z.l.l.l.P.R.U.R.W.).`.'.-XzXzXvXnXGXKXPXLXLXLXLXLXLXLXLXLXLXLXLXLXLXLXKXGXZXjXvXnXJX'.g A 6.8.D.8.D.D.G.G.F.G.G.D.G.G.8.D.G.S.|.D.Z.D.|.|.}.|.|.{.7.D.D.D.{.{.D.Z.6.Z.",
"GXGXJXFXSXSXSXSXZXZXcXcXcXcXxXxXxXxXkXfXtXtXtXeXeXeX0X0XwXwXwXwXwX3X3X>X>X>X$X$X$X$X$X$X$X$X$X$X$X$X$X$X$X$X$X$X$X>X$X*X*X=X=XwX=XwXwXrXrXrXrXtXtXtXjXjXjXxXvXcXcXbXbXbXSXJXGXGXHXHXPXLXLXLXLXLXLXLXLXLXLXLXLXLXLXLXLXLXLXLXJXHXLXLXLXLXLXLXLXLXLXLXLXLXLXPXKXHXGXJXFXbXbXvXvXvXxXjXrX-X=X=X*X*X*X&X&X#X#X@X@X@XQ.T.T.T.c.c.c.c.c.c.z.z.z.z.z.z.z.z.z.z.z.z.z.z.z.z.z.l.l.l.R.R.W.).'.'.-XzXzXvXbXFXGXKXPXLXLXLXLXLXLXLXLXLXLXLXLXLXPXKXHXJXJX'.g S 8.D.D.8.D.G.G.F.F.F.G.D.G.G.8.G.D.D.D.D.8.|.G.}.}.|.|.{.Z.D.D.D.{.{.D.Z.7.Z.",
"GXGXJXFXSXSXSXZXZXZXAXcXcXcXxXxXxXxXxXkXfXtXtXeXeXeX0X0X0XwXwXwXwXwX:X:X>X>X*X$X$X$X$X$X$X$X$X$X$X$X$X$X>X$X$X$X$X$X$X3XwXwXwXwXwXwX0XrXrXeXeXtXtXtXjXjXjXxXcXcXcXbXbXbXSXJXGXGXHXKXPXLXLXLXLXLXLXLXLXLXLXLXLXLXLXLXLXLXLXLXHXIXLXLXLXLXLXLXLXLXLXLXLXLXLXPXKXHXHXGXJXSXbXbXcXcXvXvXjXjX-X-X-X-X-X=X*X*X*X#X#X#X#X@X@X@X@X@X+XT.T.T.T.Y.Y.Y.Y.Y.c.c.c.c.c.c.c.c.l.l.z.l.l.l.l.l.x.P.U.W.W._.'.'.-XzXzXzXvXbXFXGXGXIXKXKXKXKXKXKXKXKXGXJXnXnXmX-Xp 4.8.D.D.8.D.G.F.F.F.F.F.G.G.F.Z.G.G.G.G.D.Z.G.G.}.D.|.|.{.Z.D.D.D.{.{.D.D.8.D.",
"GXGXJXFXSXSXSXZXZXZXZXcXcXcXxXxXxXxXkXkXfXtXtXeXeXeXqX0X0XwXwXwXwXwX3XwX>X>X>X*X$X$X$X$X$X$X$X$X$X$X$X$X>X$X$X*X$X>X$X3X=X=XwXwXwX0X0XrXrXeXtXtXtXtXjXjXjXjXcXcXcXbXbXSXSXJXGXGXHXKXPXLXLXLXLXLXLXLXLXLXLXLXLXLXLXLXLXLXLXLXKXKXLXLXLXLXLXLXLXLXLXLXLXLXLXPXPXKXHXGXJXFXSXbXbXbXcXcXjXjXtXrX-X-XrXrX=X=X*X*X*X*X#X#X#X@X@X@X@X@X@X@X@X@X@X@X@X#X@X@X@X@X@X#X#X&X&X&X`.`.!./.`._._.).`.'.'.'._._.'.'.'.'.'.'.-X-XzXzXzXzXzXzXzXzXzXzXzXzXzXzXmX].k 4.8.D.D.8.G.G.F.F.F.F.F.G.F.F.Z.G.}.F.F.D.Z.}.}.}.|.}.|.{.Z.D.D.D.{.{.D.D.8.Z.",
"GXGXJXFXSXSXZXZXZXZXAXcXcXcXxXxXxXxXxXkXfXfXtXeXdXeXeXqX0X0XwXwXwXwXwXwX3X>X>X>X3X$X$X$X$X$X$X$X$X$X>X$X$X>X3X*X>X3X3XwXwXwXwXwX0X0X0XrXeXeXtXtXtXtXjXjXjXjXxXcXbXbXSXSXSXJXGXGXHXHXKXPXLXLXLXLXLXLXLXLXLXLXLXLXLXLXLXLXLXLXKXIXLXLXLXLXLXLXLXLXLXLXLXLXLXLXPXKXHXGXGXJXSXSXbXbXcXcXvXjXjXjXtXtXtXrXrX=X=X*X*X*X$X$X#X#X#X#X#X#X#X#X#X#X#X#X&X&X&X&X&X&X&X&X*X-X-XzXzXzXzXzXzXzXvXvXvXnXnXnXbXbXbXcXvXvXjXzXzXzX-X'.'.'._._.].].].]._.].[.zXHX_.s 4.8.D.D.8.G.F.F.F.F.F.F.G.F.F.Z.F.G.G.F.G.Z.}.}.}.}.}.|.{.Z.D.D.D.{.{.D.D.7.D.",
"GXJXJXSXSXSXSXZXZXZXAXAXcXcXxXxXxXxXxXfXfXfXfXtXfXeXeX0X0X0X0X0XwXwXwXwXwX3X>X>X3X$X$X$X$X$X>X$X$X$X>X>X$X$X$X*X3XwXwXwXwXwXwXwX0X0XrXrXtXtXtXtXtXtXjXtXtXtXjXcXcXZXSXSXSXJXJXGXHXHXKXPXLXLXLXLXLXLXLXLXLXLXLXLXLXLXLXLXLXLXKXKXLXLXLXLXLXLXLXLXLXLXLXLXLXLXPXKXHXHXGXJXSXSXSXbXbXcXxXjXjXjXjXjXjXtXrX=X=X=X=X*X*X*X$X#X#X#X#X#X#X#X#X#X#X#X&X*X*X*X*X=X=X-X-X-XzXzXzXvXvXvXvXnXnXnXJXJXHXKXPXPXPXPXPXPXPXPXPXKXKXGXFXbXvXzXzX&X'.'.'.L.'.mXmXG A 6.q.D.G.Z.G.F.F.F.}.F.F.F.F.F.D.F.D.S.F.G.8.}.}.}.}.}.|.{.8.D.D.D.D.{.{.D.7.Z.",
"GXGXJXSXSXSXSXZXZXZXAXAXcXcXcXxXxXxXkXfXfXfXfXfXfXeXeX0X0X0X0X0X0XwXwXwXwXwX3X>X3X>X$X$X$X$X>X>X>X>X>X>X$X$X$X=X3XwXwXwXwXwXwX0X0X0XrXrXeXtXtXtXtXtXtXtXtXtXjXxXcXZXSXSXFXJXGXGXHXHXKXPXLXLXLXLXLXLXLXLXLXLXLXLXLXLXLXLXLXLXKXIXLXLXLXLXLXLXLXLXLXLXLXLXLXLXPXKXHXHXGXJXFXSXSXSXbXcXvXxXjXjXjXjXkXjXrXrX=X=X=X=X*X*X$X$X$X$X*X#X$X#X#X$X#X*X*X*X=X=X=X-X-X-X-XzXjXvXvXvXvXvXnXnXmXJXGXHXPXLXLXLXLXLXLXLXLXLXLXLXLXLXLXPXPXKXJXFXnXvXvX-X'.u.zXB J 6.D.G.G.Z.F.F.F.F.F.F.F.F.F.F.D.F.D.S.F.G.Z.}.F.}.}.}.|.D.8.D.D.D.D.{.|.Z.7.D.",
"GXJXFXSXSXSXSXSXZXZXAXAXAXcXxXxXxXxXxXkXfXfXfXfXfXeXeXqXqX0X0X0XwXwXwXwXwXwXwX3X3X3X$X$X$X$X>X>X$X>X>X>X>X>X>X>X3XwXwXwXwXwXwX0X0XrXrXrXtXtXtXtXtXtXtXtXtXtXtXxXcXcXSXSXFXJXGXGXHXHXKXKXPXLXLXLXLXLXLXLXLXLXLXLXLXLXLXLXLXLXKXHXLXLXLXLXLXLXLXLXLXLXLXLXLXLXPXKXHXHXGXJXFXSXSXSXbXcXcXxXjXjXxXkXkXjXtXrXrX=X=X=X=X*X*X$X$X*X$X*X*X*X*X*X*X*X*X=X=X=X-X-X-X-XrXjXjXvXvXvXcXbXnXnXFXJXHXKXLXLXLXLXLXLXLXLXLXLXLXLXLXLXLXLXLXPXPXKXHXJXmXzX'.] zXg J 6.D.D.G.Z.F.F.F.F.F.F.F.F.F.F.D.F.D.D.F.D.Z.}.}.}.}.}.|.D.Z.D.D.D.D.{.|.Z.7.D.",
"JXJXSXSXSXSXSXSXZXZXAXcXcXcXxXxXxXxXxXkXfXfXfXfXfXdXeXeXqXqX0XqX0XwXwXwXwXwXwX3X3X3X3X$X$X$X>X3X3X3X3X3X>X>X>X>X3XwXwXwXwXwXwX0XrXrXrXeXtXtXtXtXjXjXjXjXjXjXjXkXcXcXZXSXFXJXGXGXHXHXKXKXKXPXLXLXLXLXLXLXLXLXLXLXLXLXLXLXLXLXKXHXLXLXLXLXLXLXLXLXLXLXLXLXLXPXPXKXHXHXGXJXFXSXSXSXbXcXcXxXxXxXxXxXkXkXtXtXrXrXrX=X=X*X*X*X*X*X*X*X*X*X*X*X*X*X*X=X=X=X-X-X-X-XzXjXvXvXvXvXbXbXnXnXJXJXHXKXLXLXLXLXLXLXLXLXLXLXLXLXLXLXLXLXLXLXLXPXHXHXJXjX&X} zXA 4.8.D.D.G.8.F.F.F.F.F.F.F.F.F.F.D.}.D.G.F.G.8.}.}.}.}.}.|.{.8.D.D.D.D.{.{.Z.7.D.",
"JXJXSXSXSXSXZXZXZXZXcXcXcXcXxXxXxXxXxXkXkXfXfXfXfXdXeXeXqXqX0XqXqX0X0XwXwXwXwX3X3X3X3X$X$X$X3X3X3X*X>X>X>X>X>X>X3XwXwXwXwXwXwX0XrXrXrXeXtXtXtXtXjXjXjXjXjXkXjXkXxXcXZXSXSXFXJXGXGXHXHXHXKXPXLXLXLXLXLXLXLXLXLXLXLXLXLXLXLXLXKXGXLXLXLXLXLXLXLXLXLXLXLXLXLXPXKXKXKXGXGXJXFXSXSXSXbXcXcXxXxXxXxXxXkXkXkXtXtXrXwX=X=X*X*X*X*X*X*X*X*X*X*X*X*X=X=X-X-X-X=XrXrX-XzXjXvXvXvXvXbXbXnXnXJXJXHXKXLXLXLXLXLXLXLXLXLXLXLXLXLXLXLXLXLXLXLXLXKXHXJXvX&Xp.zX6.8.D.D.G.|.q.F.F.F.F.F.F.F.F.F.F.D.}.G.}.F.D.8.F.F.}.D.|.|.D.D.D.D.D.D.|.D.D.8.D.",
"JXJXSXSXSXSXSXZXZXZXZXAXcXcXxXxXxXxXxXkXkXkXfXfXtXeXeXeXqXqXqXqXqX0X0XwXwXwX3X3XwXwX3X$X$X$XwXwX3X3X3X3X>X3X3X3X3XwXwXwXwXwXwX0X0XeXeXeXtXtXtXtXtXtXtXjXkXkXkXkXxXcXcXSXSXFXJXGXGXGXHXHXKXPXPXLXLXLXLXLXLXLXLXLXLXLXLXLXLXLXKXGXLXLXLXLXLXLXLXLXLXLXLXLXLXPXKXKXHXHXGXJXSXSXSXSXbXcXcXxXxXxXxXxXxXkXkXtXtXrXwX=X=X*X*X*X*X*X*X*X*X*X*X*X*X=X=X-XrXrXrXrXrXrXjXjXvXvXvXvXbXnXnXnXFXJXHXKXLXLXLXLXLXLXLXLXLXLXLXLXLXLXLXLXLXLXLXLXKXHXJXvX-Xf.zX8.D.D.D.G.|.8.F.F.F.F.F.F.F.F.F.F.D.}.}.}.G.G.Z.}.G.G.|.G.G.D.D.D.D.D.D.G.D.D.7.D.",
"FXFXSXSXSXSXSXZXZXZXZXAXcXcXxXxXxXxXxXkXkXkXfXfXfXeXeXeXqXqXqXqX0X0X0X0XwXwXwXwXwXwX$X$X$X$X3X3X3X*XwXwXwXwX3XwX3XwXwXwXwXwX0X0XqXeXeXtXtXtXtXtXtXtXjXjXkXkXkXkXxXcXcXbXSXFXJXGXGXGXHXKXKXPXPXLXLXLXLXLXLXLXLXLXLXLXLXLXLXLXKXGXLXLXLXLXLXLXLXLXLXLXLXLXLXPXKXKXHXGXGXJXFXSXSXSXbXcXcXxXxXxXxXxXxXxXkXtXtXrXrXrXwXwX*X*X*X*X=X=X*X*X*X*X*X=X=XrXrXrXrXrXrXjXjXjXvXvXvXcXbXbXnXnXFXJXHXKXLXLXLXLXLXLXLXLXLXLXLXLXLXLXLXLXLXLXLXLXKXHXGXvX-X[.zX8.Z.H.D.G.|.8.F.F.F.F.F.F.F.F.F.F.Z.F.}.}.D.|.7.}.}.}.}.}.G.D.D.D.D.D.D.D.D.Z.8.D.",
"JXFXSXSXSXSXZXZXZXZXAXAXAXcXxXxXxXxXxXxXkXkXfXfXfXfXeXeXeXqXqXqXqX0X0X0X0XwX0XwXwXwX>X$X$X$X3XwXwXwXwXwXwXwXwXwXwXwXwXwXwX0X0X0XqXeXeXtXtXtXtXtXtXkXkXkXkXkXkXkXxXcXcXbXSXSXJXGXGXGXHXHXKXKXPXLXLXLXLXLXLXLXLXLXLXLXLXLXLXLXKXDXLXLXLXLXLXLXLXLXLXLXLXLXPXKXKXHXHXGXJXJXSXSXSXSXZXcXcXxXxXxXxXxXxXkXkXtXtXeXrX=XwX=XwXwXwXwX=XwXwXwXwXwX=X=X=XrXrXrXrXrXrXjXjXjXvXvXvXcXbXbXnXnXFXJXHXKXLXLXLXLXLXLXLXLXLXLXLXLXLXLXLXLXLXLXLXLXKXHXJXjX-X].zX7.Z.D.D.G.G.Z.F.F.F.F.F.F.F.F.F.F.Z.G.}.}.D.|.8.}.}.}.G.}.|.D.D.D.D.D.D.D.D.D.8.D.",
"FXFXSXSXSXSXZXZXZXZXAXAXcXcXxXxXxXxXxXxXkXfXfXfXdXdXdXdXdXeXeXqXqXqX0X0X0X0XwXwXwXwXwX>X$X>X>X3X3X3X3XwXwXwXwX3XwXwXwXwX0X0X0XeXeXeXeXtXtXtXfXtXtXjXkXkXkXkXkXxXxXxXcXcXSXSXFXJXGXGXGXHXHXKXKXPXLXLXLXLXLXLXLXLXLXLXLXLXLXLXKXFXLXLXLXLXLXLXLXLXLXLXLXLXKXKXHXHXHXGXJXFXSXSXSXSXZXcXcXxXxXxXxXxXxXxXkXkXtXeXrXwXwXwX=X=XwXwXwXwXwXwXwX=X=X=X=XrXrXrXrXrXtXjXjXvXvXvXcXcXbXbXnXnXFXJXGXHXPXLXLXLXLXLXLXLXLXLXLXLXLXLXLXLXLXLXLXLXKXHXJXjX-X].zX7.Z.H.D.G.G.Z.F.F.F.F.F.F.F.F.F.F.D.D.G.G.|.|.7.}.}.|.D.}.}.D.D.D.D.D.D.D.D.Z.8.D.",
"FXSXSXSXZXZXZXZXZXAXAXAXAXAXxXxXxXxXxXxXkXkXfXfXfXdXdXdXeXeXeXqXqXqX0X0X0X0X0XwXwXwXwX>X$X>X3XwX3X3X3X3XwXwXwXwXwXwXwXwX0X0XeXeXeXeXeXtXfXtXtXtXjXkXkXkXxXxXkXxXxXxXcXcXSXSXSXJXJXGXGXHXHXKXKXKXPXLXLXLXLXLXLXLXLXLXLXLXLXLXKXSXLXLXLXLXLXLXLXLXLXLXLXPXKXKXHXHXHXGXJXFXFXSXSXSXZXcXcXcXxXxXxXxXxXxXkXkXtXtXrX0XwXwX=XwXwXwX=XwX=XwXwX=X=X=XrXrXrXrXrXrXrXjXjXvXvXvXvXcXcXbXnXnXnXJXJXHXKXLXLXLXLXLXLXLXLXLXLXLXLXLXLXLXLXLXLXPXKXHXJXjX-X].zX7.Z.H.D.G.|.Z.F.F.F.F.F.F.F.F.F.F.Z.}.S.|.G.|.7.}.D.D.}.}.|.Z.D.D.D.D.D.D.D.D.8.D.",
"SXSXSXSXSXZXZXZXZXAXAXAXAXAXxXxXxXxXxXkXkXkXfXfXdXdXdXdXeXeXeXeXqXqX0X0X0X0X0XwXwXwXwX$X$X>XwX:XwXwXwXwXwXwXwXwXwXwXwXwX0XqXqXeXeXeXeXtXtXtXtXtXjXjXkXkXkXxXxXxXxXxXcXcXbXSXSXFXJXGXGXGXHXHXKXKXKXPXLXLXLXLXLXLXLXLXLXLXLXLXKXSXLXLXLXLXLXLXLXLXLXLXPXKXKXKXHXHXGXJXFXFXSXSXSXSXZXcXcXcXxXxXxXxXxXxXxXkXtXtXrX0XwX=XwXwXwXwXwXwXwX=X=X=X=X=XrXrXrXrXrXrXrXjXjXvXvXvXvXcXcXbXbXnXnXJXJXHXKXPXLXLXLXLXLXLXLXLXLXLXLXLXLXLXLXLXLXPXHXHXJXjX-X].zX7.8.{.D.G.|.8.F.F.F.F.F.F.F.F.F.F.8.}.}.}.D.|.7.G.G.}.}.}.|.Z.D.D.D.D.D.D.D.D.8.{.",
"SXSXSXSXSXZXZXZXZXAXAXcXcXAXAXxXxXxXxXkXkXkXfXfXfXdXdXdXeXeXeXeXqXqXqXqX0X0X0X0XwX3X3X*X$X>XwXwXwXwXwX3XwXwXwXwXwXwX0X0X0XeX0XeXeXeXeXtXtXfXfXtXtXfXkXkXxXxXxXxXxXxXcXcXZXSXSXSXFXJXGXGXHXHXHXKXKXKXPXLXLXLXLXLXLXLXLXLXLXLXHXZXLXLXLXLXLXLXLXLXPXPXKXKXKXHXHXGXJXJXFXSXSXSXSXSXZXcXcXcXxXxXxXxXxXxXxXkXfXtXrXrX0XrXwXwXwXwXwX=X=X=X=X=X=X=XrXrXrXrXrXrXtXjXjXvXvXvXvXcXcXbXbXnXnXFXJXHXHXPXLXLXLXLXLXLXLXLXLXLXLXLXLXLXLXLXLXKXHXGXJXzX-X].zX7.Z.{.D.G.|.Z.F.F.F.F.F.F.F.F.F.F.D.G.}.}.G.G.h.}.G.}.}.|.|.Z.D.D.D.D.D.D.D.D.8.{.",
"SXSXSXSXZXZXZXZXZXAXcXcXcXcXcXxXxXxXxXkXkXfXfXfXdXdXdXdXeXeXeXuXqXqXqXqX0X0X0X0XwXwX3X3X$X>XwXwX3XwXwXwXwXwXwXwXwX0X0X0X0XeXeXeXeXeXeXtXfXfXtXtXtXkXkXkXxXxXxXxXxXcXcXcXZXZXSXSXFXJXJXGXGXGXHXHXKXKXPXPXLXLXLXLXLXLXLXLXLXLXHXZXLXLXLXLXLXLXLXPXPXKXKXKXHXHXGXGXJXJXFXSXSXSXSXSXZXZXAXcXxXxXxXxXxXxXxXkXkXfXeXeX0X0XrXrXrXrXrXwX=X=XwX=X=XrXrXrXrXrXrXrXtXtXjXjXvXvXvXvXvXcXbXbXbXFXJXGXHXKXPXLXLXLXLXLXLXLXLXLXLXLXLXLXLXLXPXKXHXJXJXzX-X].zX7.Z.{.D.G.|.Z.F.F.G.F.F.F.G.G.F.F.D.D.|.G.}.G.h.}.G.G.|.|.|.8.D.D.D.D.D.D.D.D.8.D.",
"SXSXSXSXZXZXZXZXAXAXcXcXcXcXxXxXxXxXxXxXkXfXfXfXfXdXdXdXdXeXeXeXuXqXqXqX0X0X0X0XwXwXwXwX3X>X3XwXwXwXwXwXwXwXwXwXwX0X0X0X0X0XeXeXeXeXeXtXfXfXtXtXtXtXkXkXxXxXcXxXxXcXcXcXZXZXSXSXFXFXJXGXGXGXHXHXHXKXKXKXPXLXLXLXLXLXLXLXLXLXGXZXPXPXPXPXPXPXPXKXKXKXKXHXHXHXGXJXJXJXSXSXZXSXSXZXcXcXcXcXxXxXxXxXxXxXxXkXkXtXtXeX0X0XrXrXrXrXrXwXrXwXrX=X=XrXrXrXrXrXrXtXtXtXjXjXvXvXvXvXvXcXbXbXbXnXJXJXHXHXKXPXLXLXLXLXLXLXLXLXLXLXLXLXLXLXKXHXHXJXJXzX-X].zXh.h.H.D.G.|.Z.F.F.F.F.F.F.G.G.F.F.D.|.D.D.}.|.h.}.G.G.G.G.G.8.D.D.D.D.D.D.D.{.7.D.",
"SXZXZXZXZXZXZXZXAXAXcXcXcXxXxXxXxXxXxXkXkXfXfXfXfXdXdXdXdXeXeXuXuXqXqX0X0X0X0X0XwXwXwXwXwX*XwXwXwXwXwXwXwXwXwXwXwX0X0X0X0X0XeXeXeXeXeXdXtXtXtXtXfXtXkXkXkXxXxXxXcXcXcXcXcXZXSXSXSXFXFXJXGXGXGXHXHXHXHXKXKXKXPXLXLXLXLXLXLXLXGXAXKXPXKXKXKXKXHXHXHXHXHXHXHXGXGXJXJXSXSXcXcXcXcXcXcXcXxXxXxXxXxXxXxXxXxXxXkXtXtXrXeX0X0XrXrX0XwXwXrXrXrX=X=XrXrXrXrXrXrXrXtXtXjXjXvXvXvXvXvXcXcXbXbXSXFXJXGXHXKXPXPXLXLXLXLXLXLXLXLXLXLXLXPXPXHXHXGXJXJXzX-X].zXh.7.H.D.|.|.Z.G.F.F.F.F.F.G.G.F.F.Z.}.Z.|.|.|.7.}.|.G.G.|.|.8.D.D.D.D.D.D.D.D.7.{.",
"SXSXZXZXZXZXZXAXAXAXAXcXcXAXxXxXxXxXxXkXfXfXfXfXfXdXdXdXdXeXeXuXqXqXqXqX0X0X0X0XwXwXwXwX=X$XwXwXwXwX3XwXwXwXwXwX0X0X0X0X0XeXeXeXeXeXeXtXtXtXfXfXtXkXkXkXkXxXcXcXcXcXcXcXcXZXZXSXSXSXFXJXJXGXGXHXHXHXHXKXKXKXKXKXPXPXLXLXLXPXGXAXKXKXKXKXHXHXHXHXHXHXHXHXGXGXJXSXFXSXSXbXvXjX-X*X^.&XjXtXkXxXxXxXxXxXxXxXkXfXfXeXeXrXrX0X0X0XwX0X0XrXrX=XrXrXrXrXrXrXrXrXtXtXjXjXjXvXvXvXvXvXcXbXbXbXSXJXJXHXHXHXKXPXPXLXLXLXLXLXLXLXLXLXPXKXHXHXJXJXJXzX-X].zXh.h.H.D.|.|.D.G.G.F.F.F.F.G.G.F.F.8.}.}.}.|.G.7.}.|.G.G.G.{.7.D.D.D.D.D.D.D.D.7.{.",
"SXZXZXZXZXZXZXZXAXAXAXAXAXxXxXxXxXxXkXfXkXfXfXfXfXfXdXdXdXdXeXuXqXqXqXqXqX0X0X0XwXwXwXwX=X$X6XwXwXwXwXwXwXwXwXwX0X0X0X0X0XeXeXeXeXeXeXtXtXtXfXfXtXtXkXkXkXxXxXcXcXcXcXcXcXZXZXSXSXSXSXFXJXJXGXGXGXHXHXHXKXKXKXKXKXPXPXLXLXPXGXcXHXHXHXHXHXHXHXHXHXGXGXGXGXGXJXSXSXSXvXvXjX-X-Xz.z.' Q.rX=XrXrXxXxXxXxXxXkXkXtXtXrXeXrXrX0X0X0X0XrXrXrX=XrXwXrXrXrXrXrXtXtXjXjXjXjXvXvXvXvXvXcXcXbXnXnXFXJXGXHXHXHXKXKXPXPXLXLXLXLXPXPXPXKXHXHXHXJXJXmX-X-X].zXh.h.H.{.|.|.8.G.G.G.G.F.F.G.G.F.F.Z.}.}.}.G.D.8.}.}.G.G.G.|.8.D.D.D.D.D.D.D.{.7.{.",
"ZXZXZXZXZXZXAXAXAXAXAXAXxXxXxXxXxXxXkXfXkXfXfXfXfXfXdXdXdXeXeXeXqXqXqXqXqXqX0X0XwXwXwXwXwX*XwXwXwXwXwXwX0XwXwX0X0X0X0X0XqX0XeXeXeXeXeXeXtXtXtXtXtXjXjXkXkXxXxXxXcXcXcXcXcXZXZXZXSXSXSXSXFXJXJXGXGXGXHXHXHXHXKXKXKXKXKXPXPXPXGXxXHXHXHXHXHXHXHXHXGXJXFXSXSXFXSXSXbXjX&XzXjXrX*X..^ V ^ z.@XrX=XtXxXxXxXxXkXfXtXtXrXeXeXrX0XeX0XrX0XwXwXwXwX0XrXrXrXrXrXtXtXjXjXjXjXjXvXvXvXvXvXvXbXbXbXFXJXJXGXHXHXHXHXKXKXPXPXKXPXKXKXHXHXHXHXGXJXJXmX-X-X].zXh.h.H.{.{.|.Z.G.G.G.G.G.G.G.G.F.}.{.D.}.|.G.D.7.}.}.G.G.G.|.7.D.D.D.D.D.D.D.D.8.{.",
"ZXZXZXZXZXZXAXZXAXAXAXAXAXxXxXxXxXxXxXkXkXkXfXfXfXfXfXdXeXeXuXuXqXqXqXqXqXqX0X0XwXwXwXwXwX6XwXwXwX9XwX0X0XwXwXwXwX0X0X0XqXqXeXeXeXeXeXeXtXtXfXfXtXtXtXkXkXkXxXxXxXcXcXcXcXcXZXZXSXSXSXSXFXJXJXJXGXGXGXHXHXHXHXHXKXKXKXKXKXKXDXxXGXHXHXGXJXGXGXGXGXFXbXvXvXvXbXcXcXjXR.c.-XtX*Xz.Q Q | @.Y.#X*X=XrXtXkXxXfXkXtXdXeXrXrXrXrXeXeXrXrX0X0XwXwXrXrXrXrXtXtXtXtXtXjXjXjXjXxXvXvXvXvXvXbXbXnXFXJXJXGXGXHXHXHXHXHXHXKXHXHXHXHXHXHXHXJXJXJXmXmX*X-X].zXh.h.H.D.{.|.8.G.|.G.G.G.G.G.G.G.}.{.D.|.D.|.D.Z.G.G.G.G.G.|.7.D.D.D.D.D.D.D.D.6.{.",
"ZXZXZXZXZXZXAXZXAXAXAXAXxXxXxXxXxXxXxXkXkXkXfXfXfXfXdXdXdXeXeXeXqXqXqXqXqXqX0X0XwXwXwXwXwXwXwXwXwXwXwX0X0XwX0X0X0X0X0XqXqXqXeXeXeXeXeXeXfXtXfXfXtXtXkXkXkXkXkXxXxXcXcXcXcXcXZXZXZXSXSXSXSXFXFXJXJXJXGXGXGXHXHXHXHXHXKXKXKXKXDXxXJXGXGXJXJXJXJXSXFXSXvX-XW.!.-XjX&Xz.Q.l.-X-Xl.@.| @.Q [ z.T.*X#X=XtXkXdXtXfXfXdXeXeXrXrXrXrXeXrXrX0X0X0X0XrXrXrXrXrXtXtXtXtXjXjXjXjXvXvXvXvXvXvXbXbXnXnXFXJXJXJXGXHXHXHXHXHXHXHXHXHXHXHXHXGXJXJXJXmXmX&X-X].zXh.7.H.D.{.|.Z.|.|.G.G.G.G.G.G.G.}.H.{.Z.D.|.D.H.G.G.D.D.|.{.7.D.D.D.D.Z.Z.D.{.6.{.",
"ZXZXZXZXAXAXAXAXAXAXxXxXxXxXxXxXxXxXkXkXkXfXfXfXfXfXfXdXdXdXeXuXqXqXqXqXqXqX0X0X0XwXwXwXwXwXwXwXwXwXwXwXwXwX0X0X0X0X0XqXqXqXeXeXeXdXdXeXtXtXtXfXtXfXkXkXkXkXkXxXxXxXcXcXcXcXZXZXZXSXSXSXSXSXFXFXJXJXJXGXGXGXGXGXHXHXKXKXKXKXFXxXJXJXJXJXJXJXFXbXbXcXcX-X..X.....z.h #.Q.=X@Xz.z.Q Q W V [ c.T.Q.=XrX=XwX*X=XrX0XeXeXeXeXeXeXeXrXeXrXrXrXrXrXrXrXrXrXrXtXtXtXjXjXjXjXvXvXvXvXvXvXvXcXbXbXSXFXJXJXJXJXGXHXHXHXHXHXHXHXHXHXGXJXJXJXmXmXnX&X-X].zXh.7.h.{.{.{.Z.|.|.G.G.G.G.G.|.D.}.7.}.8.}.D.{.H.G.|.D.D.G.{.7.D.D.D.D.D.Z.D.D.6.D.",
"ZXZXZXZXAXAXAXAXcXcXxXxXxXxXxXxXxXkXkXkXkXfXfXfXfXfXdXdXdXdXuXuXeXqXqXqXqXqX0X0X0X0XwXwXwXwXwXwXwXwXwXwXwXwX0X0X0X0X0XqXqXqXeXeXeXeXdXeXtXtXtXtXtXfXkXkXkXkXkXxXxXxXcXcXcXcXZXZXZXZXSXSXSXSXFXFXJXFXJXGXGXGXGXGXHXHXHXHXKXKXDXxXFXJXJXJXFXFXbXbXvXvXvX-Xl.Q @.Q [ Q h | [ z.@.Q h h h [ #.z.~.@X#X@X=X@X+X@X#X#X#X@X=XwXwX0XrXeXeXrXrXeXeXrXrXrXrXrXrXrXtXtXtXjXjXjXjXvXvXvXvXvXcXcXbXbXSXFXFXJXJXJXJXJXJXGXGXGXGXGXGXGXJXJXJXFXFXmXnX&X-X].zXh.h.h.{.{.{.8.|.|.D.G.G.G.G.}.}.G.6.}.}.}.{.D.h.G.|.D.G.|.{.7.D.D.D.D.D.D.D.{.7.D.",
"ZXZXZXAXAXAXAXcXcXcXxXxXxXxXxXxXxXkXkXkXfXfXfXfXfXfXdXdXdXdXqXqXeXqXqXqXqX0X0X0X0XwXwXwXwXwXwXwXwXwXwXwXwXwX0X0X0X0X0X0XqXqXeXeXeXeXeXeXeXtXtXtXfXfXkXkXkXkXkXkXxXxXxXcXcXcXcXcXZXZXSXSXSXSXSXFXFXFXFXJXGXGXGXGXGXGXHXHXHXHXDXAXFXJXFXFXFXFXnXbXvX-X-X&Xz.h ' Q 8 q 5 0 h @.| h h [ [ c.@X| ~.&Xc.#.@X@XT.| [ z.c.+.+XwXwXrXeXrXrXrXeXeXeXrXrXrXrXrXrXrXtXtXtXjXjXjXjXjXxXxXvXvXcXcXbXbXbXSXSXFXJXJXJXJXJXJXJXJXJXJXJXJXJXJXFXFXmXmXnX&X-X].zXh.h.h.{.{.{.H.|.|.D.|.|.G.D.}.}.G.7.|.}.|.{.D.7.G.|.D.D.{.{.7.Z.D.D.D.D.Z.D.{.7.{.",
"ZXZXZXAXAXcXcXcXcXcXxXxXxXxXxXxXxXkXkXkXfXfXfXfXfXfXdXdXdXdXqXqXeXqXqXqXqX0X0X0X0XwXwXwXwXwXwXwXwXwXwXwXwXwX0X0X0X0X0X0XqXqXqXeXeXeXeXeXeXtXfXtXfXfXfXkXjXkXkXkXkXxXxXcXcXcXcXcXcXZXZXZXSXSXSXSXSXFXFXFXJXJXGXGXGXGXGXGXHXHXDXAXSXFXFXFXbXSXbXjXR...[ ..' C ^ h 0 8 h h e [ h 8 6 Q h | [ [ #.@.V V h [ ^ h Q V +.h | +X*XwXdXrXrXrXeXeXeXrXrXrXrXrXrXrXtXtXtXjXjXjXjXjXjXjXvXvXvXcXbXbXbXSXSXSXFXFXFXJXJXJXJXJXJXJXJXJXJXFXFXmXmXnXnX#X&X].zXh.h.h.D.{.{.7.|.|.D.|.|.G.G.}.}.|.H.D.|.{.{.D.7.|.|.D.D.D.D.7.8.D.D.D.Z.D.D.Z.7.D.",
"ZXAXAXAXAXAXAXAXAXAXxXxXxXxXxXxXxXxXkXkXfXfXfXfXfXfXdXeXdXdXuXuXeXuXuXuXqXqX0X0X0X0X0X0XwXwXwXwXwXwX0XwXwX0X0X0X0X0X0X0XqXqXqXeXeXeXeXeXeXeXtXfXtXfXfXjXkXkXkXkXxXxXxXxXcXcXAXAXZXZXZXZXSXSXSXSXSXSXFXFXFXJXJXGXJXJXGXGXHXHXDXAXSXnXbXbXvX-X^.z.X.^ Q C C h e e 7 2 7 q 8 - 6 W Q Q [ [ V ^ h 7 5 > > > 0 > q h [ [ ^ @.+X$X0XrXeXeXeXeXrXrXrXrXtXtXrXrXtXtXtXjXjXjXjXjXjXjXvXvXvXvXcXbXbXbXSXSXSXFXFXFXFXFXFXFXJXJXJXJXFXSXnXbXnXnXnX@X&X].zXh.h.h.h.{.{.h.|.D.D.|.|.G.G.}.{.|.H.{.{.D.{.|.7.|.G.D.D.D.D.7.D.D.D.D.D.D.D.Z.h.Z.",
"ZXAXAXAXAXAXAXxXxXxXxXxXxXxXxXxXxXxXkXkXfXtXtXfXfXfXdXdXdXeXuXuXeXuXuXuXqXqX0X0X0X0X0X0XwXwXwX0X0X0X0X0X0X0X0X0X0X0X0X0XqXqXeXeXeXeXeXeXeXeXtXtXtXfXkXkXkXkXkXxXxXxXxXxXcXcXcXcXZXZXZXZXZXSXSXSXSXSXSXFXSXFXJXJXJXJXJXGXGXGXDXAXbXbXbXjXP. .[ [ h h f q 8 8 7 2 2 - $ $ $ $ - 6 0 7 0 8 - 7 2 $ % % % % % - = 8 Q [ h [ #.@XwXeXeXdXeXrXrXrXrXrXrXtXtXtXtXtXtXjXjXjXjXjXjXjXjXvXvXvXvXbXbXbXbXbXSXSXFXFXFXFXFXFXFXFXFXFXSXSXbXbXnXbXnX@X&X].zXf.h.g.h.{.{.h.{.|.D.{.|.G.G.}.D.|.H.{.8.D.D.|.h.G.|.D.D.D.D.7.D.D.D.D.8.D.Z.{.7.H.",
"AXAXAXAXAXcXxXxXxXxXxXxXxXxXxXxXxXkXkXfXfXtXtXfXfXfXdXdXeXeXeXuXuXuXuXuXqX0XqX0X0X0XwXwXwXwXwX0X0X0X0X0X0X0X0X0XwX0X0X0XqX0XqXeXeXeXeXeXeXeXeXfXfXfXfXkXkXkXkXkXxXxXxXxXcXcXcXcXcXcXcXZXZXZXSXSXSXSXSXSXSXSXSXFXJXJXJXGXGXGXDXAXbXbXvX .C q C [ f q q 8 7 7 2 - $ % % # # # % % % # # # % - % % # # # # # # % - 7 h e [ c.c.0XrXeXeXeXtXtXrXrXrXrXtXtXtXtXtXtXtXtXjXjXjXjXjXjXjXvXvXcXcXbXbXSXbXSXbXbXbXFXFXFXFXFXFXFXFXnXbXbXbXbXbXnX+X&X].zXf.h.g.H.{.{.7.{.{.{.{.|.G.D.|.D.{.7.|.8.{.8.|.7.D.|.D.D.D.D.7.D.D.D.{.8.{.Z.H.7.{.",
"AXAXAXAXAXxXxXxXxXxXxXxXxXxXxXkXkXkXkXfXfXtXtXfXfXdXdXdXeXeXeXuXuXuXuXuXqX0X0X0X0X0XwXwXwXwXwX0X0X0X0X0XwX0X0X0X0X0X0X0X0XqXqXeXeXeXeXeXeXeXeXtXdXtXfXfXkXkXkXkXxXxXxXxXxXcXcXcXcXcXcXZXZXZXZXSXSXSXSXSXSXSXSXSXSXSXFXFXGXGXDXAXbXvX`.' C h z.c.^ 8 > 7 2 2 - $ $ % # + + # # # # # + + + + + # + + # + + @ @ @ $ 8 h ` #.c.#X+X$X@X@XrXtXtXrXrXrXtXtXrXtXtXtXtXtXjXjXjXjXjXjXjXvXvXcXcXbXbXbXbXbXbXbXbXbXnXnXnXSXSXSXnXbXbXbXbXnXbXnX+X&X].zXh.h.g.h.{.{.7.{.{.{.|.|.G.D.|.D.{.7.|.|.|.8.|.7.D.|.D.D.D.D.7.Z.Z.Z.D.Z.{.Z.H.7.{.",
"AXAXAXcXcXxXxXxXxXxXxXxXxXxXxXkXkXfXkXfXfXfXfXfXdXdXdXdXeXeXeXuXuXuXqXqXqXqXqXqX0X0XwXwXwXwXwX0X0XwXwXwX0X0X0X0X0X0XqXqX0XqXqXeXeXeXeXeXeXeXeXeXfXfXfXfXkXkXkXkXxXxXxXxXxXcXcXcXcXcXZXZXZXZXZXSXZXSXSXSXSXSXSXSXSXSXSXSXSXDXDXAXcX'.j.'  .#.!.z.V 7 $ % % % $ % % % # # + # + + + + & . . & + + + + + + # # # % $ - 5 $.c.c.c.@.@X#.@X$XeXtXtXtXtXtXrXrXtXtXtXtXtXtXjXjXjXjXjXjXvXvXcXcXcXbXbXbXbXbXbXbXbXbXbXbXbXbXbXbXbXbXbXnXnXnXbXXX&X).zXh.h.i.h.{.{.7.{.{.{.{.{.D.D.|.D.{.6.|.|.{.Z.{.7.D.{.D.D.D.{.7.Z.8.Z.D.Z.{.Z.H.6.D.",
"AXAXAXcXxXxXxXxXxXxXxXxXkXkXkXkXfXfXfXfXfXfXfXfXdXdXdXeXeXeXeXuXqXqXqXqXqXqXqXqXqX0XwX0XwXwXwX0XwX0XwXwX0X0X0X0X0X0XqXqXqXqXqXeXeXeXeXeXeXeXeXtXfXfXfXfXfXkXkXkXkXxXxXxXxXxXcXcXcXAXZXZXZXZXZXSXSXSXSXSXSXSXSXSXSXbXbXcXZXcXxXeXjXW.' ^ Q Q [ e 6 2 % % % % % % % % # # # + + + + + & . . . & + + + + + + + + % 5 V Q | #.@.#.[ c.@.c.$XeXtXtXtXtXrXrXrXtXtXtXtXtXtXtXjXjXjXjXjXjXvXvXcXcXbXbXbXbXbXbXbXbXbXbXbXbXbXbXbXbXbXbXbXnXnXbXc.&X).zXf.h.i.h.{.H.7.{.{.{.{.{.{.D.{.D.{.6.D.|.D.D.D.7.D.D.D.D.D.{.7.8.8.Z.D.Z.{.H.H.6.Z.",
"cXAXcXxXcXxXxXxXxXxXxXkXkXkXkXkXfXfXfXfXfXfXfXdXdXdXdXeXdXeXdXuXqXqXqXqXqXqX0X0X0X0X0X0XwXwXwXwXwXwX0XwX0X0X0X0X0X0XqXqX0XqXqXeXeXeXeXeXeXeXdXdXfXfXtXfXtXfXkXkXkXxXxXxXxXxXxXcXAXAXAXZXZXZXZXZXZXSXSXSXSXSXSXSXZXvXjXjXjXtX*X@Xl.X.Q h 5 - 5 - - $ $ % % % % % $ $ % # # # # # + + & . . . & + + + + + + + + # 7 e W W 6 _ @.@.^ @.$.#X=XrXtXtXtXtXtXtXtXrXtXtXtXtXtXjXjXjXtXjXjXvXvXcXcXcXbXbXbXbXbXbXbXbXbXbXbXbXbXbXbXnXbXbXbXbXbXXX&X).zXf.h.7.h.{.h.7.{.{.{.{.{.{.D.{.D.{.6.8.D.8.{.8.7.D.{.D.D.D.{.h.7.7.8.{.Z.{.7.H.6.Z.",
"cXcXxXxXxXxXxXxXxXxXxXkXkXkXkXfXfXfXfXfXfXfXfXdXdXdXeXeXeXeXuXuXqXqXqXqXqXqX0X0X0X0XwX0XwXwXwXwXwXwXwXwX0X0X0X0X0X0X0X0X0XqX0XqXeXeXeXeXeXeXeXdXdXfXtXtXtXtXkXkXkXkXxXxXxXxXxXAXAXAXAXAXZXcXZXZXZXZXSXSXSXSXSXZXcXjXrX*Xz.z.| Q h q 8 7 7 - $ % % % % % % # % % % % # # % # # + & & . . . . & + + + & + & + + # % % 7 W W e ^ @.` +.c.#X*XrXtXtXrXtXtXtXtXtXtXtXtXtXtXtXjXtXtXjXjXjXvXvXcXcXcXbXbXbXbXbXbXbXnXbXbXbXbXbXbXbXbXcXbXvXbX$.&X_.zXf.h.i.h.{.h.7.{.{.{.{.{.{.Z.{.{.{.6.8.8.8.{.8.7.D.{.D.D.D.{.h.7.7.8.{.Z.{.7.H.8.Z.",
"xXxXxXxXxXxXxXxXxXxXkXkXkXkXkXkXfXfXfXfXfXfXdXdXdXdXdXeXeXuXuXuXqXqXqXqXqXqX0X0X0X0X0X0XwXwXwXwXwXwX0X0X0X0X0X0X0X0X0X0X0XqXqXqXeXeXeXeXeXeXdXdXeXeXtXtXfXfXkXkXkXkXxXxXxXxXAXAXAXAXAXAXZXZXZXZXZXZXSXSXZXbXcXcXvX&X~. .Q C h 8 8 8 - - - - $ % % # % # + # % % # # # # # % # + . . .     . . + + + & & & & & + + + # - r w W [ +.@.#.#.@X0XeXeXrXeXtXtXrXrXtXtXtXtXtXtXtXtXtXtXjXjXvXvXcXcXcXcXcXcXbXbXbXbXbXbXbXbXnXnXbXcXcXcXvXvXcX%.&X'.zXf.h.i.h.H.h.7.{.{.{.D.{.{.Z.{.{.{.6.8.8.6.|.7.h.D.{.D.D.D.{.7.7.8.Z.Z.Z.{.8.7.8.Z.",
"xXxXxXxXxXxXxXkXkXkXkXkXkXkXkXkXfXfXfXfXfXfXfXdXdXdXdXeXeXuXuXuXqXqXqXqXqXqX0X0X0X0X0XwXwXwXwXwXwX0X0X0X0X0XwX0X0X0X0X0XqXqXqXqXeXeXeXeXeXeXeXeXeXdXtXtXtXfXfXkXkXkXkXxXxXxXxXAXxXcXcXAXcXZXZXZXZXZXZXZXZXcXxX-X!.z.[ C h q 8 8 8 8 - $ % % % % # # # + & + # # # + + + # + + . . .         . . & + + + & . . . & + % # % 2 0 h ^ [ h Q c.T.#XwX=X=XrXrXrXtXtXtXtXtXtXtXtXtXtXtXjXjXvXvXvXcXcXcXcXcXcXcXcXbXcXcXbXbXbXbXcXcXcXvXvXvXcX%.&X'.zXf.h.i.h.h.h.7.{.{.{.D.{.{.8.{.{.{.7.6.6.7.|.h.h.D.{.D.D.D.{.7.7.8.7.H.Z.{.8.7.6.8.",
"xXxXxXxXxXxXxXkXkXkXkXkXkXkXkXkXfXfXfXfXfXfXdXdXdXdXeXeXeXeXuXuXuXqXqXqX0X0X0X0X0X0X0XwXwXwXwXwX0X0XwX0X0XwXwX0X0X0X0X0X0XqXqXqXeXeXeXeXeXeXeXdXdXdXfXtXtXfXfXkXkXkXkXxXxXxXxXAXcXAXAXAXAXZXZXZXZXZXZXZXcXcXjXz.[ z.f h f 8 5 5 7 - $ % % # # # # # + & & + + + + + + + + . . . . .         . . . & + + & .   . . & + + + & # - h h 6 h | ` $.+X$X*XwXrXrXeXtXtXtXtXtXtXtXtXrXtXtXjXjXvXvXcXcXcXcXcXcXcXcXcXcXcXbXbXbXbXcXvXvXvXvXvXcX%.&X'.zXa.h.i.h.h.h.h.{.{.{.Z.{.{.D.{.{.{.h.6.6.D.{.H.g.D.{.D.D.D.{.6.7.8.7.H.Z.{.Z.7.6.Z.",
"xXxXxXxXxXxXxXxXkXkXkXkXkXfXfXkXfXfXfXfXfXfXfXdXdXdXeXeXeXeXuXuXuXqXqXqXqX0X0X0X0X0X0X0XwXwXwXwX0X0XwX0X0X0X0X0X0X0X0X0X0XqXqXqXeXeXeXdXeXeXeXeXeXdXfXfXfXtXfXkXkXkXkXxXxXxXxXxXxXcXAXAXcXZXZXZXZXZXAXcXxXjXQ.' V Q h 8 0 8 2 2 $ % $ % # % # # # # + & & . . . & . & & + + . . . .           . . & + + & . . .   . & + & + + % - - 0 h h Q c.T.@X$X*XrXrXtXtXtXtXtXtXtXtXrXrXrXtXjXjXvXvXvXcXcXcXcXcXcXcXcXcXcXcXvXcXcXcXvXvXvXvXvXcX%.&X'.-Xa.f.i.h.h.h.h.{.{.{.Z.{.{.8.{.{.{.h.8.8.{.H.H.h.Z.D.D.8.Z.H.6.7.8.7.H.Z.{.Z.7.6.Z.",
"xXxXxXxXxXxXkXkXkXkXkXkXkXkXfXfXfXfXfXfXfXdXdXdXdXeXeXeXeXeXuXuXuXqXqXqXqXqX0X0X0X0X0XwX0X0XwXwX0XwXwX0X0X0X0X0X0X0X0X0X0XqXqXqXqXqXeXeXeXeXeXdXdXdXdXfXtXtXfXkXkXkXkXxXxXxXxXxXxXcXAXAXAXAXAXZXZXAXcXxXkX#X' h 8 8 8 7 7 - $ % # # % # # # # + # # + + . . . . . & . . + + & . . .           . . & + + . . . . . . . & . . & + % - 0 e Q #.#.c.@X*XrXrXrXrXrXtXtXtXtXtXtXrXrXrXtXjXjXvXvXcXvXcXcXcXcXcXcXcXcXcXcXcXcXcXcXvXvXvXvXvXcX%.#X&X&Xa.g.i.h.h.h.h.H.{.{.{.{.{.Z.{.{.{.Z.Z.6.{.8.H.7.Z.D.D.Z.Z.H.5.7.7.7.Z.Z.{.8.7.6.Z.",
"xXxXxXxXkXxXkXkXkXkXfXfXkXfXfXfXfXfXfXfXdXdXdXeXeXeXuXeXeXuXuXqXqXqXqXqX0XqX0X0X0X0X0X0X0X0XwXwX0XwXwX0X0X0X0X0X0X0X0X0XqXqXqXqXqXqXeXdXeXeXeXdXdXdXfXdXfXfXfXfXfXkXkXkXkXxXxXxXxXxXAXAXAXcXAXAXAXZXcXrXQ.@.8 - - - 2 $ % % # + # # # # # + + + + + . . . . . . . . . . + + & & . . . . . .     . . + + & . . . . . & & & & & + % - h [ [ [ Q #.c.$XwXwXeXtXtXtXtXrXtXtXtXrXrXrXtXjXjXxXxXvXvXvXcXvXvXcXvXcXcXcXvXcXcXvXvXvXvXvXvXvXcX+.&X&X&Xa.g.i.h.h.g.g.H.{.{.{.{.{.Z.H.H.H.H.|.7.{.7.{.7.Z.{.D.Z.Z.Z.6.7.7.7.7.Z.H.7.7.6.Z.",
"xXxXxXkXkXxXkXkXfXkXfXfXfXfXfXfXfXfXfXfXdXdXdXeXdXeXeXeXeXuXuXqXqXqXqXqX0XqX0X0X0X0X0X0X0X0XwXwXwXwXwX0X0X0X0X0X0X0X0X0XqXqXqXqXqXuXeXeXeXeXeXeXeXeXdXfXfXfXfXfXfXkXkXkXxXxXxXxXxXxXAXAXAXAXAXAXAXcXrX| Q = - $ $ - - % # + + . . & + + + & + + + . . . . . . . . . . & + + & & & . . . . .     . . . . . & . . . . & . + + + + # % 7 e 8 W [ @.c.+X#X*XrXrXtXtXtXtXtXtXtXrX=XrXtXjXjXjXvXvXxXxXcXxXvXvXvXcXcXvXvXcXcXvXvXvXvXvXvXvXvX+.&X&X&Xa.i.u.h.h.g.g.H.{.{.{.{.{.H.H.H.H.7.{.{.{.8.{.7.Z.{.D.Z.8.H.6.7.7.7.7.Z.Z.7.6.7.Z.",
"xXxXxXkXkXkXkXkXfXfXfXfXfXfXfXfXfXfXfXdXdXdXdXeXdXeXeXeXeXeXeXuXqXqXqXqXqXqXqXqX0X0X0X0X0X0XwXwX0XwX0X0X0X0X0X0X0X0X0XqXqXqXqXqXqXqXqXeXeXdXdXeXeXeXdXfXfXfXfXfXfXfXkXkXkXxXxXxXxXxXAXAXAXAXAXAXcXtX .> - @ % $ % $ % # + + . . . . & + + + . . . . . . . . . . . . . & . & + . . . . . . .     . . . . . . . . . . . & + + & & + # $ % - - V V [ [ c.#XwXrXtXtXtXtXtXtXeX=XrXrXrXtXjXjXjXxXkXjXxXcXcXcXvXvXvXvXvXvXvXvXvXvXvXvXvXvXvXO.&X&X&Xa.i.t.g.h.g.g.H.{.{.{.|.|.H.H.H.H.7.{.{.{.8.{.6.Z.{.8.8.8.Z.6.7.7.7.7.Z.7.Z.6.7.Z.",
"kXkXxXkXkXkXfXkXfXfXtXfXfXfXfXfXfXdXdXdXdXdXdXdXuXuXeXeXeXdXuXuXqXqXqXqXqXqXqXqX0X0X0X0X0X0XwXwXwX0X9X0X0X0X0X0X0X0X0XqXqXqXqXqXqXuXeXeXdXdXdXeXeXeXdXfXfXfXfXfXfXkXkXkXkXxXxXxXxXAXAXAXAXAXAXAXxX&XC h 5 h 7 0 % % $ # + & . . . . . . + + . . . . . . . . . .   . . & . . & . . . . . . .           . . & . . . . . . . + + & & + # % % - 8 h [ [ @.#X*XrXtXtXtXtXeXtXtXrXrXrXrXtXjXjXjXvXvXvXxXxXvXcXvXvXvXvXvXcXvXvXvXvXvXvXvXvXvXo.&X&X&Xp.a.u.g.h.g.g.H.{.{.|.|.|.H.H.H.H.7.{.{.H.8.|.7.H.{.8.8.8.Z.6.7.7.8.7.Z.7.Z.5.7.7.",
"kXfXkXfXfXfXfXfXfXfXfXfXfXfXfXdXdXeXeXeXdXdXeXdXdXuXeXuXuXeXuXuXqXqXqXqX0X0XqX0X0X0X0X0X0X0XwXwXwX0X9X0X0X0X0X0X0X0X0XqXqXqXqXqXqXqXqXeXdXdXdXdXeXdXdXdXdXdXfXfXfXfXkXkXkXxXxXxXxXxXAXAXAXAXAXxXjX*X| f 8 8 7 w % % # # + . . . . . . & . . . . . . .   . .       . . . . . & . & . . . . .               . . & & . . . + + + + & + + % % - 6 h [ @.@.@XrXeXtXtXtXeXtXtXtXkXtXtXtXjXjXjXjXvXxXjXkXxXxXxXxXvXvXvXcXvXvXvXvXvXvXvXvXvXvXO.#X&X&Xp.i.u.g.h.g.g.H.{.{.|.{.{.H.H.Z.H.7.{.{.Z.6.{.7.8.Z.8.8.8.H.6.6.8.8.7.H.7.7.5.7.7.",
"kXfXfXfXtXtXtXfXfXfXfXfXeXeXeXeXeXeXeXeXdXeXdXdXdXeXuXuXuXuXuXuXqXqXqXqXqXqXqX0X0X0X0X0X0X0XwXwXwX0X0X0X0X0X0X0X0X0X0XqXqXqXqXqXqXqXuXeXdXdXdXdXeXdXdXdXdXfXfXfXfXfXfXkXkXxXxXxXxXxXAXAXAXAXkX*X#XY.C 8 0 - $ $ % # # + + . . . . . . . . . . . . .     . .         . . . & + & & . . . . .               . . & & + + + + + # + + + + + % - h Q ^ #.c.#XrX0XeXtXtXeXeXtXfXfXkXtXtXtXjXjXxXxXxXkXjXxXxXxXkXxXxXvXvXvXvXvXvXvXvXvXvXvXkXO.$X&X&Xp.i.t.f.h.i.i.H.H.{.|.H.|.H.H.H.H.7.{.{.8.8.{.7.7.Z.8.8.8.H.6.6.8.7.7.H.7.Z.5.6.7.",
"fXfXfXfXtXtXtXfXfXfXfXfXfXdXeXeXeXeXeXeXdXeXdXdXdXdXuXuXuXuXuXuXuXuXqXqXqXqX0X0X0X0X0X0X0X0XwXwXwX0X0X0X0X0X0X0X0X0X0XqXqXqXqXqXqXuXeXeXeXeXdXdXdXdXdXdXdXfXfXfXfXfXfXfXkXxXxXxXxXxXAXAXAXxXeX#X#X[ ' h 2 $ % % # + + + + & . . . . . . & . . . . . . . . . . . .   . . . & & . .   . . .       .         . . & & + + & + # # & + + . . + - w W 0 ` $.*X0XqXdXeXeXeXeXdXtXfXfXtXeXtXjXkXkXkXkXjXjXkXkXkXkXkXkXxXxXxXxXvXxXvXvXvXvXvXkX%.#X&X`.p.u.t.f.h.i.i.h.H.H.{.H.7.H.h.H.H.7.H.{.8.7.{.7.8.Z.8.8.8.Z.6.6.7.8.7.H.8.Z.5.7.7.",
"fXfXfXfXtXtXfXfXtXfXfXdXfXdXdXeXdXdXeXeXeXeXdXdXdXdXeXeXuXeXuXuXuXuXqXqXqXqX0X0X0X0X0X0X0X0XwXwXwX0X0X0X0X0X0XqXqXqXqXqXqXqXqXqXqXuXuXuXdXdXdXdXdXdXdXdXfXfXfXfXfXfXfXfXkXkXkXxXkXxXxXAXAXAXtX#X@X^ h > 2 % # # + + + + + . . . . . . . . . . . . . . . . . . . .   . . . . .       . . .             X   . . . & + + & & + + . & & & & + % - 7 7 q [ T.*XdXeXeXeXeXdXdXtXfXtXtXtXtXtXkXkXxXxXjXjXjXkXkXkXjXxXxXxXvXvXxXvXvXvXvXvXvXkX%.$X&X&Xp.u.t.f.h.i.6.h.h.H.h.6.J g.h.7.H.6.Z.Z.8.7.{.7.7.7.8.8.8.Z.6.6.7.8.7.H.8.7.H 6.8.",
"fXfXfXtXfXfXtXfXtXfXfXdXfXdXdXdXeXdXdXuXdXdXdXdXdXeXeXeXeXeXuXuXuXuXqXqXqXqXqX0XqX0X0X0X0X0X0X0XwX0X0X0X0X0X0XqXqXqXqXqXqXqXqXqXuXuXuXeXdXdXeXdXdXdXdXdXdXdXdXdXfXfXfXkXkXkXkXkXxXxXxXxXAXAXkXrXT.[ [ > $ # # + . . . . + . . . . . . . . . . . .     . . . . . .     . . .           . .                 . . .   . . + + & . . & & & & & + + @ 5 q ^ T.0X0XeXtXeXeXeXdXtXtXfXtXeXtXtXtXkXkXkXkXkXjXjXkXkXxXxXxXvXxXxXxXxXvXjXjXxXjXkXO.#X&X).p.u.t.a.h.i.i.H.H.H.h.g.S 6.h.7.H.6.Z.Z.8.H.Z.g.7.7.8.8.8.H.4.6.7.7.7.Z.7.Z.H 3.7.",
"tXtXtXtXfXtXfXfXfXdXfXdXdXdXdXeXeXeXeXeXeXdXeXdXdXeXeXeXeXeXuXuXuXuXqXqXqXqXqX0XqX0X0X0X0X0X0X0XwX0X0X0X0X0X0X0XqXqXqXqXqXqXqXqXuXuXuXeXdXdXdXdXdXdXfXdXdXdXdXdXfXfXfXfXkXkXkXkXkXxXxXAXAXAXkXrXrXc.V 5 $ # + + . . . . .     . . . . .   . . . .     . . . . . .     . . .         .                     .     . . . & . . . & & & & & & + & + @ 8 @.+X0XeX0XeXeXeXeXeXeXeXfXtXtXtXtXtXkXkXkXkXkXkXkXjXjXkXkXvXvXvXvXkXkXkXkXkXkXjXjXO.$X*X!.p.u.] a.h.i.i.h.H.H.h.H.6.6.7.7.H.6.Z.Z.6.H.H.g.7.7.8.8.8.Z.4.6.7.7.7.Z.7.Z.S k 7.",
"tXfXfXfXtXfXdXdXdXdXdXeXeXeXeXeXeXeXeXeXuXeXeXdXdXdXeXeXuXuXuXuXuXuXuXuXuXqXqXqXqXqX0X0X0X0X0X0XwX0X0X0X0X0X0X0XqXqXqXqXqXqXuXqXuXuXuXuXdXdXdXdXdXdXdXdXfXfXfXfXfXfXfXfXfXkXkXxXkXxXxXxXxXAXxXfXrX=X| 0 % # + . . .           . . . . .     . . .     . . . . . .                                 .         . . . . . + & . . . . . . & & . & o + % #.*XqXdXdXdXeXeXeXeXeXeXeXeXeXrXeXtXkXkXkXkXkXkXkXkXkXkXjXkXkXkXkXkXjXjXkXjXkXjXtXo.$X*X!.p.u.] a.f.i.i.h.h.h.h.H.H.g.7.7.H.6.8.8.6.Z.H.i.7.h.7.8.8.Z.4.6.6.7.7.7.7.7.A A H.",
"fXfXfXfXfXfXdXdXeXeXeXeXeXeXeXeXeXeXeXeXeXeXeXeXdXdXuXuXuXuXuXuXuXuXuXuXuXqXqXqXqXqX0X0X0X0X0X0X0X0X0X0X0X0X0X0XqXqXqXqXqXqXqXqXuXuXuXqXdXdXdXdXdXdXdXfXdXfXfXfXfXfXfXfXfXfXkXCXkXkXAXAXAXAXxXAX=X$X@X8 $ % & . . .         . . . . . . . . . . . . . . . . . . .             .               . . .         . . . . & & . . . . . . . . . . & + # $ ^ $XwXeXeXeXdXeXdXeXeXeXeXeXeXeXtXtXkXkXkXkXkXkXkXkXkXkXjXjXkXkXkXkXjXjXjXjXjXjXtXo.$X*X~.p.u.] a.f.i.5.h.h.h.h.H.H.h.7.7.H.6.8.7.6.{.Z.6.7.7.7.8.8.7.4.6.6.7.7.7.7.7.p 6.H.",
"tXtXtXtXfXdXeXeXeXeXeXeXeXeXqXqXeXqXeXeXuXeXeXuXuXuXuXuXqXqXqXqXqXqXqXqXuXqXqXqXqXqX0X0X0X0X0X0X0X0X0X0X0X0X0XqXqXqXqXqXqXqXqXuXuXdXeXeXdXgXdXgXdXdXfXfXfXfXfXfXfXfXfXfXBXfXkXCXkXkXAXAXAXAXxXkXwX#.| > $ # + & . . . .     . . . . & . . . & . . . . . . . . .   . .   .   . . .       .   . . . .           . .   & + . . . . . . & & & + + + % 2 q ` @X3X$XdXdXeXeXeXeXeXeXeXeXeXeXfXkXkXkXkXkXkXkXkXkXkXjXjXkXkXkXkXjXjXjXjXjXjXtXo.$X*Xc.p.p.] i.h.i.5.h.h.h.h.H.H.h.7.H.H.4.8.7.6.{.8.6.7.7.8.8.8.7.4.6.6.7.7.7.7.6.A H.H.",
"fXeXtXeXeXeXeXeXeXeXeXeXeXeXeXqXqXeXeXqXeXeXuXeXqXuXuXuXuXqXqXqXqXqXqXqXqXqXqXqXqXqX0X0X0X0X0X0X0X0X0X0XqX0XqXqXqXqXqXqXqXqXqXuXuXeXeXeXdXgXdXgXdXdXfXdXfXfXfXfXfXfXfXfXfXfXfXfXfXkXAXAXAXxXxXtX=X@.5 @ # + + + . . . .       . . . & .   . & . & . .     . . .         .     . . .     . .   . . .           . . . . + + . . . . . & & + + + # $ 7 7 5 [ c.%.eXdXeXeXeXeXeXeXeXeXeXrXtXtXfXkXkXjXkXjXjXkXkXkXjXkXkXkXjXjXjXjXkXjXjXrX.X$X*Xc.p.p.] a.h.i.5.h.h.h.H.h.H.h.7.H.H.4.6.7.6.{.7.6.7.7.8.8.8.7.4.6.6.7.7.7.7.7.A H.7.",
"fXfXfXdXdXeXeXeXeXeXeXeXeXeXeXeXqXeXeXuXeXqXuXqXuXuXuXuXuXqXuXuXqXqXqXqXqXqXqXqXqXqXqXqX0X0X0X0X0X0XqX0XqXqXqXuXuXqXqXqXqXqXqXuXuXuXeXeXgXgXgXgXdXgXfXdXfXfXfXfXfXfXfXfXfXfXfXfXfXCXAXAXxXxXxXfX+X^ = e V + + . . . . .       # & . & &     . . . . .     . . . .             . .       . .                   . . . . & & . . . . . & + + + + # % - 7 8 0 [ XXeXeXeXeXeXeXeXeXeXeXeXrXtXtXfXtXtXtXkXjXjXkXtXkXjXjXkXkXkXkXjXjXjXjXkXeX.X$X-Xc.p.p.] p.f.i.i.h.h.h.H.h.H.h.7.h.H.4.6.6.7.H.7.6.7.8.8.8.8.7.4.6.6.7.6.7.7.6.A 7.7.",
"eXfXfXdXfXdXdXdXdXeXeXeXeXeXeXqXqXuXeXeXeXqXuXeXuXuXuXuXuXqXqXqXqXqXqXqXqXqXqXqXqXqX0X0X0X0X0X0X0X0X0X0X0XuXuXuXqXqXqXqXqXqXuXuXuXuXuXuXuXgXdXdXdXdXdXdXgXdXfXfXfXfXfXfXfXfXfXfXfXCXCXAXCXkXfXeX| 0 @ - 7 + + + .           # $ + & . . .   . . . .       . . . .             .         . .         . .     . . . . . . . . . . . . & + + + + % % - 7 ` I +XwXdXdXeXeXeXeXeXeXeXeXeXrXeXtXfXtXtXtXtXkXtXjXkXkXjXjXkXkXkXkXkXkXkXkXjX0X.X$X-Xc.p.p.] p.f.i.i.h.h.h.H.h.H.g.7.h.H.4.6.6.7.H.7.6.7.7.8.8.8.7.S 4.4.6.6.6.7.6.A h.7.",
"eXtXtXeXdXdXeXdXdXeXqXqXqXqXeXqXqXuXqXuXqXqXqXqXqXqXqXqXqXqXqXqXqXqXqXqXqXqXqXqXqX0X0X0XqX0X0X0X0X0X0X0X0XuXuXuXqXuXuXqXqXqXuXuXuXuXuXuXuXuXdXdXdXdXdXdXdXdXdXfXfXfXfXfXfXfXfXfXfXkXCXAXAXkX=X%X^ = % % # + # + . .   X     # % # & .         & .   X   .   . & & . .       . &         . . .   .   . . . . & . . . . .     . . . . & + + + # # + - [ @.c.$XwXdXeXdXeXeXeXqXqXqXeXeXeXeXdXfXtXtXtXtXtXtXkXkXjXjXjXjXkXkXkXjXjXjXjXjX0X.X$XrXc.p.p.] p.f.i.u.h.h.h.H.h.h.g.7.H.H.4.6.6.7.H.7.6.7.7.8.8.8.7.4.4.4.6.6.7.6.h.A h.6.",
"eXdXeXeXeXeXeXeXeXqXqXeXqXqXqXqXuXuXqXqXqXuXqXqXqXuXqXqXqXuXuXqXqXqXuXqXqXuXqXqXqX0X0X0XqXqXqX0X0XqX0X0X0XuXuXuXqXuXuXqXqXqXuXuXuXuXuXuXuXuXdXdXdXdXdXdXdXdXdXfXfXfXfXfXfXfXfXfXkXCXAXAXAXdX0X$X| e 8 - % + + + .           & # + & .         .         . . . & . . .       . & .   . .   . . . &     . & . & & & . .       . . . . + + + + + + + - &.%X3XqXqXdXdXdXeXeXeXeXeXeXeXeXeXeXfXtXtXtXtXtXtXtXfXtXjXjXjXjXjXjXjXjXjXjXjXkXwX.X$X-Xc.p.p.] p.f.p.u.h.h.h.h.h.h.g.g.H.H.4.6.7.7.H.6.6.7.7.8.8.7.7.4.6.4.6.6.g.6.h.A 7.6.",
"eXdXeXeXeXeXeXqXqXqXeXeXqXqXqXqXuXuXqXqXqXqXqXqXqXqXqXqXuXuXuXqXuXqXuXuXuXuXqXqXqXqX0X0XqXqXqXqX0XqX0X0X0XuXuXuXuXuXuXqXqXqXuXuXuXuXuXdXdXdXdXdXdXdXdXdXdXdXgXgXfXfXfXfXfXfXfXfXfXAXAXAXAXkXdX0XT.^ 7 $ + . & . .         . + + & . .                 X   . . & .   .       & & .   . .     . . .     . . & + + + . .         . . . # + + + # - % # 0 wXdXeXdXdXdXeXuXuXeXeXeXeXeXeXeXrXeXtXeXdXtXtXtXfXfXtXtXtXjXjXjXjXjXjXjXjXjXkXwX.X$X-Xc.p.} { p.x.a.u.g.h.g.h.h.h.6.g.H.h.5.4.7.6.7.6.g.7.7.8.8.8.7.4.4.6.6.6.6.7.6.g 7.6.",
"dXdXdXeXeXeXeXqXqXeXqXqXqXqXqX0XqXuXuXuXqXqXqXuXqXqXqXuXuXuXuXuXuXuXuXuXuXuXqXqXqX0X0XqX0X0X0X0X0X0X0X0X0XqXqXuXuXuXuXqXqXqXuXuXuXuXuXuXuXuXuXuXuXuXgXdXdXdXdXdXfXfXfXfXfXfXBXBXBXfXkXxXAXkXdX0X=XQ - % . .   . . . . . . . & & .     X           X X       . .           . & & &         X     .     . + + & + + & . .       . . & + + + & % e 5 2 I $XdXuXgXdXdXuXuXuXuXqXqXqX0X0XeXeXeXtXeXeXdXdXdXdXfXtXtXtXtXkXkXjXjXjXkXkXjXkXwX.X$XrXc. .p.{ p.x.f.} f.h.h.h.h.h.i.g.H.g.5.4.7.7.7.6.5.7.7.6.8.6.7.4.6.6.6.6.6.7.S u 6.6.",
"dXeXdXqXeXeXeXqXqXqXqXqXqXqXqXqXqXuXuXuXqXqXqXqXqXqXqXuXuXuXuXuXuXuXuXuXqXqXqXqX0X0X0X0X0X0X0X0X0X0X0X0X0XqXqXqXuXuXuXuXqXqXqXqXuXuXuXuXuXuXuXuXuXuXdXdXdXdXdXdXgXfXfXfXfXfXBXBXBXfXkXxXxXkXdXfXrXW = % .     & & & . . .   . . . .   X     X         X                     . & & .     X X X         . . & & + & . . . .       . & + + & . + 8 h e +.$XdXdXgXgXdXuXuXuXuXqXeXeXqXqX0XeXeXeXeXdXdXdXtXdXfXtXtXtXtXjXjXjXjXjXtXkXtXtX3X.X1XrXc. .p.] x.b.d.u.g.h.h.h.g.h.i.g.H.g.5.4.6.6.7.6.6.7.7.6.8.6.7.4.6.6.6.6.6.7.A i 6.6.",
"eXeXdXuXuXuXuXuXqXqXqXqXqXqXqXqXqXqXqXqXqXqXqXuXuXqXuXuXuXuXqXqXqXqXqXuXqX0X0X0X0X0X0X0X0X0X0X0X0X0X0X0X0XqXuXuXuXuXuXqXqXqXuXqXuXdXuXuXuXuXuXuXuXuXuXgXdXgXdXdXdXfXfXfXfXfXfXfXfXBXBXCXAXkXfXdX0X_ - # +     & # % . .               X X X X   .         . .               . . .     X X X X X     . . . & & & & & . .           . + + + + # 7 +.W +.3XdXdXdXdXdXuXuXuXqXqXqXqXqXqXeXeXeXeXdXeXeXeXdXdXfXfXfXfXtXtXtXjXtXtXtXtXtXtX3X.X1XrXz. .p.] v.b.d.] g.H.h.h.g.h.6.g.H.g.6.4.6.6.7.4.6.7.7.8.6.6.6.4.4.6.6.6.6.7.g p 6.7.",
"dXuXuXuXuXuXqXqXqXqXqXqXqXqXqXqXqXuXuXuXuXqXqXuXqXuXuXuXuXuXqXqXqXqXqXuXqX0X0X0X0X0X0X0X0X0X0X9X0X0X0X0X0XqXuXuXuXuXuXqXqXqXuXqXuXuXuXuXuXuXuXuXuXuXuXuXdXdXdXdXgXfXfXfXfXfXfXfXfXfXBXCXAXfXfX0X+X[ 3 + .     # % # .   X X X   . .   X X X X   .         . .               . . . .     X X X X           . & & & & & .             . . + # + - +.`  X6XdXdXdXdXdXuXuXuXqXqXqXqXqXqXqXeXeXeXeXeXeXdXdXdXdXdXdXtXfXtXtXtXtXtXtXtXtXtX3X.X1XrX#.@.p.{ p.f.p.] i.h.h.h.g.h.5.g.H.g.i.4.6.6.7.4.6.7.7.7.7.7.6.4.6.6.6.6.6.7.H p 6.7.",
"eXeXeXuXuXuXqXqXqXqXqXqXqXqXqXqXqXqXqXuXuXuXuXuXuXuXuXuXuXuXuXqXuXqXqXuX0X0X0X0X0X0X0X0X0X0X0X9X9X0X0X0X0X0X0XuXuXuXuXuXuXuXuXuXuXuXuXuXuXuXuXuXuXuXuXuXdXdXdXdXdXdXdXfXfXfXfXfXfXfXBXBXkXxXfXfX$.| w + .   . # + & .           . .   X X   X     .       . .                 . . . .     X X X     X     . . & . . . .           . . . . # + - +.&.XXuXgXgXdXdXdXdXeXuXqXqXqXqXqXqXqXqXeXeXdXdXeXeXdXdXdXeXfXtXdXdXtXtXtXtXtXtXtXtX$X.X%XrX#.@.p.{ p.f.] u.g.h.h.h.h.h.5.g.H.g.i.4.4.6.7.4.6.7.7.8.8.6.5.4.6.5.6.7.6.K K B 6.6.",
"eXeXeXuXuXuXqXqXqXqXqXqXqXuXqXqXqXqXqXqXuXuXqXqXuXuXuXuXuXuXuXqXuXqXqXqX0X0X0X0X0X0X0X0X0X9X9X9X9X9X0X0X0X0X0XuXuXuXuXuXuXuXuXuXuXuXuXuXuXuXuXuXuXuXuXuXdXdXdXdXdXdXdXdXfXfXfXfXfXfXBXfXfXfXfXfX0X+.e 8 + . & # . & .           . .   X       . .       . . .         . .       . . .               X     . . . . . . . . .   . . + + + o 9 Q +.+X>XuXdXgXgXdXdXdXdXeXuXqXqXqXqXqXqXqXqXqXeXeXeXdXeXdXeXeXeXtXtXtXtXtXtXtXtXtXtXtXtX$X.X%XrX#.@.p.{ p.f.u.u.g.g.h.h.h.h.5.g.H.g.i.4.6.6.7.4.6.7.7.6.4.4.4.4.4.6.6.6.N v 7.B 4.6.",
"uXuXuXuXuXuXqXqXqXqXqXqXuXuXuXqXqXuXyXuXqXuXqX0X0XqXqXuXuXuXuX0XqXqXqX0X0X0X0X0X0X0X0X9X9X9X9X9X9X9X9X0X0X0X0X0X0X0XuXuXuXuXuXuXuXuXuXdXuXuXuXuXuXuXuXdXdXdXdXdXgXgXdXdXfXfXfXfXfXfXfXBXBXCXkXfXdXdX#.e 7 + . & . . . . .       X .           . .   X X               . . .     . .               X X       . . . &     & &   . . & + @ ; Q %X3XuXdXgXgXgXgXdXdXdXuXuXqXqXqXqXqXqXqXqXqXqXeXeXeXeXdXdXdXeXeXeXtXtXdXtXtXtXtXtXtXtXtX$X.X1XrX$.@.p.] p.f.p.u.g.h.h.h.g.g.5.g.f.u.5.4.6.6.7.3.6.7.7.6.s N k 4.4.6.6.K v m H.A 4.4.",
"uXuXuXuXuXuXqXuXqXqXqXqXqXqXuXqXqX0X0XuXqXqXqX0XqXqXqXuXuXuXuXuX0X0XqX0X0X0X0X0X0X0X0X9X9X6X9X9X9X9X9X9X0X0X0X0X0X0X0XuXuXuXuXuXuXuXuXuXuXuXuXuXuXuXuXdXgXdXdXdXdXdXdXdXfXfXfXfXfXfXfXBXBXfXkXfXfX$Xw Q # # & . . . . & .     X X X     .   X     X       X           .   .       . .             X     X     . . .     .     . . . + @ 8 ^ @X0XuXgXgXgXgXdXuXdXuXuXuXqXqXqXqXqXqXqXqXqXqXqXqXqXeXeXdXeXeXeXeXtXtXtXtXtXtXtXtXtXtXtX$X.X%XrX#.@. .{ p.f.p.u.f.h.h.g.g.g.5.h.g.S 5.4.6.6.7.S 6.h.7.6.4.6.p S 5.6.K K K 6.H.c 4.3.",
"uXuXuXuXuXuXqXuXuXuXuX0XqXuXuXqXuXuXuXuXuXuXuXuXqXqXqXuXuXqX0X0X0X0X0X0X0X0X0X0X0X0X9X9X9X9XwXwXwXwX9XwX9X9X0X0X0X0X0X0XuXuXuXuXuXuXuXuXuXuXuXuXgXgXuXuXuXgXdXdXdXdXdXdXdXgXfXfXfXfXBXBXCXBXCXAXdX+X5 - $ + % . .   & &   X X X X X X   X X X   X X X   X X X         X         . . . . . . . . .             . & . .     . . . . & + % 8 { %XpXgXgXgXgXdXdXdXuXuXuXuXuXuXqXqXqXqX0X0X0XqXqXqXqXeXeXdXdXeXeXeXeXeXtXtXtXtXtXtXtXtXtX$X.X%XrX#. . .{ p.d.} u.g.f.f.g.g.g.5.h.u.A 3.4.6.4.7.J g.7.h.6.6.7.S S 5.>.6.H.H.A.g.p S 3.",
"uXuXuXuXuXuX0XqXuXuXuX0XqXqXqXqX0XuXuXuXuXuX0XuXqXuXqXqXuX0XqX0X0X0X0X0X0X0X0X0X0X0X0X9X9X9XwXwXwXwX9X9X9X9X0X0X0X0X0X0XuXqXqXuXuXuXuXuXuXuXuXuXgXuXuXuXgXgXdXdXdXdXdXgXfXfXfXfXfXfXBXBXBXBXCXfXdX*X+.w # . + .   . & .     X X X X X X X X X   X X X     X X   .     X         . . . . . . & & + .   . .   . . & .     . . . . % % # % 5 X.$XgXfXgXgXgXgXgXdXdXuXuXuXuXuXqXqXqXqX0X0X0XqXqXqXuXeXeXeXdXeXeXeXeXeXtXtXtXtXtXtXtXtXtX%X.X%XrX%.@. .{ p.f.] u.g.f.f.f.g.g.5.h.5.D 3.4.6.4.7.A h.h.h.7.6.6.5.S 6.6.H.7.H.H.6.p S 3.",
"uXqXqXuXqXqX0X0X0XqXqXqXqX0X0X0X0X0X0X0X0X0X0X0XqXqXqX0X0X0X0X0X0X0X0X0X0X0X0X0X0X0X0X9X9X9XwXwX9XwX9X9X0X0X0X0X0X0X0X0X0XuXuXuXuXuXuXuXuXuXuXuXuXdXdXuXuXuXdXdXdXdXgXgXdXdXfXfXfXfXfXBXBXCXAXfXfX0X$X$.% X     . + . .     X X X X   X X X X X X X   X X X X       X               . . . . . o % # & . . . . & & . .     . . + 7 - $ % d p.3XgXfXgXgXgXgXgXdXdXuXuXuXuXuXqXqXqX0X0X0X0X0XqXqXuXeXeXdXeXeXeXeXeXdXeXeXtXtXtXtXeXeXtX1X.X XrX$.@. .{  .d.} u.f.f.f.f.g.g.5.f.3.H 5.4.6.4.7.A h.g.h.6.4.6.i.4.6.h.H.H.6.6.6.M 6.4.",
"qXqXqXqX0XqX0X0XqXqXqXqXqX0X0X0X0XqXqX0X0X0X0X0X0X0X0X0X0X0X0X0X0X0X0X0X0X9X0X0X0X9X9X9X9X9XwXwX9X9X9X9X0X9X9X0X0X0X0X0X0X0X0XuXuXuXuXuXuXuXuXuXuXuXuXuXuXuXdXdXdXgXgXgXfXfXfXfXfXfXfXfXBXCXAXfXfXfXdX%.V e 7 . . . . .   X     X X   X X X X X X   X X X X X           . . + + + . . . . + o 8 h ; @ + + & & & & & . . . . & @ d d ; = 8 { 0XBXfXfXgXgXgXgXdXdXuXuXuXuXuXqXqXqX0X0X0X0X0XqXqXuXqXeXeXdXeXeXeXeXdXeXeXeXtXtXtXeXtXrX%X.X XrX$.@.} { p.x.} p.f.g.f.f.g.g.u.h.H H 5.5.6.4.7.m g.g.7.6.4.6.5.5.7.H.A.A.M n K M S 4.",
"uX0X0XuXuXuX0X0XqXqX0X0X0X0XuXuXqXqXqXuXuXuXqX0X0X0X0XqX0X0X0X0X0X0X0X0X0XwX0X0X9XwXwXwXwXwX9XwXwXwX9X9X9X9X9X0X0X0X0X0X0X0XyXyXyXaXuXuXuXuXuXuXuXuXuXuXgXdXdXgXdXdXdXdXdXfXfXfXfXfXfXfXBXBXBXBXBXBXfX$.V Q 5 + .   .           X   X X X X X X   X X X X X X X         . . % - - % + + + o 8 D { 8 8 , d ; + + & & & & + o + ; j Q f , C { dXfXfXdXgXgXpXgXgXdXuXuXuXuXuXqX0X0XqX0X0X0X0X0XqXqXqXeXeXeXeXeXeXeXeXdXdXdXeXeXeXeXrXeX%X.X XrX$.@.} { p.x.] p.g.g.f.f.g.g.u.g.3.H 3.6.6.3.g.J g.H.6.6.4.6.5.6.A.A.M.M.n n K c 4.6.",
"qXqX0XqXuXuX0XuXqX0X0X0X0X0X0XuXqXqXqX0X0XuXqX0X0X0X0X0X0X0X0X0X0X0X0X0X9XwXwX9X9X9XwX9X9XwXwXwXwXwX9X9X9X9X9X0X0X0X0X0X0X0XyXyXyXuXaXuXuXuXuXuXuXuXuXuXuXgXdXgXdXgXdXgXfXfXfXfXfXfXfXfXBXBXBXCXBXBXCX$.V h # .   . .     .                 X X         X             . . # 5 d f 7 + % ; , D ] p.] j j { C , ; @ o o = % - - 8 D ] ] { ]  .fXfXfXdXgXgXgXgXgXuXuXuXuXuXuXqX0X0XqX0X0X0X0X0XqXqXuXqXuXeXeXeXdXeXeXdXeXeXeXrXrXrXrXrX+X.X XrXc.@.} { p.x.} p.g.g.f.g.g.g.u.g.5.H H [.[.[.6.[.H.A.6.6.6.6.5.>.n K M.M.M.n M c 6.6.",
"uXuXuX0X0X0X0X0X0X0X0X0X0X0X0X0XqXqX0X0X0X0X0X0X0X0X0X0X0X0X0X0X9XwX9X9X9X9X9XwXwX9X9X9X9X9X9X9XwXwX9X9X9X9X9X0X0X0X0X0X0X0XyXyXuXuXaXaXuXuXuXuXuXuXuXuXdXgXgXgXgXgXfXgXfXfXfXfXfXBXfXBXBXCXBXCXBXAXCX%.Q - #     . .         + . .         X X     X X X   . . . . . . . - f C C ; o ; d j t.y.f.p.] D u.p.{ j f ; 8 j C d 8 C p.p.p.a.p.v.fXfXfXgXgXgXgXgXdXdXuXuXuXuXuXqX0X0X0X0X0X0X0X0X0XqXqXuXuXeXeXdXdXeXeXeXeXeXeXrXeXrXeXeX+X.X XrX$.@.{ {  .x.} u.g.g.f.g.g.g.u.u.5.f.[.g.[.g.S M 6.6.6.4.4.6.H 6.6.A.A.K K K M c 6.6.",
"0X0X0X0X0X0X0X0X0X0X0X0XyX0XyXyX0X0X0X0X0X0X0X0X0X0X0X0X0X0X9X9X9X9X9X9X9X9X9X9X9X9X9X9X9X9X9X9XwXwXwX9X9X9X9X9X0X0X0X0X0X0XyXyX0XuXaXaXaXuXuXuXuXuXuXuXuXgXgXgXgXdXgXfXfXfXfXfXfXBXfXBXBXCXCXCXAXBXfX_ 9 + + + # + &       . $ .                       X X   o & # + + + 8 j { C - @ d d D u.a.b.f.] H f.x.a.F ] D { ] D D p.p.p.a.f.a.p.c.BXfXfXdXgXgXpXpXdXdXuXuXuXuXuXqXqXqX0X0X0X0X0X0X0XqXuXuXuXuXeXeXeXeXeXdXdXeXeXeXeXeXeXeXXX.X XrX$.@.} {  .v.} u.g.g.f.f.i.g.u.u.u.p.G g.[.6.5.m 5.h.6.4.4.6.H 7.h.h.H.6.7.6.J c 6.6.",
"0X0X0X0X0X0X0X0X0X0X0X0XyX0XyXyXyX0XyX0X0X0X0X0X0X0X0X0X0X0X9X9X9X9X9X9X9X9X9X9X9X9X9X9X9X9X9X9X9X9X9X9X9X0X0X0X9X9X9X9X0X0X0XyX0XyXuXuXuXuXuXuXuXuXuXuXuXuXdXgXpXgXgXfXfXfXfXfXfXfXBXBXBXCXCXgX&.%.` 0 e 7 + % 7 % # .   X X % . . & . . .             X . @ - = @ @ @ = h Q { j = 4 d f D p.a.].b.u.a.f.].f.3.p.p.] p.u D p.a.a.f.b.a.p.@XBXBXgXfXfXgXgXgXgXdXuXuXuXuXuXuXuXuX0X0X0X0X0X0X0XuXuXuXuXuXuXeXeXeXeXdXdXeXeXeXeXeXeXeX X.X XrX$.| { {  .v.] u.g.g.f.f.i.g.u.u.u.H u.[.H.6.3.S i.6.6.4.6.6.H h.7.g.g.6.7.6.S m 6.6.",
"0X0X0X0X0X0XyX0X9X9X0X0X0XyXqXqXyXyXyXyX0X0X0X0X0X9X0X0X0X0X9X9X9X9X9X0X9X9XwX9X9X9X9X9X9X9XwX9X9X9X9X9X9X0X9X9X9X0X9X9X9X0X9X9X0XyXuXuXuXuXuXuXuXuXuXuXuXuXpXpXpXgXgXgXfXfXfXfXBXBXBXBXBXBXfXW . + . - e 9 7 # 1 7 $ #     X + % $ - # + + .           & - 8 8 ; % o @ 5 { { Q j , d d j F t.u.b.f.u.a.a.b.b.a.].b.p.f.g F ] u.u.a.f.a.p.*XBXBXgXfXgXgXgXpXgXuXuXuXuXuXuXuXuXqXqXqX0X0X0X0X0XqXuXuXqXqXuXeXeXeXdXeXdXeXeXeXeXeXeXeX X.X XrX$.@.{ {  .d.] p.f.f.g.f.i.g.u.5.u.H g.h.5.h.4.3.g.5.6.4.6.6.H g.7.6.6.6.6.6.H A 6.5.",
"0X0X0X0X0X0XyX9X9X9X0X0X0X0XqXuXyX0X0X0X0X0X0X0X0X9X0X0X0X0X9X9X0X9X9X9X9X9XwXwX9X9XwX9XwXwXwX9X2X9X9X2X:X9X9X0X9X0X9X9X0X0X0X0XyX0XuXuXuXuXuXuXuXuXgXpXpXpXuXpXpXpXpXgXfXfXfXfXBXfXBXBXfXAX^ 8 # o o . . & . . . . % + +   X   $ 7 3 - $ % # + # % - = ; 8 8 8 8 ; = o 8 { { C d d f d g D H t.f.a.u.a.i.f.b.b.].].b.b.{ ] p.u.t.u.f.a.p.*XBXBXBXfXgXgXgXpXuXuXuXuXaXuXuXqXuXqXqXqX0X0X0X0X0XqXuXuXqXqXuXeXeXeXeXdXdXdXeXeXeXeXeXeX X.X XrX$.| { {  .d.] p.f.f.f.f.i.g.u.5.i.H H.4.M h.4.t.g.6.6.6.4.6.H g.i.6.i.5.6.6.5.m 6.5.",
"0X0X0X0X0X0X0X0X0X9X0X0X0X0X0X0X0X0X0X0X0X0X9X9X9X9X0X9X9X9X9XwXwXwXwX9XwXwX9XwX9X9X:XwX6XwX9X9X2X2X2X2X2X9X9X9X0X9X0X9X0X0X0X0XyXyXyXyXqXuXuXaXaXaXuXuXuXpXuXpXpXpXpXgXgXfXfXfXfXBXBX0XeX/.A B B , , , f 8 - + X       . X X X & % - - - = % - - ; 5 8 d d f f d 8 4 = 8 { { j d f j f g D F t.a.u.u.a.a.i.a.f.f.b.].].y.H f.p.t.u.f.a.p.$XBXBXBXgXgXpXpXgXpXuXuXuXuXuXuXuXqXqXqXyX0X9X9X9X0XuXuXuXuXqXuXeXeXeXeXeXeXeXeXeXeXeXeXeX X.X XrX$.| { {  .d.] p.f.f.f.f.g.g.u.5.6.H g.S 4.5.5.F i.6.6.6.6.6.H 6.6.5.5.6.6.6.6.J 6.5.",
"0X0X0X0X0X0X9X9X9X9X9X0X0XyX0X0X0X0X9X9X0X9X0X9X9X9X9X9XwX9X9X9X9X9X9X9X9X9X9XwX9X2X:X:X3X3X9X9X2X9X9X9X9X9X9X9X0X9X9X9X9X9X0X0XyXyXyXyXuXaXuXuXuXuXuXuXpXpXuXpXgXgXgXgXgXfXfXfXfXBXgX$ > p i i i c i B B , , , , O . X     X X . % - - 7 - ; ; - - 5 8 d f f j j j 8 8 8 j D j j j j g j D F t.a.y.u.a.a.i.a.a.f.f.f.].p.F p.f.f.a.a.a.p.wXfXBXgXgXgXpXpXpXuXpXuXuXuXuXuXaXqXuXqX0X9XwX0X0XqXuXuXuXuXuXuXeXeXeXuXqXuXeXeXeXeXeXeX0X X.X XqX$.| { Q  .d.] p.f.f.f.f.g.g.i.H g.H 3.g.g.4.g.J g.6.6.6.6.6.S 6.6.5.5.6.6.6.5.5.6.3.",
"0X0X9X0X9X9X9X9X9X9X9X9X9X0X0X0X0X0X0X9X9X9X0X9X9X9X9X9X2X9X9X9X2X:X9X9X9X9X9X9X2X2X9X2X3X9X9X9X2X:X:X:X3X9X0XwX9X0X9X9X9X9X9X9XyXyXyXyXuXuXuXuXuXuXuXpXpXpXuXgXgXgXgXgXgXfXfXfXBXBX>X& = B H H J c c B p p i : < i , , > > > = o @ ; ; 7 - 7 - - - 8 q d d d f j j f 8 8 d j j j j j j j D F t.a.t.y.a.a.a.a.a.f.f.f.b.] D u.f.x.a.a.a.p.c.$XfXfXgXgXpXpXpXpXpXuXuXuXuXaXaXaXaXyX0X3X:X0X0XqXuXuXuXuXuXuXqXeXeXuXuXuXqXeXeXeXeXeXqX X.X XwX%.| [ {  .s.] p.p.i.f.f.g.g.i.H i.H g.h.h.6.6.D g.i.5.4.6.5.S 6.5.6.5.5.5.6.3.H 6.3.",
"0X0X0X0X9X9X9X9X9X9X9X9X9X0X0X0X9X0X0X9X0X9X9X9X9X9X9X2X9X9X9X9X9X9X9X9X9X9X9X2X9X3X9X9X2X9X9X2X9X:X:X:X:X9X0XwX9X9X9X9X9X9X9X9XyXyXyXyXaXaXuXuXuXuXuXuXuXpXpXgXgXfXgXfXfXfXgXBXBX_ 9 X.u.S K K 5.S i : < i p i : i i i i u < < , @ = ; 8 ; - 4 = = 5 8 8 8 8 d j j f d 8 , f j f f j j j A F t.a.t.u.a.i.a.f.f.f.f.b.b.] D ] f.x.a.p.p.u.g B z.BXgXgXpXpXuXpXpXuXuXuXuXaXaXaXaXyX9X:X:X0XyXyXqX0XuXuXuXuXeXeXuXuXuXuXqXeXeXeXeXeXqX X.X X3X%.| [ Q  .p.] u.u.g.f.g.g.g.g.H 5.H i.6.5.6.6.H 6.5.5.4.4.5.S 5.5.5.3.5.5.6.H J 6.6.",
"0X0X0X9X9X9X9X9X9X9X9X9X9X9X0X9X9X9X9X9X9X9X9X9X9X2X2X2X9X9X9X9X9XwX9X9X9X9X9X2X9X:X9X9X9X9X9X9X9X9X:X:X9X9X9XwX9X9X9X9XyXyXyXyXyXyXyXyXaXuXuXuXuXuXuXuXuXpXpXpXgXgXdXfXfXBXBXBXfXK.G 5.6.5.6.5.6.5.J u : < p c i : < y y p p i i , @ ; 4 8 ; 5 - O ; 8 8 , d d d f d d , ; 8 d d d f j g A D ] a.t.u.a.i.f.f.f.f.f.b.x.u D ] a.x.f.p.p.] 8 O < @XfXgXpXpXuXuXuXuXpXpXpXpXaXaXaXyX:X:X6X0XyXyXqXqXuXuXuXuXuXuXuXuXqXqXuXeXeXeXeXeXeX X.X X3X$.| { {  .p.] u.u.i.f.i.g.i.i.H u.H h.h.h.6.5.3.6.5.5.4.4.5.H 5.5.5.5.5.5.5.J c 5.5.",
"9X9X9X9X9X9X9X9X9X9X9X9X9X9X9X9X9X9X9X9X9X9X9X9X9X3X3X9X9X9X9X9X2X9X9X9X9X9X9X9X9X3X2X9X9X9X2X2X9X9X9X9X9X9X9X9X9X9X9X9X9X9XyXyXyXyXyXyXaXuXaXuXuXuXuXuXuXpXgXgXgXgXfXfXfXBXBXBX-X[.5.K 6.5.M M M m c i < : < c c p a a a y y p v i , O ; 8 , ; , = = 8 , , 8 8 8 8 8 ; 4 ; , d d d d f g A D F i.t.a.a.i.f.f.f.f.f.b.] u l H p.f.f.p.p.] 8   o h fXgXgXpXuXuXuXpXpXpXpXpXaXaXaX9X:X:X9X0XyXyXqXqXuXuXuXuXuXuXuXuXqXqXqXqXeXeXeXeXqX%..X X3X$.| [ Q  .p.] u.u.i.a.i.g.g.u.H i.H i.i.5.6.i.D 5.5.4.5.4.5.F 5.5.6.5.i.S 5.A k 5.5.",
"9XyX9X9X0X9X9X9X9X9X9X9X9X9X9X9X9X9X9X9X9X9X9X9X9X9X:X:X3X9X2X2X9X9X9X9X9X9X2X9X9X9X9X9X9X9X2X:X9X9X9X9X9X9X9X9X9XyXyX9X9X9X9XyXyXyXyXaXaXaXaXuXuXuXuXuXuXpXgXgXgXgXgXgXfXfXBXtXg.y c c N M S N m m v p i u : < c m c a a a y c c p p , O 8 d ; ; ; = > ; ; 8 , ; ; ; ; ; ; 4 8 d d d f g j D H i.3.a.u.a.f.f.f.f.f.f.{ u A F p.f.a.u.t.] 8 X X , eXgXpXpXpXpXpXpXpXpXpXaXaXaXaXyX:X:X:X9XyXyXyXuXuXuXuXuXuXuXuXuXuXqXqXqXsXeXeXeXeX%.o. X3X$.| [ Q p.p.] } u.u.a.i.g.g.u.5.g.] g.g.h.5.i.F 6.5.4.5.5.5.F 5.5.5.5.5.S S J m 5.K ",
"9XyX9X9X9X9X9X9X9X9X9X9X9X9X9X9X9X9X9X9X9X9X9X9X9X9X:X3X:X:X2X2X2X2X9X9X9X9X:X:X9X2X2X9X9X9X:X:X9X9X9X9X9X9X9X9X9XyX9X9X9X9X9XyXyXyXyXyXyXyXaXaXuXuXpXpXpXpXgXgXgXgXgXgXfXBXeXg.5.5.6.K K M M M m m m m c p i < a m m y a a p c c c c B > h 8 8 = - O > ; ; , ; ; ; ; ; 4 8 4 4 , d d d j j l H u.3.i.u.a.f.f.f.f.f.x., u g D ] p.u.] ] G > X X S *XBXgXpXpXpXpXpXpXpXpXaXaXaXaXyX9X6X9X0XyXyXqXuXuXuXuXuXuXuXuXuXuXuXqXuXuXuXuXuXqX%..X X3X%.| [ D  .d.] } p.p.f.u.i.g.u.5.g.H 5.3.3.g.i.H 5.5.4.5.4.5.F 6.5.5.S H S H D A S 6.",
"yXyX9X9X9X9X9X9X:X9X9X9X9X9X9X9X9X9X0X9X9X9X9X2X9X9X9X9X9X2X9X2X2X2X9X9X2X9X9X9X2X:X:X9X9X9X2X2X9X2X9X2X2X2X2X9X9X9X9X6X6X9X9XyX9XyXyXyXyXyXaXuXpXpXpXpXpXpXgXgXgXgXBXBXBXfX[.6.5.5.m m m b b M M S m m v m m c a a m y c i z i m m m A B f > 5 4 O O ; ; ; , , ; ; ; ; ; 4 , , , 8 d d j l l ] t.t.i.i.f.f.f.f.f.f.f.* u p g D H ] ] ] g = X B 7.!.BXgXpXpXpXpXpXpXpXpXpXuXaXaXyX9X0X0XyXyXyXqXqXqXuXuXuXuXuXuXuXuXuXqXuXuXuXuXuXuX%..X X>X%.| | D  .p.] } p.i.f.u.g.i.u.u.g.} g.g.3.5.5.J 5.5.3.5.5.5.S 5.5.5.S H S 5.D A S 6.",
"9X9X9X9X9X9X9X9X2X2X9X9X9X9X9X9X9X9X0X9X0X0X9X9X9X9X9X2X:X2X9X9X:X:X:X:X9X3X:X9X9X:X:X:XwXwX9X9X2X:X2X2X9X2X2X9X9X9X9X6X9X9X9X9X9XyXyXyXyXaXaXuXpXpXuXgXgXgXgXgXgXgXBXBXfX`.6.6.S c c m b b b b N b b m m y c m m b v b N b m a a c m c B u % 5 ; = O * ; * , 8 ; ; ; ; ; : , f ; , d g j j D t.t.u.a.a.a.f.f.f.f.x.C < u u u j B D D A u * A ,.,.P.BXgXgXpXpXpXpXpXpXpXpXaXaXaXyX9X0X0XyXyXyXqXqXuXaXaXuXuXuXuXqX0XuX0XuXuXuXuXuXuX%..X X:X%.| [ Q  .p.{ u.p.p.p.u.f.u.u.5.u.H g.g.g.S 5.A 5.5.4.5.5.5.H 5.5.H S 5.S S D J S 6.",
"6X9X6X9X9X9X9X9X9X9X9X9X9X9X9X9X:X9X0X9X0X9X9X9X9X9X2X2X:X:X:X:X:X2X:X:XwX3X3XwX9X:X:X:XwXwXwX2X:X:X:X:X2X9X9X9X9X9X9X9X9X9X9XyX0X0XyXyXyXyXaXuXuXuXpXpXgXgXpXgXgXBXBXBXwXg.5.S M S S m b b b b b b b b b b y m v M N b M M S m p < i m c i < % O O O O * * ; d 8 , , , , , j f = ; d g j g D t.t.u.u.u.a.f.f.b.f.f.: : z y p p B p m m M >.6.,.1.f.fXBXgXgXpXpXpXpXpXpXaXaXaXaXyX0X0X0X0XyXyXqXqXuXaXaXuXuXuXuXaXuX0X0XuXuXuXuXuXuX%..X X>X%.| [ Q  .p.{ t.u.p.p.p.f.i.u.u.u.H g.g.g.J 5.A i.5.4.5.5.5.H 5.5.H S 5.S K A J S S ",
"6X6X6X6X9X9X9X9X9X9X9X2X9X9X9X9X:X9X9X9X0X9X9X9X9X9X:X:X:X:X:X:X:X2X9XwXwXwXwX:X2X9X:X:X9X2X2X2X2X2X:X:X2X9X9X9X9X9X9X9X9X9X9X9XyXyXyXyXyXyXaXuXpXpXpXpXpXgXgXgXgXBXgXfX[.K M S S S S S b b b b N N N N N b b c y y M M M M K M J c a i c c p , O O O O O * @ > d 8 8 , , , g , = ; 8 j j j F ] t.t.u.u.a.f.b.b.].D : : z a y y N b M =.<.:.,.,.1.7.wXBXMXMXgXpXpXpXpXpXpXaXaXaXyXyX0X0X9X0XyXqXqXuXuXaXuXuXuXuXuXuXqXqXuXuXuXuXuXuXo..X X>X%.| [ Q  .p.{ } u.p.a.i.f.f.u.u.i.H f.g.g.H 5.A i.5.4.6.4.5.H 5.5.H H 5.S K A F S S ",
"6X6X:X:X6X6X9X9X6X2X2X2X6X:X6X6X9X9X9X9X9X9X2X2X9X9X9X:X:X:X:X3X2X2X2XwX:X3XwX9X9X9X:X:X2X2X2X:X:X:X2X9X2X9X9X9X6X6X6X9X9X9X9XyXyXyXyXyXyXaXaXuXpXpXuXpXpXgXgXgXgXgXBXI.6.K K 5.S S S m m b b N N N M M M M M m N m a M M N M M M m J i a p c i O * ; = ; > ; ; ; 8 5 > = o J B @ ; d D D H ] t.t.t.u.i.i.f.b.].p.* : : z y y y N N =.=.;.<.:.2.1.1.=XBXBXMXgXpXpXpXpXpXpXaXaXaXaXyX0X0X9XyXyXyXqXuXuXuXuXuXuXuXuXuXuXuXuXuXuXuXuXuXo..X X$X%.[ [ Q  .p.{ } p.p.a.i.f.g.u.i.i.G g.g.5.3.5.B i.5.4.6.4.5.S 5.5.H S 5.S 5.H S S H ",
":X:X:X:X6X6X6X6X:X:X9X9X9X9X9X6X9X9X9X9X6X:X:X9X9X9X:X:X:X:X:X:X2X9X2X2X2X2X9X9X9X9X2X2X:X:X:X:X2X2X2X9X9X9X9X9X6X6X9X9X9X9XyXyXyXyXyXyXaXaXuXpXpXpXpXpXpXgXgXgXgXBX*Xg.5.5.5.5.m m v v b b b N N N N M M M M M N M J z M >.n M M m M M p a p i < @ ; 8 d d d f 8 = @   X X p g . o > j D u.u.t.t.t.a.a.f.].].[.g * * : z y y y b N n n ;.<.,.,.1.,.*XBXBXMXgXpXpXpXpXpXpXaXaXaXaXyXyXyX9X9XyXyXaXaXuXuXuXuXuXuXuXuXuXuXqXuXuXuXuXqXo..X X$X%.| [ Q  .p.{ } p.a.a.g.f.g.u.i.g.H H 3.J 5.H A i.5.4.6.5.5.F 5.5.3.H 3.S 5.J S 4.5.",
":X:X:X:X:X6X6X6X:X:X:X6X9X9X6X9X9X9X6X9X9X:X:X2X9X6X:X:X9X9X9X9X2X2X2X2X9X9X9X9X9X9X2X:X:X:X:X:X2X9X2X9X:X:X2X9X6X6X9X9X9X9XyXyXyXaXaXaXaXaXpXpXpXpXpXpXpXgXgXgXgXdXf.5.K K K K v v v v v b N N N n N N N n M M M M M m < M >.M M M M M M c u p i * O f D C j j d o X X X X u i . . . O f C A B D ] p.f.].].].H a : * : < y a y b N n =.;.;.<.<.;.1.6.#XgXgXpXpXpXpXpXpXpXaXaXaXaXyXyXyX9X9XyXyXaXaXuXuXuXuXuXuXuXuXuXuXqX0XqXuXuXqXo..X X$X%.| [ Q  .p.' } p.f.p.a.f.g.u.i.i.] g.J J u.H D i.5.4.4.4.3.F 5.3.5.5.5.3.5.J 5.5.5.",
":X:X:X:X:X:X:X:X:X:X:X:X6X6X:X6X6X9X9X9X9X6X9X9X6X9X:X:X2X2X9X9X2X2X:X:X9X9X2X9X:X:X:X:X2X2X:X2X2X2X2X9X:X:X:X6X6X6X9XyXyXyXyXyXyXaXaXaXaXpXpXpXpXpXpXpXpXgXgXgXgX&X5.M K K K M v v v v b N N N N n n n n n n M M M M M m a M >.K N m M M S p i p < o 5 { { D j = X X X X X : : . . . . & O O O O = > j ] f.u.B i < * : < a a y y N b =.=.=.=.n <.;.;.,.@XgXpXpXpXpXpXpXpXpXaXaXyXyXyXyXyXyXyXyXaXuXaXaXuXuXuXuXuXuXuXqXuXqXuXuX0XaXo..X X1X%.[ { C  .s.' u.p.f.p.a.f.a.} u.i.G u.f.g.u.5.A u.5.4.4.4.5.F 3.5.3.5.5.5.5.D S 5.5.",
":X:X:X:X:X:X:X:X:X:X:X:X:X6X:X6X:X6X9X9X6X6X9X6X6X9X2X2X2X2X9X9X:X2X:X:X9X9X2X2X2X:X:X:X9X9X2X2X2X2X9X9X2X2X:X6X6X6XyXyXyXyXyXyXyXaXaXaXaXpXpXpXpXgXpXgXpXpXgXgXBXL.K K 5.K S m v v v v v N M n n n M M n ;.M M M M >.M >.m i M >.>.M N M S S p i i * o d ] H l O X X X X X * * o o @ = % . o + o O # % % C G i i < * : y y s y b b b b b n =.<.1.,.;.n H gXgXgXpXpXpXpXpXpXaXaXyXyX9XyXyXyXyXyXaXuXaXaXaXuXuXuXuXuXuXqXqXqXuXuXuXaXo..X X1X%.[ [ C  .s.' p.p.p.p.f.f.p.} u.i.G 5.u.5.3.H A i.3.4.3.4.5.J 3.3.H 3.5.3.5.A S S S ",
":X:X:X:X:X:X:X:X:X:X:X:X:X6X6X:X:X:X:X6X9X9X9X6X9X9X2X:X:X2X2X2X9X9X9X:X2X2X9X9X2X:X:X2X2X2X2X2X2X2X2X2X:X2X9X9X6X9X9XyXyXyXyXyXyXaXaXaXaXaXpXpXpXpXpXpXpXgXgXgXeX5.K K K S m m c v v v v N M M n M n n n n >.>.M n M >.M >.i v M >.>.>.b M M M c i u * X f ] A o X X X X X u g A i g j C q ; @ + + # # % G i : a < * : a b N y =.=.N y n n ,.1.,.1.<.,.[.BXMXgXpXpXpXpXpXpXaXaXyX9X6XyXyXyXyXyXaXaXaXaXuXuXuXuXuXuXuXuXqXuXuXuXuXaXo..X X1X%.[ [ C  .p.' } p.p.p.f.f.p.] i.i.G u.J J 5.H G g.3.4.4.4.5.A 3.3.H 3.3.3.5.A S S H ",
">X:X:X:X:X:X:X:X:X:X:X:X:X6X6X:X:X:X6X6X6X6X9X6X9X9X2X:X:X2X9X2X9X9X6X:X2X2X9X9X9X:X:X:X:X2X2X:X:X2X2X:X:X:X9X9X6X9X9X9XyXyXyXyXyXyXyXaXaXaXpXpXpXpXpXpXBXgXBXgX&XK K K K m m c v v v v b N M M n M n n n ;.>.>.>.>.n M n M M < M >.>.>.6.M N M M m a < o X d ; X X X X X O c m S M 4.S F F G C h 7 % @ $ ; : : a p : < a y b y N N =.;.;.<.,.<.;.<.,.1.U.gXgXgXpXpXpXpXpXpXaXaXyXyX6X7XyXyXyXaXaXaXaXaXaXuXuXuXuXuXuXuXqXqXqXuXuXyXo..X X%X%.&.[ C  .p.' p.p.p.f.f.f.p.H u.i.G 5.u.i.3.3.D i.3.4.4.S 5.A 3.3.3.3.3.5.5.A S S S ",
":X:X:X:X:X:X:X:X:X:X:X:X:X:X:X:X6X:X:X:X6X6X6X6X6X9X:X:X6X6X9X6X9X9X6X:X:X2X2X2X9X2X:X:X:X:X2X:X:X9X:X:X2X2X9X9X6X6X6X9X9X9X9XyXyXyXaXaXaXaXaXpXpXpXpXgXgXgXBXBXk.S K K S m c c v c c v v b N M M M M n n M >.>.>.n >.n ;.=.M m a M n >.>.6.M N M M c a ; o X X X X X X X i m m S >.6.>.4.5.t.t.] ] ] { C = : : : y p a < < < a a y b ;.<.<.;.;.;.;.<.,.&XMXMXgXgXgXpXpXpXpXaXaXyXyXyXyXyXyXaXaXaXaXaXaXaXuXuXuXaXuXuXuXaXqXqXqXqXyXo..X X%X%.[ { C |  .{ } p.p.d.f.} p.H u.i.] H g.i.S 3.B i.3.S S S 3.A 3.5.3.3.3.5.5.A S S J ",
":X:X:X:X:X:X:X:X:X:X:X:X:X:X:X:X:X:X:X:X6X6X6X6X6X6X:X:X6X6X6X9X9X9X:X:X:X2X2X2X9X9X:X:X:X:X2X2X:X9X:X:X2X2X2X9X6X6X6XyXyXyXyXyXyXyXaXaXaXaXaXpXpXpXpXMXBXBXBXwXS S S S S A A m c c m b b b b N M M M n n >.>.>.>.n n n >.;.M M p b n >.>.>.>.b M M m c u O X X X X X X o c m S b =.>.>.>.6.6.5.u.t.a.x.f., : a a y y m m m v v b b =.;.;.<.;.=.n =.:.1.`.MXMXMXgXgXpXpXpXpXaXaXyXyXyXyXyXyXaXaXaXaXaXaXaXuXuXuXuXuXuXaXuXqXqXqXqXyXo..X X%X%.&.[ Q {  .^ } u.p.f.f.D p.] g.p.G J u.H H 5.B i.3.S S S H A 3.3.3.5.3.5.i.F i.f.f.",
":X:X:X:X:X:X:X:X:X:X:X:X:X:X:X:X:X:X:X6X6X6X:X:X6X6X6X6X:X:X:X:X:X6X:X:X2X2X9X9X9X9X:X:X:X:X9X9X9X:X:X:X:X:X2X:X6X6X6XyXyXyXyXyXyXyXaXaXaXaXaXpXpXpXgXBXgXBXBX@XS S S m m B G m m m m m b N N N N M M M >.>.>.>.>.>.>.>.>.>.M M M i m n >.>.>.>.m m m c m a o X     X X , c m A m M =.>.6.6.6.6.6.i.g.f.u.B : y a a a a y y y a y y b b b n n n =.,.,.,.g.BXgXgXMXpXpXpXpXpXaXaXaXyXyXyXyXyXaXaXaXaXaXaXaXaXuXuXuXuXuXuXaXqXqXqXuXaXo..X X%X%.[ [ Q |  .Q p.p.p.p.f.G } } g.f.G H H A H 3.g i.4.S S S 3.A 3.3.3.3.5.5.u.f.H G B ",
">X:X:X:X>X:X:X:X:X:X:X:X:X:X:X:X:X:X:X:X:X6X:X6X6X6X6X6X:X:X:X:X:X:X:X:X:X2X9X9X9X9X:X:X:X:X9X9X9X9X:X9X:X2X9XyXyXyX6XyXyXyXyXyXyXyXaXaXaXaXaXaXpXpXpXMXMXBXBXl.S S M m c c p y y y m b b N N M n M n M >.>.>.>.>.>.>.>.>.M M n >.J y n ;.>.>.>.M c a m m v < o   X   X u p c p N M =.=.=.>.6.6.,.6.7.h.S S : p y y y y y y y y y b n n n b n ;.:.:.,.n 6.BXNXgXMXpXpXpXpXpXpXaXaXyXyXyXyXyXyXyXyXaXaXaXaXaXuXuXuXuXuXaXaXqXqXqXqXyXo..XOX+X%.[ [ Q | } Q p.p.p.p.p.] ] } g.p.D H A g 5.H B u.3.S S S 3.A S S S S S S p } f.f.L.",
":X>X:X:X>X:X:X:X:X:X:X:X:X:X:X:X:X:X:X:X:X:X:X:X:X6X:X:X:X6X:X:X:X:X:X:X2X2X9X9X9X9X9X2X2X9X9X9X9X2X9X2XyX9X9XyXyXyXyXyXyXyXyXyXyXyXaXaXaXaXaXaXaXaXpXpXgXBXgX} S J m c c c c c m J m b b y y b M >.n >.>.>.>.>.>.;.>.>.>.M n n >.>.y m n ;.>.>.>.K p < p y i *   X X . p m m M M ;.>.=.=.=.;.<.,.,.1.7.6.y : : z y b b b b b b b =.=.=.n ;.<.:.:.:.>.n 6.BXNXgXgXpXpXpXpXpXaXaXaXyXyXyXyXyXaXaXaXaXaXaXaXaXaXuXuXuXaXaXaXuXqXqXqXyXo..XXXXX&.[ { Q |  .Q p.p.p.p.p.u.H u.a.p.D H p F H 3.A u.4.S S S 3.k S S S H J S p i p p g ",
":X:X:X:X:X:X:X:X:X:X:X:X:X:X:X:X:X:X:X:X:X:X:X:X:X:X:X:X:X:X:X:X2X:X:X:X2X2X9X9X9X9X9X9X2X9X9X9X9X9X9X2XyXyXyX9X6X9XyXyXyX9XyXyXyXyXaXaXaXaXaXaXaXpXpXpXMXMXBX} J m c m c c c c c m m b b b M N y b M n >.>.>.>.;.;.>.>.>.>.n n M M m m n ;.>.>.>.K S , O i p <     X A K M N M N =.<.,.<.=.=.;.1.N.1.<.N.,.K < < a y y b b b n ,.n n =.<.,.<.<.;.n n ;.[.NXgXgXMXpXpXpXpXaXaXaXyXyXyXyXyXyXyXaXaXaXaXaXaXaXaXuXuXuXaXaXaXuXqXyXqXyXo..X1XXX&.@.[ Q |  .D u.p.a.d.u.u.H u.a.a.A 5.p u.H H D 5.3.J S S H A S S S H S S J A g p p ",
":X:X:X:X:X:X:X:X:X:X:X:X:X:X:X:X:X:X:X:X:X:X:X:X:X:X:X:X:X:X:X:X9X9X9X9X:X6X:X:X:X9X9X9X2X9X:X:X:X:X:X2X9X9X9X9X6X6X6XyXyXyXyXyXaXaXaXaXyXaXaXaXpXaXpXpXgXgXBX} m m v S c c i y y c v b N >.>.>.>.b b n b n >.,.>.;.n n >.>.>.n =.M M a n n ;.>.>.>.K J ; o : f % X O 6.M M n ;.;.;.;.<.,.,.;.<.N.N.,.1.,.N.N.S < z y b b b b b ,.,.n b ;.;.;.n b n ;.:.].NXNXgXgXgXpXpXpXpXaXiXyXyXyXyXyXyXaXaXaXaXaXaXaXaXaXqXuXaXaXuXuXuXuX0XyXyXo..X%XXX&.@.{ C {  .Q } p.a.p.} u.H u.f.d.C u.A i.F H A 5.4.J 4.S 3.A H H S S S A J J J m A ",
":X:X:X:X:X:X:X:X:X:X:X:X:X:X:X:X:X:X:X:X:X:X:X:X:X:X6X6X:X:X:X:X6X9X:X:X:X:X6X:X:X:X9X2X2X2X:X:X:X2X9X2X9X9X9XyX6X6XyXyXyXyXyXyXaXaXaXaXaXaXaXaXaXpXpXpXgXgXBXs.m m v S A c i y y y v v b M >.>.>.>.M N N b b M >.<.n n ;.M >.>.n n M p b n ;.>.M M K M c = o O = O H >.>.M n ;.;.<.<.,.,.,.<.:.N.2.,.,.N.N.N.c z z y n n b n n n ,.1.,.:.<.=.=.;.<.:.1.[.BXNXgXgXgXpXpXpXpXaXiXyXyXyXyXyXyXaXaXaXaXaXaXaXaXaXqXaXaXaXaXuXuXuX0XyX:Xo..X%X X&.+.C j {  .Q } p.f.p.} u.H p.f.d.B u.u.u.F F A 5.3.S 4.S H A H H S H H H 4.S J S J ",
":X:X>X:X:X>X:X:X:X:X:X:X:X:X:X:X:X:X:X:X:X:X:X:X:X:X:X:X:X:X:X:X:X:X:X:X:X:X:X:X:X:X2X2X2X9X:X:X:X:X:X2X2X2X9X6X6X:XyXyXyXyXaXaXaXaXaXaXaXaXaXaXaXpXpXpXgXgXBXG m m c K c p p p p y v b b N n >.>.>.>.M M N N N y M ;.y b n n n =.n N m a N n >.M N M M M i O o o B 6.6.M n M n ;.;.;.:.:.:.:.2.C.N.N.N.N.C.,.: z z b n n n n n n n =.,.N.N.1.1.1.1.N.N.H.BXNXMXMXgXgXpXpXpXaXiXaXyXyXyXyXyXaXaXaXaXaXaXaXaXaXaXaXaXaXaXaXqXuX0X0X:XE .X%XXX[ | ^ j {  .Q } p.p.a.} u.H p.} d.B u.f.3.H D A 5.4.J S S H A H H H H 3.H 4.S 4.4.S ",
":X:X:X:X:X>X>X:X:X:X:X:X:X:X:X:X:X:X:X:X:X:X:X:X:X:X:X:X:X:X:X:X:X:X:X6X:X:X:X:X:X:X2X2X9X9X:X:X:X:X:X2X:X9X9XyXyX6XyXyXyXyXyXaXaXaXaXaXaXaXaXaXaXpXpXpXgXMXdXm m m S K c i p p y v v b b b N N n M >.>.>.>.>.6.>.N n n M b b n n n M y a y N M N N M M M m : o o B M N M M M M ,.<.:.:.2.2.C.C.C.C.N.C.C.N.M i z a n n n n n n n n n n =.=.;.;.;.;.,.N.[.NXNXMXMXgXpXpXpXaXaXiXyXyXyXyXyXyXyXaXaXaXaXaXaXaXaXaXqXaXaXaXaXqXuX0X9X:XE .X%X X[ [ { j [ | C } p.u.p.} p.] D D f.B i.g.5.H A A 3.S J S S H A H H H S H S 4.4.4.4.S ",
":X:X:X:X:X:X:X:X:X:X:X:X:X:X:X:X:X:X:X:X:X>X>X>X>X:X>X>X:X:X:X:X:X:X:X:X:X:X:X9X:X:X:X:X2X2X2X:X:X:X:X:X:X:X:X6XyXyXyXyXyXyXyXyXaXaXaXaXaXaXaXaXaXpXpXpXgXgX0Xm S S 6.K c i p y y v m b N N n n M n >.>.>.>.,.,.,.<.>.>.>.>.>.>.n n n y a : b m N N N N M M p * O i y y v b b >.,.1.1.2.2.N.C.2.C.N.C.C.C.C.Z.Z.< y >.;.;.;.;.;.;.;.;.;.;.;.;.;.;.;.<.N.&XBXMXMXMXMXgXpXpXpXaXaX7X7XyXyXyXyXiXyXyXyXaXaXaXaXaXqXqXaXaXaXaXqXqX0X9X:XE .X1XXX&.{ Q j |  .C } u.u.p.p.p.} ] G p.G u.A 5.F D A 3.S S S J H A H H S H H S 4.J J J M ",
":X:X:X:X:X:X:X:X:X:X:X:X:X:X:X>X>X>X:X>X>X>X>X>X>X:X:X:X:X:X:X:X:X:X6X:X:X:X2X9X:X:X:X:X:X9X9X:X:X:X:X2X:X:X:X:XyX9XyXyXyXyXyXyXaXaXaXaXaXaXaXaXaXpXpXpXpXpX0XJ S M 6.S c p p y y v m b N N N n n n n n M M ;.;.;.>.>.>.>.>.>.>.>.n M M N a a m m m b b M >.K : : a z a y N >.<.;.,.1.:.N.N.2.2.N.C.C.C.C.B.B.V.p z b n ;.:.:.:.:.:.:.:.:.:.:.:.<.;.<.1.eXMXMXNXMXMXgXpXpXpXaXiX7XyXyXyXyXyXyXyXaXyXaXaXaXaXaXaXaXaXaXaXaXyXyX0X9X:XE .X1XXX&.{ Q j |  .Q } } p.p.p.u.} p.} } G A p 5.H D A 3.S J S J H A H H S S H J 4.J m m m ",
":X:X:X:X:X;X:X:X:X:X:X:X:X:X>X>X>X>X>X:X>X>X>X>X>X:X:X:X:X:X:X:X:X:X:X:X:X:X9X9X9X6X:X:X2X9X9X9X:X:X:X6X9X6X:X6X9X9XyXyXyXyXyXyXaXaXaXaXaXaXaXaXaXpXpXpXpXgXgXS M K 5.S c p i y y v m N M M N n M n n >.>.>.>.,.,.<.>.<.>.>.>.>.n n M n M M u y m m y y N M K c i m M >.n n n n n ;.;.<.1.N.2.N.N.C.C.C.C.B.B.Z.a a a b b n :.:.1.1.2.2.:.:.:.2.:.:.:.[.BXNXMXNXMXMXMXpXpXpXaXiX7XyXyXyXyXyXyXyXyXaXaXaXaXaXaXyXyXaXaXaXuXyXyXyX9X;XE .X1X X&.[ Q j  . .Q } } p.u.p.p.u.p.p.] B p p 5.H D A 3.J J J J H A S S H S S J S J J m J ",
";X:X:X:X:X:X:X:X:X:X:X:X:X:X:X:X:X>X>X:X>X>X>X>X>X>X>X:X:X:X:X:X:X:X:X:X:X:X2X9X6X6X6X9X9X9X9X9X:X:X:X6X9X6X6X6X9X9X9XyXaXyXyXyXyXaXaXaXaXaXaXaXaXpXpXpXpXgXBX} M 6.K A c p i y y v m N M M M M K K >.>.>.>.>.>.>.>.>.>.>.>.>.;.n n M M n M S a p p y y v N v S a i S >.>.;.;.n n n b n <.:.2.B.B.C.C.C.C.C.B.6.a y a z v b ;.:.2.1.2.2.2.2.:.2.:.:.:.'.BXNXMXMXNXMXMXpXpXpXaXiX7X7XyXyX7XyXyXyXaXaXaXaXaXaXaXaXaXaXqXaXqXyX0X9X2X>XE .X1XXX%.[ Q j  .| Q } p.p.p.u.p.} p.p.] d A p H F D A H J J J F F A S S S S S 4.6.J A k s ",
";X:X:X:X:X;X;X;X:X:X:X:X:X:X:X:X:X:X>X:X>X>X>X>X>X>X>X>X:X:X:X:X:X:X:X:X:X:X:X:X6X6X6X9X9X2X2XyXyX:X:X9X6X:X:X6XyXyXyXyXyXyXyXyXyXaXaXaXaXaXaXaXaXaXpXpXpXpXfXS S >.S m i i p p v v m b N M M M M M M ;.>.>.>.>.;.;.;.n ;.>.;.n n n n n n n m p < a a y a m v m < < z a b n >.<.;.;.n b n ;.1.V.V.C.C.C.C.C.B.K < v y p z b ;.<.;.:.:.:.2.2.:.:.:.:.:.[.gXBXNXMXNXMXMXpXpXpXaXiXyX7X7X7X7XyXiXiXaXaXaXaXaXaXaXaXaXuXqXaXyX0X9X9X2X1XE .X1X X%.[ Q h | [ Q } } p.} p.u.} p.p.} i u.F H J A A H S J J J H A S 3.g.H.{.|.|.A i p p ",
":X:X:X:X:X:X;X:X:X:X;X:X:X:X:X:X>X>X>X>X>X>X>X>X>X>X>X>X>X:X:X:X:X:X:X:X6X:X:X:X6X6X:X:X:X:X2X:X6X:X6X6X:X:X:X6X9XyXyXyXyXyXyXyXyXyXaXaXaXaXaXaXaXpXpXpXpXgXdXJ S S S c i p p p c v b b N b N N n n n n n n ;.;.;.;.n n n n n n n =.n n n M M y < z a i a i i a m J y y i a a >.,.,.>.=.n n =.B.V.B.C.C.C.B.B.4.< m a s y M ;.;.;.;.:.:.:.:.:.:.:.:.:.1.&XBXNXMXMXMXMXpXpXpXaXyX7X7X7X7X7XyXiXiXaXaXaXaXaXaXaXaXaXaXaXaXyX9X9X:X:X1XE .X1X X%.[ Q h | | Q } } p.} a.p.u.} p.} B u.} F F D D H S J J 3.i.h.H.{.{.{.{.H.H.h.5.3.4.",
":X:X:X;X:X:X;X;X;X;X;X;X:X:X:X>X>X>X>X>X>X>X>X>X>X>X>X>X>X>X:X:X:X:X:X:X:X:X6X6X6X9X:X:X:X:X2X:X:X:X:X:X:X:X:XyXyXyXyXyXyXyXyXyXyXyXyXaXaXaXaXaXaXpXpXpXMXBX0XA J J J i i i p y v v v v v b b N M n n n n n n n n n =.>.>.>.=.n >.>.>.M M n b i a : a a a < i y >.M y m J m c p N N.1.:.<.=.n ;.N.V.V.C.C.B.Z.m a s b a y n n =.;.;.<.:.:.:.:.:.:.:.:.1.7.qXNXMXMXMXMXpXpXaXiXyX7X6X7XyXyXyXyXiXaXaXaXaXaXaXaXaXaXaXaXyXaX9X:X:X:X1XE .X1X+X+.[ ^ h [ | Q  . .p.] p.p.u.G } } G i.u.D H D D h.H.{.|.|.|.|.{.{.{.{.H.Z.H.7.7.{.{.",
":X;X:X:X:X:X;X:X:X:X:X;X;X;X;X;X>X>X>X>X>X>X>X>X>X>X>X>X>X>X:X:X:X:X:X:X:X6X6X6X6X:X:X:X:X:X:X:X6X:X:X6X:X:X:XyXyXyXyXyXyXyXyXyXyXyXyXaXaXaXaXaXpXpXpXpXgXMXaXB g B B p y p p y v v v m m m b b N N n N n n n ;.;.>.,.,.>.>.n n M n n n n b b y < * * < a : a p >.>.m y S S B < a n 1.N.1.,.<.n ;.C.V.V.C.C.Z.a y y b b y y b n ;.;.<.2.:.:.:.:.:.2.2.2.1.&XMXMXMXMXMXpXpXaXiX7X6X6X6X7XyXyXyXiXyXaXaXaXaXaXaXaXaXyXyXyXyX9X:X:X>X1XE .X1X+X+.[ ^ h | | C  .} p.] p.p.} ] p.] G H u.D H F i.{.|.|.|.|.|.|.|.|.|.|.|.|.|.|.|.{.{.",
";X;X:X:X:X:X:X;X;X:X:X:X:X:X:X>X>X>X>X>X>X>X>X>X>X>X>X>X>X:X:X:X:X:X:X6X:X6X6X6X:X:X:X:X:X:X:X:X:X:X6X:X6X:X:XyX6XyX6XyXyXyXyXaXaXaXaXaXiXaXaXaXpXpXpXMXMXMXgXi p B g c c c c c c v v m M M M b b M M K M M >.>.;.<.,.,.;.n =.>.>.>.>.M M M N a : * * * z a < z N >.M b v J B p N b n N.B.N.1.,.;.;.C.V.V.B.Z.a a y N N N b y s n ,.:.2.1.:.:.:.:.:.:.:.,.).NXMXMXMXMXpXpXaXyX7X7X7X7X7XyXyXyXiXyXyXaXaXaXaXaXaXaXyXyXyXyX9X:X:X:X1XE .X1XXX&.[ ^ h | | Q } ] p.} p.p.} ] u.} g p H F H D i.{.{.{.{.{.{.H.H.{.{.{.{.{.{.{.{.{.|.",
";X;X:X:X:X;X:X:X:X:X:X:X:X:X;X>X>X>X>X>X>X>X>X>X>X;X>X>X;X:X>X:X:X:X:X:X:X:X:X:X:X6X:X:X:X:X:X:X:X6X6X6X:X6X6X6X6X6XyXyXyXyXyXaXaXaXaXaXiXaXaXaXaXpXpXMXMXMXgXf i p B i c c c c c m m N N m M M M M M N N M K M N ,.,.>.n >.>.>.>.>.>.>.;.n M a : * O O : y a a a >.>.N p a c M M M N <.N.B.N.B.,.;.C.V.V.V.1.y a y b n n n n b b n N.N.2.:.:.:.:.:.:.1.1.].NXMXMXMXMXpXpXaX7X7X7X7X7X7XyXyXiXiXyXyXaXaXaXaXaXaXaXaXaXyXyX9X:X:X>X1XE .X1X+X+.^ Q h | | C ] ] p.} p.p.u.} u.] f A A H F D i.{.{.{.{.{.{.{.{.{.h.h.h.h.{.h.h.h.h.",
";X;X;X:X:X;X:X;X:X:X:X:X;X;X;X;X;X;X;X>X>X>X>X>X>X>X:X>X:X>X>X:X:X:X:X:X:X:X:X:X:X6X:X:X:X:X:X:X:X6X6X6X:X6X6X6X6XyXyXyXyXyXyXyXaXaXaXiXiXaXaXaXaXpXpXpXMXMXgXD u u g p p i p c c c m N N M M M b N N N N N N b M ,.>.;.>.>.>.>.>.>.>.n n >.M b i < : * i y y p i v >.M J u m M M M n :.:.C.B.B.B.:.2.V.V.V.>.y a y b b b n n n n n <.:.2.:.:.2.2.2.2.1.1.'.NXMXMXMXMXpXpXaXyX7X7X7X7X7XyXyXiXiXyXyXaXaXaXaXaXaXaXaXaXyXyX9X:X>X>X1XE .X1X+X&.^ Q h [ [ C ] } u.p.u.] u.] } } B H A ] D D i.{.{.{.{.{.{.{.{.n.h.H.h.{.{.n.n.n.n.",
";X;X;X:X:X:X:X:X:X:X:X;X;X;X:X:X;X:X>X>X>X>X>X>X>X>X;X>X:X:X>X:X:X:X:X:X:X:X:X:X6X9X:X6X6X6X:X:X6X:X6XyX6X:XyXyX6XyXyXyXyXyXyXyXiXaXiXiXaXpXaXaXaXpXpXpXMXMXdXH i < < p p i p p c c b N m m m m m m N N N N b N >.,.;.>.>.>.>.>.>.>.n n ;.>.n M m u < : m y v m c y >.>.c p a N M n =.<.:.:.2.C.B.B.C.C.V.Z.y y y a N n b b n n n ;.;.:.:.:.:.2.2.2.2.1.1.*XNXMXMXMXpXpXpXaXyXyX7X7X7X7XyXyXiXiXyXyXaXaXaXaXaXyXyXaXaXyXyX9X:X>X>XOXE .XOX+X&.[ ^ h [ [ Q ] } } p.] G p.] } } G p.F H A A g.{.{.{.{.{.{.n.n.n.h.h.h.{.{.n.n.{.{.",
";X;X;X:X;X,X,X,X;X:X:X;X:X:X:X:X;X;X>X>X>X>X>X>X>X>X>X;X:X>X>X:X:X:X:X:X:X:X:X:X:X6X:X6XyX6X6X6XyXyX6X6X6X6XyXyX6XyXyXyXyXyXyXyXaXaXiXiXaXaXaXaXaXpXpXpXMXMXpX} c < : < i p p p c v m N N m m c p v N b N N N M >.,.,.,.>.>.>.>.>.n n n <.>.;.M N < : < M y M M m y b >.c m y b =.=.=.<.:.:.2.2.C.B.C.C.C.8.y y b y b n b b b n n ;.:.:.:.:.:.2.1.N.N.1.1.wXNXMXMXMXpXpXpXaXyXyX7X7X7X7XyXiXiXiXyXyXaXaXaXaXaXaXyXaXyXyXyX6X:X>X>XOXE .XOX%X&.[ ^ h | [ Q ] ] ] p.] ] u.H } } G u.u.A A A h.{.{.{.{.{.h.{.{.{.{.h.n.n.n.h.h.h.h.",
";X;X;X;X,X,X;X:X;X;X;X;X;X:X>X>X>X>X>X>X>X>X>X>X>X;X>X>X:X;X;X:X:X:X:X:X:X:X6X6X:X6X6X6XyX6X6X6X6XyXyX6X:X6X6XyX6XyXyXyXyXyXyXyXaXaXiXiXaXaXaXaXaXaXpXpXpXMXBXp.B u : : < p p p c v m N m m c p p c v b N N M M >.<.,.<.>.>.M n n n n <.<.;.;.N m * : c M N M M M m y <.>.>.N y n ;.;.<.:.:.2.C.C.C.V.V.V.m y y b b y N n N b b n ;.:.:.2.N.N.N.N.1.1.1.1.uXNXMXMXMXpXpXpXaXiXyX7X7X7XyXiXiXiXiXyXiXyXyXaXaXaXyXyXyXyX9X9X6X:X>X>XOXE .XOX%X&.` ^ h [ [ Q ] ] ] p.} H } H ] } g A } D A A h.{.{.{.{.{.n.{.{.{.{.n.n.n.n.h.h.h.7.",
";X;X;X;X,X,X,X,X;X:X:X:X;X:X:X>X;X:X>X>X>X;X;X>X>X;X>X>X:X;X:X;X:X:X:X:X:X6XyX6X:XyX6X6X6X6X6X:X6X9X:X6X:X:XyXyX6XyXyXyXyXyXyXyXaXaXiXiXiXaXaXaXaXaXpXpXMXMXMX@XB i u : : u p y c v m N m c p p p y v v b M M N >.,.,.,.>.>.n n n n =.,.<.;.;.M * * a M >.>.M M M m y ;.:.<.N y b >.;.;.:.:.2.C.C.2.B.V.,.< v b b b y y n =.n N b ;.N.C.N.N.N.N.N.N.1.1.g.BXNXNXMXMXpXpXpXiXiXiX7X7X7X7XiXiXiXiXyXaXaXyXyXyXyXyXyXyXyX9XyX9X:X>X>XOXE .XoX%X&.` ^ h | [ Q { ] ] p.] H ] H ] } u g G G D B h.{.{.{.{.{.n.{.{.{.{.{.{.{.{.{.{.h.8.",
";X;X;X;X;X,X,X;X;X;X;X;X;X:X;X>X;X;X;X;X>X;X;X>X;X;X;X;X:X:X:X:X;X;X:X:X6X6X6X6X6X:X:X:X:X:X6X6X:X:X:X:X:X:X6XyXyXyXyXyXyXyXyXyXaXaXaXiXiXaXaXaXpXpXpXpXVXVXVXgXD i i < : : i p c v v m J c p i p p c v m M N N >.,.,.M M M M n n n >.,.<.>.>.m a < a M n >.>.>.M M m N C.<.n b b >.<.;.:.:.2.C.C.C.C.V.m a y b b b b b b >.=.n N N ,.B.B.B.N.N.N.N.N.1.].NXNXMXMXMXpXpXpXiXiXiXyX7X7XyXiXiXiXiXiXiXiXyXyXyXyXaXyXyXyXyXyXyX:X>X>XOXE .X X%X&.` ^ h [ [ Q ] } ] } ] ] ] G ] } j g B G D B h.{.{.{.{.{.{.{.{.{.{.{.{.{.{.{.{.{.n.",
";X;X;X,X;X,X;X;X;X;X,X;X>X;X;X;X;X;X;X;X;X;X>X;X;X;X;X;X:X;X:X:X;X;X:X:XyX6X6X6XyX6X6X:X:X:X6X6X:X:X:X:X:X:X:XyXyXyXyXyXyXyXyXaXaXiXiXiXaXaXaXaXpXpXpXpXVXVXVXBX%Xi i u < : : i c y v m m c p p p p p v m M b M ,.,.>.b n M n M n ;.:.,.,.>.m p c i a M n n >.>.>.>.;.n N.,.;.N y N ,.:.:.:.:.C.B.C.C.N.a y y b b b b b y n ;.;.n N b ;.1.N.N.N.1.1.1.1.&XNXNXNXMXMXpXpXpXiXiXiXiXyX7X7XiXiXyXyXiXaXaXyXyXyXyXyXyXyXyXyX9X9X:X>X>XOXE .X X+X+.` ` h [ [ Q ]  .] } ] } { G ] } G ] g H D B S 6.7.h.h.h.h.h.H.{.{.{.{.{.{.{.n.n.n.",
";X;X;X;X;X,X;X;X,X,X,X;X;X;X;X;X;X;X;X;X;X;X;X;X>X;X;X:X:X:X:X;X;X;X:X:X:X:X:X,X,X,X,X:X6X:X:X:X:X:X:X6X6X:X6XyX6X6XyXyXaXaXaXaXaXaXiXaXaXaXaXaXaXiXpXpXVXVXMXNXBXC p i u : : : p p c m m p p p p p y v m m b >.,.>.N N >.M N n n :.1.,.>.b < m p m y >.>.n ;.,.n n ;.:.,.N.<.M b b ,.1.2.2.2.C.C.C.C.<.y y y b b b b b b b ;.<.;.n N b =.;.:.2.2.2.1.,.0XNXMXMXMXMXMXpXpXiXiXiXiXiX7XiXiXiXiXiXaXiXaX7X6X6X6X6X6X6X:X:X:X:X:X>X;XOXE .X X%X&.` Q h [ [ C ]  .] } ] } { G ] ] j } D G D B A A A p k A D H 3.4.5.6.7.7.7.h.h.h.H.",
";X;X;X,X;X,X;X,X,X,X;X,X;X;X;X;X;X;X>X>X;X;X;X;X;X;X;X;X;X:X:X:X;X;X:X:X:X:X6X,X,X,X,X6X:X:X:X:X6X6X:X:X6X:X:X,X6X6XyXyXyXyXyXyXiXaXiXaXaXaXaXaXaXaXpXpXMXVXMXNXBXc.i i i < : : < c c m c p p p p y y c m v b 6.>.M n >.>.M N b n 1.N.n b v < M y y m M ,.n ;.,.>.n ;.N.<.,.N.;.N b ;.N.N.N.C.C.C.C.C.6.y y y y n b N n b n <.;.>.=.=.N n n <.:.:.1.1.g.BXNXMXMXMXMXMXpXiXiXiXiXiXiXiX7X7X7XiXiXiXiXiX6X6X:X:X:X:X:X:X:X:X:X:X>X>XOXE .X X%X&.` Q h [ [ Q X.] ] } } } { G G ] : D ] D G B D J J p k A C G H F F F H D i p k A p ",
";X,X,X,X,X,X;X,X,X,X;X,X;X;X;X;X;X;X>X>X;X;X;X;X;X;X;X>X>X;X:X;X:X:X:X:X:X:X,X,X,X,X6X6X:X:X:X:X:X6X:X:X:X:X:X,X,X6X6XyXyXyXyXaXiXiXiXiXiXiXiXiXaXaXpXMXMXVXVXNXVXqXp p i u < : : i c c p p c c p p y c c v m >.M M M >.>.M N b ;.N.;.y M b a M b y y N ,.;.;.1.,.;.;.,.,.n ,.:.n b N 1.N.N.C.C.C.C.C.>.a b y y n n b n n n ;.,.<.,.<.;.n n =.<.:.:.:.=XNXMXMXMXMXMXMXMXiXiXiXiXiXiXiX7XiX7XiXiXiXiXyX:X:X:X:X:X:X:X:X:X:X:X:X>X;X Xo..XoX%X&.` Q Q [ [ Q X.X.] }  .p.{ ] { ] g p ] D D B A A g z p F D H ] F H H H D i g g g : ",
";X;X,X,X,X,X,X,X,X,X,X;X;X;X;X;X;X;X>X>X;X;X;X;X>X>X>X>X>X;X:X:X;X:X:X:X,X6X,X,X6X6X:X:X:X:X:X:X:X6X6X6X6X:X:X,X,X6X6XyXyXyXyXyXaXaXaXaXaXaXiXiXiXaXpXpXMXMXMXNXNXBXC i i i u : : < c p p p c c p p p y c v m M M M >.>.>.K b b N.:.;.s >.b y m M m c y >.,.;.1.N.,.,.1.1.n =.N.;.b b ,.N.C.C.C.2.C.V.>.a b y y N N n n n n n >.,.,.,.:.;.;.n n ;.:.6.pXNXNXMXNXMXMXMXiXiXiXiXiXiXiXiXiX7XiXiXiXiXiX7X:X:X:X:X:X:X:X:X:X:X:X:X>X>X XE .XoX%X&.` Q Q [ [ Q X.} ] ] p.p.{ ] ] } D D B F G j D A J k k A D H ] H H H H A d A g B 8 ",
";X;X;X;X,X,X,X,X;X;X,X;X;X;X;X>X;X;X>X>X>X>X>X;X>X>X>X>X>X;X:X:X:X;X:X:X:X,X,X,X,X,X:X:X:X:X:X,X6X6X6X6X:X:X:X:XyXyX6XyXyXyXyXyXaXaXaXaXaXaXiXaXiXaXaXpXMXMXMXVXNXBX' i i i i , < : < p p p c p p c p v c v m m N M >.>.>.M y >.N.:.=.M M M m m >.M m y b ,.<.N.1.:.N.N.N.<.N ;.:.n b ,.V.C.B.B.C.C.V.M p b b y b ;.n n n n n n n <.,.1.,.,.<.;.;.,.&XNXNXMXMXMXMXMXMXiXiXiXiXiXiXiXiX7XiXiXiXiXiXiX7X:X:X:X:X:X:X:X:X:X:X:X:X>X>X XE .X X%X&.` Q W [ [ C { } ] } s.p.] ] ] } ' ] B H ] C } H H J A A B ] ] ] H H H A g A g B q ",
";X;X>X;X;X,X;X;X;X;X;X;X;X;X>X>X;X;X>X>X>X>X>X;X;X>X>X>X;X:X:X;X:X;X:X:X:X,X6X6X,X6X:X:X:X:X,X,X:X6X6X6X:X6X:X6X9XyXyXyXyXyXyXyXyXaXyXyXaXaXiXiXiXaXaXpXpXMXVXVXVXBX#.p p p p i < < : i p c c p c c c c c v m m m M M K >.m y ,.C.:.n >.M M v m <.n >.N y >.:.B.N.;.:.B.B.:.n n ,.;.b ;.B.B.B.V.B.B.V.y N y b y y ;.;.n n n n n n ;.<.:.,.,.,.:.,.[.BXNXNXMXMXMXMXMXMXiXiXiXiXiXiXiX7X7XiXiXiXiXiXiX6X:X:X:X:X;X:X:X:X>X>X>X>X>X>X XE .X X%X&.` Q I [ [ C ] ]  .} s.s.] ] G } B H G G G D p.H H J J H B ] ] } H H ] A g D g B f ",
";X;X;X;X;X;X;X;X;X;X;X;X,X;X;X;X;X>X>X>X>X>X;X>X;X;X>X>X>X;X;X;X:X:X;X;X:X:X6X6X6X6X6X:X6X:X,X6XyX6X:X:X6X:X:X6XyXyXyXyXyXyXyXyXyXyXyXaXyXyXiXaXiXaXpXpXpXMXVXVXVXNX+Xp i i i p i < < : i c c c p c c c c v c c m M M >.M y y ,.N.:.n M >.>.a J ;.>.M >.b N ,.B.B.:.:.N.V.1.>.b >.,.N ;.B.B.C.B.N.V.N.y M < y b y N <.;.n n n n n =.=.;.<.:.:.,.,.uXNXMXMXMXMXMXMXMXMXiXiXiXiX7X7XiX7XiXiXiXiXiXiXiX7X:X:X:X:X>X>X>X>X1X>X>X>X>X>X XE o. X%X&.` Q I [ [ Q ]  . .} ' ] } ] ' } u g ] D F B p.] J J J F g ] } } H H ] A g D B B f ",
";X,X;X;X;X;X;X;X,X,X;X;X;X;X;X;X>X>X>X;X>X>X>X;X;X;X;X;X>X>X;X:X:X:X;X;X:X:X:X6X6X6X,X,X,X6X6XyXyX6X6X,X,X:X6X6X,X,XyXyXyXyXyXyXyXaXyXyXyXaXaXaXiXiXpXpXMXVXVXVXVXVX3XB i a a i i i u < a p c c c c c c c c c c m M M >.M y b ,.N.;.>.N >.M m M >.,.N M >.b ,.B.V.2.:.N.B.1.<.n N ,.M <.B.B.C.C.B.V.>.y N p a b y y <.<.=.n n n n n =.=.;.<.:.,.&XNXNXNXMXMXMXMXMXMXMXpXiXiX7X7X7X7XiXiXiXiXiXiXiXiX6X;X>X>X>X1X1X1X1X1X>X>X>X>X>X XE o.OX+X&.` Q h [ [ Q { } ]  .C D } } ' X.d g H D D g } } J J J F B ] ] } ] H H B j A A A g ",
";X;X;X;X;X;X,X;X,X,X;X;X;X;X;X;X>X;X;X;X>X;X;X;X;X;X;X;X;X;X;X;X:X:X;X;X:X:X:X:X6X6X,X,X,X6X7X7XyX,X6XyX6X,XyXyX,X7XyXyXyXyXyXyXyXyXyXyXyXyXiXaXiXiXpXpXMXMXVXVXVXVXgXB p i i a < i i i a a c c p c c c c p c c v m M >.b v m <.N.;.>.>.>.N 7.>.>.,.>.b M M >.B.V.C.:.N.B.N.:.n b >.>.1.B.B.N.C.Z.1.n y b M < y b y n ,.;.n n =.n n =.;.;.:.,.].NXNXNXNXMXMXMXMXMXMXMXMXiXiX7X7X7X7XiXiXiXiXiXiXiXiX7X;X1X1X1X1X1X1X1X1X1X>X>X>X>X XP o.OX+X&.` ` W [ [ Q {  .}  .] } ' } ' X.j A G D D j ] } A J J F B ] ] } H H ] A B D A B g ",
";X<X;X;X;X,X,X;X,X,X,X,X;X;X;X>X;X>X>X;X;X;X>X;X>X>X>X>X>X>X;X;X;X;X;X;X:X:X:X:X,X,X,X,X6X6X6X6XyXyXyXyX6X,X:X,X,X6X6XyXyXyXyXyXyXyXyXyXyXyXyXiXaXaXpXpXMXMXVXVXNXVXBX] p i i i i < < i a a i p p c c c c p c c v b M K v N m N N.<.=.>.S N ,.N.n 1.,.n b >.>.B.V.N.1.:.B.C.:.;.N b =.:.B.B.B.B.B.;.;.v m >.a a y b y <.,.<.n n =.n n ;.;.:.[.gXNXNXNXNXMXMXMXMXMXMXMXMXiXiXiXiX7XiXiXiXiXiXiXiXiXiX:X>X>X>X1X1X1X1X>X>X>X>X>X>X>X XP o.OXXX&.` Q W [ [ Q '  .]  .} p.D } ] X.C F G D D j ] p.A J A D B ] } } ] H H A B D A B g ",
"<X<X;X;X;X,X,X;X,X;X;X,X;X;X;X;X;X>X>X;X;X;X>X;X>X>X>X>X>X>X;X;X;X;X;X;X;X;X;X,X:X,X,X,X6X6X6X6XyXyXyXyX6X,X,X:X,X6X,X6X6XyXyXyXyXyXyXiXiXiXyXiXaXaXaXpXMXMXVXVXVXVXNXz.g p i i i u < < a i i i p p c c c p p c v c M M v M m v ,.N.N >.c >.M B.<.<.1.;.N b ;.N.V.V.N.:.C.C.:.<.n N n ;.N.:.N.N.2.C.<.b N n M z a b b N ,.<.;.n n n n ;.:.6.dXNXNXNXNXNXMXMXMXMXMXMXMXMXiXiXiXiXiXiXiXiXiXiXiXiXiXiX:X;X>X1X1X1X1X1X>X>X>X>X>X>X>X.XP o. XXX` ` Q I [ [ Q { }  . .}  .G } ] X.B G G D D j ] } J A A D C ] } u.} ] H D B D A B g ",
";X;X;X;X;X;X;X;X,X,X,X,X;X;X;X;X;X;X;X>X;X;X;X;X;X;X;X;X>X;X>X;X>X;X;X;X;X;X;X;X:X:X:X:X6X6X6X6X6X6X6XyXyXyXyX:X,X6X6X6XyXyXyXyXyXyXyXyXyXyXyXyXiXaXaXaXMXMXMXVXVXVXNX@XB p p i i i i a a i u i p p p c c c c c c c m N m M m p >.,.y 6.z ,.b ,.,.=.1.,.>.N N :.B.V.N.C.C.C.C.:.=.M N ;.1.2.N.:.2.B.1.b N b >.y a y b b ;.;.;.;.n n n <.,.wXNXNXNXNXNXNXMXMXMXMXMXMXMXMXiXiXiXiX7X7XiXiXiXiXiXiXiXiX:X>X>X>X>X1X1X>X>X1X1X>X>X>X1X.XE o. XXXo.` W I &.[ Q { ]  . . .] D } ] ] B G G D G j ] } J A A D D ] } p.} } H G B D F B p ",
";X;X;X;X;X;X;X,X,X,X,X,X;X,X;X;X;X;X;X>X>X>X;X;X;X;X>X>X;X;X>X>X>X;X;X;X;X;X;X;X:X:X:X,X6X6X6X6XyX6X6X6X6XyXyX:X:X6X6XyXyXyXyXyXyXyXyXiXiXiXyXiXaXaXaXaXpXMXMXVXVXNXVX3XB p p p i i i i a i < < u p p c c c c c c c c b m m m y >.>.a ,.a ,.n n ,.=.,.1.>.=.b ;.C.V.C.2.C.C.C.C.;.M N <.,.,.6.N.2.B.B.>.b b ,.m y y y b n ;.;.;.;.n >.,.*XNXNXNXNXNXNXNXMXMXMXMXMXMXpXiXiXiXiXiXiXiXiXiXiXiXiXiXiXiX:X>X>X>X>X>X>X>X>X>X>X>X>X>X1X.XE .X X Xo.` W I &.[ Q ' ]  . .] D ' ' ] X.B D G G G f ] } A A A D B ] } u.} } H H D A F D g ",
",X;X;X;X;X;X;X;X;X;X,X;X;X,X;X;X;X;X>X>X>X>X>X>X>X;X>X>X;X;X>X>X>X>X;X;X;X;X;X;X;X,X,X,X,X:X6X6X6X,X,XyXyXyX6X,X,X6X6X6X,XyXyXyXyXyXyXiXyXyXiXiXaXaXaXpXpXMXMXVXVXNXNXpXB p p p i i i p i u : : : a p p c c c c c m v m m m c i >.m a ,.y <.;.b ,.>.;.1.<.>.N n :.V.C.2.C.N.C.B.<.;.n N.,.m =.V.2.C.V.,.b N ;.>.b b y y b n ;.;.>.=.6.#XNXNXNXNXNXNXNXMXMXMXMXMXMXpXMXiXiXiXiXiX7X7XiXiXiXiXiXiXiX7X:X>X1X1X>X>X1X1X1X1X1X>X>X>X1X.XE .X X X&.` Q h [ [ Q ' '  . .' ' { C ] ] B A D G G j ] H A A A D B ] } u.} ] H H D D F B B ",
",X;X;X;X;X;X;X;X;X;X;X;X;X,X,X;X;X;X>X>X>X;X>X>X>X>X>X>X>X>X;X>X>X>X;X;X;X;X;X;X;X;X,X;X:X:X,X6X,X,X6XyXyXyX,X,X,X:X6X6X,XyXyX6X6X7XyXiXiXiXiXiXaXaXaXpXpXMXMXMXVXNXVXBX| p p p p p p p p a : < a < a p c c c c c m c m m m c p >.b y ,.b <.;.b >.;.=.1.,.>.>.b <.B.B.C.:.2.C.B.N.;.n N.Z.A <.B.C.B.V.1.v M N A.z.A b b b N n n ;.6.*XNXNXNXNXNXNXNXMXNXMXMXMXMXMXMXpXiXiXiXiXiX7X7XiXiXiXiXiXiXiX7X:X>X1X>X>X>X1X1X1X1X1X>X>X>X>X.XE .X X Xo.` Q h [ [ V ' [  .{ ] D ' C X.' B B D G G B ] ] A A k F B ] } } } ] G H D A H f B ",
",X,X;X;X;X;X;X;X;X;X;X;X;X;X,X;X;X;X;X>X>X>X>X;X;X>X;X;X>X;X>X>X;X;X;X>X;X;X;X;X;X;X;X;X;X:X:X:X,X,X6X6XyXyX6X,X,X,X,X,X,X,X,X,X,XyXyXiXiXiXiXyXaXaXaXpXpXMXMXMXVXNXVXBX+Xp p p p c c p p a a a i < < < p c c c m m m m m m c i >.M p ,.b ;.<.N N ,.<.;.N.<.,.N n C.V.C.:.:.:.N.V.<.=.C.S.>.S.2.B.B.B.1.y >.y 6.fXfXwX@Xc.s.p.s.@XdXNXNXNXNXNXNXNXMXMXMXMXMXMXMXMXMXMXiXiXiXiXiXiX7XiXiXiXiXiXiXiX7X;X>X>X>X1X>X1X1X>X>X>X>X>X>X;X.XE  X X Xo.` Q h [ [ V { '  .{ ] C ' j X.' D B D G D j ] ] A A k F C ] } } ] } D H G D ] u B ",
",X;X>X;X;X;X;X;X;X;X;X;X;X,X,X,X;X;X;X>X;X>X>X>X>X>X;X;X>X;X>X>X>X>X;X>X;X;X;X;X;X;X;X;X;X;X;X:X,X,X6XyXyXyX6X,X,X,X,X,X,X,X4X,X,XyXyXiXiXiXiXiXiXaXaXpXpXMXMXVXVXVXVXNX9Xp p y p c c p i p p i < < < : * p c c c m m v m m c p M <.i N.n n ,.N b ,.1.n N.,.>.=.n :.V.V.N.:.;.:.V.N.;.B.S.1.S.2.B.V.B.1.y >.p >.-XBXBXBXBXBXBXBXNXNXNXNXNXNXNXNXNXMXMXMXMXMXMXMXMXMXMXiXiXiXiXiXiXiXiXiXiXiXiXiXiX7X;X>X1X>X1X>X1X1X>X>X1X>X>X>X;X.XE  X XoXO.` I h [ [ h { '  .' ] D { C ' ' C B D D G j ] ] A A g F C } u.} } } D ] G D H , B ",
";X;X>X>X;X;X;X,X;X,X,X,X;X;X;X;X;X;X;X;X;X;X>X;X>X;X>X>X;X;X;X>X>X>X>X>X>X;X;X;X;X;X;X;X;X:X:X:X:XyX6XyXyXyX6X6X,X,X6X6X6X7XyXyX4X4XyXiXyXiXiXyXaXaXpXMXpXMXVXVXVXVXVXNXBX' i p c c c c p p p i < u < * O * p c c m m v m m c p N >.z <.1.n ,.n N n B.;.<.Z.<.>.n <.V.V.B.N.<.;.1.N.1.C.B.N.2.B.C.V.V.N.a ;.c n ].BXBXBXNXNXNXNXNXNXNXNXNXNXNXNXMXMXMXMXMXMXMXMXMXMXiXiXiXiXiX7XiXiXiXiXiXiXiXiXiX7X>X>X1X>X>X>X>X>X>X>X>X>X>X>X>X.XE  X X XO./ I h [ ` h { ' X.' ] ' ' C ' ^ C B D D B j ] ] A k g D C H u.u.} } G ] D A G , A ",
";X;X;X;X,X,X,X,X;X,X,X,X,X,X;X,X,X,X;X;X;X;X>X;X;X;X>X>X;X;X;X>X>X>X>X>X;X;X;X;X;X;X;X;X:X:X;X,X,XyX6XyXyXyX6X,X,X,X6X6X7X,X,XyX4X4X4XyXiXyXiXaXaXaXaXpXMXMXVXVXVXVXVXVXNX@XB c c c c c p p i i i i , O * ; < p c v m v c m c p m >.z b N.,.,.;.n b N.N.=.N.C.>.n n B.V.B.B.:.=.;.2.1.C.B.V.2.V.C.C.V.N.a =.M s 6.rXNXNXNXNXNXNXNXNXNXNXNXNXNXNXMXMXMXMXMXMXMXMXMXMXiXiXiXiXiXiXiXiXiXiXiXiXiXiXiX7X;X1X1X>X>X1X>X>X>X>X1X1X>X>X>X.XE  X.XOXo./ I h _ ` h ' ' X.' } { G ' ' C f D D D D V ] } k k g G C H } } ] ] G H B A G , A ",
";X<X;X;X;X;X;X;X;X,X,X,X,X,X,X,X,X,X;X;X;X>X;X;X>X>X>X>X>X>X;X>X;X>X>X;X;X;X;X;X;X;X;X,X,X,X,X,X,XyXyX6X6X6X,X:X6X,X6XyXyX,X7X7X,X,XyXyXiXiXyXiXiXaXaXpXMXMXMXVXVXVXVXVXNXpXB c c c p p p p i i p i * * : < < a i c c c c m c p v >.a N N ,.B.:.n N =.V.:.;.B.,.n n 1.V.V.B.:.<.<.:.:.C.C.V.C.B.B.C.S.V.a n >.a <.].BXBXNXNXNXNXNXNXNXNXNXNXNXMXMXMXMXMXMXMXMXMXpXMXiXiXiXiXiXiXiXiXiXiXiXiXiXiXiX7X;X>X>X>X>X1X1X1X1X1X>X>X>X>X>X.XP  X.XoXO./ I h _ [ h ' ' [ ' } ' C ' ' C , C D D D j ] ] A g g G C G ] ] H ] A H B D D , A ",
";X;X,X,X;X;X;X;X;X,X,X,X,X,X,X,X,X,X;X;X;X;X;X;X>X;X>X>X>X>X;X>X>X;X>X;X;X;X;X;X;X;X;X,X,X,X,X,X,X6XyX,X,X6X:X:X:X,X6X,XyX,X,X,X,XyXyXyXiXiXiXaXiXaXaXMXMXMXMXMXVXVXVXVXNXBXX.J c p p p p p y p c u * , < < < u < a p p c c c c c m v m M N ,.B.;.M b N.B.;.,.N.;.n ;.V.V.B.:.<.,.;.:.2.C.V.V.C.S.C.V.V.v N >.: n N.-XNXBXNXNXNXNXNXNXNXNXNXNXMXMXMXMXMXMXMXMXMXpXMXiXiXiXiXiXiXiXiXiXiXiXiXiXiXiX6X;X>X1X1X1X1X>X1X1X1X>X1X>X>X>X.XP %.o.XXO.` W h ` [ h ' ' ' ' } [ C ' ' C , D D D C f } ] k k g G V D H H H H G H B D D , D ",
";X,X,X,X;X;X;X<X;X,X,X,X,X,X,X,X,X,X;X;X;X;X;X;X>X>X>X;X;X>X;X;X>X;X>X;X;X;X;X;X;X;X;X;X,X,X,X,X,X6X6XyXyX,X:X,X:X6X,X,X,X,X,X,X,X,XyXiXiXiXiXaXaXaXaXMXMXMXMXVXVXVXVXVXBXBX#XH p p p p p y c c c < u i < < u u < : : i p c m m c m M b >.N n N.,.M b =.V.N.N B.1.;.=.B.V.V.2.,.=.=.2.2.C.V.S.B.B.C.B.V.M b <.z b 1.Z.dXNXNXNXNXNXNXNXNXNXNXNXMXMXMXMXMXMXMXMXMXiXiXiXiXiXiXiXiXiXiXiXiXiXiXiXiXiX6X;X>X1X1X1X1X>X>X1X1X1X1X1X>X;X.XP %.o. X%.` W h _ ' h ' ^ { ' X.X.C ' ' C , D C B B f ] ] g k g G V D D H ] G H H j D B , A ",
";X;X,X,X;X;X,X,X,X,X,X,X,X,X,X,X,X,X;X;X;X;X;X;X>X>X;X;X;X;X;X1X;X;X;X;X;X;X;X;X;X;X;X;X;X,X;X,X,X,X6X6XyX,X,X,X,X,X6X,X,X,X,X,X,X4XyXiXyXiXiXaXaXaXaXMXMXMXVXVXVXVXVXVXBXBXBXA c p p p p p c m p < c p u a u u a : : * < i m m v y K v >.n b >.N.<.M b ,.Z.>.>.V.<.=.N.V.V.N.=.n =.:.2.C.C.V.B.B.C.V.S.>.y ;.c a ;.V.H.BXNXNXNXNXNXNXNXNXNXNXMXMXMXMXMXMXMXMXMXiXiXiXiXiXiXiXiXiXiXiXiXiXiXiXiXiX,X;X>X1X1X1X>X>X>X>X1X1X1X1X1X1X.XP %._ $.o.` W h ` ^ h ' ^ ' [ G X.C ' ' C , D B B B f ] ] g k g G j D G H ] G ] H j D D u A ",
";X;X;X;X;X,X,X,X,X,X,X,X,X,X,X,X,X;X;X;X;X;X;X;X>X>X;X;X>X>X>X;X>X>X>X>X;X;X;X;X;X;X;X;X;X;X;X,X,X,X,X6X6X6X6X,X6X6X6X,X,X,X,XyX,XyXyXyXyXaXaXaXaXaXpXpXMXVXVXVXVXVXVXVXVXBXgXy p p p p p p m m a y c p i i u < < : : : < < i c c y S m >.>.M b ,.1.;.n N 1.N.b N.N.;.N.V.B.6.s b n ;.2.C.C.V.V.B.B.S.V.>.y ;.M : n B.Z.wXNXNXNXNXNXNXNXNXMXMXMXMXMXMXMXMXMXMXMXMXpXiXiXiXiXiXiXiXiXiXiXiXiXiXiXiX,X;X>X1X1X1X>X>X>X>X>X1X1X1X1X1X.XE %.&.$.` ` W h ^ ^ h ' ' ' ] C ' [ ] ' C f ' C B B d G H k p p D g D D D H H } } g D A d B ",
";X;X,X;X;X;X,X,X,X,X,X,X,X,X,X,X,X,X;X;X;X;X;X;X>X;X;X;X;X;X;X1X>X>X>X>X>X>X;X;X;X;X;X;X;X;X;X,X,X,X,X,X6XyXyX6XyX,X,X,X,X,X,X,X,X,XyXyXiXiXiXaXaXaXMXMXMXVXVXVXVXVXVXVXBXBX3Xp y y p p c c m p a m c i i p p u < : : : < < < u p y p J >.,.>.M N N.:.;.N n N.>.;.V.<.2.V.B.s s b n ;.:.2.C.V.V.V.V.S.B.<.y n >.z b 1.B.H.gXNXNXNXNXNXNXNXNXMXMXMXMXMXMXMXMXMXpXMXMXiXiXiXiXiXiXiXiXiXiXiXiXiXiXiX7X;X>X1X1X1X>X>X>X1X>X1X1X1X1X1X.XE  X_ $.&.` I h ^ ^ h ' ' ' [ ' ' ' X.' C C D C B B d G ] g p p D V D g G } ] ] } g D B d g ",
",X,X,X,X;X,X,X,X,X,X,X,X,X,X,X,X,X,X,X;X;X;X>X>X;X;X>X;X;X;X;X;X;X;X;X>X;X;X;X;X;X;X;X;X;X;X;X,X,X,X,X,X6XyXyXyXyX:X,X,X,X,X,X,X,X,X4X4XiXyXiXaXaXpXMXMXVXVXVXVXVXVXVXVXVXBX$Xp p y y i c c c a p m p i c m c p < < : < < < < < : a y y N >.6.K b n N.,.M N ;.N.n N.1.C.B.N.s s b n =.:.:.C.V.V.S.S.S.B.,.a n ,.y y ;.V.B.'.BXNXNXNXNXNXNXNXNXMXMXMXMXMXMXMXMXMXMXMXiXiXiXiXiXiXiXiXiXiXiXiXiXiX7X:X>X>X1X1X1X1X1X1X>X>X1X1X1X1XOX.XE  X/  X&.` I h ^ ^ h ' ' ' C ' ' ' X.' C C V D A B q H ] g p p A j D D p.} H H H g G g d B ",
";X;X,X,X;X,X,X,X,X,X,X,X,X,X,X,X,X,X,X,X,X;X;X;X>X>X>X;X>X;X;X;X>X>X;X;X>X;X;X;X;X;X;X;X;X;X,X,X,X,X,X6X6XyX6X,X:X6X,X,X,X,X,X,X,X,X4X4XyXyXaXaXaXaXMXMXMXVXVXVXVXVXVXVXVXVX@Xp i y i i c c c a m p i y m m c p u < , u u u , < < < a y y M >.>.M b <.N.>.n n ,.<.<.N.B.V.B.b s s b n <.:.2.V.S.S.S.S.B.1.z n ,.b z =.B.B.Z.rXNXNXNXNXNXNXMXMXMXMXMXMXMXMXMXMXMXMXMXMXiXiXiXiXiXiXiXiXiXiXiXiXiX7X:X;X>X>X>X>X1X1X1X1X1X>X1X1X1XOX.XE  Xo.%._ ` Q h ^ ^ h ' Q ' C C C Q X.' C C j C D B u { G g p p A f B p.u.H G H H g G B d B ",
";X;X,X,X,X,X,X,X,X,X,X,X,X,X,X,X,X,X,X,X,X;X;X;X>X>X>X;X;X;X;X;X>X>X;X;X;X;X;X;X;X;X;X;X;X;X,X,X,X,X,X,X6XyX6X:X:X6X6X,X,X,X,X,X,X,X4X4XyXyXiXaXaXaXMXMXMXMXVXVXVXVXVXVXVXVX%Xy i i y c c c y p c y i m m m m c p u i u u u < < < < < a c y N K >.M b 1.,.=.>.n N.:.:.B.V.C.N s s b n ;.:.2.B.S.V.V.S.V.N.z b :.;.z N 1.Z.B.H.BXNXNXNXNXNXMXMXMXMXMXMXMXMXMXMXMXMXMXiXiXiXiXiXiXiXiXiXiXiXiXiXiX7X:X:X>X1X1X1X1X>X>X>X>X1X1X1X1XOX.XE  X X X/ / W h Q Q h ^ ^ ' ' C Z C [ ' C C f B D B , { D g p p A C } p.} ] D H H f D B d B ",
";X;X,X,X,X,X,X,X,X,X,X,X,X,X,X,X,X,X,X,X,X;X;X;X;X>X;X;X;X>X>X>X>X>X;X;X;X;X;X;X;X;X;X;X;X;X;X,X;X,X,X4XyXyXyX:X:X:X,X,X4X,X,X,X,X,X4XyXyXyXiXaXaXpXpXMXVXVXVXVXVXVXVXVXVXVX$Xi i p c c c c a m i i p m m m m c y i c c p i < < < < a y m y y b M K M b ,.,.=.>.;.Z.1.B.2.B.n b s b n ;.<.2.C.S.S.V.S.S.V.z b ;.<.y y <.V.B.B.'.NXNXNXNXNXNXMXMXMXMXMXMXMXMXMXMXMXMXpXiXiXiXiXiXiXiXiXiXiXiXiXiX7X:X;X>X>X>X>X>X>X>X>X1X1X1X1X1XOX.XP  X X X/ / I h Q Q h Q Q ' ' C C V ' ' C D f B B g q G G g p g A V } ] ] H D H G f D D d B ",
";X;X;X;X;X,X,X;X,X,X,X,X,X,X,X,X,X,X,X,X,X;X;X;X;X>X;X;X;X;X>X>X;X;X;X>X>X;X>X>X;X;X;X;X;X;X;X,X;X,X,X4XyXyXyX:X:X:X:X,X,X,X,X,X,X4XyXyXyXyXiXaXaXaXpXMXVXVXVXVXVXVXVXVXVXVXyXy p c A c c p a c a i m m N m m c i c m m J c i < < < a m m i a a a y m M N >.>.>.;.:.N.<.:.B.;.b s b n ;.<.2.C.V.S.S.V.V.V.p b ;.:.N a =.B.B.B.N.0XNXNXNXNXNXNXMXMXMXMXMXMXMXMXMXMXMXpXiXiXiXiXiXiXiXiXiXiXiXiXiX7X:X:X>X>X>X>X1X1X>X>X1X1X1X1X1X1X.XP OX X X` / I e Q Q h Q C ^ ^ Q B C Q ' Q G f B j f q G D g p p B j ] ] ] H A H H f D G f g ",
";X;X;X;X;X;X;X;X,X,X,X,X,X,X,X,X,X,X,X,X,X,X;X;X;X;X;X;X;X>X>X>X;X;X;X;X>X>X;X;X;X;X;X;X;X;X;X;X;X,X,X,X4X4XyX:X4X:X,X,X4X4X4X4X4XyXyXyXyXyXiXiXaXaXMXMXMXVXVXVXVXVXVXVXVXVXBXG J J A c c i p i a p m N m m m p i m m M M J c i i i c N m y a a a y a b m b N M n ;.M n <.B.;.b s b b =.;.:.C.V.S.S.S.V.V.c y ;.:.n z n 1.B.B.B.H.MXNXNXNXNXNXMXMXMXMXMXMXMXMXMXMXiXiXiXiXiXiXiXiXiXiXiXiXiXiXiX7X6X:X>X>X>X>X1X1X1X1X1X1X1X1X>X1X.XP  X X X` / h e Q Q h C C Q Q C C C Q ' Q G f B B f 8 G D g p p C f G H ] ] A H H f D G d g ",
";X;X;X;X;X;X;X;X<X,X,X,X,X,X,X,X,X,X,X,X,X,X;X;X;X;X;X;X>X;X>X>X;X;X>X;X>X;X;X;X;X;X;X;X;X;X;X;X,X,X,X6X4X4XyX,XyX:X:X,X,X4X4X4X4XyXyXyX4XyXyXaXaXaXpXMXMXMXVXVXVXVXVXVXVXBXBX~.H H c c c i c < a c m N N m c y p m N M M m m p y c N K M p a c p m m N b y y b N b b n ;.B.:.n s s b n ;.:.C.V.S.V.S.S.V.p y =.:.;.a b <.Z.B.B.B.'.NXNXMXNXNXMXMXMXMXMXMXMXMXMXMXpXiXiXiXiXpXpXiXiXiXiXiXiXiXiXyX:X:X>X>X1X1X1X1X1X1X1X1X1X>X>X1Xo.P  X X X` / e w Q Q h Q C Q Q C Z C Q ' Q C f B B j , G G p p i B f ] { G ] B H ] f A G d g ",
";X;X;X,X;X;X;X;X;X;X,X,X,X,X,X,X,X,X,X,X,X,X,X;X;X;X;X>X>X>X>X;X>X>X>X>X;X;X;X;X;X;X;X;X;X;X;X;X,X,X,X:X:X4X4X4X:X:X:X,X,X4X,X4X4XyXyXyXyXyXyXyXaXpXaXMXMXMXVXVXVXVXVXVXVXVXVXwXJ J c c c p B < p v m m N m p y c m N M S J c c c N >.>.M y i J m m M N b y y b M N b n =.N.2.n b b b n ;.:.2.V.S.V.V.V.V.y a n :.<.b y ;.B.B.B.B.Z.qXNXMXMXMXMXMXMXMXMXMXMXMXMXMXMXMXiXiXiXiXMXpXpXiXpXiXiXiXiXyX:X;X>X>X1X1X1X1X$X%X$X1X1X1X1X1Xo.P oX X+X_ / e w Q Q e Q C C C V Z C Q [ C C f C j f , G G p p g B f G ' G ] B G ] f B G q g ",
";X;X,X,X,X,X;X;X;X;X,X;X,X,X,X,X,X,X,X,X,X,X;X;X;X;X;X;X>X>X>X;X>X>X;X;X;X;X;X;X;X;X;X;X;X;X;X;X,X,X,X:X4X4X4XyX2X:X:X,X,X,X,X4X4X4X4X4X4XyXyXyXaXaXaXMXMXMXVXVXVXVXVXVXVXVXVXfXD m c c p c i u c m m N m v c p m m N M S J c c v M <.6.M v y M N S N b N b b b M M b b =.N.C.=.b s b n ;.;.:.B.S.V.V.V.S.m a n <.:.N a =.N.Z.B.B.B.].NXMXMXMXMXMXMXMXMXMXMXMXMXMXMXMXpXiXiXiXMXpXMXMXiXiXiXiXiXyX:X>X1X1X%X X$.$.@.+.%.$. X+X1X%Xo.P  X X X/ W h w W Q e Q C C C h Z C ^ [ Q h j C j V 8 C D i i f B j G G G G B D ] f B D , g ",
";X;X,X,X,X,X,X,X;X;X;X;X,X,X,X,X,X,X,X,X,X,X;X;X;X;X;X;X;X;X;X;X;X;X;X;X;X;X>X;X>X;X;X;X;X;X;X,X,X,X,X,XyX4X4XyX2X:X:X:X,X4X4X4X4X4X4X4X4X4XyXaXaXaXaXpXMXVXMXVXVXVXVXVXBXBXVXBXz.c c c c c : i c m m m m y c p m m M M M m c p m M ,.>.M m m >.>.>.N N N N N N M N b n n 2.B.;.b s b n =.;.:.C.S.S.V.V.S.M a n <.:.n z n ,.B.B.N.B.Z.*XNXNXNXNXNXNXMXMXMXMXMXMXMXMXMXMXpXMXpXMXpXMXpXiXiXaXpXiX6X$X%XXX$.+.+.@.@.+.+.+.+.| +.@.%.%.&.%. X X` I e q W V w C V V C q V C ^ | C q C C V C q C B u u d B j G G G G D D f f B G , B ",
";X,X,X,X;X,X;X;X;X,X;X;X<X,X,X,X,X,X,X,X,X,X;X;X;X;X;X;X;X;X;X;X;X;X;X;X;X>X>X;X;X;X;X;X;X;X;X:X,X,X,X:X:XyXyX:X:X:X4X4X4X4X4X4X4X4X4X4X4XyXyXaXaXaXaXpXpXVXVXVXVXVXVXVXVXVXVXBX*Xm p c c c : c c m m m v y c c m m M M M m c y m >.,.>.N M m <.,.,.>.M M >.M M M N b n n :.B.;.n b b n =.;.:.C.S.S.V.S.S.>.a n ;.:.;.z b ;.B.B.B.B.B.Z.uXNXNXNXNXNXMXNXMXMXMXMXMXMXMXMXiXMXiXiXiXiXiXiXyX6X$X%X+X$.$.@.@.@.@.@.@. .+.+.+.+.@.@.@.@.@.+.+.@.+.+.+.[ ^ ^ h C h h Q 8 V C Q | C , ' V B j 8 C B u u f B f G ' G G D B : f B G : B ",
";X;X,X,X;X;X;X;X,X,X;X,X;X,X,X,X,X,X,X,X,X,X,X;X;X;X;X;X;X;X;X;X;X;X;X;X;X>X>X>X;X;X;X;X;X;X;X,X;X,X,X4X4X4XyX2X:X:X2X:X4X,X4X4X4X4X4X4X4XyXyXyXyXaXaXpXpXVXVXVXVXVXVXVXVXVXVXBXfXB c c c i i c c m m m y c c c m m M M M m y y m >.,.>.N N m ,.1.1.>.M M >.M M N N b n n :.B.<.n b s b n ;.:.C.S.V.V.S.S.,.a b ;.:.;.y y ;.B.B.B.B.B.B._.MXNXNXNXNXNXNXNXMXMXMXMXMXMXMXiXpXiXaXaX2X>X+X$.$.@.@.@.@.@.@.@.@.+. . .@.@.#.@.@.@.@.@.@.@.@.@.@.#.#.#.#.#.#.#.@. .[ [ q V V Q [ C d G C j B 8 C B u u u g f G { D G { ] , f B G ; B ",
",X,X,X,X;X;X;X,X,X,X,X;X,X,X,X,X,X,X,X,X,X,X,X;X;X;X;X;X;X;X;X;X;X;X;X;X;X>X;X;X;X;X;X;X;X;X;X,X;X,X,X4X4X4X:X:X:X:X:X:X,X,X4X4X4X4X4X4X4X4XyXyX4XyXaXaXpXpXVXVXVXVXVXVXVXVXBXBXBX .c p c < c c m m m c p c m c m m M M m m p c m ,.,.>.N N m ,.1.1.>.>.=.>.>.>.N N N N n ;.B.:.n b s b n ;.;.C.S.V.V.S.S.1.a y ;.:.<.s a =.1.V.B.B.B.B.Z.rXNXNXNXNXNXNXMXMXMXMXMXMXpXpXiXyX:X$X+X$.@.@.@.@.@.@.@.@.@.| @.@.@.@.@.@.#.#.#.@.@.@.#.#.#.#.#.#.#.#.#.#.z.z.z.z.z.z.z.z.[ h Q Q h C C C C C q D g u u u B f G G D D G ] D j B G , g ",
";X,X,X,X;X;X,X,X,X,X;X,X,X,X,X,X,X,X,X,X,X,X;X;X;X;X;X;X;X;X;X;X;X;X;X;X;X;X;X;X;X;X;X;X;X;X,X,X;X,X,X:X4X2X:X:X,X:X:X4X4X,X4X4X4X4X4X4X4X4XyXyXyXyXaXaXpXpXVXVXVXVXVXVXVXVXBXBXBX~.m c p < c c m m c y c c m c c m M M J c y c M ,.<.M N N m 1.1.1.<.>.M n >.>.M N N N n ;.C.C.=.b s b n =.<.N.V.V.V.S.S.Z.y y =.:.:.b a =.:.V.V.B.B.B.Z.H.BXNXNXNXNXNXMXMXMXMXMXiXaXyX>X+X$.#.@.@.@.@.@.@.@.@.@.@.@.@.@.@.@.@.@.@.@.@.#.#.#.#.#.#.#.#.#.#.#.#.c.z.z.z.z.z.z.z.| I r 5 5 6 6 w 8 d f V q C g u u u j f B D D D D G G B B D < g ",
";X;X;X,X;X;X;X,X;X;X;X,X,X,X,X,X,X,X,X,X,X,X;X;X;X;X;X;X;X;X;X;X;X;X;X;X;X;X;X;X;X;X;X;X;X;X,X,X;X,X,X4XyX4X:X,X:X:X:X,X4X,X,X4X4X4X4X4X4X4XyXyX4XyXaXaXsXpXpXVXVXVXVXVXVXVXVXBXBX*XJ p u p c c m c p y c m m c c M M N m c y m >.,.<.>.N N M 1.1.1.;.>.>.>.>.>.M N n M n ;.C.C.;.b s s N n <.1.B.V.V.S.S.V.y y =.<.:.N a b <.B.V.B.B.B.Z.Z.=XNXNXNXMXMXMXMXMXiX7X:X>X@X+XT.Q.T.Y.c.z.@.@.@. .| @.@.@.#.#.@.#.#.#.@.@.#.#.@.@.@.#.@.#.#.@.@.c.c.c.z.z.z.#.@.| _ r r r 6 7 3 3 3 1 - 7 5 6 8 8 , , , j f B D D D D G G B B D < g ",
";X;X;X;X;X;X;X,X;X;X;X,X,X;X,X,X,X,X,X,X,X,X;X;X;X;X;X;X;X;X;X;X;X;X;X;X;X;X;X;X;X;X;X;X;X,X,X,X,X,X,X4XyXyX2X,X:X:X:X4XyX4X4X4X4X4X4X4X4X4XyXyXyXyXaXaXsXsXpXVXVXVXVXVXVXVXBXBXBXrXJ p : B c c c c y c c m c c m M N M N p c m ;.N.,.>.N N N N.1.1.<.>.=.>.>.>.M M M M N ;.2.C.;.n s s b n ;.,.V.V.V.S.S.B.b y n ;.:.n y b ;.N.V.B.B.B.B.Z.H.gXNXNXMXiXyX:X>X$X+X+XT.Y.c.Y.c.c.~.Q.Q.Q.T.Y.z.#.@.@.@.@.@.@.@.#.#.#.#.#.#.@.@.| @.#.#._ [ [ V [ c.#.@.| ^ I r r r r r 7 3 1 $ $ 1 7 6 6 r 7 5 7 3 7 5 8 f j j B D G D j B C , g ",
";X;X;X;X;X;X;X;X;X;X;X,X,X,X,X,X,X,X,X,X,X,X;X;X;X;X;X;X;X;X;X;X;X;X;X;X;X;X;X;X;X;X;X;X;X;X;X,X;X,X,X,XyXyXyX2X:X:X4X4X4X4X4X4X4X4X4X4X4XyXyXyXaXaXaXsXsXsXsXVXpXfXVXVXVXVXVXVXBXCX] p < c c c m p c c m c c c m N N M m p v M ,.1.<.M b M N N.1.N.,.<.n ,.>.>.=.M M n n ;.:.C.;.n s y b n ;.:.B.V.V.S.V.V.n y n ;.:.;.y s ;.2.V.B.V.B.B.Z.Z.&XpXyX$X+X+XT.c.c.c.c.c.c.z.#.@.c.Y.Y.Y.Y.Y.c.c.Y.Y.Y.c.#.#.#.#.#.#.@.#.#.@.@.@.@.@.@.^ 0 7 _ | h W W e r r r r r r r 3 2 1 1 7 r r r r r r 7 2 2 3 6 6 6 6 6 5 5 f g h f B C , g ",
";X;X;X;X;X;X;X,X;X;X,X,X,X,X,X,X,X,X,X,X,X,X,X;X;X;X;X;X;X;X;X;X;X;X;X;X;X;X;X;X;X;X;X;X;X;X;X;X;X,X,X:X4XyXyX4X:X4X4X4X4X4X4X4X4X4X4X4X4XyX4XyXyXsXaXsXsXsXsXVXfXfXfXVXVXVXVXVXVXBX} u , c c c c p c m m c c c N b M M m p m n 1.,.>.M b >.m N.N.N.,.,.>.>.,.<.>.=.n n n ;.:.C.:.=.b y b N =.<.B.V.V.V.V.S.;.y n ;.:.<.y s =.:.V.V.V.V.V.V.Z.H.@X+XT.T.T.T.c.c.#.z.c.Y.Y.Y.Y.T.c.z.#.#.z.z.T.T.Q.~.Q.Y.Y.T.~.Y.Y.z.z.z.z.#.#.#.z.z.Q w 6 0 e r r r r r r r r r 3 3 3 3 7 r r r r r 7 6 7 6 6 r r r r 6 7 7 7 7 3 2 - - > 8 ; d ",
";X;X;X;X;X;X;X;X;X;X,X,X,X,X,X,X,X,X,X,X,X,X,X,X,X;X;X;X;X;X;X;X;X;X;X;X;X;X;X;X;X;X;X;X;X;X;X;X;X,X,X:X4XyXyXyXyXyX:X4X,X4X4X4X4X4X4XyX4X4X4X4X4X4XaXaXsXsXsXsXVXVXVXVXVXVXVXCXCXCX} u u A c c p c c m c c c v m b K K c y b >.2.<.>.b n >.m B.B.B.,.,.>.n ,.,.>.>.M n =.=.<.N.:.;.b b b N =.<.N.B.S.S.S.S.<.y N =.:.:.y y =.:.B.V.V.V.V.V.V.Z.[.c.c.c.c.c.z.z.z.z.Y.Y.c.c.c.c.z.c.c.c.Y.T.Y.c.z.c.c.c.Q.Q.Q.T.Y.c.c.z.z.z.z.!.!.!.c.^ 6 r r r r r r r r 3 7 3 7 r r r r r r r r r 7 7 r r r r r r r 6 7 7 3 3 3 3 3 1 $ % # # ",
";X;X;X;X;X;X,X,X;X,X,X;X;X,X,X,X,X,X,X,X,X,X,X,X,X;X;X;X;X;X;X;X;X;X;X;X;X;X;X;X;X;X;X;X;X;X;X,X;X,X,X,X4XyXyXyXyXyX4X4X,X4X4X4X4X4XyXyX4X4X4X4X4X4XaXaXsXsXsXsXsXfXVXVXVXVXfXCXCXCX} < i J c c y c c c c c c N b M >.M v y m >.2.<.M y n >.y N.N.B.1.,.>.n <.1.,.>.=.n =.=.;.2.2.;.b b y b n ;.1.B.S.S.S.S.1.b b n :.:.b y =.<.N.V.V.V.V.V.V.Z.H.J.c.#.@.#.Y.Y.T.Y.Y.Y.c.z.#.#.c.T.T.~.T.Y.c.c.c.c.~.Q.Q.~.~.Y.c.#.@.#.@.z.Q.Q.R.R.R.~.c._ 0 r r r r r r 7 7 r r r r r r r 6 3 7 r r r r r r r r 7 2 3 7 6 6 6 6 r 6 7 3 % # # ",
";X;X;X;X;X;X,X,X,X,X,X,X,X,X,X,X,X,X,X,X,X,X,X;X,X;X;X;X;X;X;X;X;X;X;X;X;X;X;X;X;X;X;X;X;X;X;X,X,X,X,X:X:X4XyXyXyXyX4X4X4X4X4X4X4X4X4XyXyX4XaXaX4X4XaXsXsXsXsXsXsXfXVXVXVXVXCXlXBXBX .: i S c p c c c c c c c N N N >.N p c m ,.,.<.M y >.<.y 1.B.B.N.1.>.N <.N.,.,.>.>.;.=.=.:.1.;.N b b b n ;.:.N.V.S.S.S.V.;.s b <.:.N y =.<.N.V.V.V.V.V.V.Z.Z.].T.T.T.T.Y.c.c.c.z.z.c.Y.T.T.T.T.Y.c.z.z.c.~.@XQ.~.~.Y.c.c.z.z.#. .| Y.!.R.R.R.R.~.~.c.c.c.@.@.[ I r r r r r r r r r r 7 7 3 r r r r r r r r 7 6 r r r r r r r 6 7 3 2 $ % + ",
";X;X;X;X;X;X,X;X,X,X,X,X,X,X,X,X,X,X,X,X,X,X,X;X,X;X;X;X;X;X;X;X;X;X;X;X;X;X;X;X;X;X;X;X;X;X;X,X,X,X,X:X,X4XyX:X4X4X4X4X4X4X4X4X4XyXyXyXyXaXaXaX4X5XaXsXsXsXsXsXsXfXVXVXVXVXVXlXCXBXv.< p S c c c c c c c c c m N N >.m y c M ,.<.>.b b <.<.y :.B.B.B.1.,.N <.N.,.,.,.<.<.<.;.;.1.;.N b b b n =.<.N.V.S.S.S.V.1.s b ;.:.n y n ;.:.B.V.V.V.V.V.V.Z.H.E.Q.Q.Q.Q.Q.Q.Y.Y.~.~.Y.Y.c.c.c.Y.~.~.Q.Q.Q.Q.~.c.z.z.z.#.@.[ [ z.Q.!.Q.Q.R.~.Y.l.z.z.~.~.~.~.~.Q.Y.@.[ Q ` I e r 7 7 6 r r r r r r r r 7 7 r r r r r r r r 6 3 3 $ $ % + & ",
";X;X;X;X;X;X,X,X,X;X;X,X,X,X,X,X,X,X,X,X,X,X,X,X,X,X;X;X;X;X;X;X;X;X;X;X;X;X;X;X;X;X;X;X;X;X;X,X,X;X,X,XyX2X2X:X:X2X4X4X4X4X4X4X4X4X4X4X4X4X4X4X4XsXsXsXsXsXsXsXsXfXfXVXfXlXlXlXlXCX@X< B S c c c c c c p p c M N M K c y c >.,.<.M v N <.>.p <.C.B.B.N.:.N >.N.1.1.<.,.,.,.<.,.1.;.n b y b N n ;.N.V.S.S.S.S.B.b y ;.2.;.y b ;.:.N.V.V.V.V.V.V.V.Z.[.l.c.~.~.Q.@XQ.Q.Q.Q.@X@X~.Y.Q.Q.Q.Q.Q.~.~.c.z.z.#.@.[ [ '  .!.#X!.!.Q.Q.Q.~.J.l.l.~.Q.Q.Q.Q.Q.~.~.~.~.@X@X@XT.c.| W r 6 7 6 r r r r r r r r r r r r r r 7 3 1 1 % # + o o ",
";X;X;X;X;X;X,X,X,X;X;X,X,X,X,X,X,X,X,X,X,X,X,X,X,X,X;X;X;X;X;X;X;X;X;X;X;X;X;X;X;X;X;X;X;X;X;X,X,X,X,X,XyX:X:X:X:X4X4X4X4X4X4X4X4X4X4X4XaX4X4X4X4X5XsXsX5XsXsXsXsXfXfXVXCXlXCXCXlXCXrX< A J c c c c c c p p m M b M M p y c >.,.<.M y M <.;.y ;.2.V.B.C.:.M >.1.1.1.<.,.,.<.:.N.,.;.n b b b b n ;.1.V.S.S.S.S.S.;.y =.:.<.y b ;.:.C.V.V.V.V.V.V.V.Z.H. .#.z.z.l.c.c.Y.~.Q.Q.Q.Q.!.Q.Q.Q.~.~.c.z.z.#.@.[ [ [ #.~.@X~.Y.z.J.Y.l.l.Y.E.Q.Q.Q.~.~.~.~.~.R.Y.~.!.Q.Q.Q.Q.Q.Q.Q.~.c.@._ I r 7 r r r r r r r 7 6 7 7 3 1 % # # + = , u ",
";X;X;X;X,X;X;X,X,X,X,X,X,X,X,X,X,X,X,X,X,X,X,X,X,X;X;X;X;X;X;X;X;X;X;X;X;X;X;X;X<X,X,X,X;X;X;X,X,X,X,XyX4X4X,X,X:X:X,X4X4X4X4X4X4XyXyXaXaXaX4X4X5X5XsXsX5XsXsXsXfXfXlXlXlXCXCXCXlXlXlXC J m c c c c c c p c N N M >.m p y N ,.<.;.N y M <.>.y =.2.V.B.B.1.n =.,.1.,.1.,.<.<.N.N.:.;.=.N b b b n =.,.V.S.S.S.S.S.B.y b :.,.y s ;.:.2.V.V.V.V.V.V.V.Z.Z.g.[ [ [ | @.#.#.z.c.c.c.Y.~.Y.Y.c.c.z.@.@. . .[ @.~.@X@X!.Q.~.~.R.J.l.Y.Q.Q.Q.R.~.~.~.c.Y.Y.~.~.Q.Q.Q.Q.~.Q.Q.~.~.Q.!.Q.Q.Q.@Xc.+.h 3 r r r r 3 3 3 3 2 $ # @ @ ; g g u < ",
";X;X;X;X;X;X;X,X,X,X,X,X,X,X,X,X,X,X,X,X,X,X,X,X,X;X;X;X;X;X;X;X;X;X,X,X;X;X;X;X,X,X,X,X,X,X,X,X,X,X,XyX4X4X4X4X:X:X,X4X4XyXyX4XyXyXyXaXaXaX5XsX5X5XsXsX5XsXsXsXsXfXlXlXlXlXCXCXCXCXCXc.H m p c c p p c p m N N M M m p c M <.>.>.m y M <.>.s =.2.B.V.B.2.=.n ,.N.1.N.1.<.:.B.N.:.;.;.n b b b N =.>.B.S.S.S.B.S.S.n b ;.:.y s ;.:.:.B.V.V.V.V.V.V.V.V.H.` ` ` / W Q ^ [ |  .@.@. .z.l.z.Y.#X&X&X#X#X!.@X!.!.~.~.c.l.Q.!.!.!.!.!.Q.Q.~.R.R.Y.~.~.Q.Q.!.~.~.~.~.~.~.~.~.~.!.Q.~.~.~.~.~.~.Y.$.` 2 7 7 3 1 1 1 % % 8 g A A p u u i ",
";X;X;X;X;X;X;X,X,X,X,X,X,X,X,X,X,X,X,X,X,X,X,X,X,X;X;X;X;X;X;X;X;X;X;X;X;X;X,X<X<X<X,X,X,X,X,X,X,X,X,X,X6XyXyXyX4X2X:X4X4XyXyX4X4X4X4X4X5X5X5XsX5XsX5X5XsXsXsXsXlXlXlXlXlXlXCXCXCXCXCXrXH c p c p p p p p m N M M M m p m M <.;.=.m y M ,.>.s =.1.B.B.V.2.>.N <.1.1.N.N.:.N.N.2.<.;.;.n M b b N =.;.N.V.S.S.N.V.S.,.y ;.:.N y ;.:.:.C.V.V.V.V.V.V.V.V.D.p./ / / I I I I I h 8 5 V |  .[ j.!.!.Q.!.!.!.@X@X~.~.~.~.~.!.!.!.Q.Q.~.~.Y.l.R.R.Q.Q.Q.Q.~.~.~.R.Y.l.~.Q.~.~.~.~.~.~.Y.Y.c.c.c.z.c.$.Q % # $ % % - d A H H A i : < B p ",
";X;X;X;X;X;X,X;X,X,X,X,X,X4X,X,X,X,X,X,X,X,X,X,X,X,X;X;X;X;X;X;X;X;X;X;X;X;X,X<X<X<X<X,X,X,X,X,X,X,X,X,X6XyXyXyX4X4X:X4X4XyXyXyXyX4X4X4X5X5X5XsXsXsX5X5X5XsXsXsXlXlXlXlXlXlXCXCXCXlXlXlXf.c c p p c p p m N M M M m m y m >.<.;.M p y M 1.=.s =.1.B.V.V.:.>.N >.:.1.1.N.N.C.2.:.;.;.;.n M b b b n ;.N.V.V.S.Z.,.S.V.y ;.<.M y =.:.:.C.B.V.V.V.V.V.V.V.V.H.I L L L L L L e e 0 0 ^  .@. . . .X. .l.~.Q.Y.Y.Y.c.Y.~.Q.Q.Q.E.R.~.Y.l.R.!.!.Q.Q.~.~.E.~.~.Y.c.c.~.!.!.Q.~.~.~.Y.c.c.l.z.z.@.@.| [ Q . + # > B H H H H i : : u u g i ",
";X;X;X;X;X;X,X,X;X;X,X,X,X,X,X,X4X,X,X,X4X4X,X,X,X,X,X;X;X;X;X;X;X,X,X,X;X;X,X,X<X<X<X<X,X,X,X,X,X,X,X6XyXyXyXyXyX4X4X4XyXyXyXyXyX0X4X0X5X5X5X5XsXsXsXsXsXsXlXlXlXlXlXlXlXlXlXlXlXlXzXzX].p p c c c c c S M n M N J c y M ;.;.>.m p b >.,.n m =.2.B.V.V.2.>.n =.,.:.1.N.N.2.:.:.<.<.;.;.M N b N N =.B.B.S.S.D.m S.S.M n ;.>.y =.<.:.2.B.V.V.V.V.V.Z.Z.Z.Z.H.h.p.U r r r r W [ z.l.c.c.c.Y.~.c.@.X. ...z.l.c.c.c.~.R.R.Q.~.~.~.~.~.!.!.!.Q.R.~.~.~.R.R.Q.Q.Q.Q.!.Q.~.~.~.c.c.z.#.#.@.| [ ^ Q Q h d j D H 3.p.g u : : : a A A k p ",
";X,X;X;X;X;X,X,X,X,X,X,X,X,X,X4X4X,X,X,X4X,X,X,X,X,X,X;X;X;X;X;X;X,X,X,X;X;X,X,X<X<X<X<X,X,X,X,X,X,X,XyXyXyXyXyXyXyX4X4XyXyXyXyXyX4X4XsX5X5X5XsXsXsXsXsXsXlXlXlXlXlXlXlXlXlXlXlXzX|.{.n.h.p c c c c c m K M N M m m y v M >.>.>.m y N ,.,.n s ;.2.B.V.V.1.>.M M ,.:.B.V.B.N.:.:.:.<.;.;.n N b N N =.1.B.S.S.D.S B.S.<.n ;.>.y n ;.:.C.N.V.V.V.V.V.V.Z.Z.Z.{.|.|.{.h.y.p.@.z.l.z.z.z.#.z.z.z.c.Y.Y.z.z.| @. .z.R.R.E.Q.Q.E.!.!.!.!.!.!.!.!.Q.~.~.l.~.!.!.!.!.!.!.~.~.c.c.z.#.@.| | ^ Q V h f G u.u.5.u.3.H B * * : : : a J m y p ",
";X,X;X;X,X,X,X,X,X,X4X,X,X,X,X,X4X,X,X,X,X,X4X,X,X,X,X;X;X;X;X;X;X;X,X,X;X;X;X;X,X<X<X<X<X<X,X,X,X,XyXyXyXyXyXaXyXyXyXyXyXyXyXyXyX0X0X5X5X5XsXsXlXlXlXlXlXlXlXlXlXlXlXzXzXzX|.n.e.e.e.e.q.c p p c c p m >.M M M m m y m M >.;.M v y n ,.<.n p <.1.B.B.V.1.>.=.N ,.:.B.Z.V.B.N.1.:.<.;.n M M N N N n ;.N.S.S.D.6.<.S.N.b =.<.a n ;.:.C.C.B.V.V.V.V.V.Z.Z.Z.D.{.{.{.|.|.|.{.].].].].I.v. .@.z.c.Y.Y.c.c.c.c.c.l.l.R.Q.!.!.!.!.!.!.!.!.#X!.@X!.Q.Q.Q.@X@X!.!.!.Q.Q.Y.c.z.#.#.| [ ^ Q V j j D H u.5.u.u.A i g j * : : : < a m J 6.{.",
";X,X;X;X,X,X,X,X,X,X4X4X4X,X,X,X4X,X,X,X,X,X,X,X,X,X;X;X;X;X;X;X;X;X;X,X,X;X;X,X<X,X,X,X<X<X,X,X,X,XyXyXyXyXyXaXaXyXyXyXyXyXyXyXyXaXaXsXsXsXsXsXlXlXlXlXlX5X5XzXzX'.{.n.e.e.e.e.w.w.w.w.q.m c c c p y S 6.M M N v v p m >.>.>.N y c ;.,.;.N y <.N.B.V.V.1.>.M n ,.2.B.V.V.B.N.1.:.;.;.;.M M N b N n ;.:.S.S.S.Z.b S.B.n n ;.y b ;.:.N.2.C.B.V.V.V.V.V.V.V.V.D.e.e.e.{.{.{.|.|.|.|.|.{.{.].].~.l.z.z.z.c.c.z.z.Y.~.~.Q.Q.!.!.#X!.!.!.!.!.!.#X#X#X@X!.!.Q.~.~.~.c.z.#.@.[ ^ Q C h h B G u.S H 3.H u * O u j f * : : : : k 8.{.|.{.",
";X,X;X,X,X,X,X4X4X4X4X4X4X,X,X,X4X4X4X,X4X,X:X,X,X,X,X,X,X,X,X;X;X;X;X;X;X,X,X<X<X,X,X,X<X<X,X,X,XyXyXyXyXyXaXiXiXyXyXyXyXyXyXyXyXyXaXsXsXsXsXsXlXlXlX5X5X&Xn.n.e.w.w.w.w.w.w.w.w.w.w.w.q.v v c p y m 6.6.M N m c p m M >.>.M m y m <.:.;.N y =.:.C.V.V.1.>.M n ,.N.C.B.V.N.N.1.:.;.;.>.M N M N M M n <.V.S.S.D.s V.V.;.b ;.m s =.:.N.C.C.B.V.V.V.V.V.V.V.Z.D.D.D.e.e.{.D.{.{.{.{.{.{.|.|.{.].].U.#.#.z.#.c.~.~.~.~.~.R.~.~.Q.!.#X!.!.!.#X#X@X@X!.!.#X!.!.~.Y.z.@.[ [ Q V q , f G H 3.S S g : o o o o > f q * : : p 7.{.|.|.{.{.",
";X:X,X,X,X,X,X4X4X4X4X4X4X4X4X4X4X4X4X4X4X:X:X2X,X,X,X,X,X;X;X;X;X;X,X;X,X<X<X<X<X,X<X,X<X<X,X7X7X7XyXyXyXiXiXiXiXaXyXyXyXyXyXyXyXyX0XsX5XlXlXlX5XzXzXn.n.e.w.w.w.w.w.w.w.w.w.w.w.w.w.w.e.m c p y c S 6.M M m m y y M M >.>.M p y M ,.1.<.N y <.:.N.B.V.,.>.n n ,.N.C.B.B.N.N.1.:.<.;.>.M N N N M n n =.V.S.S.S.4.1.S.N.n =.n y =.<.C.C.C.B.B.V.V.V.V.V.V.V.D.D.{.{.{.{.{.{.{.{.{.{.D.D.e.e.e.n.h.c.z.z.z.l.c.c.~.c.Y.c.Y.~.Q.!.!.!.!.!.!.~.Q.Q.@X!.#X@XQ.Y.z.@.[ Q C h g g D H i.u.D g * o o o o o o O * * * : z {.|.|.G.G.{.{.",
";X2X2X2X;X,X,X2X2X4X4X4X4X4X4X4X4X4X4X4X4X,X4X2X,X,X,X;X;X;X;X;X,X,X,X,X<X<X<X<X<X<X<X<X,X,X,X7X,X7XyXyXaXiXiXiXiXiXaXyXyXyXyX4X4X4X3X@X{ b.&XzXn.e.e.w.w.w.w.w.w.w.r.0.r.w.w.w.w.w.w.e.e.m c p c M 6.6.M M v c y J N M >.>.m y m M 1.1.<.N a ,.2.C.C.N.,.>.n n ,.N.B.B.B.N.N.,.<.;.;.>.>.n N M M n n =.Z.S.S.V.6.M S.S.;.n =.y n ;.2.C.C.C.B.V.V.V.V.V.V.V.Z.D.{.{.{.{.{.{.{.{.D.e.e.e.w.q.9.4.u.c.Y.Y.Y.Y.~.Q.~.c.z.z.c.~.Q.Q.Q.Q.Q.~.~.Y.Y.Y.~.~.Q.~.c.@.| ^ C h d B F H S S S H , O O O O O O = > , , < < < s q.|.|.{.{.{.{.",
"2X2X2X,X,X;X;X2X2X2X4X4X4X4X4X4X4X4X4X4X4X4X4X2X,X,X,X:X;X;X;X;X,X,X;X,X<X<X,X,X,X<X<X<X<X,X,X,X,X7X7XiXiXiXyXiXyXyXyXyXyXyX,X:X>X+Xc.c.v.y.9.q.r.w.w.w.w.w.w.w.e.e.w.w.w.w.w.w.w.w.w.e.e.m p p m >.6.M M m y c m m N M >.M m y m >.N.1.<.b y ,.2.N.N.1.,.=.n n ,.N.B.B.B.N.1.:.:.;.>.>.>.M N M n n n <.V.S.S.S.Z.v S.S.<.n ;.a b ;.C.C.C.B.B.B.B.V.V.V.V.V.Z.D.{.{.{.{.{.{.{.e.e.e.q.q.9.9.i.f.l.c.c.Y.Y.~.~.Q.Q.Q.Q.@X@XQ.Q.Q.Q.T.Y.c.c.c.#.#.@.| | [ [ ' Q j f g F u.5.5.S S u.u.f , ; O * ; , , , , , u u u k -.q.G.{.G.{.{.",
"2X2X2X;X2X2X;X,X2X4X4X4X4X4X4X4X4X4X4X4X4X4X4X4X:X,X,X:X,X;X;X;X,X,X,X,X<X<X<X<X,X,X<X,X,X,X,X,X,X7X7X7X7XiXiXiXyX7X6X:X>X%X+Xc.c.$.z.c.z.v.a.q.0.0.r.w.w.w.w.w.w.e.e.e.e.e.e.w.0.w.w.w.e.m p m K 6.>.N M m y c m m N M >.N p v M ,.B.1.;.b y :.2.N.1.N.>.n n =.<.N.B.V.B.1.,.:.:.<.<.>.>.>.M n N n n ,.V.S.S.S.Z.i S.S.B.n >.a b ;.2.N.N.C.V.B.C.C.V.B.V.V.V.D.D.{.{.D.e.e.e.q.q.9.4.s s y.~.Y.~.~.Y.c.z.z.Y.~.Q.Q.@X@XQ.Q.~.~.Y.c.c.z.#.@.| _ ^ ^ Q Q ^ C B A F u.i.5.3.3.i.g.f.G , * O ; > , , d , , , u u i J -.-.q.G.G.G.G.",
":X2X2X2X2X2X2X2X2X2X4X4X4X4X4X4X4X4X4X4X4X4X4X4X,X,X,X;X,X;X;X;X;X;X;X<X;X<X<X,X,X,X<X<X<X<X,X,X,X,X7X7X7X7X7X6X:X1X%XXX$.$.$.#.$.#.z.z.z.z.l.x.h.9.r.w.w.w.w.w.w.e.e.e.e.e.e.e.w.w.w.w.e.m p K >.6.N N M m p c S S M n M b y N >.N.N.1.;.v b 2.2.N.:.,.>.n n n <.B.V.V.N.2.:.,.,.,.,.<.>.>.=.n N n ;.1.V.S.S.S.S.A S.S.S.>.=.y s =.2.C.C.C.B.V.B.C.B.B.V.V.Z.Z.D.D.e.e.q.q.9.9.9.4.a i a 4.v.c.c.c.Y.~.Y.Y.T.~.~.~.~.~.T.T.Y.c.c.z.@.| [ ^ ^ _ V h 5 h C H u.u.u.H A 3.5.i.i.5.u.] j > , 8 , , , , , i f g g A H 9.-.-.e.G.G.G.",
"2X2X2X3X2X3X2X2X2X2X4X4X4X4X4X4X4X4X4X4X4X4X2X2X,X,X,X,X,X;X;X;X;X;X;X<X<X<X<X<X,X,X<X<X<X<X,X<X<X,X7X,X,X>X1X+X$.$.$.#.#.#.c.c.z.#.#.#.z.c.c.c.l.x.b.h.e.w.r.0.w.w.w.w.e.e.0.w.e.e.e.e.e.M m >.6.M N M m c c c M M N n M y b M >.N.B.1.;.b n 2.N.1.1.,.=.=.n =.<.Z.V.V.1.<.,.,.,.,.,.<.>.>.=.n b n ;.N.V.S.V.V.S.M B.S.S.1.n b y =.:.C.C.B.C.V.B.C.N.B.V.V.V.V.D.e.q.9.9.9.4.J p g F H A 4.a.z.z.c.Y.c.z.c.Y.Y.Y.Y.Y.c.c.c.z.#.@.| [ ^ ^ Q 8 W f j j H u.g.g.H g : u u.5.H 5.H 5.d u d q q d 8 q d d g g F H S F k 9.-.-.D.G.G.",
":X2X2X2X2X2X2X2X2X2X4X4X4X4X4X4X4X4X4X4X4X2X2X2X4X,X,X,X,X;X;X;X;X;X;X;X;X<X<X<X<X<X;X<X<X<X<X<X,X>X1X%X+X$.$.#.#.#.z.z.#.#.z.c.z.z.@.#.#.c.c.c.c.c.l.l.x.h.h.q.0.r.w.w.w.w.0.w.w.r.0.e.e.M M >.m M N m m p c v M N N M m y M n ,.C.B.N.:.b n N.N.N.:.,.=.n =.;.,.V.V.B.:.<.N.,.,.,.,.,.<.>.M n N n <.B.V.V.V.S.S.K N.S.S.B.n N y n :.C.N.B.C.V.B.C.C.B.B.V.S.S.S.8.9.9.4.s a g F u.u.H 3.J t.#.z.c.Y.Y.Y.Y.Y.c.c.c.c.c.#.| [ [ ^ Q Q Q e 8 > 0 C H u.p.u.A u < p i A 3.S J H 5.5., , , , , d f f g B F H H H H H f p -.-.-.D.G.",
"3X2X4X2X2X4X4X4X2X4X4X4X4X4X4X4X4X4X4X4X4X2X2X2X4X,X,X,X;X;X;X;X;X;X;X<X<X<X<X<X<X<X;X;X;X>X1X1X+X$.$.#.#.#.#.#.#.#.#.#.z.c.c.c.c.c.c.c.c.z.#.#.z.z.z.z.l.l.x.b.h.h.q.q.q.0.0.-.0.e.w.w.e.4.6.M y S m m c y m v M M M N y m M >.1.B.B.B.:.N >.<.<.1.1.,.=.n ;.;.<.N.V.B.;.<.N.N.,.,.,.,.<.>.M n N n ,.B.V.V.V.S.S.>.,.S.S.V.=.N y n ;.2.N.N.2.B.B.C.2.B.B.B.V.S.S.D.4.p p A 3.i.i.5.S u.H k ] v.c.c.c.Y.Y.c.c.c.c.z.#.@.[ ^ Q Q h h f h j j D f B i.] A < * : u S S 5.3.3.i.g.A H u , , , i f g A H H S H u.t.H g * * s -.-.-.8.",
"3X2X4X4X4X4X4X4X4X4X4X4X4X4X4X4X4X4X4X4X4X4X2X4X:X,X,X;X;X;X;X;X;X;X<X<X<X<X;X<X;X;X1X1X+X X$.#.#.#.#.#.#.#.c.z.#.@.@.#.z.z.c.c.c.c.c.c.c.c.c.@.@.z.c.Y.~.~.~.~.l.x.b.b.h.q.9.q.*.w.e.e.e.6.S c c m m m p c m m m M S m y >.n <.N.B.B.B.N.b ,.2.:.<.<.>.=.=.;.<.=.<.V.N.;.;.N.N.N.,.,.,.>.>.M n N =.1.B.V.V.S.S.S.>.>.S.S.S.,.M y n <.2.N.C.C.B.B.C.2.B.C.B.V.S.V.S.H.J H u.g.i.u.F 3.3.J l y.p.c.z.z.c.c.z.#.#.#.@.[ ^ ^ V h h h j C G ] H 3.C q g O * * * : i 4.3.i.5.H u.3.5.H d u d g A A F H H H u.p.H g : : * * * N -.-.-.",
"3X3X4X4X4X2X2X2X4X2X4X4X4X4X4X4X4X4X4X4X4X4X4X2X,X,X;X;X;X;X;X;X;X;X;X;X;X;X;X1X%X X$.$.#.#.@.@.@.@.#.#.#.c.c.c.c.#.#.#.@.| @.#.#.#.#.c.c.c.Y.T.Y.Y.T.c.z.c.c.c.Y.~.R.~.W.].b.b.b.b.].b.n.7.p p A m m c y m J m M N m y M >.=.,.N.B.B.C.,.y 1.N.N.2.,.<.;.=.;.,.;.=.2.1.;.n ,.N.N.N.,.,.>.n M n n ;.N.B.B.V.V.V.V.1.M S.S.S.N.n y n ;.2.C.C.2.B.V.C.2.C.C.C.B.V.B.S.Z.7.u.u.i.3.H A u.S A J ] ]  .#.z.z.#.#.@.@.[ [ ^ Q h f j B G } u.u.i.u.D , h , * * * : : p 3.3.i.3.3.5.J 5.H f g A F F H S 3.u.u.] g * : : : * * O O =.-.-.",
"3X4X4X4X2X4X4X2X2X4X4X5X5X5X4X4X4X4X5X4X4X4X4X2X2X:X;X;X;X;X;X;X;X;X1X1X1XoX$.$.#.@.#.#.#.#.#.@.@.@.#.#.#.z.c.c.z.c.c.c.c.c.@. .@.@.#.c.c.c.c.c.Y.Y.Y.Y.T.c.#.c.Y.~.Q.Q.~.~.Q.~.~.~.~.Q.W.g.c y m m c c p S M m m M m y >.n ;.:.C.C.C.N.;.y 1.2.V.N.1.,.<.<.;.,.;.,.<.<.=.;.N.N.N.N.,.<.>.n n n n <.B.B.V.V.V.S.V.Z.M S.S.S.B.n s n ;.2.C.C.2.C.B.C.C.C.C.C.C.B.B.V.V.Z.D A J J S D H H H k { F ' | | @.#.@.| [ ^ Q V h B D H i.f.f.f.p.G > X X h , O * : : : a 4.5.5.A S S 5.i.u.H H 5.H H u.i.i.} g ; * * * : : * O O O * =.-.",
"3X4X3X3X2X4X4X4X4X5X4X5X5X4X5X5X4X5X5X4X4X4X4X4X3X:X;X;X;X;X;X;X1X1X X X@.@.@.@.@.#.#.#.#.z.z.c.@.@.#.#.#.#.#.#.#.#.#.z.c.c.c.#.@.z.z.z.c.c.c.c.c.c.T.Y.~.@XT.Y.~.~.~.T.c.Y.z.z.z.z.z.z.@.] m b m m c c p S m b m m s J >.;.;.2.N.N.N.2.n y B.C.V.B.1.1.,.<.,.<.,.1.,.;.;.,.B.B.N.,.<.<.>.>.n n =.,.V.B.V.V.V.V.V.S.4.S.S.S.B.n s n ;.2.C.N.2.C.C.C.C.C.C.C.C.B.V.V.V.S * g F S 3.H 5.i.3.p D D ^ [ | | [ | [ Q h h j D } f.g.g.g.} f O X X X X 0 > O * * : : p 3.5.i.i.i.3.i.i.i.p.3.S u.f.f.} f O O O O * * : * * O O * O * s ",
"3X3X5X5X4X4X4X5X5X5X4X5X5X5X5X5X5X5X5X5X5X5X5X3X3X;X;X;X;X1X1X%X X%.+.+. .@.@.@.@.#.#.#.#.z.c.c.c.c.c.c.#.#.@.#.@.#.#.c.c.c.Y.Y.Y.T.T.c.#.#.#.z.c.c.T.Q.Q.Q.Q.T.c.c.c.c.#.#.@.| | ^ [ ` ` ' m J m m c p A m m m m m y 6.;.;.:.N.N.N.N.;.N y B.B.B.B.B.1.,.,.<.,.1.<.=.;.<.N.B.B.N.,.<.<.>.>.M M >.N.B.B.B.V.V.S.V.V.>.S.S.S.V.;.b n ;.2.2.N.1.C.C.C.C.C.C.2.V.V.V.V.S.A i A 5.g.5.u.i.5.u.A g l h ^ [ [ _ _ V h j D p.f.f.f.a.] f o X X X X X o 5 5 * * * * * p 3.5.6.6.i.i.i.i.5.3.u.p.f.} j O o o o O o * * * * * O O * O o < ",
"3X5X5X5X5X5X5X5X5X5X5X5X5X5X5X5X5X*X&Xb.n.n.n.b.b.&X*X>X1X1X X%.+.[ [ [ [ |  .@.@.@.#.#.#.#.#.z.c.c.c.c.c.#.| @.@.#.z.c.c.c.c.c.c.Y.T.T.T.#.@.#.c.Y.Y.T.Y.Y.c.c.c.z.z.z.@.| _ ` / / ` / ` ' S K m c c p m m v m m y J >.n ;.:.N.N.N.:.;.N y N.V.B.B.Z.Z.N.;.,.1.<.<.;.:.N.B.B.N.,.,.<.<.,.,.>.M >.B.B.B.B.V.V.V.V.V.6.V.S.S.V.;.b n ;.N.C.B.N.2.C.C.C.C.B.C.B.V.S.V.Z.g S S i.5.3.3.3.3.5.k k k > V Q ^ ^ V , j u.f.h.f.p.D , ; % O O o o o > 8 8 f d d u , < i J 5.i.5.i.i.5.3.u.i.p.} f O = = = = O = * * * * * O O O * * O , ",
"3X5X5X5X5X5X5X5X5X5X5X5X5X5X&X].n.n.q.q.q.q.e.e.n.n.n.n.b.$.%.` ^ ' ' ' ' [ | |  . . . .@.@.#.#.c.c.c.c.Y.c.#.@.#.#.#.z.z.z.c.c.c.c.Y.T.Q.T.c.c.c.c.Y.~.Y.Y.~.Y.c.c.J.@.+.` / / / / / / / Q 5.K m c c y m b m m m m >.n ;.<.:.N.N.2.;.;.b s B.B.B.B.Z.N.<.,.,.,.;.<.:.1.N.B.B.,.,.,.,.<.,.,.>.M ,.B.C.B.B.V.V.V.V.V.6.B.S.S.C.;.n n ;.N.C.B.B.:.2.C.C.C.B.B.B.V.S.Z.i p J S i.5.t.3.u.S 5.k g p - 5 V Q Q } p.x.u.p.u.B , , , q > * O * , 8 d q q f i g g g A J 5.g.i.5.3.3.u.i.i.] f = 5 8 8 , , ; > , , , , ; * * O O * * O : ",
"3X5X5X5X5X5X5X5X5X5X5X&Xb.n.n.e.e.q.q.q.q.q.q.q.e.e.e.e.e.n.b.F j C C C ^ ' ' ' [ [ [ | |  .@.#.#.c.c.c.c.Y.Y.Y.T.c.#.#.#.#.z.c.Y.T.Y.Y.T.Q.@XQ.Q.Q.Q.~.~.Y.c.c.#.#.| [ ` / / / / / / I I I H S c c c c m m 6.6.6.6.>.n ;.<.2.N.N.:.;.M m b B.N.B.N.N.1.,.,.,.<.,.1.1.N.N.N.1.,.,.,.,.,.,.,.<.;.N.2.C.B.B.B.V.V.V.V.1.N.S.C.C.<.n n <.C.C.N.N.:.:.2.B.N.V.B.B.V.Z.i < p J 4.5.i.u.u.i.u.S J k p = f C } u.b.x.u.H H ] G g h f , * * > d d d d d q f f g A F H u.u.5.3.i.i.i.u.u.H d q f h f q , , , , , , u u , , * O * * * O , ",
"5X5X5X5X5X5X5X5X&Xb.h.8.q.q.e.e.e.q.q.q.9.9.q.q.q.q.q.e.e.e.e.e.i.g 8 d h C C Q C ' [ [ | | | @.@.#.z.c.c.Y.Y.Y.Y.T.Y.#.@.#.c.Y.Q.Q.Q.Y.Y.T.~.Q.~.~.Q.~.E.Q.#.[ _ / / / / / / / / / / / L e G A c m c m b 6.>.,.>.6.>.n ;.,.N.C.2.<.;.M m M B.2.V.2.B.1.,.<.<.,.N.N.N.N.N.N.,.,.,.,.,.,.,.:.,.<.N.N.2.N.B.B.V.V.V.V.Z.1.S.C.C.:.n =.2.2.2.C.N.N.:.2.C.N.V.V.B.Z.K < , p S 4.i.u.3.i.g.u.3.F J s : u A f.g.f.t.] u.i.f.] B d * ; , , , d q q , q 8 g B F H 3.u.5.H u.f.f.i.5.i.u.A h V h q , , 8 , , d d f f f f f = O * * * O q ",
"3X5X5X5X5X*Xb.h.q.e.q.q.q.q.e.e.e.e.q.-.-.9.9.q.q.q.e.w.e.w.w.e.e.e.4.: , 8 d h C C ' ' [ [ [  . .#.z.z.z.c.~.T.Y.~.Q.T.T.T.Q.Q.Q.Q.Q.~.c.z.c.Y.T.Y.c.$.+.&.` I I I I I / / / / / / / / I r G m m c c M M 6.M >.6.>.>.>.<.N.N.N.,.<.;.N >.,.1.1.N.B.Z.1.<.<.,.1.N.N.N.1.1.,.:.,.1.,.,.,.:.:.:.N.N.2.N.N.B.V.V.V.V.V.Z.,.S.S.S.2.n ;.C.C.C.N.:.V.N.:.V.C.B.V.Z.S : < < p 3.4.i.i.3.5.3.i.u.F J k O u g F H H t.p.u.u.D , * < , , , , q q , , d f q B F 5.5.5.5.i.f.[.f.u.H i.u.J F f , , , d d , d d d f f g D D D ; * * * * o d ",
"*X*X&Xb.h.h.q.9.q.q.q.q.q.q.q.q.w.w.e.q.q.q.9.9.q.q.q.q.q.w.w.e.e.e.e.7.g * = 8 f h C ^ ' [ | | [ @.#.z.z.c.c.c.c.Y.Y.T.Q.T.Q.Q.Q.Q.T.Y.Y.Y.$.+.` / / / / / / / I I I I I I I I I / / ` ` ` } m m v M >.>.M >.,.6.M >.<.<.N.N.1.<.>.N b V.1.,.<.1.B.1.,.,.,.,.1.1.1.1.1.:.,.,.,.,.,.,.,.:.:.:.N.1.1.N.N.B.C.B.V.V.V.Z.,.S.S.S.C.=.1.B.2.C.V.:.N.Z.N.V.B.N.6.i : : : < g 3.3.g.g.i.i.u.i.S F k p * : i i ] p.a.t.3.f.< d f u , , , , d d f f , B f u.u.5.5.5.g.f.f.u.u.u.H 5.S 5.H q 8 d d f f d f d d d B G G G C ; * * * * o f ",
"n.n.e.e.w.q.q.e.q.q.q.q.q.q.q.q.q.q.q.q.q.q.q.q.0.q.q.q.q.w.w.w.e.e.e.e.n.7.g * , 8 f C ' [ ' ' [  .@.z.z.z.z.z.c.c.c.c.c.c.c.c.c.c.T.Y.@._ I L I I I I I / / / / / / L L L L L I / ` ` ` ` } K m N ,.,.>.>.6.A.>.M N >.,.B.N.,.<.M y Z.B.;.1.,.1.1.1.1.1.N.N.1.,.1.1.:.:.:.,.,.1.,.,.:.:.:.:.N.2.2.N.N.C.C.B.V.V.V.,.,.S.S.S.C.C.=.<.C.C.B.B.N.,.B.V.Z.B > : : : : < g 3.5.g.g.5.i.i.i.t.H z k O : u a u.u.F H 3.i.f f f d d f d d g g g D H D d H 5.i.f.g.u.D , d u.H H i.5.5.H d d u f f f f d d B ] ] G ' ' ' ; O O * O O V ",
"e.w.e.e.e.w.0.q.q.q.q.q.q.q.q.q.q.q.q.q.q.q.q.w.q.0.0.q.q.q.q.w.w.e.e.e.e.e.n.n.5.u , d C Q C ^ [ |  .@.#.z.z.z.z.z.z.z.#.#.z.z.z.@.[ / I I I I I I I / / / I / / / / / L r L L I / / / ` ` G S b A.Z.1.6.M 6.>.>.M b >.>.N.1.:.>.b b ,.N.;.<.,.1.1.1.,.,.1.Z.1.,.,.,.:.,.:.:.:.:.:.:.:.:.:.:.:.2.2.N.N.2.C.C.S.V.V.>.1.S.S.C.S.S.:.=.2.B.N.N.V.1.N.6., 3 5 , , u d u g J 3.i.u.g.g.g.g.t.F z k * < g A 3.5.i H f.p.g d f f f g g A D D G p.i.G C f f.f.f.D < : , g H 3.u.5.5.5.H d d d f f u d j G ] { ' ^ ^ ^ ^ ; * O * O O C ",
"9.q.q.e.e.e.e.q.-.-.9.q.q.e.e.q.q.q.q.q.q.w.w.e.e.q.q.q.q.0.0.q.w.w.w.w.w.e.e.e.e.n.n.5.g d h C ' ' [ |  . .@.#.#.#.#.#.#.#.#.| / L L L I I I I / I I I I I I / / / / / / / / / / I / / / ` Q S >.A.A.>.K M M n >.M b M >.1.2.:.=.M M N.N.;.;.,.,.1.,.,.,.,.,.,.,.,.:.:.:.:.:.:.:.:.:.:.:.:.2.1.:.2.N.N.:.2.C.V.V.V.,.1.S.S.S.S.S.V.;.:.V.N.B.V.6.c $ 2 2 7 8 d f g B A t.i.i.g.g.g.f.g.H A a J u i F H 5.5.H H f.3.g f f f B D F H u.p.H H u.u.p.} ] D : : : : B S 3.u.u.5.u.5.G d d d d d f B { ' ' Q ^ ^ ^ ^ ^ O O O * O O X.",
"9.9.9.q.q.w.e.q.q.q.q.-.-.9.q.w.e.w.w.e.e.e.e.e.e.e.e.e.e.e.0.0.r.w.w.w.e.e.e.e.e.e.e.e.n.i.g d j C Q ' ' | | @.@.#.#.#.@.[ I L L L L L L L L I I I I I L L L L I / / I I / / / / / I L I I h S ,.,.>.K m M M >.>.M y N n 1.N.,.=.,.N N.1.;.;.<.<.<.,.,.<.<.<.<.:.:.:.:.:.:.<.<.:.:.1.:.:.:.2.N.2.2.N.1.1.:.C.V.V.V.8.B.S.S.S.S.S.S.:.:.V.N.Z.J = $ $ 1 2 - , f B A A u.i.g.f.h.b.f.g.i.p A z A A A A u.u.3.3.J 5.g.g g g D F H u.i.i.u.u.i.f.p.u.V = * : : : : B S 3.5.u.5.3.5.G f d d f C D ' ' ^ Q Q ^ ^ ^ ^ ^ O O O * = O j.",
"9.9.9.9.9.9.q.q.q.e.e.e.q.-.-.q.w.e.e.e.e.e.e.e.e.e.e.e.w.w.w.0.r.w.w.w.e.e.e.e.e.e.e.e.e.e.n.7.A f h j Q ' |  .@.#.#.[ I L L L L L L L L L L L L L I L L L L I / / I / / / / / / / / I L L I G M >.M J N N N ,.>.M y b N ,.N.:.>.,.b ,.N.<.<.,.,.<.;.;.;.<.<.<.:.:.:.,.,.:.:.<.:.1.:.:.:.2.N.2.2.2.B.N.,.<.,.B.V.S.<.S.S.S.S.S.S.S.B.<.S.6.q % % $ $ 1 2 - > j F J 3.g.h.].].f.u.i.5.5.u : < s F H J f.i.u.g.i.i.f.p A F H u.p.] u.i.f.f.f.] h O X O : : : : : g J H 5.S 3.u.3.G f f j D ' ' ' ^ Q Q Q Q ^ ^ ^ Q O * * * = = I.",
"q.9.9.9.9.-.9.9.9.q.e.e.e.e.-.0.0.0.q.w.w.w.e.e.e.e.w.w.w.w.w.w.w.w.e.e.e.e.e.e.e.e.e.e.e.e.e.e.n.3., d Q  .z.Y.c. .V 6 r r r r r r r L L L L L L L I I I I I / / / / / / / / / / / / ` ` ` ` G 5.m m J m m N ,.,.M y b N ;.N.,.7.>.N ;.>.n =.<.,.,.<.,.<.<.<.<.:.:.:.:.:.:.:.:.1.:.:.:.:.N.2.:.2.2.N.N.1.<.,.C.C.V.:.V.S.S.S.S.S.S.S.N.6.> % % $ $ 1 2 2 2 3 d 3.i.b.].].f.D z J 3.3.H * * : s 4.J u.H 3.g.i.u.g.f.p.i.f.f.i.u.p.f.f.f.p.f o $ % X o : : : : : p J S u.3.u.u.H B B D C ' ' ' Q Q Q Q Q ^ ^ ^ ' ' O * * = , 8 /.",
"q.q.q.9.9.9.-.9.9.q.q.w.w.e.e.e.e.e.q.0.0.q.q.q.q.w.w.w.w.w.w.e.e.e.w.w.e.w.w.w.w.w.w.w.w.q.q.9.4.t. .c.@X#X#X#X#X#X#Xc.Q 3 7 r r r r r L L L L L L I I I I I I / I L L L L I I I / ` ` ` ` ` { 5.m v m J m m >.,.>.y b N n n y m M =.,.=.n n n =.=.;.>.>.>.>.<.:.,.1.,.<.;.<.,.1.:.:.<.:.N.2.2.:.:.:.<.,.<.,.:.:.V.B.1.S.S.S.S.S.S.Z.S @ % $ $ $ $ $ 2 2 2 - 8 p.].b.u.g z z z u A u.H * * : k 4.S i.u.H 5.g.f.f.f.i.i.i.a.].[.f.f.] , . . o - % o o * * * : : g J 3.3.H H A C { ^ ^ ' Q ^ ^ ^ Q ^ Q Q Q ^ [  .#.O * * = q q /.",
"e.e.q.q.9.9.9.9.9.9.q.q.q.q.e.w.e.e.e.e.w.0.0.0.q.q.q.q.q.q.w.w.w.w.w.w.w.w.w.r.r.r.0.0.9.4.4.a.x.!.Q.@XQ.@X@X@X@X@X#X&X&Xc.W 3 3 r r r r L L L L L L I L L L L I I I L L L L I / / / / / / ` ' 5.m m m J S S c M K m c M >.N m b y ,.,.,.;.;.>.M M n n N N N N n ;.,.,.;.=.=.;.;.;.<.=.<.:.,.1.B.N.Z.Z.Z.Z.Z.:.B.D.V.6.Z.S.S.S.D.6., % $ $ $ $ $ $ $ 2 2 2 - 8 ] ] u z u u u a u g 5.t.* * * i J S g.g.i.f.h.f.a.u.u.i.f.].).x.] q % % = = = % > 8 , ; * * * * g J H H F D G ' ' ^ ^ ' ^ ^ ^ ^ Q Q Q ^ X.j.P.P.E.O * * = q q /.",
"q.e.e.e.q.9.-.-.-.-.q.q.q.e.q.w.w.e.e.e.e.w.0.q.0.q.q.q.q.q.w.q.w.w.w.w.q.w.q.q.0.-.-.*.t.a.~.~.~.~.~.~.~.~.Y.~.~.Q.~.Q.Q.#X&X@.r 3 r r r r r L I L L L L L L L I I / I L L L L L I I I I I / ' 6.m m m m y y c y m N a 6.>.=.6.6.M >.1.1.,.,.,.,.,.<.,.<.,.>.>.,.,.,.:.;.1.;.1.1.1.B.,.N.B.2.Z.D.B.Z.Z.Z.B.Z.N.B.S.S.Z.,.S.S.A.c - $ $ $ $ $ $ $ - - - 2 2 - - , < a a a a u i i A 3.3.O o O : p S i.g.f.g.i.u.u.u.f.[.].U. .h w h Q V q > , f h f f d f , , , g F F F G ' ' ^ ' ^ ' ' ' ^ ^ Q Q ^ [ j.P.W.W.!.!.O * * ; q f /.",
"q.q.w.w.q.q.9.9.9.=.4.9.q.q.q.q.q.w.w.e.e.e.e.w.w.0.w.w.q.q.q.q.q.q.e.q.q.0.9.-.-.4.t.v.c.Y.Y.Y.Y.~.~.~.c.z.z.z.z.z.#.z.Y.Q.#X&X@X+.W I I L L I I L L L L I I / / / / / / / / / I L L L L L I Q 5.m J c y y c m M 6.>.m 6.>.,.>.,.6.>.1.1.,.1.1.,.,.,.,.,.1.7.>.B.V.2.1.N.V.:.1.B.B.Z.Z.Z.1.1.Z.D.Z.Z.B.N.Z.>.Z.1.V.V.V.M Z.S % $ $ $ $ $ $ $ $ $ - 2 2 2 2 2 2 4 u a a a a i i u B 5.5.* o O O d H i.H 3.H H u.f.g.L.x.' h e V Q Q V V f f f f d f f f f d j B G H ] ] ' ' ' ^ ' ' ' ' ' ^ ^ ^ [ s.P.I.I.I.W.!.E.O * * = f V `.",
"9.q.q.q.q.q.q.q.q.9.*.*.9.0.0.q.w.w.w.w.w.e.e.q.w.e.q.e.w.q.q.q.q.q.9.-.-.-.9.9.h.x.l.l.z.z.z.z.l.l.c.c.c.z.| [ [ #.~.~.Q.!.!.@X#X#X#X$.h r I I I L L I I I I I I / I I / / / / / / I L L L L I D B < i p p m N 6.,.>.M 6.6.6.>.,.>.M N.N.1.1.N.,.,.N.N.,.N.7.,.B.N.N.B.B.Z.1.2.N.B.V.Z.B.N.Z.,.N.Z.Z.Z.N.K b A.Z.A.6.5.H d % % $ $ $ $ $ $ $ $ $ - 2 2 2 - - - 7 d a a a a u i u g 3.H h , * * g F A F H u.f.b.[.f.} q w h Q Q V h f f j f f j f f j g f B ' { { ' ' ' ' ' ' ' ' ' ' ' ' ' ' ..P.W._.W.W.W.W./.P.O * = = f C _.",
"9.9.q.q.q.w.q.w.w.e.q.*.-.9.0.q.q.q.q.w.e.e.e.e.q.w.q.q.q.q.q.0.9.-.-.9.9.4.y.v.z.z.z.z.#.#.#.#.#.z.z.l.z.#.[ | z.l.c.c.Y.~.~.Q.!.@X#X&X#X#.I L L L L I L L L L L I L I I I / / / ` ` ` / / / I h , p c c c m m >.,.,.Z.,.6.m S 6.A S Z.1.1.1.N.<.,.1.Z.1.N.>.1.N.N.Z.B.B.B.B.N.B.:.N.Z.Z.Z.,.>.6.6.7.6.K o o O * # # % % $ % $ $ $ $ $ $ $ $ 2 - - 2 2 2 - - 2 2 8 u a a a u u u g H H H G q C ' ] ] p.i.h.].f.f.p.' h V C C h f f f j f f f g g j B D ] ] ] G ' ' ' ' ^ ' ' ' ' ' ' ' '  .j.W._._._./._./.W._.R.* * * > q C `.",
"9.9.q.q.q.w.e.e.e.e.e.9.*.*.*.-.-.q.q.q.e.e.e.e.w.q.q.-.0.q.-.9.9.9.i.t.p.l.l.z.z.@.@.@.@.@.@.@.#.z.c.~.~.~.Q.Q.~.l.z.z.l.c.~.~.~.@X@X#X&X*X@X[ r r L L L L L L L L L L I I / / / / / / / / / / Q C A A A m c M >.<.,.Z.Z.A.; . . . u A A c M 6.>.,.,.1.A.,.>.A.Z.,.,.Z.Z.N.N.Z.,.1.6.6.K , O O O O & + + + # # # % % % $ % $ $ $ % $ $ $ - - $ $ 2 2 2 2 2 2 2 - ; u i i a u z z g H u.H g , , B G p.f.f.f.g.i.f.f.' Z V h d f f f f g f f f d j D H p.p.] ' ' ' ' ' ^ ^ ^ ' ' ' ^ '  .d.R.W./.W././._._._._._.R.* * * ; q Q `.",
"9.9.9.q.w.e.w.e.e.e.w.e.e.q.9.-.-.q.q.q.0.q.q.q.q.9.-.*.-.9.4.i.p.z.z.#.#.z.#.@.#.#. . . . . .@.z.l.l.c.Y.~.~.~.~.Q.~.z.z.l.c.Y.~.~.Q.Q.@X#X&X*XT.^ 7 r r r L L L L L L L L I I I / / / / / / I W G A A m J c m 5.6.6.5.H f & & & & & . . . . . o O * * , , < ; f , < i B B c , O O O . . . . # % # + + + # # % % % % % % % $ $ $ $ $ $ $ - 2 $ $ 2 2 2 2 2 2 2 - - , A A A A F t.t.i.F p u f D u g p.x.f.H 5.g.f.p.h h d d f f f f g g f f j G ] ] u.p.[ [ [ ' ' ' ' ^ ^ ^ ^ ^ '  .j.P.W.W./.W.W./._._._._.W._.R.* = = > q ^ `.",
"9.9.9.q.e.e.e.e.e.e.q.e.e.e.e.q.9.q.9.9.9.9.9.9.4.4.4.i.a.p.s.z.z.z.#. ...#.z.z.z.z.@.| |  .z.z.z.z.z.l.c.c.c.Y.~.~.Q.~.@.z.l.Y.c.~.~.Q.!.#X#X&X&X&X@X_ 6 7 r r L L L L L L L L I I I I I I I I I } S m A J B , = o     . . & & + + + + + + & & & & . . . . . . .           . . . . . & . & + # 7 # . . & # # % % % $ $ % % % $ $ % $ $ $ - - $ - 2 2 $ $ - 2 1 - - , D F H t.i.u.H A g g D G H < f H p.u.t.i.H u.p., d f f f f f f f g j B G ] ] ] [ [ [ [ | [ ' ' ' ^ ^ ^ ' X.j.R.W.I.W.W._.W.W._._._._.`._._.P.* = = > f ' '.",
"-.-.9.q.e.e.e.e.e.e.w.q.w.e.q.9.9.9.9.*.*.4.y.y.p.p.s.z.z.z.z.z.z.z.z.z.z.z.z.z.z.#.@. . .#.#.z.#.#.z.z.z.z.z.l.c.Y.~.!.~.c.Y.c.c.~.~.~.~.Q.Q.#X&X&X&X*X#Xc.Q L r r r r r L L L L L I I I I L L I G J B f >     .     . . & & & + + + + + + + + + + + + + + + & & . . . . . . & & . & & + + # % % % . . # % % % % % $ % % % % $ $ $ $ $ 1 $ 2 2 2 2 2 - - - - $ - 2 j p.p.p.u.F k p p D u.f.i.u., g H u.u.H u.g.i.H f f f f f f f f j B A D ] { ' ' ' ' [ [ [ [ ' ' [ ' ' ' #.J.W.W.W.W.W._.W._.W._._./._._.`._.R.* = = > f ' '.",
"4.-.-.9.q.e.e.e.e.w.w.q.9.9.-.*.*.l i.u.p.p.s.z.z.z.z.#.z.z.z.z.z.z.z.#.z.z.z.z.z.l.c.c.c.z.z.@.#.#.z.z.z.z.z.z.z.Y.~.~.Q.~.~.~.c.z.z.l.l.l.R.~.!.#X&X&X*X*X*X*X*X@X@Xc.+.W r r L L L L L L L L r q % X             . . . & & & + # # # # # # # # + + + + + & & + + + + + + + + + + + + # % % % % %     + % % % % % % % % % % $ $ $ $ $ - - 2 2 2 2 2 2 - 2 - $ 2 3 p.f.H G g p A F u.u.i.u.S A , B H g.u.i.u.] u.H f f f f f f f B G G ] ] { [ ' [ [ ' [ [ ' [ ' ' [ [ ..J.!.W.W./._./.W./.W.W._.I.W.W._._.`._.Y.* = = > q ' `.",
"k *.4.9.9.q.q.q.q.q.q.-.-.*.s F y.p.s.@.#.#.z.z.z.z.z.#.z.#.@.@.@. . .@.z.z.z.z.l.l.z.z.z.z.c.z.@.@.@.#.z.z.z.z.c.c.Y.~.~.~.~.~.~.~.z.@.@.#.c.~.!.#X#X#X@X@X#X#X#X#X#X~.T.+X&.r L L L L L L r r 6 3 % . . .       .     . & & & + # # # # # # # # + + + + # + # # # + # + + # # # # # # % $ $ % % % X   . # % % % % % % $ $ $ $ $ $ $ $ - 2 2 2 2 2 2 - - 2 - $ 2 f p.F g u i D a.u.H H J p A A g u.} i.H H F A u.H d d d f f C D ] ] } ' ^ ' [ [ [ ' ' [ ' ' ' ' '  .z.!.`.`.`._.`./._.`._._._._.W._._._.W.W._.P.* = = > q ' '.",
"d f k 4.9.q.9.q.9.-.-.4.4.]  .@.@.z.z.z.z.#.#.z.z.z.z.z.z.z.@.| | | #.z.#.#.z.z.z.z.z.z.z.z.z.l.l.@. .@.z.z.z.z.z.l.l.c.~.~.~.Q.Q.Q.!.z. .Y.!.!.!.Q.Q.~.Y.Y.~.~.~.Y.Y.Y.#.#.$.L L L r r r r 3 3 1 $ # + . .             . . & & + + + # # % % $ $ % % % # % % % % % % # # % % % % % % % $ $ $ $ % # X   . + # % % % % % $ $ $ $ $ $ $ 2 2 2 2 2 2 2 2 2 2 2 2 2 2 j k i u u g p A A p p p k A J g ] H H F G G A A G f f f B B { ] ] [ ' ' ' ' ^ Q Q ' ' ' [ [ X...R.W./._._._.`.`.`._._.`.'.'.`.`._._.`.`._.W.W.l.* = = > q [ '.",
"r r r 8 g 4.9.9.9.9.4.]  . . . . ...@.@.@.#.#.#.#.z.z.z.z.z.#.|  .@.#.z.#.@.@.#.z.z.z.l.l.l.z.z.z.l.z.#.z.z.z.z.z.l.l.c.Y.~.~.~.Q.Q.!.!.@X#X#X&X#XQ.~.~.~.c.c.c.c.c.#.@.^ ` e 3 r r r 3 3 1 1 1 1 - $ + & & . .   .       . & + + + + + # % % $ 1 1 1 $ $ $ $ 1 1 1 $ % % % $ $ $ $ $ $ $ $ $ $ $ # X   . & + # # % % $ $ $ $ $ $ $ $ $ $ 2 2 2 2 - $ $ - - - 2 C } A g g g g i i p k g A 3.5.u.g H G H H H u.u.F H j { } ] G ' { ' ^ ^ ' [ ' ' ' ^ Q ^ ^ ' ..P.W.`.`.`.'.`._._.`._.'._.`.'.`.'.'.`.`.`.'._._.W.z.= = = > q [ /.",
"3 3 3 - 4 s s s s D ] ] [ X.| |  . . .@.@.#.#.#.#.z.z.z.z.z.z.z.z.z.z.@.@.@.@.#.z.z.z.z.z.l.c.c.c.c.Y.Y.z.#.#.z.z.z.l.l.l.c.~.Q.!.Q.~.~.~.~.!.!.#X&X#X~.Y.Y.c.c.c.@.[ ` Q 5 1 1 + % 3 3 1 1 1 3 8 C f + & & . .           . & + + + + # # % $ 1 1 1 1 1 1 2 2 1 1 2 1 % % $ 1 2 1 1 1 1 1 $ % $ % + X   . . + + # % % % $ $ $ $ $ $ $ $ $ 2 2 2 2 - $ $ - - - h v.p.3.H f < * * A g A H 3.3.3.5.i G F A H } ] F H ] } v. .] ' ' ^ ^ ^ ^ ^ ^ ^ ^ ^ ^ ' [  .l.P.P.W._.'.'.'.'.`.`.`._.`._.`.'.'.'.'.`.`._.`._._.!.z.= = = > q X./.",
"d F 4.9.q.e.e.q.4.D { ' ' { ' [ [  . .@.#.z.z.z.z.z.z.z.z.z.z.z.z.z.z.z. . . . .#.z.z.c.c.c.Y.~.~.Y.~.~.Y.Y.z.z.z.z.z.z.z.c.Y.~.~.!.!.@XQ.Y.Q.Q.~.~.Q.Q.Q.~.c.z.@.[ ` W 7 o . % % % 1 1 3 6 q ' p.f. .# & .   .     . . . & & & & # + # # # $ 1 1 2 1 2 2 2 2 1 1 1 1 $ % $ 2 2 2 1 1 1 $ $ % $ $ .     . . . + # # % % % $ $ 1 $ $ $ $ $ $ - - - - $ $ 2 - q x.b.a.t.D * * * : F 3.5.i.5.5.5.] u G D H A F F H ] }  . .^ ' ^ ^ Q ^ ^ Q ^ ^ Q ^ ^ ^ | l.U.W.W._._./.W.W.W.`.'.'.'.'.`._.`.'.`.&X'.'.'.`.`.'.`._.z.= = = > q X./.",
"q.e.w.w.w.w.w.w.e.n.3.D D ' ' ' [ |  . .@.z.z.z.z.z.z.z.z.z.z.z.z.z.z.z.l. .|  .#.z.z.z.l.Y.Y.~.~.~.Q.Q.Q.Q.Q.~.c.#.@. .z.c.~.~.~.~.Y.R.Q.R.~.~.Y.c.l.Y.c.z.#.[ ^ Q ^ C g > % & # $ > q C ] u.f.f.x...+ . .   .     . . . . & & & + # # % % $ 1 1 1 2 2 2 1 1 1 1 2 $ $ $ 1 3 1 2 $ $ $ $ $ % $ $ .       . . + + # # % $ $ $ 1 $ $ 1 $ % $ $ $ $ 2 $ $ - 8 x.b.b.a.D O O O * H i.i.i.3.3.H H H f D G ] ] ] ] }  .X.[ ' ^ ^ ^ ^ ^ ^ ^ ^ Q Q ^ ^ [ @.Y.W.W._._._.`.`.`.`.).I.W.W._.'.'.'.`._.`.`.'.`.'.'.`.'.'._.j.= = = , q X.^.",
"q.q.w.w.w.w.w.w.w.e.n.7.D D D ' ' ' [ |  .@.@.z.z.z.z.z.z.z.z.z.z.z.l.c.Y.c.#.z.#.z.z.z.l.l.c.c.l.l.l.l.c.Y.Y.Y.~.~.l.Y.l.l.~.Q.~.~.R.R.Y.Y.c.c.l.z.c.z.#.| _ Q Q ^ u.p.] C V d h D ] u.i.f.f.f.x.x.} + . . . . . . . . . . . . & + + # % $ $ 1 1 2 2 3 3 3 3 2 3 1 1 2 2 3 3 3 2 1 $ $ $ $ $ $ $   X     . . . + + # % $ $ $ $ $ 1 1 2 $ $ $ $ $ - - - f x.].b.].x.] ; O O * u.3.3.3.3.S S S D d C D } ] ] } X.' ^ ^ ^ ^ ^ ^ ^ ^ ^ ^ ^ Q ^ | z.J.J.W.W._.).W._.W.`.`.'.`.'.'._.W.W.W.W._.'.'.`.'.'.'.'._.'.'.`.#.; = ; , q X._.",
"0.0.w.w.w.0.0.w.w.e.e.e.e.3.A D ^ { ' [ |  ...@.#.z.#.z.z.z.z.z.l.l.l.c.c.c.Y.~.Y.l.z.@.@.@.@.@. . .#.z.c.l.z. .'  .c.~.c.Y.~.R.~.c.Y.Y.l.Y.z.@.z.#.@.+.^ Q Q Q C D } p.f.f Q C s.f.f.f.f.f.a.u.t.t.] + . . . . . .     . . . & & & + # % $ 1 1 1 2 2 3 3 3 3 3 3 3 3 3 3 3 3 3 2 1 $ $ $ $ $ $ 1 . X   . .   . . + # % $ $ $ $ $ 1 1 2 - $ % $ $ $ - j f.].].b.b.b.p.d O O O H H S 3.S S k F B , f G } } X.' ' [ [ [ ^ ^ ^ ^ ^ ^ ^ ^ ^ | z.E.E.!.W.W.W.)._._._._._.`.`.`._.`.`.'.'.'.W.P.P._.`.'.'.&X'.`.`._.`.#.; = = , 8  ._.",
"0.0.w.w.0.0.0.0.w.w.w.w.e.e.h.H B D ' ' [  . . . .@.@.#.z.z.z.z.z.z.z.l.l.c.c.c.~.~.Y.#. . . . .z.~.~.~.~.~.~.~. .X...l.l. .#.Y.R.l.z.z.z.z.z.@.| [ Q Q Q C V C D G p.x.f., d j d.x.f.f.u.u.5.H 3.u.} # & . . .   . .   . . . & & & + # % $ 1 1 2 3 3 3 3 3 3 3 3 3 3 3 3 3 3 3 3 1 $ $ 1 1 2 $ $ .             . + + # $ $ $ $ $ $ 1 1 2 $ $ $ $ 5 ' a.b.b.b.b.b.b.p.j O O O S S J H H A A F B > C  .[ ' [ [ [ ^ ^ [ [ [ ^ ^ ^ ^ ^ [ #.~.!.!.W.W.W.W.!.W.W.W.W.W./._._._.`._.`.'.'.'.W._.`.!.P.P.W._.'.&X'.'.&Xz.= ; ; , 8  .`.",
"0.0.0.0.0.0.0.0.0.w.r.w.w.w.e.e.7.F C Q ' ' ' [ |  . .@.#.z.z.z.z.z.z.z.z.l.l.l.c.Y.Y.Y.@. .@.l.~.~.~.Q.!.!.!.!.Q...[ ..~.~...X.l.Q.z.#.@.@.| ' ^ Q Q C C B C ] f.].].].U.f 8 C } f.t.H H 3.u.u.i.g.p.# & . . .   . . . . . & & & + + # # $ 1 1 3 3 3 3 7 3 3 3 3 3 3 3 3 7 7 3 3 1 $ $ 1 1 2 2 > >             . & + # % % $ $ $ $ 1 1 1 2 - 7 C p.x.b.b.b.b.].b.b.v.{ * O * H J m J A D A D j 8 V ^ ^ [ ^ [ [ [ [ [ [ [ ^ ^ ^ [  .J.!.!.!./._.W.W.W.`.)._._.W._._.`.'.)._.W.W.W._._.'.`.'.'._._.!.E.R.R._.'.&Xz.= ; ; , 8  .'.",
"-.0.0.0.0.0.0.0.0.0.0.r.w.w.w.e.e.e.6.D C Q ' ' [  . . . . .@.@.#.#.z.z.l.l.l.z.c.Y.~.~.~.~.!.!.Q.~.~.Q.Q.Q.!.@X@X#XY...z.Q.Q.z.z.#.z.@.| ^ Q Q W C C C D p.x.].).].].x.a.j , f j D H H H u.i.i.i.i.u.- . . . . . . . . & & & + + + # # # $ 1 1 2 3 3 3 7 7 7 7 7 3 7 7 7 7 7 7 3 2 $ $ $ $ 1 1 , g o           . . & + + % % % $ $ $ 1 2 2 h ] a.f.f.f.b.b.b.].b.x.x.{ ; O O J H J S F F H G ^ Q ^ ^ ^ ^ ^ ^ Q [ ^ [ ' ^ ^ [ | #.J.!.!./.`.'.`.'.'._.`._.'.'.`.`._.`._._.W.W.W.W.W.W._.`._.`._._._.`.'.`.W.P.P...= ; ; , 8 #.'.",
"-.0.0.0.0.0.0.0.0.0.0.0.0.w.w.w.e.e.e.8.F C ^ ' ' X.|  .| |  .@.@.@.#.z.z.c.c.c.Y.Y.Y.~.~.~.~.~.~.Q.~.Y.~.~.~.Q.!.Q.Q.!.@.l.Y.Y.z. .' [ ^ Q Q V j C ] x.U.].].].].f.] H H j * d g D 3.u.u.i.5.J H S 3.> & & . . . . . . & & & + + + + # # $ 1 1 1 3 3 7 3 3 7 7 7 3 3 3 7 7 7 7 2 2 2 2 2 $ 2 - ; H d +           . . . + # % % $ % % $ 2 e { a.a.f.a.f.f.b.b.b.b.b.x.y.8 O * A J H F F ] ] ' ' ` ^ ^ ^ ^ ^ ^ ^ [ [ ^ ^ ' [  .@.z.P.W.'.'._._.`._.`.'.'.'.'.'._.).W.).`.W.!.W.W._.W.W.W.W.W.W.W._.!.`.'.'.'.&X&X..; = ; , 8 j.'.",
"0.-.-.-.0.w.w.w.w.0.0.0.0.r.w.w.e.e.e.e.e.3.B D ' ' ' [ X.|  . .@.@.@.z.z.c.z.l.c.c.c.Y.~.~.~.~.~.~.~.c.Y.Y.l.l.c.c.c.J.z.|  .[ Q Q V V V h j C } x.].].].].].p.D A A A F g * u j F H u.u.J S i.g.i.i.f + . . . . .   . . . & & + # # # # $ 1 1 3 3 3 3 3 7 7 7 7 7 7 3 3 3 7 3 2 1 2 2 - - - $ , F F j ,         . . . . + + # % $ $ 2 3 C p.a.a.f.a.f.f.b.b.b.b.b.x.p.f * : A F D F H { ' ^ ^ ^ ^ ^ ^ ^ ^ _ ^ [ [ [ |  .@.z.J.E.!._.`._._._.`.'.'.`.'.`.'._.W.!.W.W.!.W.W.W.W.W.!.).!.W.W.W._.!._.W._._._.'.'...; = = > 8  ./.",
"0.q.q.-.-.0.0.0.0.0.0.0.w.w.w.w.w.w.w.e.e.e.h.A C C Q ' ' [ |  .@.@.z.z.l.c.l.l.c.c.c.Y.Y.~.~.~.~.~.~.~.l.c.z.#.@.@.@.| | ^ V V V V h h j { f.x.].].].].b.u.A k p p g A H D , g g H 3.5.A u.5.u.F u.u.d + . .   . .   . . & & & & + # # # $ $ 1 3 3 3 7 7 7 7 7 7 7 7 3 3 3 3 3 1 1 1 1 2 2 - - 8 H H ] u.f       .       . . & # $ $ 2 8 { u.a.u.a.a.a.f.b.b.b.b.b.b.p.Q d C F D D G { [ ' ^ ^ ^ ^ ^ ^ ^ ^ ^ ^ [ |  .#.z.J.W.!._.'._._._._._.`.'.'.'._.`.`._._._.W.W.!.).W.W.W.W.W.W.W.W.W.).`._._.W.W.W.!.W._.| ; ; ; > 8 #.P.",
"0.0.0.w.0.-.0.0.0.0.0.0.0.0.0.w.w.w.w.w.w.e.e.n.F j C ' ' X. . .@.z.z.z.z.z.l.c.c.c.c.c.c.c.c.c.Y.c.c.Y.z.z.@.| [ Q Q Q V V h h h h C ] x.].].].].].x.H k p p k k g H f.x.H u B H 3.i.k A H H ] D t.i.C + . .     . . . . & & & + + # # # # $ 1 3 3 3 7 7 7 7 7 7 7 7 7 3 3 3 3 2 1 $ 2 2 2 2 - f u.u.3.] B %             . . + % $ - 3 l u.a.a.a.a.a.b.f.f.b.b.b.b.b.p.{ C D D C ' [ [ [ [ ^ ^ ^ ^ ^ ^ ^ ^ ^ [ | @.z.J.R.!.`.'.`._._._.`.'.'.`.'.`._._.`._.W._.W.W._.!.).).W.W.W.W.W.W.W.W.W.!.W._._._.W.!.W.W.| ; ; = > 8 l.'.",
"q.0.0.w.w.-.-.-.0.0.0.0.0.0.0.w.r.w.w.w.w.e.e.e.e.5.g D ' ' [  . . ...#.z.z.l.c.c.c.c.c.c.z.z.z.z.z.#.@.z.@.@.^ Q Q V h h h h j G u.f.].].].].].f.H A p p p k k H i.f.x.x.} u g F 3.F F F ] D S D H H B + . . . . . . . . . & & & + # # % $ 1 1 2 3 7 7 7 7 7 7 7 7 7 7 3 3 3 3 2 2 2 2 2 - - - C u.H A p D { 8 o         . . + % $ 2 j y.a.a.a.a.a.a.f.f.b.b.b.b.b.b.a.{ B D ' ' [ [ [ [ [ ^ ^ ^ ^ ^ ^ ^ ^ [ @.z.l.R.!._.'.'.'._._._._._.`._.`.`._.W.!.W.!.!._.)._.W.W.W.W.W.W.!.W.W.!.W.).W._.W.W.W.W.W._.W.W.X.; ; ; > 8 l.!.",
"0.0.0.0.q.w.-.-.-.0.0.0.0.w.0.w.w.w.w.w.w.w.w.e.e.e.n.S B C ' { [ |  ...z.z.z.l.c.c.l.z.z.#.#.@.@.@.@.| [ ^ ^ Q Q V h h j C ' u.x.].].].].d.] H ] p p k p A ] ] u.] u.p.f.u.u A A 3.F u.F ] H 3.p.u.u.f # . . . . . . . . . & & + + # # # $ 1 1 3 3 3 7 7 7 7 7 7 7 7 7 7 3 3 2 2 2 2 2 - - 2 2 j A k A H u.u.] 8 - + .     & & % - C y.p.a.i.i.a.a.a.f.f.f.b.b.b.b.b.f.{ C ^ ' ' ' [ [ ^ ^ ^ ^ ^ ^ ^ ^ [ | #.j.P.W./._.`._._._.`._.'.W.W._._.)._.).`._.!._.`.!._._._.W.!.!._.!.`.W.W.).!._._.W.W.W.W.W._._.W.W.[ ; ; ; , 8  .R.",
"q.w.w.q.q.q.q.q.0.0.0.0.0.0.w.w.w.w.w.w.w.w.w.w.e.e.e.n.7.3.l C { { [  ...@.#.z.z.z.#. . .[ [ _ Q Q Q Q Q V h h f h C D ] f.].].[.].L.} C * * H A p p H t.u.F J H H H A p.p.d A D H A u.H u.H g.a.u.u.' + . . . . . . . . & & & + + # # # $ 1 1 2 3 3 7 7 7 7 7 7 7 7 7 7 7 3 3 2 2 2 2 - - - 2 d J 3.u.u.u.t.D u , % . . . . @ f { t.y.u.y.a.u.u.a.a.a.a.f.f.b.b.b.b.x.] C Q ^ Q ^ ' ^ ^ ^ ^ ^ ^ Q ^ | ..j.P.W.W._./._.`.`.W.W.W._._.W._.W.`.`.!._._.!.!.).`._._.)._._.W._._.`.`._._.`.`._._._.!.!._.W.!.!.!.W.[ ; ; ; > , z.`.",
"w.w.q.q.q.q.q.q.0.0.0.0.0.0.0.0.0.0.w.w.w.w.w.w.w.e.e.e.e.n.n.y.g C ' [ |  .#.z.@. .| [ Q Q W h h h h e f q h h B { p.x.].].].].x.] , * * * * F A H u.f.] F u.i.i.] i.i.H i.g A D H A 5.F u.f.g.u.f.f.Z + . . . . .     . . & & + + # # # $ $ 1 2 3 3 7 7 7 7 7 7 7 7 7 3 3 3 3 3 2 2 - - $ - - d u.u.u.u.F p u u , 8 8 8 j j D { ] t.t.y.u.u.u.a.i.a.a.a.f.f.f.b.b.b.x.p.^ Q Q Q Q ^ ^ ^ ^ Q ^ ^ [  .j.K.U.W._._._._._._.`.'._._.'._.`._.'._._._._._._._.!._.).)._.!.W.W._.W.)._.`.`.'.`._._._.W._.'._.!.W.!./.[ = ; ; > , c.`.",
"0.0.0.0.9.q.q.0.0.0.w.w.0.0.0.0.0.0.w.w.w.w.w.w.w.e.e.e.e.e.e.{.h.H j C { [ ^ ' [ ^ Q V h h h e 0 w e f j B ] f.x.x.].b.U.x. .h * * * * : : u p H u.u.F H u.u.D p.F i.i.H u.g g D t.i.H H H u.f.g.i.u.f . . . . . . . . & . & & + + # # # # $ 1 2 3 3 7 7 7 7 7 7 7 7 7 3 3 3 3 1 $ - - - - - - d 3.3.F g u u u i g d d f j D D D F F t.t.t.y.y.y.u.a.a.a.a.a.f.b.b.b.b.v.' Q Q Q Q ^ [ ' ' ' [  . .k.U.W.W./._._._._./._._._._.W.W._._.W._._._.`.R.`.`._.W._._._.'._.W.W.!.W.!._._._._.).W.W.W.!.W.`._.`.W./.`.[ ; ; = > , Y.`.",
"0.0.0.q.q.q.q.0.0.0.0.w.w.-.-.0.0.0.0.w.w.w.w.w.w.w.e.e.e.e.e.e.e.n.h.j j q 7 0 h h h q q q 8 h h C C D p.L.].].].].].x.] , X X O * * * * : g p A u.F F F D B D ] H i.i.} a.g g A u.f.f.f.f.f.f.f.f.f.h & & . . . . . . . & & & + + # # # $ $ 1 2 3 3 7 7 7 7 7 7 7 7 3 3 3 3 2 2 2 $ - $ - 2 2 d k u u u u i D t.H 8 d f j l l D D F t.y.y.u.y.y.y.y.a.a.a.a.a.f.f.b.x.a.{ Q ^ ^ ^ ' [ '  . ...j.l.U.W.W._._.W.I.I.I.W.W._.W.W.W.W.W.W._._._.'.&X&X&X_._._.W.`.!._._._._.W.!.!.W._._._._.!._._._.`.`.`.&X&X&X^.' ; ; = > , J.^.",
"9.-.9.9.0.0.0.0.0.0.0.w.w.0.q.q.q.0.0.0.0.w.0.w.w.w.w.w.w.w.e.w.e.e.e.h.g - > 8 e w q 8 8 f j C C ] a.b.].].].].U.d.C O X X X X o * * * * : p p A 3.A A u.D F B A D H u.p.f.B g F u.u.u.u.u.g.f.f.f.a.h + & . . . . . . & & & & & + + # # $ 1 1 2 3 7 7 7 7 7 7 7 7 7 3 3 3 3 2 2 2 $ $ - - - ; 4 a u u p D 3.t.] G , , d d g l l D D H ] t.y.y.u.y.y.a.a.a.a.a.a.b.x.x.a.] Q ^ ' ' ' Q [ ..j.P.I.W._._._._._.W.I.I.I.W.W.W.).W.W._.W.W._._._._._.'.`.!.'.'._.W._.W._._._._._.W.W._.`._._._._._.`.!.'.`.'.&X!.Y.^ ; ; ; > , Y.`.",
"-.-.-.-.-.-.-.0.0.q.w.q.q.w.w.w.q.0.0.0.0.q.0.w.w.w.q.q.q.q.q.q.q.q.9.9.6.O = - 8 8 d f h C C ] f.x.x.].].].U. .f o X X X X X X o * * * : : p p k S 3.D 3.G i.C H H H u.f.x.B g A H u.a.f.f.f.f.p.u.a.X.+ . . . . . . . . & & & & & + # # $ 1 1 2 3 7 7 7 7 7 7 7 7 7 3 3 3 3 2 2 2 $ $ - - - ; , u i J H H H H ] G ; ; , u g l D F F F F H y.y.u.y.t.y.t.u.a.a.a.a.f.x.x.p.^ ' ' ' ' ' s.L.I.W._._._._.)._._._._._.I.W.I.W.W.W.W.W.W.W.W.W.W.W.W.!._.!.W.'.'.'.`.!.W._._._.`._._._._.!.`._._._.`.`.'.'.`.J.R.#X[ ; ; ; > , ~.^.",
"-.-.-.-.-.-.0.0.0.q.q.0.0.0.0.0.0.q.q.0.0.0.0.0.0.0.0.0.9.9.9.9.-.-.-.9.k , 8 8 d d f f B } p.x.x.x.x.].x.{ , X X X X X X X X X X * * * : : i p p S 3.F u.H i.p.u.H 5.i.f.f.D g D f.f.f.f.f.i.g.f.f.f.} + . . . . . . . . & & & + + + # # % $ 1 1 3 3 7 3 7 7 7 7 3 7 3 3 3 3 2 2 $ $ $ - - - - g A 3.H t.t.3.t.F B ; ; ; , g g l D F F F H t.y.y.y.y.t.y.i.u.u.a.a.a.a.a.p.] ^ ' [  .k.W.W.`._._._._._.)._.`._._.I.I.I.I.U.W.W.I.I.W.W.W.I.P.W.W.W.W.W.W.W._.)._.W.W._.`.`.).W.W.!.`.`.`.`.`._.&X&X_.W.J.!.&X&X' ; ; ; > > ~.^.",
"-.-.-.-.-.-.-.0.0.0.0.-.9.0.0.0.0.0.0.0.0.0.0.0.0.-.9.-.9.-.-.-.-.9.4.J A C h f f j ] p.f.x.f.x.x.x.p.h o X X X X X o o X X X X X * * * * : i p p 3.3.H H u.i.u.F i.f.f.f.p.D j g f.f.p.i.f.].].f.i.F f + . . . . . . . . . & & + + + + # % 1 1 1 3 3 7 3 7 7 3 7 7 7 3 3 3 3 2 2 % $ 2 - $ - 3 ] ] H u.5.F F A A f ; ; ; : u g g l D D F t.t.y.u.y.u.y.t.t.t.u.a.a.a.f.a.p.y.{ [ z.W._._.`._._._.`._._._._._._._._._.W.W.W.I.U.P.P.I.W.U.I.I.W.W.W.I.P.W.W.W.W._.W.W.W.W._.!.!.W.`.`.`.`._.`.&X&X`.P.W.&X&X&X&X^ ; ; ; > > ~./.",
"-.-.-.-.9.-.-.-.-.-.9.9.9.q.0.0.0.0.0.0.0.0.-.-.-.-.-.*.*.*.*.9.4.k g g g H u.u.f.d.f.a.f.f.x.v.{ 5 X X X X X X o o o o X X X X X O * * : : i p p S J A J H H H f.f.f.f.p.p.{ C g H 3.f.b.].x.f.t.A , > & . . . . . . .   . . & + + + # # $ 1 1 1 3 3 3 3 3 3 3 7 7 3 2 3 3 2 2 $ % 2 2 2 2 - - D H H H F B A B g g ; ; ; , , u g g l A H t.t.t.y.u.u.t.t.t.t.t.y.u.a.a.a.p.y.} j.P.U.I._._._.`._.'.'._._.'._._._._._.W.W.W.I.P.P.P.P.U.W.U.U.W.I.I.U.P.W.W.U.U.W.W.W.W.W._.!._.!._.`.'._.`.).`.E.P.W.`.&X&X&X&X^ ; ; ; > > E.&X",
"-.-.-.-.-.-.-.-.-.9.9.-.9.9.9.-.9.0.9.-.-.-.-.-.*.*.*.*.*.4.*.k u u g G u.f.f.f.f.f.f.f.d. .C O o o o X X X X o o o o o X X X o o O O * * * u i p S 3.H 3.u.u.f.f.f.f.p.u.H D D p.u.f.].x.f.] D D j @ . & . . . .   . . . . . & + + + # # $ $ 1 1 3 3 3 3 3 3 3 7 7 3 2 3 3 2 2 2 $ 2 2 2 2 - - g A A A A B g g g g ; ; , , , < g g l A F H t.y.y.y.y.t.t.t.t.3.t.y.p.a.p.p.y.p.x.&X'.`.P.I._.'.'.'._._._._.`._._._.W.).W.I.I.I.U.P.P.U.I.U.I.W.W.W.I.I.I.I.U.U.I.U.W.W.W.W.W.W._.`.'.'.`.`.!.j.R.^.&X`.`.&X#X&XQ ; = = > > !.&X",
"-.-.-.-.-.-.-.-.-.-.-.9.9.9.-.-.-.-.-.-.-.-.*.*.*.*.*.9.k u u u A u.[.].[.p.u.a.f.x.d.] , O o o o X X X o o o o o o o o o o o o O O O O * * u u g F 3.u.p.a.f.f.f.a.] H D D ] f.f.H 3.f.p.] D D D f X . . . . . . . . .   . . . + + # # # % $ 1 1 3 3 3 3 3 3 3 3 3 2 2 2 2 2 2 2 2 2 - - - - 3 d g g A g g g j g g 8 8 8 8 d d d g g A A F t.y.u.u.y.y.y.t.3.3.t.t.y.p.p.p.p.p.x.'.'.'.'.'.).L.I.`.'.`._._._._._._._.W.I.W.I.I.P.P.P.P.P.U.I.W.I.U.U.U.P.P.P.U.P.P.P.U.P.W.W.W.W.W.`._._.K.k.!.`.`.`.&X`./.^.&XQ ; = = > > !.&X",
"9.q.q.0.-.-.-.-.-.-.-.-.9.9.-.-.*.=.*.*.*.*.*.4.*.p z *.4.p H f.].b.i.p.p.p.a.d.p.C ; = O o o o O % O O o o o o o o O = > = = = ; * * * O O : u p J 5.i.f.f.a.p.] D A H u.f.f.f.3.H u.p.p.H F F F j @ - . . . . . . . .   . . & + + # # % $ $ 1 1 2 3 3 3 3 3 3 3 3 2 2 1 2 3 2 2 2 2 - - - - 3 d g g C d f g D g f d 8 8 h h d u g g l A F t.y.p.u.p.u.i.y.t.H H ] t.u.u.t.p.p.x.'.'.'.'.'.'.'._.U.L.I._._.`._._._._._._._.W.W.I.I.I.L.L.U.U.W.W.U.U.P.U.P.P.P.P.U.U.U.P.U.W.U.W.W.W.U.s.l.W.!.`.!./.`.`.`.`.`.C ; = ; > ; !.&X",
"-.-.-.9.q.q.-.-.-.-.-.-.9.-.4.*.*.*.*.*.4.l s z z < z s *.h.].f.i.u.u.a.f.a.] g , * O o o = > > = * * O O O O O = > 5 8 8 8 8 8 q q d d j d d g G p.a.a.i.u.] G D H g.f.h.g.5.S J H u.p.t.H F F F j - - + . .   . . . . . . . . & + # # # % $ 1 1 1 2 2 2 2 2 3 3 3 3 2 $ 2 2 2 2 2 - - - = - , g g g i u g j j f d d h C C V h u u g k l F ] y.a.a.a.u.y.y.t.H F H H ] ] ] y.p.x.'.'.'.'.'.'.'.'.'._.I.P.L.W._.'._._._._._._._._./.W.I.I.I.U.W.I.W.W.I.W.I.U.U.P.P.P.U.P.U.I.I.I.P.s.s.J.P.R.R.W.!.!.`.&X^.&X&XC ; ; ; > > ^.`.",
"0.-.-.-.-.-.9.-.-.-.-.-.-.*.*.*.*.*.*.l a u u u i F 3.9.9.4.3.u.u.p.f.p.] j d 8 = o - q V h d 8 , > ; = * * > 8 8 8 8 q d d d f f f f C j g D a.f.a.i.u.H D F t.f.f.f.f.3.S S H J A H H H H A D F B - - # . . . . . . . . . . . & + # # # % $ $ 1 1 1 2 2 2 2 2 2 3 3 2 % - 2 2 2 2 - - = = B F A g g g g g g j f h V C C C C h d u g g l F H t.y.u.p.y.y.u.y.t.H F F F F ] t.u.x.'.'.'.'.'.'.'.'.'.'.'.'._.P.d.L.`.'.'.`.`._./.W.W./.W.I.R.I.I.W.W.W.W.W._.W.W.P.P.P.P.P.P.U.U.k...j.P.P.k.k.P.P.R.W._.`.`.`.&XV ; ; ; = = ^./.",
"q.9.q.-.-.9.-.-.-.*.*.*.*.*.*.*.*.a u u u i A 5.f.].f.4.*.4.u.p.p.] { B h q = o 5 h C V V h f q q 8 , ; ; 8 8 8 d f f j j j j j V D { ' g D ] f.p.H F H u.a.a.b.b.g.H A J S F k k A F H J F A A D B > - % . . . . .       . . . + + + # # % % $ $ 1 1 2 2 2 2 2 2 2 2 $ % - - 2 - - = O O = g B B g g g g g d f V Q Q C V C V V d u d g k A F ] t.p.p.a.a.a.p.y.t.] F D A H y.] P.`.'.'._.`.`.'.'.`._._.`.'.'._.I.L.k.I.`.'.`.'._._.W.W._.I.I.I.W.W.W.W.W._.`.!.I.I.U.U.P.P.K...s.P.P.x.P.k.x.P.P.P.W.U.W.!./.`.V ; = = O O &X&X",
"q.-.-.9.-.-.-.*.*.*.*.*.*.*.k a a u u p S g.H.h.u.H F s 4.9.u.] B j C 8 ; 5 h C Q C h f q q d q , , , 8 8 d d f f f h j j j C D ] p.p.] G p.u.] F F u.i.f.h.f.{ k k A p k k A A A F F H A J A A A g , 7 - . & & . .       . . . + + + # # # % % $ 1 1 2 2 2 2 2 2 3 2 - $ - - - - - ; * O * f g g g j g f h C Q C C C C C Q V h h u u g l A F H t.y.p.a.a.a.a.a.a.p.t.F D ] ] u.)._._._._._._._._._.).)._._.`._._._.W.U.L.L.I._._._._._.W.W.I.W.I.W._._.)._.`.).W.W.W.U.P.d. .j.U.P.x.L.L.L.P.k.k.k.P.P.U.U.E.!.f ; = = O O &X&X",
"-.-.-.-.-.-.-.*.*.*.s s a : < a a k 3.h.H.g.3.H H 3.F s 4.4.k d 8 > O 8 h Q C C h h h d q , , , 8 q q d d f h h h h h j C ] } } } p.} } ] H F H u.a.f.f.a.B : * p k p k D H F D A D D A A A A A A g > 5 - & + . . .       . . + + + + + # # # % 1 2 2 1 1 - 2 2 3 8 h ; ; > > > - > > > ; ; f g g g j f V C C Q C C Q Q Q Q h h h u u u g l F F H t.u.u.a.a.a.a.a.a.p.] G ] ] s._._.`._.W._._._._._._._.W._._.I.I._._._.`._.L.d.L.W._._._.W.U.U.P.I.W.W.W.I._.W.W.W.W.L...j.U.P.P.k.L.L.x.k.k.j.j.k.k.k.k.P.P.P.q ; = = O O ^.^.",
"-.-.-.-.-.*.*.-.4.s z z a a a J i.H.H.i.S J F H H t.D k k s u O > f V C C V h d 8 d q 8 , , 8 q q q f f h f h h f h C ' X.} } ] } } } H F H f.f.f.f.] g * : : * u k H H F F A A D A A A A A A A A g , , , + + . . .       . . & + + + + # # # % $ 1 2 2 1 2 7 Q {  .' > > > > > > > , , 8 f g g f h C Q Q Q C C C C C C Q Q V h j j u u g k l F H t.t.t.i.a.a.a.a.a.p.] G F H U.`._._._._._._._._._._.W.W._._._.U.W.W.W._._.`._.P.k.s.k.W.W.W.U.P.U.P.U.P.I.W.W.W.U.s. .P.W.I.U.U.U.U.P.P.k.k.j.k.k.j.k.L.k.k.l.8 = = = O O !.E.",
"-.*.*.*.*.*.4.s a u u a p H g.h.g.5.S S H H H ] F C j u s s , f C V h f f f 8 , , , , , 8 8 d d d d f f f h j j C { { } } } } p.p.G F ] p.f.f.p.D , O * : : : : < H H F F D A D F k A A A A A A g g f g C + + . . .     . . . . & + + + # + % % $ $ - f ^ p.b.b.x.v.Q > > > > ; ; , 8 d f f f h C Q C C Q Q C C C C C C C C C j j j u u g g k D F H t.t.y.u.u.p.p.p.t.G F D } ).`._._._._._._._._._.W.W.I._._._.W.W.W.P.P.I.W.W.W._.W.U.d.k.U.I.W.U.P.P.P.P.U.W.P. .j.W.W.W.U.U.I.W.W.U.U.k.P.k.k.k.k.k.k.k.k.J.8 = = = O = P.J.",
"*.*.*.*.*.s : u u a A u.H.h.5.S S S H u.t.] D j f 8 = : *.s j d 8 8 , , , 8 ; ; > , 8 8 8 d f f f f h h f C ' ] ] ] ] ] ] u.} H H u.f.f.f.u.C O X o * * * : : : < H H A J A A D D A A A A A g p p D G D B - - - 2 3 7 - + . . & & o o @ = 8 h Q { p.x.].].].].b.x.v.h > ; > , 8 8 d d d d h V C C C C C Q C V V V V V V C C C j g j g u u g g A F F H H t.t.t.t.u.t.F D D G L.'.`._._._._._._._._.)._.W.I.I.W.W.).W.W.U.U.L.I.I.I./._.`._.I.k.s.k.P.U.U.P.P.P.s...U._.W.I.W.I.I.U.U.U.P.P.L.U.k.k.k.k.j.j.j.k.P., ; = = = > P.P.",
"-.4.s z z < z p 3.h.H.h.5.H S H 3.3.H D A f q ; O O , 8 s *.g ; ; ; ; > > ; > , , , 8 8 8 q f d d d f C ' ] ] ] ] ] } p.] H ] i.f.f.x.u.g o X X X X * * * * * * : A A A A A A A A g k k A k A F H H A u d d q 8 r h Q [ [ { {  .{ { } p.p.x.x.b.b.b.b.b.b.].].b.b.v.d , 8 8 f f j j j h Q Q C C C C C C V C C V V V C C Q Q ' { D j g u u d g A F F H H t.t.H H ] D D A A s._._._._._.W.W.I._._._._._._.W.W.W._.W.W.W.P.k.k.K.P.P.I._.`._._.W.W.U.s...d.L.d.] j.U.)._._._.`.`.W.W.I.I.I.I.P.P.j.j.j.j.k.k.k.P.P.; ; = > = 8 R.J.",
"z : : u a A i.H.H.g.5.H H 3.5.5.H A p A A u o = > ; ; ; z *.g = = = = ; > , , 8 , , 8 8 8 q d d d C { X.] ] ] } p.p.] ] ] g.f.f.f.] d X X X X X X X O * * * * : : A F D A k A k A g g g A F H H A p p A D f d d d j Q { { ] p.p.p.y.p.a.a.a.f.f.b.b.b.b.b.].b.b.b.v.8 8 d j B C C C Q C V V V V C C C V V V C V C C C C '  .v.{ j g g d u u g k k D F H ] ] H F F D A g ] W._._._._.W.I.I.W._.`._._._._.W._.W.W.W.W.I.P.k.L.d.L.k.P.W._._.W._.).W.W.U.j.G C d.W.W.W._._._._.`._.).W.I.W.W.W.U.P.k.j.k.k.k.j.x.P.; ; = ; ; q P.J.",
"z z i H g.H.g.5.H H H 3.u.H J k k k A B A i * * = * O O * *.k ; = ; > , , , 8 8 , 8 8 8 8 8 d j { { { ] ] ] u.p.] ] p.x.f.f.f.G > X X X X . . X X X O * * * : : : A H H A k A g g u A H u.H A p B D u.u.] j h d d j U { { y.y.p.y.u.p.a.a.a.f.f.f.b.b.b.b.].b.b.b.p.d j j D D ' Q Q C C V V V V V V C V V C C V V C '  .l.E.j.D g d d u d g g l k D F H H H H D D D B C P.!._._._.)._.I.I._.`._._._.W.W.W.W.W.W.I.W.U.U.I.L.k.k.k.L.U.W.W._._._._.W.U.} s.P.s.p.d.P.U.W._._._.W.W.W.I.U.U.P.P.P.x.P.k.k.x.x.P.R.; ; = > = f P.k.",
"k 5.h.h.i.S S H H H H H A p g A A A k p A : O O O O O O * *.k , > > , , , 8 8 , 8 8 8 8 f C ' { { ] ]  . .] H H u.f.f.x.p.B O X X X o o o o X X X X O * * * * * * A H H A k p u u u H F k p p A ] H u.u.] d d d d j U { ] y.p.p.p.u.u.a.a.a.a.a.f.b.b.b.b.].b.b.b.] j B Q ' ' ^ Q Q Q Q Q V V V V V V V C C V C Q X.j.P.W.E.' D g u u f g g g g k A D F F F F D D D D ] W.).W._._.).W.W.W.W._._._.)._._.W.W.W.W.W.W.W.W.P.P.L.k.k.k.P.U.W.W._._.W.j...W.W.!.I.I.L...s.k.W._.W.W.W.W.W.U.P.L.P.P.k.k.k.k.k.k.P.R.; ; ; > ; f R.P.",
"h.g.3.J J S H 3.H J p p p m D m m k m J A O O O O O O O * s k , > > , , 8 8 8 8 q q f V ' ' { { ] }  .{ D D u.f.f.f.H f o X X o o o o o X X X X . o O * O * * ; * D ] H A p a u g C g i p k A H H H G g : 4 d d h j U { ] ] p.p.p.y.u.a.a.a.a.f.f.b.b.b.b.b.b.b.b.] C ^ ' ' ' ^ Q Q Q Q Q Q V V V V h h C C Q [ j.P.W._._.j.j g g f u g g g g g k A D F H G F D D A D k._._.)._._.W.W.W.W.W._._._._._.W.W.W.W._.)._.W.W.W.P.P.L.x.L.P.k.P.W.R.P.s.P.`.`.'.W.I.I.P.I.P.s...k.P.W.P.U.U.U.P.k.L.k.k.k.j.k.x.x.P.R.; ; ; = = h E.R.",
"4.J J S S H J k p p k k A m m k m J H S A O O O O O * ; ; a *., , , 8 8 8 8 8 8 h C ^ ' ' ' ] } ] { D D u u f.a.' , X X X o o o o o o o X X X o O O O * * O O * * B H F g a g D ] } u D A D F H D , * * ; ; d d d j Q { { ] y.p.a.p.p.p.a.a.a.f.f.b.b.b.b.b.b.b.x.' ^ ' Q Q ^ ^ ^ Q ^ Q Q Q V V V V V V Q X.j.J.W.W.`.`.W.G g g g g g g g g g k k A F F F F G G D D { W._._._.`._._.W.).W.W._._._.)._.W.W.W.W.).).).W.W.I.P.U.P.P.P.P.k.L.L.s.s.W.W.W.W.W.W.W.P.U.W.P.x.P.x.d.s.d.k.L.P.L.k.P.P.l.l.P.P.U.P.l.P.; ; > = = V W.j.",
"J S S S A p p p m A A p p s J S S S S H F O O * ; ; ; ; ; z 4.g 8 8 8 8 8 8 h C { D ' { { ] } { G } u.] : o d O X X o o o o o o o X o o O ; = ; = = O O O O O O * g A g A ] u.} ] g d B D D g , : : : : : 4 d d h h U { { y.y.a.a.a.p.p.p.a.a.a.f.f.b.b.b.b.b.b.v.C Q Q Q Q ^ ^ Q Q ^ ^ Q Q V V V Q Q [ j.P.W./._._._.'.d.j g g g g g g g g g k A D D D D F { { D B k._._._._._._._._._.W.W.)._._.W.)._._.I.W.W.W.W.W.I.U.I.I.U.U.U.P.k.s...k.U.I.I.W.W.U.W.W._.W.W.P.x.L.L.L.L.d.}  .j.L.k.P.P.P.l.k.P.P.P.R.R.= ; ; > ; V j.Z ",
"S J p y p s s p m s s A A J S S 3.S S H S , ; ; > > > ; ; u *.F 8 8 8 8 8 C ' D { ] ] ] ] G G } p.p.u.D o o X o o O * O o o o o o O ; 8 q 8 8 8 , > ; ; * ; ; ; : f ] p.a.p.u.A g G ] B g , * * * : : , j C d d d d j U { y.t.a.p.p.p.y.y.a.f.f.b.b.b.b.b.b.b.b.a.C Q Q Q Q Q ^ ^ ^ ^ ^ Q Q C C Q ' ..J.W.W._._._.W.W.W.} g g g g g g g g g k k A D D D D D F G D D W._._._._._._._.).`._.).)._._.)._._./.W.I.I.W.U.U.I.W.W.I.P.I.I.L.s.d.U.U.U.U.W.W.U.U.W.I.W.I.U.P.k.L.k.k.x.P.P.j.s. .s.l.P.U.P.k.k.k.k.P.R.= ; = = ; , Z 8 ",
"p p s s s s s s s A J S J J S 3.3.S S 3.S i ; ; ; > , , 4 , 4.4.8 8 d d h D ' { } } ] D G ] p.p.p.G , O % O O o O * * O o o O * 8 f f f q 8 8 8 8 8 8 ; , j B { p.p.f.f.a.] D D H u.p.d * ; ; : : u B B B f d d d d j U { { y.y.y.u.a.a.y.a.a.b.b.b.b.b.b.b.b.b.p.C Q Q Q Q ^ ^ Q ^ Q Q ^ ^ ' X...J.I.W.W.W._._.W.W.W.W.D g g g g g g g j l D D D A D D D D D D A ' )._._.W._.I.W._.).)._.W.W._._._._.).W.U.U.W.W.U.U.P.I.W.I.I.U.L.d.P.U.W.U.U.L.P.P.U.P.I.U.U.U.U.P.x.k.k.k.k.x.x.P.P.P.j.....j.P.l.k.k.k.P.z.= = = = = , C ; ",
"u s s s s s m J J J J J J J S 4.3.3.3.H S f > > > > > , , : *.4.C C j j C { } p.] G ] } p.f.p.C ; O ; , , ; * O O O o O = ; > d f q 8 , , , 8 8 8 , > , j G } p.d.f.f.u.H ] u.] u.u.} , O * : < B F g i i B d d d d j U { { ] t.y.a.p.p.y.y.a.a.f.f.b.b.b.b.b.x.} Q Q Q Q Q Q Q Q Q Q ^ ' '  .x.U._._._._._.)._.W._._.k.g g g g g g g g D A D F F D D A D D D D B d.`._._._._._.).)._._.).).`._._.W.W.).W.I.W.W.W.I.I.I._.W.I.k.d.j.U.W.W.W.W.P.P.x.k.k.P.U.U.k.P.P.P.L.k.k.k.L.k.k.P.k.U.P.P.P.s.' } j.k.P.P.l.* = = = = , C ; ",
": A s s s m S S J S J J J S S 4.4.3.3.S S f > , , , , , , , s 4.F D C D ] ] G ] u.u.u.p.] V * * > f C j d ; O o o O > > 8 8 h q 8 , > , 8 8 8 q , : d D } p.x.f.f.u.u.p.a.u.u.H H A g , O , g D D A D A A D d d d d j j { { ] t.u.p.p.p.y.y.a.a.f.b.b.b.b.b.b.a.{ Q Q Q Q Q Q ^ Q ^ ^ ' X.j.P._.`.`.`.)._._.W._._.`._.s.g g g p g g k l l D F F F D D A D D D D B W.`.`.`.`._._.W.)._._.W.).).W._.W.W.W.).W.).W.W.).W._._.I.d.s.P.W.I.W.I.W.I.I.U.P.P.P.P.P.P.P.P.k.j.j.k.k.P.k.k.k.P.k.x.L.P.U.U.k.s.s.s.s.j.z.* = = = o = f h ",
": p a k J J J J S S J S J S J S S S S S J g > > > > ; 8 d d g *.l H ] G D H u.i.f.a.] d * = , f C ' D g , O o = , > , d f f d , , , q q , > ; ; , D u.f.f.f.a.u.u.p.f.a.H H B g g B B u d D A A F D D u A B d d d d d j l { { y.t.y.u.y.y.a.a.f.f.f.b.b.b.x.a.p.Q h Q Q ^ Q Q Q ^ '  .s.k.P._.`.`.`.`.`._._._._._.`.).] g g g g g g D D D D D F F D D D D F D B ] )._._.).W.I.I.I.W.W.W.W.W.W.W.W.W.W.`.`.`._.I.).).W.I.P.d.k.W.W.W.W.W.I.I.U.W.P.P.P.U.U.P.P.P.U.k.k.k.k.P.k.k.x.P.k.k.P.k.l.P.P.P.U.P.J.J... .* = = % . O , | ",
"a a a A J m J m J J J A J J S S S S S S J B , > ; > , d j C j k *.3.D ] a.a.f.p.] d * ; q C ' { ' C , O O ; > , q d d q , , , 8 8 8 q , > , f D } f.f.f.a.u.} p.p.p.u.D A p i g A D g j B H g i A g g g g d 8 8 d d d j l { { ] ] a.y.y.t.y.a.f.b.b.f.b.b.a.a.p.C C h V C ^ ^ ' X.j.P.W._.).`.`._._.`.`.`._.`.`.`.`.W.D i i i g g g l D D D F F F D D D F D D B p.`.).W.W.I.I.I.I.I.W.W.W.W.P.W.W._.`._.`._._.I._._.P.s.s.I.W.W.W.W.I.I.I.U.I.U.P.U.P.P.P.x.P.P.P.x.P.P.P.k.P.x.k.k.j.k.k.k.P.x.P.U.P.P.U.P.P...* * O % . - 5 c.",
"u a y m S J S A J S J S S S S S S J S 3.S A d f j C D D D { D k *.4.i.f.f.u.G d = ; d C ' ] [ C , o O > , , d f 8 8 , > > , q 8 8 , ; , j G u.f.f.f.p.u.] p.f.a.u.H A i g D D D D G B G D H g u i u d d d d 8 8 d d d d j D { F ] y.y.t.t.y.a.a.b.b.f.b.b.a.p.p.C C Q C V C ' ..J.W._._.`.`.'.'._.`.'.`.`.`.'.`.`.'.U.g u i g g g k D D F D F F H F D D D B g B x.`.W.W.I.I.W.I.I.W.W.W.I.W.I.W.W.).`.`._.W._._.I.k.d.P.W.W.W.W.W.W.W.W.P.P.U.P.P.I.P.U.U.U.P.P.P.P.x.P.P.k.k.k.j.k.k.J.k.j.k.x.l.P.P.P.P.P.P.j.* O O % . > q T.",
"z a y s S S J J J S J J S J J J J S 3.3.H A D ] ] } } ] D A p 4.*.4.a.} C , * = 8 C ' ] ' V > o ; , , 8 d d d , ; ; ; , 8 d q , : , j ] u.p.g.f.a.u.u.a.f.f.f.u.H p A g F F H D D G ] D A A D u u u d f j 8 8 8 d d d f l l l D ] ] F F t.y.u.a.b.b.b.b.f.a.u. .V C C ' X...s.d.P.`.'.'.`.`.`.'._.'.'.'.'.`.'.'.'.'.P.g u g g g g k D A D D F ] ] F D D D A B D )._.).I.P.I.W.I.I.W.W.W.W.W.W.W.W.W.W.W.W.W.I.P.s.d.U.W.W.W.W.I.U.I.P.I.U.U.P.U.P.U.U.U.U.W.E.P.k.P.l.P.P.x.k.k.l.P.P.P.P.P.P.P.k.j.x.P.k.l.J...; = O % o 5 ^ c.",
"< a a s S J m m J J m m A J J J J S H H H ] ] } p.} H B D D F 3.4.4.D ; = , 8 j C D D f O o = > 8 , , q d q , ; > , q d q , , , j ] u.i.i.a.u.u.5.i.g.g.f.u.H A A H u.D A F F D G } ] B p A D g u < d d , 8 d 8 8 8 d f j l l D D D F ] H t.y.a.f.b.f.b.f.a.p.{ C Q | j.L.W.W.`.P.x.I._.`.'.'.'.'.'.'.'.`.`.'.'.'.'.d.g u u g g g l D D F F F H H F D D A A B } _.W.W.I.W.W.W.W.W.W.I.I.W.I.W.W.W.W.W.W.W.I.d.s.P.W.U.W.W.W.W.I.U.U.I.U.W.W.P.U.P.K.U.U.P.W.W.l.j.k.P.U.P.P.P.P.U.P.P.P.k.U.R.U.P.j.P.P.k.k.k.j., = = # % 8 #.@.",
": a y p J J J m J A A A J J J A J S H H 3.H ] } F A F u.p.] A i *.s l , d C C C f > O o = > 8 8 , , 8 > ; ; ; , , 8 , , : < g H } u.p.a.u.5.5.5.i.g.f.i.H A J H H ] ] G J H D H H H D B i p g g u u , , d 8 d d 8 8 8 d j j l l l D ] t.H t.t.a.a.b.b.a.f.a.y.{ ' ..P.W._._._._.`.`.P.L.U.'.'.'.'.`.'.'.`.'.'.'.'.'.p.d d u g g g D D D D D H H G F D D A g g j.`.W.).).P.).W.I.I.W.W.U.I.W.I.W.W.W._.W.P.s.s.U.W.W.I.U.U.W.W.P.L.U.W.U.U.I.U.U.U.U.U.I.P.W.W.W.U.P.U.W.U.P.P.U.U.k.P.P.k.l.P.P.U.l.k.P.l.j.j.R.l. .h = 8 8 T.Q ",
": a a p J S J J J A J A J S S 3.H S 3.t.H H F A H u.p.p.] d * = s a l j D D f * o o * = , 8 q > > > ; * ; , , , , > : < B D ] u.p.u.3.H 5.u.i.g.g.u.F , , H H H H H H H H H H J H ] G B u p g g f u , , f d d d 8 d d d f j j j l l F ] F H t.a.a.f.b.f.a.a.y.{ j.U.W._._._._._.`.`.'.`.W.d.I.`.'.'.'.'._.'.'.'.'.'.] u d d g g g l D D D F H H H F D D g j D W.`._._._.I.).).W.I.W.W.W.I.U.I.W.W.W.I.d.s.k.W.W.P.U.W.W.W.W.P.P.P.L.I.W.U.I.I.W.U.U.P.W.U.U.R.W.W.W.P.W.U.U.U.P.R.U.x.l.k.l.P.U.P.x.k.k.j.k.P.R.E.Y.Y.c.V Q T.V ",
": a i p J S J S S g k A J S 3.H 3.H H S A A H u.u.p.] f * = ; 8 k k l B d = X o O = , 8 8 , > ; ; ; > , , , , , ; , A H H } u.u.H S H i.f.i.u.t.A , * O * H 3.H H H H H H H A H J H D g u g g g d , f h f d d d d d d 8 d d d j j l D F H t.t.y.a.a.a.f.a.a.y.p.I.`._._._._._._._.`.'.'.'.`.W.x.U._.'.`.'.'.'.&X'.`.D u u u g g g l D D D F H H F D D A j f } `.'.`._.).`.).).W.W.W.).W.W.).).).W.P.d.k.W.W.W.W.W.W.I.U.W.W.W.I.U.P.I.W.W.W.U.W.W.W.U.U.U.U.W.W.W.W.P.W.U.U.U.P.P.P.P.l.k.l.l.P.P.P.k.k.j.j.k.k.l.l.Y.~.h +.#.Q ",
"* a a k J J A J J A J J H S S H S J A J 3.t.u.u.D , * = > 8 f f g k s g X o * ; ; 8 8 , > > > > > 8 8 , , , , , A H ] u.u.u.H S H u.p.i.i.] B : * : : , : H H u.5.H D H A A A D B G g j u f d , u d j f d d d d d d 8 8 8 d g g j l D F F 3.t.t.a.a.a.f.a.p.p.x.W._._.)._.W.`.`.`._.`.`.'.'.'.`.).L.P._.'.'.'.'.&X'.D u u i g g g g k D F F F F F D D B g j k.'.'.`.`.)._._.)._._.)._.W.).W.).W.j.d.W.W.I.W.W.W.W.I.W.x.P.I.I.I.U.U.P.W.I.U.I.W.W.I.R.U.U.U.W.W.W.!.W.U.P.P.P.P.P.P.P.l.j.k.l.P.P.P.P.k.j.j.j.j.j.l.c.z.> $.| | ",
"* a a p A J A J S J F J A J J A p J u.u.u.] B ; O = , q h h f , u u k l = = > 8 8 , , , , , 8 8 8 8 8 , ; d D ] ] t.t.H S S H u.i.i.p.] u o O * : : ; u B A H 3.S A D H A B B g g B B j , u 8 d f f h h h f d d d d 8 8 8 d d g g l D F ] t.t.t.u.a.a.a.a.t.u.I._._._._._._._._.`._._._._._._.'.'.`.U.k.U.'.&X'.&X'.C u u u i g g g k D D F F F D D D B g ' '.`.`._._._.W.I.W.W.W.).).W.W.W.P.d.U._.`.W.I.I.U.W.W.W.W.I.W.I.U.W.U.W.W.R.W.W.P.U.W.I.P.U.U.R.W.W.W.W.W.W.U.P.P.x.l.P.R.J.J.l.l.l.P.P.J.J.J.j.j.j.l.J.l.| h T.|  .",
"* a a i m A A J J J A A k k p F 3.u.u.] g * O ; 8 f j C V q = X : s s l 8 8 8 8 8 8 8 8 8 8 8 8 8 8 > , D } u.] H F A J S 5.u.i.u.H d o X X O * * ; : u A A H 5.H 3.g F B B D A g g D j : d d 8 q f h h h f d d d d d 4 8 d j j l l D H ] t.t.t.y.a.a.a.u.t.p.I.I.I.I.I.I.I._._._.`._._._._._.`.`.'.'.'._.x.I.`.&X`.D u u u i g g g A D D F F D D D D B j s.W.'.'._._.W.).).W.I.U.W.W.W.I.j.d.W._._._.`.W.W.I.W.W.I.W.W.W.W.U.W.W.U.U.R.U.W.R.U.W.W.R.P.U.P.P.U.R.W.W.W.W.W.U.P.P.P.J.J.J.J.P.P.P.U.P.l.J.J.j.k.J.J.R.^ [ z.X. .",
"* : z a A A A A A A k k J H 3.3.3.S k p , ; q f V V f , O X o o : l p 4.f 8 8 f f q 8 8 q q 8 8 , f D ] u.u.H F A A H H u.u.u.H d X X X X X O * * ; : u A A S 5.J 3.B H B D D j d j A j , 8 f q h h h h h d h d d d 8 8 8 d j j l l D F ] t.t.t.y.u.u.u.t.u.d.I._._.W.)._.W._._.I._._._._._._._._._._.'.`.`.W.P.U.R.j u u u u g g k A D D D A A D D D g B !.`._.`._.W._._.W.W.W.W.W.W.k.s.U.W.W._._.W._.W.W.U.W.I.W.W.W.U.U.U.W.W.U.R.U.W.W.W.W.W.W.W.U.W.P.P.U.U.R.W.W.W.W.U.P.P.J.P.J.J.l.P.l.P.P.l.j.l.J.l.l.k.k.K.q @.#.z.| ",
": < u g A J F J A A J H 3.3.3.J p a p g d h j V h > o X O = ; * , 4.g 4.j f h f d 8 8 8 8 8 8 j D ] u.} ] F A J H H H H 5.H , X X . o o + X O * * ; : u A J J 5.A 5.g A A D B f B B j j 8 8 h V h h h h h d h d d d 8 4 8 d j j l l F F H y.y.y.t.a.u.u.t.p.f.I._._._._._._._._.`._._._._._._._._._._._.`.'.'.'.W.j.f u u d g g k k A D D D A A A A D g ' &X`._._._.).).)._.W.W.W.P.d.s.U.`.`.'._._.W.W.W.W.W.I.U.W.W.W.W.U.U.R.W.W.R.W.W.W._.R.W.W.R.R.R.U.R.W.W.U.U.W.W.R.R.P.P.P.P.R.R.l.j.l.J.l.l.J.J.k.j.J.J.k...f c. .J. .",
"u f k A J S A A H u.t.u.H k p p a i p u j C f = X X O * ; , , , , g d g j f f d 8 8 , > : d { ] ] ] F F F F H H H H H G , X X o # O o o o X O * * ; : u A A J 3.H S A B g g D j j B B j f h h V h h h h h d d d 8 8 8 8 8 d j j l l D ] y.a.y.t.t.t.y.t.t.p.L.)._.I._._._._._._._._._._._._._.)._._.`._._._.'.'.'._.C u u u g g k k D D D A A A A D A g k.'.`.`.`._.`._.)._.W.W.k.s.j.P.W.W._.W.I._.W.W.U.W.I.I.W.U.U.I.W.W.P.P.W.W.W.W.P.R.U.R.U.U.U.P.W.W.U.W.W.U.P.W.R.U.W.P.P.P.E.E.R.J.P.l.k.k.j.k.k.j.j.l.J.J.[ ^ z...k.z.",
"g k A A A S 3.u.u.u.H k a a p a p p p p f O X o O = > , 8 8 d d d f d d d d 8 8 , , , j G u.p.u.] G A F ] u.H F H D , X X . O = = % O o O O O * * = ; , A J J S 3.F F A D A g j C C h h h h h h h h h h h d d d 8 8 8 4 8 d j l l l F t.y.a.y.t.t.t.t.t.u.d.I.W.I.W.W._._._._._._._.`._._._._.W.W.)._.).`._._.`.`._.C u u u g g k k A A A A D k A D A G `._._.`._.`.'._.).I.P.d.j.W.W.W.W.W.W.W.W.W.W.W.U.P.W.U.I.U.P.I.U.W.W.U.U.W.P.U.P.P.x.U.U.R.W.U.W.R.P.U.W.W.P.W.W.R.R.P.J.k.R.W.!.P.R.P.J.J.k.l.k.k.j.l.J.R.C @.@.j.k.j.",
"D A A H 5.i.u.5.H p a a a p p a k p k g , o O * ; 8 8 8 8 8 q d d d 8 8 8 8 8 , u B ] u.p.p.} H F F ] u.} ] H B , o X . # = = = = = * O O O O * * * * : g A S H u.H H D g B j C j h h h h h h h h h h h f d d d 8 8 8 4 8 j j l j l ] t.p.a.p.t.t.t.] t.p.f.W.).I.I.I._._.)._._._._._._.W._.).W.W.W.W.W._._.`._._.!.C u u u g g g A k k A A A A A D A k.'.`.`._.`.`.`._.W.d.s.L.W.W.W.W.W._.W.I.W.I.P.W.W.W.U.U.U.U.U.U.U.W.W.W.W.W.R.U.U.U.P.R.R.P.W.U.R.W.R.W.W.U.P.W.R.R.W.R.l.J.J.R.!.!.E.P.P.J.l.k.k.k.j.l.l.l.h #. .J.l.k.",
"A H 5.u.i.u.D u p p a p p p k k k p p k g ; ; > 8 8 8 q 8 8 q 8 d d 8 8 8 8 d A ] u.p.p.u.H H H } u.] H F C , o X o O = = = = = = * O O O O O * * * * ; g g A 3.u.F g D { { C V h h V V h h h h h h h h f d 8 8 8 8 8 8 d j j l l F ] p.a.a.p.y.y.t.t.p.} U.W.W.I.I.I.W.W._._._._.W.).W.I.W.).).).W.).W.W.`.`.`.`.`.C d d d g g g A A A A A A A A D G _.`.`._.W._._.W.x. .j.U.W.W._.I.W.W.W.W.W.U.U.P.W.W.P.P.P.P.U.P.P.P.U.W.W.U.R.U.W.W.W.U.P.U.P.W.W.W.U.P.U.W.W.W.W.R.R.R.W.P.J.l.P.R.E.!.E.E.P.P.J.k.j.j.l.P...Q #. .R.J.J.",
"u.u.i.H g * o O p p p p p k k k p i p k B , , 8 8 8 8 8 8 q q 8 d 8 8 8 f D } u.p.p.u.F H u.p.p.] H F B > o . o = = ; = = = = = * * * = = = * * * * * * g g A H G A ] } ^ C h h h V C V V V V V C C C h f d 8 8 8 8 8 8 d j j l D ] y.y.a.a.a.a.a.t.u.p.p.).).I.I.I.I.).W.I._.W._._.I.W.I.W.)._.W.W.W.W.W._._.`.`.).C u u u g g g k k A A A A A A A s._.`._.`.`._.W.s.d.W.W._.W.W._.W.W.W.W.W.I.U.U.I.U.I.U.I.P.P.I.U.P.P.U.U.U.R.U.P.U.W.W.W.P.P.P.W.U.W.W.U.U.W.W.W.P.U.W.E.P.E.E.J.E.R.E.E.E.E.!.!.P.J.J.k.j.l.' [ @.@.l.k.l.",
"i.H d o o o o O p p p k k k k p p A k p B f 8 8 8 8 8 8 8 8 8 q d d f D } u.p.p.] H H u.p.p.u.] G B ; o o O = ; > ; > ; ; = * * * * * > > > ; ; * * ; : u p D F ] } ' C C Q V V C Q Q Q Q Q Q Q Q Q Q Q f d 8 8 8 8 8 4 d j j l F t.t.y.a.a.a.a.a.t.a.p.U.).W._.I.I.I.I.I.I.I.I.W._._._._.I.W.W.W.W.W.W.W.)._._._.U.j u u u g g g g g A A A A A A A W.'._._._.'.P...I.W.W.W._.W.I.W.I.U.W.W.U.I.I.P.P.U.I.P.W.P.U.U.U.U.W.U.P.U.R.R.W.U.P.P.R.W.W.W.!.!.W.W.P.P.P.!.!.W.U.E.!.!.!.E.R.R.W.!.W.E.E.E.!.R.P.J.l.J.l.C @. .z.l.J.j.",
", o o o O o o o k k k k p p a p A F p i g d 8 8 8 8 8 8 8 8 8 d j D ] ] u.u.} H H } u.p.u.u.] j > % % = > > > > > ; ; ; ; ; * ; , , , , , > ; ; : , f B A } p.p.} ] C Q Q Q Q C C Q Q Q Q Q Q Q ^ ^ Q Q h d 8 8 8 8 8 8 8 f j l { ] ] t.a.a.a.a.p.u.p.} )._._._._.I.I.I.P.U.P.I.I.I._._._._._.W.W.W.I.I.W.)._.W.I.P.g u u u p g g g k A A A k A g ] `.`.'.`.I.s.x.'._.W.).W.).W.I.P.P.P.U.I.P.U.I.U.U.U.I.W.W.U.P.P.P.U.U.U.W.R.W.W.W.W.U.P.U.P.W.W.W.!.W.R.R.R.W.!.W.R.R.P.E.E.!.E.E.R.E./.W.!.E.W.E.!.E.J.J.R.j.Q #. .j.l.l.j.",
"o o o o O o o o p k k p a p p p A k a a g f 8 8 q , 8 , 8 , j { ] t.u.H H F F u.u.u.u.p.] f > > > 5 0 q 8 , > > ; ; ; > ; ; > , , , : : ; > ; , , j B ] p.p.p.] ' ' ^ ' ^ Q Q Q Q Q Q Q Q Q Q Q ^ ^ ^ h f d 8 8 d d d 8 8 j l l D F ] t.y.p.p.y.y.u.] x._._.I.W.I.I.I.U.U.U.I.I.U._.W._.).)._.W.I.W.I.I.W.W.W.)._.x.g u u i g g g g k k A A A g B p.s.L._.d.} _.'.'.`._._.W.).W.I.P.P.I.P.U.I.I.U.U.I.U.U.I.U.U.P.P.U.U.U.U.R.U.U.W.W.W.W.W.W.U.R.W.U.W.!.W.W.W.W.W.R.U.P.J.J.R.E.W.E.R.P.R.!.!.!.!.!.!.E.R.P.E. .' @.z.R.l.l. .",
"u O O o O O o o p k k p p p p p p i p p p d 8 q q , , d j D ] u.u.] H J H ] u.u.] H D f > - % > e h q 8 , , > ; ; ; ; ; ; ; ; ; ; , , , , : , , i D H } } ] ' ' ' ' ^ ^ ^ Q Q Q Q C Q Q Q ^ Q ^ ^ ' ' f d d 8 8 d d d 8 8 j j l D D F ] y.p.y.t.] ] ] W.'._.I.I.I.I.I.U.U.L.P.P.I.U.I.W._._._._._.`.).I.W.W.)._.).s.d u u g g g g g g k k A k A D `._.' Z s._.'.'.'.`.'.).W._.W.W.W.W.U.P.P.W.I.I.U.W.U.U.U.I.P.U.P.j.P.P.P.P.U.U.R.W.W.W.W.W.W.W.R.W.W.!.R.W.W.R.R.W.R.P.l.J.P.R.!.W.R.P.E.!.E.!.!.!.!.P.P.R.R.[ |  .l.R.J.l.#.",
"4.* O o o o o o i k p k p p p i i k k k g u d q 8 d B H H ] u.] F A D H u.} ] G j > = = > 5 e 0 > 8 q 8 , > ; * * ; ; ; ; ; ; ; : : , , , , , ; B ] } ] ' ' ' ^ ^ ^ ^ ^ Q ^ Q Q C C C C Q Q Q Q ' | [ d d 8 8 8 d d d 8 4 d j D F D F ] p.p.] ] ] G d.`.`.)._.W.I.I.I.I.U.L.U.I.P.I.I._._._._._._._._.W._.W._._.). .u u i i g g g g k A A k A A p.`...} U.d.d.P.`.'.'.`.W.W.)._.W.).I.W.U.P.U.U.U.W.I.U.W.W.I.W.W.U.U.P.U.U.R.U.U.U.W.R.W.W.W.W.W.W.!.W.W.W.W.R.R.R.P.W.R.R.P.P.P.E./.E.l.R.E.!.!.!.!.!.E.R.R.R.^  . .R.J.J.l.l.",
"4.: o o o o o O u A p p a p p p p k k k J f , d D ] ] } p.u.F A F } u.u.} G j ; % = - 5 q f q 8 , = > ; > > ; ; ; ; ; ; ; ; ; : : : : , f d , f ] ] ' ' ^ ^ Q Q Q ^ ^ ^ Q Q Q C C C Q Q C C ^ [ #.z.[ d d 8 8 8 d d d d ; 8 j l D D F ] y.y.] G H ] ).).`._.W.I.U.I.I.I.U.P.P.I.P.I.I.I.W.W._._.`.`.W.W.W.)._._.'.{ u g i i g k k k A A k D D D p.} P.`._._._.L.s.P._.'.`.`.`._.I.W.W.W.P.U.I.W.W.W.W.U.U.I.U.W.U.U.R.U.U.U.R.P.P.U.R.R.W.R.W.W.W.W.W.W.!.R.W.E.W.R.P.W.W.W.!.!.R.P.!.!.P.J.R.W.!.E.E.!.E.R.E.j.^  .#.P.l.l.l.l.",
"u k o o o o o o u A p p i g A k k k p F G B H } } u.p.H D A H ] u.u.u.] g ; O % = 5 0 q q 8 8 5 , = = * ; ; > ; ; ; ; ; ; ; > , , , d f f d C ' G Q ^ ^ ^ Q Q Q Q Q Q Q Q Q C Q Q Q Q Q Q '  .j.~.c.f d d d 8 8 8 d d d 4 8 j g j l D F ] ] D F F d.).W._._._._.I.I.I.I.U.I.I.I.I.I.I.I.W.W._._.'.`._._.W._.`.'.`.C u i g g g g g k A A D D D A s._.`.`.`.`._._._.k.s.L.`.'.&X`._.W.I.U.W.W.W.W.W.W.U.I.P.U.W.I.W.W.P.I.U.U.R.x.U.U.U.P.U.U.W.W.W.W.W.W.W.R.W.W.R.R.U.P.E.E.E.E.E.J.R.R.P.J.P.R.R.E.R.!.R.R.R. .'  .z.l.l.J.l.l.",
"o k , o o o o o : p p p p k k p p A p F F ] u.u.u.u.F A F u.u.u.u.] B = O O % > 8 q 8 8 8 8 , ; * * = ; ; ; ; ; ; ; ; ; ; ; , , , , f j D { C C Q Q ^ ^ Q Q Q Q Q Q Q Q Q ^ Q Q Q Q Q ^  .j.l.!.!. .f 8 d d d 8 8 d d d 4 8 f j j l D D ] D D F ] _.`._.W.).W.W.P.P.U.I.I.U.I.I.P.P.I.U.I.I.`.`.)._._.).).).).).W.f u g g g k g p A A A D D D p._.`.`.`._._._._.`.'.W.k...L.W._._._.W.W.I.I.W.W.W.W.W.W.I.U.W.U.I.W.I.W.U.W.W.R.U.U.U.W.W.P.W.W.W.!.W.W.R.W.W.W.R.!.W.E.R.P.R.E.E.J.P.J.J.J.J.P.P.E.P.P.R.R.P.' |  .E.J.J.J.l.l.",
"O s l O o o o o * p p k p A k p k F ] u.u.u.u.H F F F 5.u.] } ] B = @ O % > , 5 5 , , , > ; = * = = ; > > , > ; ; ; ; ; ; > , , , , C ' ' C Z Z C Q Q Q Q Q Q Q Q Q Q C Q C Q C C ^ [ ..l.E.W./.R.C d 8 8 d d 8 d f d d , 8 d j j l l { ] D D D p._._._.I.W.I.).I.I.I.I.I.I.P.I.I.I.P.L.L.I.W.`._._._.W.W.U.I.W.l.d u i p g k k k A A D D D D d.`.`.`.`._._._.W._.W._.W.U.d...k.W.W.W._.W.W.W.P.W.W.W.W.W.W.W.W.W.W.W.W.W.W.U.U.U.U.P.R.P.P.U.W.W.W.W.R.U.W.W.R.W.W.!.E.E.R.E.W.E.R.P.P.J.k.l.l.J.P.P.E.R.J.j.^  . .!.E.J.R.l.l.",
"* z 4.g * o o o O i p k p k k A 3.u.u.i.u.H J J H i.i.u.H D j > o O % = > , > > > > > ; * * * * = = ; ; ; < > ; ; ; ; > > > ; ; j ' C C Z C Z C Z C Q Q Q Q Q Q Q Q Q Q C Q Q ^ '  .l.P.W.W././.l.d d d 8 d d d d d d d 4 , d j j j D G D G D ] W.`._.W.W._.I.I.I._.I.I.I.I.U.U.P.P.U.U.U.P.I.W._.W.W._.W.W.U.W.p.d u g g g g k D A A D D D D U.`.`.`._.`.`._._._.W.).W.W.W.U.j.s.P.W.P.W.U.W.W.W._._.W.W._.W.U.U.W.W.W.W.W.U.U.U.U.U.R.R.R.R.U.W.W.W.x.R.R.W.W.!.W.!.!.P.P.E.E.E.E.P.J.R.J.J.J.l.P.P.P.P.J. .'  ...R.R.J.R.J.l.",
"* * k u * * O o * g k k g A ] u.u.u.u.H J J H u.u.u.u.A i * o o # = ; ; = = = = = O * * * * = * O = ; ; ; ; ; ; ; > > > > ; 8 h C C j C C C C C V C Q C C Q Q Q Q Q Q Q ^ ' [ ..j.P.W.W.W././.W...8 8 8 8 8 d 8 d d d 8 4 8 d j j j D D D D D j._._._._.W._.W.I.W.I.I.I.I.U.I.U.U.P.U.I.I.P.P.I.W.I.W.W.W.).W.). .u u i g p g k A A A A D D ] _.`.`.`.`._.`.`.`._.W.W.I.W.W._._.W.j.d.k.P.U.U.W.W.W.W._.W.W.W.W.W.R.W.U.W.W.U.U.W.W.R.R.R.R.W.W.W.U.R.U.R.R.U.R.W.W.W.!.R.E.E.!.!.!.E.E.R.R.J.l.l.P.E.R.J.l.[ [ | l.R.E.R.J.l.j.",
"< : : , ; ; = O O g p A t.u.u.u.u.H A J H u.u.5.u.H A i o o O = = = = = = = O O O O O * * = = = = = = ; = ; ; ; > > ; ; 8 h j h j f f h h V C C C C Q Q C Q ^ ^ Q Q ^ ^ X...j.K.P.W.W.W.W././.R.[ 8 8 8 d 8 d d d j j d 8 d d g g j D G G D C W._.)._._./.W.).).W.I.I.).W.P.I.U.I.U.I.I.P.L.P.I.W._.W._._._._._.] u u i g k k l A D D D D D d._._.`.`.`.`.).`._._.).).W.U.I.W._.)._.U.k.s.k.U.W.W._._._.W.W.R.W.W.U.W.U.W.W.U.R.W.W.W.R.R.R.R.R.P.U.P.R.P.P.P.R.U.U.W.!.E.!.!.`.!.!./.!.P.P.R.j.l.J.P.E.l.z.^ | | E.R.E.R.l.J.l.",
"< < , , , 8 , , i F H u.u.u.u.H S S H u.p.u.H S A i g B = O = = = = O = * O O O O = * = = = = = = = * = ; ; > > > , d 8 q d f f j j h h h h V C Q Q Q Q Q C Q C Q ^ '  .s.U.I.W.W.W.W.W.I.W.W.U.^ 8 , 8 d d d d d j j d d d d d j D { G D D ' `._._.).I.I.I.I.W.W.W._.W.W.I.I.I.I._.I.I.I.I.I.I.W.)._._.W.)._.).C u u u p k k l A D D D F D I.`._._._._._.`._._._.)._._.W.W.W.I.U.W.W.W.W.k.s.k.P.W._.W.I.W.W.W.W.W.W.W.W.W.W.W.W.W.R.R.U.U.R.R.P.P.R.R.R.P.R.W.R.U.U.E.R.R.E./.!.!./.!.!.P.R.J.J.J.E.E.~.z.^ | @.Q.P.E.R.l.l.J.",
"u u , , u d g G u.u.u.u.u.H H H u.i.u.u.3.A g a a i g D , = = = = = O O * O O O = = * = = = = = = = = * ; , , > , d f h 8 8 f f f j h h V V C C Z V C C Q Q ^ ^ ' ..s.k.I.W.I._.).W.I.I.I.I.W.k.j , , 8 8 d d d j j j f j f j j D D D D D A } _._._./.I.U.I.I.W.W.I./.I._.I.I.I.I.W.W.I.W.W.I.I.I.)._._.W.).W.W.d u u i p g k A A D D F F F _.`.`._._._.W._._._.).).W.W.W.I.W.U.P.W.I.W.W.W.P.j...d.U.W.I.W.U.U.P.U.R.W.W.W.R.R.W.W.R.W.W.W.R.P.P.k.U.P.R.W.U.W.R.E.R.R.E.E.P.P.E.E.!.!.E.W.E.R.J.l.R.~.R. .' | l.R.R.E.E.J.z.l.",
"u u u u g D u.p.u.p.u.H J H u.u.u.u.3.J p a u a i g g B = = = = O = O O O O O = = = = ; ; = = * = ; * * > d q , h h h f f d , d f h h h V V V V C V C Q ' X.....j.P.I.I.I.W.W.I.I.I.I.I.).I.W.d.8 , , 8 8 d d d j j j j j g j l D D G G { B s._.`.`.`._.W.I.I.I.I.I.W.I.).).I.P.U.I.I.P.I.I.I.I.I._.W.I.W.W.W.x.d u i i g k D D A A F F F p.`._._._.`.`.W.W.W._.W.W.W.I.I.I.W.W.W.W._._.W.P.P.P.P.j...j.U.U.P.U.U.U.R.W.U.R.R.R.R.W.U.W.W.U.U.P.E.E.J.R.P.R.W.W.W.E.E.E.R.R.P.J.R.P.E.J.E.!.E.E.J.l.Y.~.l.[ | | R.R.R.R.E.R.l.l.",
"u u j G p.p.p.i.u.A J H p.p.u.u.5.H g i p i u u p A A D * * * = * O O O O O O * = = = = = = = = ; ; * = ; f h h h h h f h h h q 8 f h V V h h h h V C '  .s.K.L.I.W.W.W.I.W.W.I.I.I.I.I.W.W.W.j., , , 8 8 d d g g j D A j j j g D { ] ] G G k._.`.'.`.'._._.I.I.I.W.I.I.W.I.I.U.U.U.U.P.U.I.I._.W._.).W.).W.W.k.u u i p g A D D A F F F F x._.W._._.).W.W.W.W._.).).W.W.W.W.U.W.I.W.)._.I.U.P.U.I.W.W.j.s.j.P.W.W.W.I.W.W.W.W.W.R.U.U.R.P.R.!.R.E.P.P.R.R.R.R.P.P.E.E.P.E.R.R.E.!.E.E.R.R.!.W.E.R.j.l.Y.z.X. . .!.R.E.R.Q.!.~.Y.",
"g H } u.u.u.F F J S 3.p.u.t.3.A k k g a i k p p J H D H * = * * O O O * = * O * = = * = = ; ; ; ; ; ; , d h h h h h h h h h h h h 8 h V h h h h h V Z } s.K.U.I.I.I.I.I.I.W.I.U.U.I.I.I.I.I.I.} , , , d d d d d g j D l D g g l D ] { { D G U.`.`.`.`.`._._._.W.W.I.I.I.I.W.I.P.L.P.I.U.U.W._._.W.I._.I.W.W.).} u i i p g k A D F A F F F I._._._.W.W.W.W.W.W.W.W._._.W.W.W.I.U.W.W.I.W.I.W.W.I.I.U.U.R.U.s. .s.W.W.W.W.W.W.W.W.W.R.P.U.U.P.E.E.E.P.J.P.E.W.W.P.R.!.!.E.P.P.E.E.E.R.E.R.E.E.E.E.P.j.z.l.@.| | #.Q.E.E.E.W.Q.~.Y.",
"u.p.u.u.H S S S u.u.u.5.] A p u p i p z a S S H S H J H ; * O O O * * = = * = = = = = ; ; ; > ; , 8 f h h h h h h h h C h h h h V h q f V C V h C ' X.d.d.U.U.I.P.I.I.I.I.I.U.I.I.U.I.I.W.I.I. ., , 8 d d d d d d g A j A D D D { ] G D D { _.'.'.`.`.`._._._._.W.I.I.I.I.I.I.P.U.L.L.U.P.I.I.W.I.I.).I.W.I.d.A g u i i p k A F F A F F F I._._.`._.).).W.I.I.W.W.I.W.W.W.W.W.P.U.I.W.I.I.W.W.W.P.P.P.I.U.l.U.j. .j.P.W.W.U.W.W.R.W.W.R.!.E.E.E.E.E.R.R.R.W.W.W.W.E.E.E.R.W.E.W.R.E.R.P.R.E.E.R.P.J.z.z.| | | R.~.Q.E.R.E.E.E.R.",
"u.u.H F H H H u.5.H H D i a a z i p p A H S J J S J F G , O O O * * * * * = = * = = ; ; ; , > 8 h h V C h h h h h h V Z V C V V V V V f d h Z ' } s.d.L.L.I.U.U.U.I.U.I.W.W.I.I.I.I.I.I.).I.I.' , , 8 d d d d d g j l A D D D { ] G D D G ' _.`.'.'.'._._._._._._._._._.W.W.I.I.I.I.P.I.I.I.W.I.I.).I.).P.p.d.B g i i p p k A F J F F F F I._._._._.).).W.W.W.W.W.I.I.L.U.I.).P.W.W.W.I.W.W.W.I.P.P.P.P.U.P.W.W.P.j. .s.R.W.R.!.W.W.W.U.P.P.!.W.E.W.E.E.P.!.W.P.W.E.E.E.E.E.!.!.!.W.E.P.E.R.E.R.R.R.@._ Q | | E.R.E.!.#X!.Q.!.!.",
"H F H H ] ] u.t.H A p a i p i a a k H t.H 3.S H H J H H d * = = = = = * * = = = ; ; = * , f f h h V V h h h h h h h C C C C V V V V Z C Z Z G s.d.U.L.I.U.I.I.U.U.I.I.I.I.W.I.I.I.I.I.I.I.I.I.' , , 8 d d d d g g g g D D D D D ] D D A D ] '.`.'._.'.`.'._._.`.'._._.`._.W._._.W.I.I.P.I.I.I.I.U.I.W.s.p.I.d.g u i g p g A A F F F F F F I._.)._._.W.W.W._.W.W.W.U.I.I.U.U.W.W.W.I.U.I.W.W.W.W.U.U.W.U.U.P.W.W.W.U.U.j.s.s.P.W._.W.W.W.E.R.E.E.E.E.W.R.R.P.W.R.E.!.E.E.R.R.E.W.!.W.R.J.E.E.E.E.J.l.X.h % 5 q ~.E.!.!.!.!.!.Q.!.",
"H 5.u.} H H H g < g i p p p p A H H H 3.H S S H H 3.F G d = = = * * * * * = * * = ; , 8 h h h h h h h h h h h h h V C C C C C C Z C C ' }  .s.G d.I.U.U.U.I.U.I.I.U.I.I.I.I.W.I.I.U.I.I.I.U.W.| , , 8 d d d d d g g l D D D D { { G D D D } '.'.'.`.'.'._.'.'.I._._.`.W._.I._.I.W.U.I.I.I.I.I.I.I.L.s.x.)._.} l i u p p k A F H H F F H H P.'._._.W.W.W.W.W.W.W.W.I.I.W.P.W.W.W.W.P.W.W.W.I.I.U.P.P.P.U.U.U.R.W.W.R.W.R.P.j.s.s.l.W.W.W.W.E.E.R.P.E.E.R.R.R.U.R.E.E.E.E.E.P.P.E.E.E.R.P.R.R.R.R.R.J...f - # % ' Y.Y.Y.Y.Y.R.~.~.",
"u.u.u.u.H B * o , B p p p k H 3.H H S J S 3.u.5.H S F G u * * * * * * = = = = ; q h h h h h h h h h h h h h h h h V V V V C C C C G X.s.d.L.U.L.} s.U.U.I.I.I.I.U.I.I.I.W.I.I.I.I.I.I.W.I.I.I.[ , , 8 d d d d d g g g D A D G D { { G G D s.`.`.`.'.`.`.'.'.`.`._.`.`._._.W._.I.I.I.I.I.P.U.P.I.s.d.).W.W.I.A g g i g p A D H H 3.F H H H p.I.`._.).).W.W.I.W.W._.I.I.W.W.U.I.I.W.I.W.P.W.W.I.I.P.k.P.U.W.W.R.W.W.W.W.W.!.E.R.j.} ..R.E.W.!.!.W.E.E.R.W.W.W.W.E.!.E.R.E.E.R.R.!.E.!.E.P.J.E.E.P.E.E.E.#.Z h V | z.l.Y.l.l.J.l.Y.",
"u.u.] j * O O o u A A A S S J S 5.S H H 5.5.5.5.F F H G f * = = * * = * = 8 q h h V V V h h h h h h h h h h h h h h V C V C Z G }  .s.L.I.I.U.U.L.d.} L.U.U.I.U.U.I.I.).W.I.I.I.I._.W.W.W.I.I.X.8 , , d d d d d g g g D D D D G D D D { D s._.`.`.`._.'.`.'._.`._._.`._._._.W.I.W.).I.I.I.d.d.} x.).).I.I.x.A A g i p g D H t.t.t.H H H t.3.i.f._.)._.)._.)._._.W.I.I.U.I.I.W.W.W.W.W.W.W.W.I.U.W.U.P.P.U.W.U.W.W.W.W.E.!.E.E.P.P.j. .j.J.E.E.E.E.E.E.W.W.W.W.P.E.E.J.E.E.P.E.!.!.W.P.R.J.R.!.W.E.E.!.!.Y.j.#.j.l.c.c.Y.E.!.~.~.",
"G f O o O * * < u g J 5.H u.J 4.5.H 3.J 5.S H H 3.H H F f * = * * * > q h f d h h h h h h h h h h h h h V V h h h h h V C ' X.s.x.L.U.I.I.W.I.I.].U.L.} s.U.I.I.I.I.I.I.).I.I.W.W.W.W.I.I.W.W.[ , , 8 d d u u d g g j l j D D G D D B G G P.`._.W.)._.`.`.`.`._._._._._.).).W.W.).I.I.I.P.} d.U.I.I.I.I.I.p.A A g g g g F H t.u.t.H H 3.u.t.u.i.p.x.p.s.P._._._._.).W.U.W.I._.W.W.W.W.W.W.W.I.U.W.W.W.U.R.W.U.U.W.W.E.E.E.E.E.E.E.E.R.j.....j.R.R.!.E.W.E.W.R.R.W.E.E.R.P.R.E.E.E.W.E.R.R.R.R.E.E.R.E.Q.Q.Y.c.l.l.l.z.l.l.Y.Q.!.",
"X X X O * * * u i g J 3.J u.3.3.i.S 5.3.3.D F H F F G G f ; = * 8 f Z h f f f h h h h h h h h h h h h h h h h V h h h C [  .j.L.U.I.I.I.U.U.I.I.I.U.U.U.} ] U.I.].I.W.I.W.I.I.W._.W.W.W.W.I.W.X., , 8 8 u u u d d g g g g D D D D B D D  .W.`.`._.)./.I.W.`.`._._.'._._.W.).W.).W.).P.L.s.L.I.I.U.I.I.U.U.F D A k g g k F H t.u.t.t.t.3.t.u.5.i.i.u.H = * ' P.W._.`.W.)._.W.W._.W.P.W.W.W.W.W.W.P.U.I.P.W.W.I.W.U.R.W.W.E.W.!.!.!.E.E.P.E.k. .X.z.R.R.E.!.R.W.R.W.E.E.P.R.R.R.R.P.E.!.!.E.E.R.E.E.R.R.R.~.Y.Y.l.Y.Q.Q.l.Y.l.c.l.",
"X X X O O * * < p p m 5.S 3.3.3.u.S u.H 5.H H D J A H G , , , C ^ Q V f f h h h h h h h h h h h h h h h h h h h h V ^ } s.j.P.P.U.U.U.I.I.I.I.I.I.W.].I.U.L.} d.I.I._._._.I.P.P.I.W.W.W.).I.W..., , , 8 , u u d g g g g l D D D D A D D s._._.`._.W.I.W.W._._._._._._._.`.'.`._.`.W.s.d.I.I.I.I.W.I.W.U.d.D D A l g g A A H t.t.t.t.t.t.u.u.5.u.i.i.u.H , f V ' R.`._._.W.`._.I._.I.W.W.W.W.W.P.U.W.U.W.!.W.W.W.W.W._.W.W.W.W.!.E.E.E.E.E.E.J.j.X.' j.P.W.W.W.!././.P.!.W.E.E.R.P.W.E.P.W.E.J.R.R.E.E.J.E.Q.Y.Y.l.Y.~.Q.Q.Q.Y.l.",
"o . X O O * * : g p A 5.5.3.5.3.t.H H A F H H A A F D g j C { ' h h h h f h h h h h h h h h V h h h h h h h h V Q X. .d.L.U.U.U.U.U.I.I.I.I.I.I.[.].I.I.U.U.U.s.} L.I._._.).I.I.I.I.W.W.W.I.W.s.8 , , , , u d d g g g g D D D D D B B D x._._._.)._.W._.).I.).`._.`.`._.`.).W.`.P.d.I.W.I.W._.).W._.W.I.p.D F D A l A D A F H t.u.u.t.t.u.t.u.u.u.i.i.u.] p.L.k.j [ !.`.'._._._.`.`._._._.W._.W.W.W.W.!._.W.)._.W.W.W._.!.!.W.W.E.E.R.E.E.E.E.!.R.l.X...P.E.R.^.!.!.!.!.!.!.!.E.R.R.E.R.R.R.R.E.R.R.E.E.E.~.Q.~.Y.J.l.~.!.Q.!.Q.",
"o o X o O * * < g p s S i.H A H H A t.H A H H F F A C ' ] ' C h V h h h h h h h h h h h h h h h h h h h h V Z '  .d.L.L.L.L.L.U.U.U.I.I.W.W.I.I.U.U.].].W._.W.W.x.] d._./.W.I.I.W.W.W.W.I.I.W.P., , , , u d u d f g g g D D l D D A D ] R._._.)._._._.).).W._._._.W.)._.).W.P.d.d.W._._._._.).I.I.I.I.k.G D F F D A D D H F F ] t.u.u.u.t.t.t.t.t.i.i.i.u.H ] ] D , h k.`.'.'.`.`.`._._._._.W.W.W._.!.!.).W.`._.W.).W.W.!.W.W.!.!.E.R.!.!.!.E.E.R.!.E.l. ...l.R.W.E.Q.!.!.`.^.!.R.E.R.E.E.R.R.E.E.E.~.Q.!.R.Q.!.Y.l.~.Y.Q.Q.^.Q.",
"o o o o o O * : p p s 3.i.H H H H u.u.H g H H H G } s.| C C C C C C h h h h h V h h h h h V V V V h V V Z '  .s.K.L.U.L.L.L.d.L.U.I.I.I.I.W.I.I.W.].W.I.U.I.I.W.).U...s.I.W.W.I.I.W.W.I.I.I.W.W.8 , , , u u d u u g i g A A D D D D D  .`._._._._._._.)._._.W._.)._.).W.U.j...P.W._.).W.W.W._.I.I.I.P.C D F F F D D D D H H F F ] t.t.t.u.t.t.t.t.t.t.i.u.t.] ] D 8 5 8 } )._.`.'._._.).`._._._.`.'.`._._._.W.W.W.W._.!.!.!.!.!.E.W.W.!.!.!.!.E.W.!.!.!.R.j. . .j.P.E.^.!.^.^.!.Q.R.E.E.E.!.E.W.E.E.E.Q.!.!.!.!.Q.~.~.Q.Q.Q.!.Q.",
"O O o o o O * * i p A 3.5.u.H H ] H H ] G ] } } p. .' C C C C C C C V h h C C V C C V V V V V C V C Z '  .s.k.L.L.U.L.L.L.L.L.L.U.I.I.I.I.).I.I.I.W.W.I.I.I.I.W.W./.W.K.} U.W.W.I.I.W.I.I.I.W.I.h 8 , u u u d u g g g g D D D D D B D U.`._._._._._.`._._._._.).W.).W.L.p.s.W.I.).).).I.I.W.W.U.U.U.k., A F H H G F F F F H H F F t.t.t.i.i.u.u.t.u.t.u.u.t.u.] t.D > > 8 } f.I._.'._._.`.).W.`.&X&X_.`.W.`.W.W._.W.'.'._.W.W.`.!.!.!.!.!.!./.!.W.!.W.!.!.E.E.J. . .R.W.!.^.`.!.^.!.E.E.E.E.E.R.E.E.E.!.Q.!.!.Q.Q.Q.~.Q.Q.Q.!.!.",
"= = O O o O O * i p p J 5.u.u.F D F F ] } p.v.s.' ' ' Q C Z C C C C C C V C C C C Q Q C C V V C C [  ...k.L.L.P.P.I.U.L.P.U.P.L.U.I.I.I.I.I.I.W.W.I.I.W.).W.W.).I./._.`.W.s.p.W.I.W.W.I.W.W.I.U.C , d d d d u u i g g g D D D D D D } ).&X_.).)._._._._._._.W.).).W.d. .L.W.W.I.W.).W.I.I.W._.I.P.L.d.- j F H ] ] ] ] ] F F H H F F t.t.p.a.a.u.u.t.t.3.H ] ] F D G q - > 8 H a.U._._._._.).)._.'.`._._.W.`.W.W.W._._.W._._.`.`.`./.!././.!./././.!.E.!./.&X!.E.E.J.j.j.R.!.!.!.R.!.E.!.!.W.!.E.E.E.~.E.!.!.!.^.~.Q.!.Q.E.~.!.!.",
"* * * * O O O * u g p A H 3.A A H } } j.z...X.^ ' ^ Q C Q C C C Q Q Q Q C C V C C Q Q Q C Q Z [ ..s.k.L.P.I.I.R.P.I.U.I.U.P.P.L.U.I.I.I.W.W.W._._.W.).).).I.W.).W._._._._.).P.} L.).`._._._.W.I.' d 8 d d d d u g g g g D D D D D D k.`.`._.).).)._._.W.W.W.W.W.P.} j.W.I.W.I.W.I.).P.P.I.I.I.I.P.k.} 7 q F ] ] ] ] ] ] F H H ] ] ] ] ] u.u.p.u.t.] G B d , ; = = ; > - > > , i.i.u.p.I._.`._._._.W.W.W.W.W.W.W.R.`.`.W.W.).).!.'.`.^./.!./.!.!.^.^.E.!.!.`.`.!.^.Q.E.J. .j.J.!.!.!.E.!.^.!.!.!.E.Q.Q.~.!.E.!.Q.Q.^.#X!.~.~.~.Q.",
"; * * * * * O O u p p D A F G p.p. .j.j.X.' ' ' ' ' Q Q Q Q ^ ^ ^ ^ Q Q ^ Q Q C C Q Q C ^ ' X.j.x.k.P.I.P.P.P.U.U.I.I.I.I.I.I.U.L.I.I.I.W.W.W._._._.).).).I.W._._._.W._.W.W._.R.s.d.W._._././.W.{ 8 , d d d d d g g g A D D D D D D U.`.'.'.)._._.`.).W.W.W.I.d.s.W.).W.).W.W.U.I.W.U.P.P.I.I.I.P.x.X., = B ] t.u.] ] ] H ] ] ] u.u.] } } ] ] { C 8 ; = - - - - ; > > 7 > 5 - g 3.i.u.} s.W.W.W._.W.).!._._._.W.W.`._.!._._.'._.!._.`.!.!./.!.!././.!.!.!.!.!.E.^./.^.^.E.J.....P.!.!.^.^.!.!.!.!.^.!.!.^.!.!.^.Q.!.#X!.!.~.E.~.",
"> ; * = ; * * * < i p A D } s.j.j.j.X.' ' ' ' ' ' ^ ^ ' ' ' Q Q Q ' ^ ^ Q Q Q Q Q Q Q ' X...d.L.U.L.P.P.P.P.I.P.U.I.I.I.I.W.I.P.I.W.I.I.)._._.W._._.).W._._.).)._._._.).`._._.W._.P. .P._.`._.`.X.d d d u d u u g g l D D D D D D { '.'.'.`.`._.`.`.).)._.P.s.P._._._.W.W.W.U.P.L.x.P.I.I.P.I.U.I.I.j.> = * D t.p.p.u.] ] ] ] ] ] ] { ' C h 8 - = % % $ % = > 8 j C D V 8 = $ > A u.i.f.] } W.W._.'.`._._.'.'._.W.!.!.!.`.W.W._.!.!.'.`.!./.!.^.&X^.!.`.^.!./.^.^.!.^./.!.^.^.R...j.E.^.`.`.`.!.^.^.`.^.#X^.!.^.!.^.^.Q.!.#X!.!.",
", , , , , , 8 8 ; u g ] p.p.s.s. .' ' ' ' ' ' ' ' ' ' ' ' ' ' ^ ^ ' ^ ^ ^ Q Q Q ^ ^ '  .s.L.U.P.P.U.P.P.I.I.P.I.P.P.P.I.U.P.I.I.I.W.I.I.W.).W.I.W._.W.I._.).)._._._._._.`.)._.W.!.P.R. .j.!.`._...d d u u d u u g g l D D D D D D j.'.'.'.&X&X'._.'._._.k.k.W.`._.W.W.U.W.P.k.U.L.L.P.W.I.I.U.I.).).P.C % % ; j ] } p.p.} ] D h d , = O O # # # % % O O - d D ] ] u.t.} H B > @ g 3.i.g.b.s.' W.W.`.`._.!._.`.`.W.W.!.`.!.W.!.!.!.W.!./.`.`.!.`.`.!.`.`./.!.^.^.`.^.^.^.!.!.^.`.!.R...j.R.^.&X&X&X&X&X&X&X&X&X&X&X&X^.#X&X&X#X#X",
", , 8 8 q q , , , B } d.p. .] ' X.' ' ' ' ' ' ' ' ' ' ' ' ' ' Q ^ Q Q ^ Q ' ' ' X. .s.j.k.P.U.I.I.I.I.P.P.I.U.I.I.P.U.U.W.I.U.I.I.).W.W.W.W._.W.)._._._.W.).)._._.`._._._._.`._.&XR./.!.j. .W.`.l.u u u u u u g p g k D D D D D D `.'.'.&X&X`.`.`.'.U.s.I.`.W._.).).U.U.I.W.P.W.W.I.I._._.W./.W._.).P.l.^ 5 % O ; , 8 8 , = O . o X o . . . + + + # 8 C X.} p.u.u.u.u.u.u.H D % d u.i.i.g.x.C [ _.W.)._.W._._._.W.W.`.`._.!.`.`.!.!.`.^.&X&X^.!./.!.^.`.^.&X`.^.^.^.!.^.`.!.W.^.^.&X^.R... .J.^.`.&X&X&X&X&X&X&X&X&X&X&X&X&X&X&X",
", 8 8 , , , q q ' s.s. .X.' ' X.X.X.' ' ' ' ' ' ' ' ' ' ' ' ^ ^ ^ ^ ^ ^ ' ' X...j.k.l.k.U.P.P.I.P.L.I.P.P.P.P.P.P.P.I.I.U.U.P.I.U.W.I.I.W.W._._._._.`.`.`.W.)._._.`._._.W._.`.&X&XE.^./.^.R. .l.l.d u u u d d u u g k D D G G D ] &X'.'.'.`.`.`.W.k.d.W.`.).).W.W.).I.W.W.W._.I._._.`.`.W._._.W._.).W.W.J. .Q f ; = O o o + . + + + + . . . . .   + q ^ } p.p.y.t.u.u.a.u.u.u.G f 3.3.i.i.b.] Z l.`._._.W._.`.`.W.!.!.!.`.`.!.!.!.&X`.`././.!./.!.`.&X/.!./.`.`.`.`.!./.&X!.^.^.^.!.!.!.!.E.j. .j.^.&X&X&X&X&X&X&X&X&X&X&X&X&X^.",
"8 , , ; * d C  .s.s. .{ { X.X.[ X.[ [ [ ' ' ' ' ' ' [ ' ' Q ^ ' ' ' ' [ X...d.K.P.P.P.P.I.I.I.P.L.k.L.P.P.P.P.P.P.I.I.I.U.U.P.U.U.P.W.U.W.W.)._.`.`._._.`.).).).`.)._.W.).`.`.&X!.^.^.`.`.!.!.j.[ d u u d d f d i g k D D G G G k.`.&X`._.W.W.P.s.L.W.W.).`._._.).W.W.).I.W.).I.`._.`._.I._._._._._.).I.I.j.z.j. .' Q h h 0 0 8 7 $ % # # + . . . . . ; C ] p.p.y.] t.a.a.u.H F H u.3.u.f.b.] C Q _._.`.`._._.'._.`.`.!.!.!.!.!.`.`.'.'././.^.^.^.&X&X`.`././.^.!.`.`.`.&X`.^.Q.!.!.!.!.^.&X&XE... .R.!.&X&X&X&X&X&X&X&X&X&X^.#.",
"> ; * * C  .j.j. . . . .[ [ [ X.X.[ X.[ ' ' ' ' [ ' [ ' C C ' ' ' [  .j.k.P.U.I.W.I.L.P.P.U.I.P.L.K.L.k.k.P.L.x.P.U.I.I.U.W.W.P.U.U.W.W.W.I.W.).)._.`.`.W.).`.).W._.W._.'.W._.`.R.!./.&X`.E.#X&XR.f d d u d d f i g A D G D G { `.).&X`.`.).s.k.W.W._.W.W._._._.).`.W._.W.W.I.W._._._._._.)._._._._.W.I.I.U.j.J.j.j.j.j.@.| ^ ^ Q Q V V h 8 7 $ + o & o o f { p.d.y.] u.i.a.t.t.3.t.t.f.b.].] C V k.W._._.!.'.`.'.&X&X`.W.W.!.`.`.`.`.`.`./.!./.!.`.^./.!.^.`.^.E.!.^./.^.^.!.^.!.^.!.E./././.&X^.J... .l.^.&X&X&X&X&X^.^.Q. . .",
"* * q ' s.s.s. .} X. .[ X.X.' X.[ [ [ ' ' ' ' ' ' [ [ ' ' ' ' [ X...j.P.U.I.I.W.W.I.P.P.P.P.L.P.I.I.P.k.k.P.x.P.U.I.P.P.I.I.U.P.W.W.I.U.P.U.W.W.W.W.).`.`.)._._.W._.)._.`._.).!.E.^.&X`.`.&X^.#X&XC d d d u u g i g A D { { { ..!._.`.W.d.j.U.W.W.W._.).)._._.W.`.`.`.W.W.).W.).W._.`._._._.`.`.`._.U.U.W.W.j.U.l.j.j.j.j.j.z...X.' ^ ^ Q Q Q Q h 7 % + + o ; C } p.] ] ] u.p.u.u.u.i.f.f.b.d.V V  .W.!.!.!._.`.`._.!.`.W.).&X`.`.`././.!./.R.!.!.!.!.W./.!.`.^.!.!.^.^.^.^.^.`.^.`.`.^.^.!.!.&X&X/.!.E.z...J.&X&X^.!.!.Y.X.j.^.",
"d D  . ... .[ X.X.X.X.' ' } ' X.X.[ X.[ ' ' [ ' ' ' ' ' X.[ X... .J.P.I.W.I.W.I.I.U.P.P.P.P.P.L.L.W.P.P.U.P.k.P.I.U.U.U.I.W.U.U.P.U.U.P.P.U.I.W.W.W.W._._._.`.W.).).)._.'.`.`.^.&X&X`.`./.&X&X&X^.{ d d d g i g g g D D ] G D Q._.).U...k.).W.W.W._.`.W._.`._.)._.`.`.`.)._.W._.I.W._._._._._.`._._.I.I.W.R.x.j.j.k.j.j.j.k.j.j.s.#. .' ' [ ' [ ^ Q V w - # + + 5 h C j 8 8 j ] u.u.a.b.b.b.] V V  .P.W.!.).).`.`.!.!.).W.).!.!.!.`.!./././.E.W.!.!.!././.!.E.!.^.!.^.^.^.^.`.`./.`.`.&X&X`./.`.&X&X!.^.&XR.j. .#.E.E.l.' l.&X&X",
" . .X.' X.X.X.[ X.X.X.X.' X.[ [ X.[ X.' ' ' ' ' ' ' ' [  . .j.j.U.P.W.W.W.I.I.I.P.P.P.U.P.P.L.P.P.P.L.L.U.P.k.U.P.P.U.P.U.R.R.W.U.P.U.U.U.R.W.R.R.W.W.W._.`.`._._._.U._._.!.`././.&X^.&X^.&X&X&X^.^ d d d g g g g g D G ] { { &X&Xj.d.W.W.W.W.U.W.W.W.W.W.W.P.W.).).).)._.W._.`._._._._._._._.`._._.W.W.U.U.W.l.k.j.j.j.j.j.k.j.j.k.j.#.X.[ [ X.[ | [ ^ Q V 0 - % O O % @ & o 8 { p.a.a.p.] d h h  .P.W.R.R.W.W.W.W.!.!.W.!.!.!.!.!.!.!./.!.!.!.E.!.!.!.!.!.!.E./.!.!.^.^.^.`.`.`.`.`.&X&X&X`.`.!.^.!.!.!.Q.!.!...' X.Z R.&X&X&X",
" . .X.[ [ X.[ [ ' ' X.X.' [ [ [ [ ' ' ' ' ' ' ' [ [ X. .k.P.P.W.W.I.W.W.I.I.I.U.P.k.P.P.P.L.L.L.k.P.P.L.U.P.P.P.P.P.U.U.P.U.W.W.x.k.W.W.W.W.W.W.W.W.U.W._.!.'._.'.&XW._./.!.W.j.J.&X`.^.!.^.&X&X`.] d u u g g g g l D ] ] ] j.Q. .E._.).!.W.U.P.W.W.W.W.W.W.W._._.W.W.W.I._._.W._._._.I._.W._.`._._.W.W.W.U.W.P.P.k.k.j.j.j.j.j.k.j.j.j.j... . .|  . .| |  .| ^ V q > ; % % O @ ; d f f 8 = ; f ^  .l.P.P.l.P.W.R.R.W.!.!.^.^.!.!./.!.!././././.E.E.W./.!.!.!.!././.W./.!.!.W.`.!.`.`.^.`.`.`.`.!.W.E.E.E.E.E.!.!. .V ' j.^.#X&X",
"X.X.' ' [ [ ' ' [ ' [ [ [ X.[ [ ' ' ' ' [ ' ^ ^ X. . .j.E.I.W.W.W.I.I.I.W.I.I.I.P.P.P.P.j.L.P.k.d.P.k.L.U.P.k.P.P.P.U.U.U.P.R.W.U.U.W.W.).W.R.U.W.U.R.W.)._._.`.`.`.`.!._.!.!.!.&X^.^.^.^.^.&X^.&Xz.d d d g g g k D F G ] { }  .Q.`.`.&X`.`.`.!.!.W.W.W.W._.W.W.W.W.I.W.).I.W.I.W.I.I.I.W.I.I._._.W.W.I.W.R.W.U.P.l.j.j.j.j.j.j.k.j.j.l.z.j.l.j.@. . . . . .@. .| [ [ ^ Q h e 8 > ; = = ; 8 h ^ | l.j.l.P.l.P.R.R.P.R.P.R.E.!.!.E.E.E.!.!.!.^.^.E.!./.!.!.!.!.E.W.W.!./.W.E.W.`._._.!.^././.`.`.E.E.!.!.!.!.W.E.j.' R.!.j.' ..R.",
"' ' ' ' ' ' ' ' ' ' ' ' ' [ ' ' ' ' ' ' [ ' ^ | @.X. .j.W.I.L.P.I.P.U.P.W.I.I.P.U.P.P.P.L.s.k.k.L.P.d.k.P.U.R.U.U.P.U.R.U.P.W.W.W.U.W.W.W.W.W.W.U.U.R.W.W.W.W.W.W.W.).!.!.!._.!.`.`.`.`.!.^.&X&X&Xl.f d g g g g l D F ] ] G j.&X&X!././.`.`.!._.!.W.P.P.P.P.P.P.I.I.I.I.I.P.I.I.W.U.I.I.W.I.I.)._.W.W.W.W.W.W.W.U.l.j.j.l.j.j.j.j.j.j.l.j.j.j.j.j.z... . . . .| | | | | [ | | [ ' [ ^ ^ ^ [ |  .l.J.l.l.l.P.R.R.P.J.j.l.l.J.J.R.E.R.R.E.W.E.!.!.E.!.!./.^./.!.!.!.!.!.!.!.!.W.!.!.!.`./.!.!././.!.W.!.!.!./.!.z.' R.^.&X!.E...Z ",
"' ' ^ ' ' ' ' ' ' ' ' ' ' ' ' ' ' ' ' ' '  ...s. ...s.s.j.P.I.P.W.I.W.I.W.P.I.P.U.P.P.P.L.L.P.P.P.P.k.x.P.W.W.W.W.P.U.P.P.P.!.W.R.U.W.W.!.R.W.W.W.W.R.R.W.W.R.W.R.W.!.!.).&X_.'.^.W.R.E.!.^.^.&X&XR.g f d d g g k D F ] ] D l.^.!.^.!.W.!.!.!.W.W.W.R.U.U.P.P.x.L.P.P.I.I.I.P.I.W.P.I.I.W.W.W.)._.W.R.W.W.W.W.W.W.P.j.j.k.j.j.j.j.j.j.l.j.j.j.j.l.l.l.j.z.j.z.#. .| | | |  ... . . . . . . .z.l.J.P.l.l.R.l.J.J.J.J.l.j.J.P.l.l.J.P.J.J.J.J.R.R.R.R.!.!.W.^./.^.!.!.R.R./.!.!.W.W.!.^./.!.!.!.!.!./.!.^.^.!.z.[ R.!.^.&X&X#X&XE.",
"^ Q C ' ' ' ' ' ' ' ' ' ' ' ' ' ' ' ' '  .s.k.U.E.!.j.s.k.j.U.U.R.U.W.U.I.I.I.U.I.P.P.P.P.I.P.x.k.L.k.P.R.R.U.U.U.P.U.U.R.U.W.W.W.W.W.W.!.W.W.W.W.W.E.R.R.P.P.W.W.!.!.!._.&X).).!.R.!.!.^.!.&X&X#X!.j f d g g g k F ] H H B l.&X&X&X!.W.W.W.!.W.W.W.W.W.P.W.U.I.I.I.I.W.I.I.P.I.I.I.W.I.L.P.W.W.W.W.W.U.W.W.W.W.W.W.P.l.l.j.j.J.l.J.j.j.j.j.j.j.l.J.R.R.R.R.Q.Y.l.#.@...#.z.j.j.j.l.l.l.J.l.R.J.J.J.R.J.P.J.l.J.J.J.J.J.l.J.l.l.l.l.l.l.j.l.R.R.R.R.R.!.!.W.!.^./.!.!.l./.E.E.!.!.^.`.!.!.E.E.!.!.!.^.^.^.j. .!.^.^.&X&X&X/.&X^.",
"^ ^ C ' ' ' ' ' ' ' ' ' ' ' ' ' ' '  ...k.L.L.I.I.R.J.P.x.U.I.I.W.W.I.U.I.I.W.W.W.I.I.U.U.U.U.k.P._.I.P.U.W.R.W.U.P.U.R.W.W.W.W.W.W.W.W.!.W.R.W.W.W.R.R.P.R.R.W.W.W.).!.`.`.&X)._.!.!.`.`.^.&X!.&X!.j f d g g g D ] t.t.H } } l.&X&X&X&X&X'.`.W.W.R.W.W.W.l.k.U.P.P.I.W.P.I.I.I.I.P.I.I.I.U.W.W.W.U.U.W.W.R.R.W.W.W.W.l.l.l.P.l.J.J.l.l.j.k.z.j.j.j.k.R.E.W.!.R.R.E.J.j.j.j.j.k.l.l.J.R.E.R.R.R.J.J.J.l.J.R.J.l.J.J.P.R.J.J.R.J.j.l.J.J.j.l.J.J.R.R.R.E.W.E.W.!.!./.^.^.!.!.!.`.`.`.`.^./.!.!.^.!.!./.E.j. .&X&X&X&X&X&X&X&X^.&X",
"^ ^ C ^ ' ' ' ' ' ' ' ' ' ' ' ' ' ..d.K.L.I.I.I.I.P.P.W.I.U.I.I.W.P.P.I.W.U.I.I.W.I.U.U.W.W.W.W.'._.U.U.U.U.P.R.W.W.W.R.U.W.W.W.W.R.U.W.W.W.W.W.W.R.R.W.W.W.R.W.W.W.!.!._.`.`.!.!.`.!.`.`.^.!.!.`.W.f d d g g g D ] t.t.] j.&Xc. .R.'.&X&X'.`.).!.).!.W.U.k.k.U.U.P.I.I.I.I.I.I.I.I._.).W.W._.I.I.P.P.W.W.U.P.W.W.!.`.P.l.l.l.l.j.l.j.l.j.z.z.#...j.j.Y.E.E.W.E.E.!.!.E.E.R.R.R.R.R.~.R.R.R.R.R.P.R.P.P.l.l.J.J.J.J.J.R.R.J.l.J.l.l.R.J.l.l.l.l.Y.R.J.l.R.j.E.E.R.E././.E./._.`.`.`.`.`.`.`.^.^.^.W.W. . .!.&X&X^.`.^.#X!.&X^.^.",
"^ ^ ^ ' ' C C ^ C ' C ^ ^ '  .X.s.d.K.I.I.I.I.I.P.I.I.U.W.U.W.P.P.P.R.I.U.U.P.P.U.P.U.U.U.W.W.U.W.U.W.W.U.P.U.W.W.U.W.W.W.W.W.W.W.R.R.W.W.W.W.W.W.W.W.W.R.W.).W.R.!.!.!.`.!.!.!.`._.!.&X&X&X&X!.`.z.f f d g g g D ] t.t.] j.&X&Xl.[ j.&X&X_.`.).W.W.W.U.P.P.P.L.L.I.W.W._.W.W._.).W._.I.I._._.P.W.W.W.I.W.W.R.W.W.!.`.W.J.l.l.l.l.l.j.j.j.z.l.j.j.j.j.J.R.E.!.!.!.!.!.!.!.!.W.W.R.R.R.R.R.R.J.P.J.J.l.J.l.J.R.J.l.j.J.R.J.z.z.l.l.l.J.l.l.J.l.l.J.R.J.R.R.J.R.R.R.E.!.^.!.^.&X&X&X&X!././.`.^.^.^.R.}  .E.!.&X`.^.^.!.#X!.!.#X!.",
"C ^ ^ C C ^ Z Z C ' ^ ' '  ...s.L.K.I.U.U.U.I.I.I.P.I.I.W.I.W.x.L.P.P.L.L.U.U.U.I.P.P.L.W.W.U.P.W.W.W.W.R.P.U.U.W.P.W.W.W.!.W._.W.W.W.W.R.E.W.W.W.W.!.R.R.!.).W.W.W.`.W.!.!.R.!.`.`.!.`.&X&X&X`.`.X.f f g g g g D F t.t.] x.&X&X!.E.s...P.!.).!.W.W.W.W.W.W.W.W.).).).).W.W.I.W.I.W.W.I.I._._.W.U.P.U.k.x.R.W.W.W.W.W.R.P.l.z.j.l.l.J.l.l.J.l.j.j.j.j.l.P.E.^./.W.W.W.`._.'.`.!.!.W.R.R.J.Y.J.l.P.l.l.J.J.J.J.l.j.l.J.J.R.l.l.l.l.l.l.J.J.J.J.J.J.R.J.R.Y.R.R.R.~.E.E.Q.!.^.&X^.`.&X!.!.E.!.!.!.J. . .J.`.`.&X&X^.!.^.^.!.!.&X!.",
"C Z ^ ^ ^ ^ ' ' C G ' X.s.k.d.U.U.U.I.L.U.L.L.U.I.P.I.P.P.I.I.I.I.P.L.L.K.P.U.I.P.U.I.W.W.W.I.P.).W._.W.W.P.U.U.W.W.W.W.W.W.!.W.W.!.).!.W.W.!.!.W.W.!.!.W.W.!.!.`.W.!.!.!.!.W.W.!.).W.R.`.&X&X`.E.C f f d d g g A F t.] ] p.&X&X&X_.`.k.X.P.`.W.!.W._._.`._._.W._.)._.`.W._.I.W.W.U.W.I._.I.W.W.U.P.W.U.P.P.W.!.W.W.W.W.R.j.j.j...l.J.l.R.J.l.j.j.j.l.J.R.P.^././.!.`.`.`.&X`./.^.^.E.~.R.J.J.R.P.J.R.J.J.P.J.l.J.J.J.J.J.l.l.Y.R.P.l.l.J.J.J.l.J.R.J.R.R.J.J.R.!.!.E.E.E.Q.^.^.!.!.^.!.!.!.E.z.'  .^.`.&X&X&X&X^.!.^.!.^.^.^.!.",
"Q Q C Z C C Z ^ ' X...d.L.P.U.U.I.I.I.U.I.U.L.U.I.P.L.L.L.I.I.I.P.P.k.P.U.U.U.P.L.I.P.W.U.I.W.P.U.W._.W.W.U.W.U.W.I.W.!.W.W.W.!.!.).).!.!.R.W.W.W.R.W.W.).!.W.!.W.!.W.W.W.!.W.W.).`.W.`.&X^.^.!. .j g g d g g g k H t.] H ] '.&X&X`._.W.W...s.P.W._.`._.'.'._.`.`.W.`.`.).`.W.'.`.W.I.I.I.W.W.U.P.R.R.R.U.W.W.).W.).!.Q.R.j.j.l.l.J.J.R.J.J.J.J.l.l.l.J.R.R.R.!.!.^./.`.`.`.^./.`.&X^.!.!.J.J.E.R.P.J.J.J.J.J.l.l.J.l.l.l.l.l.R.P.J.l.J.l.l.J.l.l.E.l.J.l.l.R.E.!.!.E.R.J.Q.E.!.E.W.!.!.!.E.l.X.X.E./.^.^.&X^.^.!.!.^.#X^.!.^.E.",
"^ C Z V Z C '  . .s.s.U.I.I.P.L.L.U.U.U.I.U.L.P.U.L.x.I.I.I.P.I.P.L.P.W.U.P.P.L.I.W.U.W.W.U.U.U.W._.W.W.R.W._.W.W.W.W.!.R.W.W.W.W.W._.W.W.W.W.W.R.R.W.W.W.!.W.W.`.!.).W.!.!.W.W.W.!.!.`.&X/.R.l.' j g g d g g g k F t.t.t.u.'.&X'.'.`.`.&XW.L.X.l.`.'.'.'._.`.'.'.`.`.`._._.).)._.).W.W._.W.W.R.U.U.U.W.W.W.W.W.R.W.W.W.`.R.j.j.R.J.R.R.R.J.l.R.R.J.l.j.J.R.R.J.E.!.!._.`.!.`.`.`.^.#X^.&XQ.Q.E.E.E.P.J.J.J.R.l.l.l.l.z.l.l.J.J.J.l.l.E.J.J.J.Y.l.J.J.l.l.l.z.Y.Q.Q.Y.Y.l.R.J.J.J.Y.Y.Q.E.R. .j.R.E.^.&X#X^.^.^.^.!.^.^.^.^.!.E.",
"Q C Z Z C ' ..d.k.L.P.U.I.P.L.L.K.U.U.L.U.L.L.U.P.L.L.P.P.P.P.I.P.P.I.U.s.s.P.U.I.W.I.W.W.P.P.W.W.W.W.W.W.W.W.W._.W.W.!.!.!.W.R.R.W.W.W.!.W.W.W.W.R.!.!.W.W.!.W.!.W.!.W.!.W.W.!.!.).!.!.E.l.R.!.' j g g g g g g A ] u.t.] p.).&X'.&X'._.&X&X`.).} s._.'.`.'.&X&X&X&X'.'.)._.W.).`.).).).W.`.!.!.R.P.R.R.R.W.W.!.W.).Q.Q.!.R.J.J.J.J.R.R.J.R.J.J.P.R.R.l.J.P.J.J.R.!.^./.!.!./.&X`./.&X^.&X&X^.E.!.^.E.R.R.J.Y.l.l.l.l.J.l.l.l.l.J.l.l.J.l.l.l.l.l.J.l.l.z.l.z.Y.Y.~.Y.Y.l.l.l.l.l.l.z.c.z.| j.Y.!.Q.^.#X^.#X/.!.!.!.!.E.Q.Q.Q.!.",
"Z Z Z X.} ..d.L.I.I.I.I.P.U.L.L.d.U.L.U.L.L.U.U.P.P.I.P.U.I.P.L.K.k.k.d.] } U.P.I.I.U.U.I.I.P.W.W.W.W.W.W.W.W.W._.W.W._.`.W.!.W.R.W.W.!.W.W.!.W.W.R.W.W.W.W.W.W.W.W.!.!.!.W.W.W.!.).W.P.l.^.&X&X .j g g g g g g D ] u.t.H u._.&X&X'.&X'.&X`.'.'.!.s.} P.W._.'.&X&X'.'.'.`.'.`._.)._._.W.W.).)._.W.R.W.W.R.W.!.!.!.W.W.Q.R.Q.R.l.P.P.P.R.R.l.J.P.J.J.J.J.l.R.J.J.R.W.!.!.^.`./.^.&X&X&X&X&X&X^.^.^./.!.E.R.R.J.J.J.J.J.J.l.J.J.l.Y.Y.J.J.l.l.l.l.l.l.l.l.z.l.l.l.l.z.Y.Y.c.z.l.l.Y.c.z.#.X.#.R.Y.~.!.E.!.!.^.!.Q.Q.!.^.E.E.Y.~.!.",
"Z Z ' s.d.d.d.U.L.U.I.U.U.L.L.U.L.U.U.U.L.d.I.U.P.P.P.L.P.I.k.d.s.d.s. .X.d.P.L.P.I.W.I.I.W.W.W.P.W.W.).W.W.W.W.W.W.W.W.W.W.R.R.R.W.W.W.W.R.W.W.W.R.R.W.W.!.!.`.W.W.!.!.W.W.W.W.W.P.k.R.^.&X!.&Xc.g g j g g g k D u.i.t.t.u.&X&X&X'.'.'._._._.'.&X!.P.] s.W.W.&X'.`.`.'.'.'._.`.!.)._._.W.).!.!.W.W.W.P.l.R.!.W.l.!.!.W.!.!.E.R.R.R.R.R.E.J.R.R.Y.R.l.l.l.J.R.l.R.R.W.!.&X`.^.^.&X&X&X&X^.!.!.^.^.!.!.!.E.R.l.l.J.l.J.R.J.J.l.J.J.J.l.J.l.l.J.J.l.l.l.l.l.l.l.l.l.z.z.z.z.z.z.z.z.z.#.[  .z.c.c.Y.Y.Y.~.Y.E.!.Q.Q.Q.!.Q.J.J.R.l.",
"' ' ..d.U.U.P.U.U.I.L.L.U.U.L.L.L.L.L.L.U.L.I.U.U.U.L.P.U.d.d.k.k.s.j.k.d.U.I.P.L.P.P.U.I.P.U.I.I.U.W.W.W.W.W.W.W.W.U.U.P.j.j.x.W.W.R.W.W.W.W.W.W.R.R.W.W.W.U.R.W.W.P.W.W.W.W.W.j.P.!.!.J.l.#. . .j g g g g g l F u.a.u.t.f.&X`.'.'.`.'.`.`.'.&X&X`.W.x.} } W.&X'.'.'.`.&X`.'.`.).).).`.).W.W.W.W.W.W.R.W.W.W.!.Q.W.W.!.Q.!.E.R.E.R.J.R.J.J.J.l.J.R.l.J.j.l.l.J.R.E.R.!.!.`.!.!.^.^.`.&X&X!.&X^.!.E.!.!.E.R.J.l.J.J.J.R.J.J.l.l.z.l.l.l.J.l.l.J.l.l.l.l.Y.l.l.l.z.z.z.z.#.z.z.z.z.@.' | l.#.l.c.Y.Y.z.Y.~.~.Q.~.Y.~.~.Q.E.~.~.E.",
"X.s.k.U.U.U.I.I.I.U.L.U.U.U.L.L.k.d.d.L.L.U.x.L.P.P.k.U.d.d.L.k.d.P.P.I.I.I.P.L.L.L.P.I.U.P.P.R.W.I.U.I.W.W.W.W.U.R.P.x.P.j.W.).!.W.W._.).W.W.W.W.W.W.W.W.U.R.W.!.W.R.R.R.P.j.j.l.`.#X| 8 ; = = { A j g g g g l F u.a.u.u.x.'.`.`.'.`._.`.&X'.&X&X_.W._.W.x.} R._.`.`._.`._.'.`.`.'.'.'.'.).W.W.W.W.R.R.W._.).!.!.!.W.`.`.!.E.E.E.J.J.E.R.R.R.l.Y.R.l.J.l.j.l.J.R.E.R.R.W.&X^.^.^.!.^.^.^.!.`.^.!.!.!.!.&X!.R.J.R.R.J.l.l.l.l.l.j.l.J.Y.J.J.J.J.Y.l.l.Y.c.c.l.c.z.z.z.z.@.z.z.#. .'  .#.z.c.c.c.l.l.l.c.Y.~.~.Q.~.~.Y.Y.Q.Y.Y.E.",
"d.L.L.L.U.U.U.L.I.U.L.U.I.L.k.x.x.L.U.L.d.U.L.U.L.P.K.d.L.L.L.L.P.I.I.U.U.I.I.I.I.I.I.P.P.P.U.I.I.P.P.U.W.W.W.W.E.R.W.W.U.U.R.W.W.W.W.W.W.!.W.W.W._._.W.W.W.W.!.W.!.R.P.P.s.j.W.W.!.Q = = ; = C ] D F D D D l l F t.a.u.u.I.&X&X`._.'.`.'.&X`.&X&X'.).'.'.'.W.j. .W.`.`._.`.'.`._.`.`._.'._.).W.W.R.R.W.R.!.!.!.!.!.W.!.!.!.!.W.!.R.R.R.E.R.Y.l.Y.R.R.l.J.l.R.P.P.R.J.P.P.E.^.^.^.!.^.^.^.!.^.^.R.^.^.^.^.!.!.R.E.E.R.R.Y.J.l.j.l.J.R.J.J.J.l.l.J.j.l.Y.Y.l.l.l.l.z.z.#.@.#.@. .^ #.z.z.c.c.c.c.l.z.c.c.c.~.~.~.~.~.~.Y.~.Y.R.Y.",
"L.L.L.L.L.L.d.L.U.L.L.L.U.x.d.L.L.U.L.L.x.U.U.k.L.L.d.d.L.U.L.K.L.P.P.L.P.P.U.I.W.P.I.I.P.P.P.P.P.U.P.U.W.W.W.R.W.W.W.U.U.R.W.U.R.W.W.W.W.W.W.W._.W.!.W.!.W.W.!.R.W.P.j...j.W.U.U.z.; ; - ; ; ] F F ] F F H F F F t.a.u.u.`.&X&X`.`.'.`.'.'.'.'.&X&X&X'._.'.`.`.l.X.l.`.&X&X'.'.&X&X&X`._.`.!.!.W.R.U.P.R.W.!.!.!.!.!.W.W.!.!.!.^.R.R.R.R.J.J.R.J.J.J.l.Y.l.J.J.R.J.l.l.l.R.R.^.^.^.^.^.^.!.^.&X&X&X^.!.!.!.`.Q.Q.!.~.E.R.R.R.J.R.R.J.J.R.l.l.Y.Y.l.l.z.l.l.l.c.c.z.z.#. . .| ^  .z.z.z.c.c.c.c.c.l.z.z.z.l.l.c.Y.Y.Y.~.~.~.Q.!.",
"L.L.L.d.L.L.[.U.L.d.L.L.L.x.d.d.d.L.L.L.L.U.d.d.U.U.L.L.U.U.L.k.L.L.P.L.P.P.I.I.W.I.I.U.U.U.U.P.P.I.s.I.U.W.W.W.W.R.U.U.U.R.P.P.P.R.R.W.W.W.U.W._.W.W.W.W.W.W.P.P.j. .j.P.P.j.k.k.[ > 5 5 5 d } ] ] H H F F t.H H t.i.u.u.'.&X&X&X'._.`.&X'.`.`.'.-X&X&X_.&X'.&X&X!...s.!.&X&X&X'.&X&X&X!.E.W.W.E.R.W.R.R.!.Q.!.!.!.W.!.!.R.W.!.^.^.R.E.Q.l.l.J.R.J.l.l.J.J.J.P.J.J.l.J.J.J.R.!.^.!.^.`.&X^.!.!.&X&X/.!.!.^.!.Q.!.!.R.E.R.E.E.E.E.R.R.J.J.J.J.R.R.Y.Y.Y.E.Q.^.z.c.z.z.#.@.' ^  .#.z.z.z.c.c.z.z.l.c.c.l.c.l.z.c.c.c.Y.R.~.Q.Q.Q.",
"L.L.d.L.f.L.d.L.L.d.L.L.L.x.d.d.d.d.U.U.U.L.x.x.U.L.L.s.I.P.U.L.k.P.I.I.U.U.U.I.U.I.P.I.W.U.P.P.U.k.k.P.P.U.U.U.U.U.P.I.W.U.k.x.R.R.R.W.W.W.W.W.W.P.U.U.P.U.U.x.s.s.P.U.P.P.k.P.k.^ ; > > 5 B ] H H H H F H t.t.3.t.i.u.u.'.&X'.`._.`.'.'.'._._.'.&X&X&X_.&X'.&X&X&X&Xj. .W.^.`.'.&X`.`.`.`.!.W.W.R.W.E.E.Q.Q.W.!.!.R.E.^.W.E.^.!.^.E.R.!.W.Y.R.R.R.J.j.l.R.R.J.J.J.l.J.P.R.R.R.E.!.^.!.!.Q.E.R.&X/.E.E.E.W.E.^.^.`.!.E.E.Q.E.!.Q.R.R.R.Y.R.Y.R.E.~.J.J.l.l.l.c.Y.c.z.z.| ^  .z.z.z.z.c.z.c.c.l.c.Y.Y.c.c.c.l.Y.c.Y.Y.Y.~.Q.Q.T.",
"d.d.d.d.d.L.U.I.L.d.L.d.L.d.d.d.d.L.P.L.L.L.k.d.L.U.U.K.U.U.I.P.k.d.d.P.L.U.k.P.x.P.x.P.W.U.k.k.k.j.L.P.P.U.U.P.P.U.P.R.P.P.l.P.P.P.U.W.P.P.R.U.U.U.W.R.U.P.j.s.s.W.W.R.R.U.x.k.k.C 5 5 5 8 D H F F H H F H u.i.u.u.a.u.u.'.'.`.`.`._.`.'.'.'.'.'.&X&X&X`.'.'.&X`.&X'.`.R.} z.!.`.&X&X'.`.&X!.!.R.W.W.E.E.E.W.R.E.E.E.E.!.!.E.`.!.!.^.E.!.!.Y.R.R.~.R.Y.l.l.J.Y.J.J.J.J.Y.J.R.R.R.R.!.!.Q.!.E.E.E.!.W.W.R.E.W.^.&X&X`.E.E.^.^.!.^.!.!.Q.E.E.Q.Q.Q.Q.Y.J.l.l.Y.Y.c.z.z.X.' #.#.c.z.c.c.Y.z.z.c.Y.Y.c.c.c.z.Y.Y.c.c.c.Y.Y.J.Y.Y.Y.",
"d.d.L.L.d.L.L.L.f.d.x.d.d.L.x.L.d.L.L.d.d.d.d.L.k.d.L.k.k.P.I.P.k.L.L.K.L.L.P.P.k.P.P.P.U.U.P.k.k.P.P.P.P.U.I.W.P.P.k.P.L.P.P.P.U.P.U.U.P.P.U.U.W.W.W.W.x.s...j.U.R.R.R.R.W.P.k.k.C > > 8 q G F F F H H F H t.i.i.i.i.u.u.'.'.'.&X'.`.'.'.&X'.'.)._.'.W.`.`.'.'.&X_.&X&X`.W... .W.`.&X&X&X&X`.`.`.W.W.R.R.E.!.Q.Q.W.E.R.E.W.!.!.^.^.^.R.R.Q.Q.Q.E.R.E.R.R.Y.j.l.l.J.R.R.l.J.R.R.R.R.E.!.^.W.R.E.E.R.R.E.^.E.E.^.^.^.!.!.!.&X&X^.&X^.^.^.^.^.&X!.#X!.R.Y.Y.Y.Y.Y.z.#.| [ z.c.z.c.Y.c.c.c.Y.Y.Y.Y.c.c.z.c.c.c.Y.c.c.z.Y.l.l.l.z.c.",
"L.L.L.L.d.d.d.L.d.d.d.L.d.d.L.L.L.L.L.d.d.d.k.L.L.d.K.d.d.d.L.K.k.k.P.P.L.I.P.I.P.U.I.P.P.U.U.P.P.P.U.P.L.U.W.I.P.P.k.P.L.P.P.P.U.U.U.P.U.U.U.P.P.P.P.j...j.U.W.W.R.P.U.W.W.U.L.j.C 5 5 8 8 G F F F H 3.H H u.a.a.a.u.u.u.).'.`.'.'.'.'.`.'.'.'.W.W.).'.&X&X'.'.&X`.&X&X!.&X!.P.X.z.`.&X&X&X&X`.&X!.W.W.!.!.!.!.W.W.E.E.E.E.!.E.!.&X!.!.R.R.R.Q.R.E.~.J.R.R.J.l.J.R.R.Y.l.l.R.J.R.R.R.E.R.^.R.E.E.E.E.!.!.E.!.!.^.^.^.^.`.!.^.!.&X&X&X&X^.&X&X#X#X!.Q.R.~.~.Y.z.z.X.' z.Y.c.c.Y.c.Y.z.Y.Y.c.Y.c.c.c.z.c.Y.c.c.c.Y.c.c.c.c.c.c.c.",
"L.L.L.L.d.d.[.L.L.L.L.L.x.d.d.d.d.d.d.x.L.d.d.d.k.K.d.d.d.d.k.L.P.L.L.U.I.P.L.L.P.U.I.U.P.P.P.k.P.P.U.L.L.U.W.I.P.P.L.x.P.P.P.U.P.P.U.U.R.R.P.P.P.k... .j.P.W.W.W.W.U.R.W.I.P.k.s.h 5 8 w 8 H F F F t.3.3.H i.a.f.a.u.y.u._.`.`.'.'.'._.`.).'.'.`.W.!.`.&X'.'.'.&X'.`.`.!._.!.`.E.s. .R.!.&X&X!.!.!.W.!.W.W.!.!.E.E.E.Q.R.^.^.^.^.&X!.E.R.E.E.!.~.E.R.J.J.R.E.E.J.R.R.E.E.E.R.J.E.E.R.R.R.R.E.E.l.R.E.E.R.!.!.!.!.!.^.^.&XR.!.^.&X&X&X&X&X&X#X#X!.!.^.!.Q.~.~.c.| | z.z.c.Y.Y.Y.Y.c.z.Y.z.z.z.c.c.c.#.z.c.Y.c.c.Y.c.z.z.Y.c.c.c.",
"L.L.L.L.L.L.d.d.L.L.d.d.d.L.d.d.d.d.d.d.d.d.L.d.d.d.d.d.d.d.L.k.L.U.L.P.U.P.L.P.P.U.P.P.P.P.P.P.P.P.R.U.U.U.P.U.P.U.U.U.W.R.P.U.P.P.x.U.P.U.P.P.j.} s.x.P.P.U.U.U.U.I.W.U.P.k.s. .h 5 q 0 d H F F H 3.t.t.3.t.i.a.a.t.t.p.I.`.`._.'.`.&X'.`.`.`.&X_.`.!.&X'.`._.).`.`.&X!.`.!.`.&X!.l.X.z.!.`.!.Q.W.Q.!.W.W.W.E.!.!.R.E.W.^.E.^.!.^.^.!.R.Q.E.Q.~.E.R.R.Y.l.R.E.R.~.R.E.E.E.R.R.E.!.E.R.R.R.R.P.J.R.!.E.R.!.!.E.E.!.W.W.^.&X&X&X&X&X&X&X&X&X#X#X#X#X&X&X!.Q.Y. . .Y.~.c.Y.Y.Y.Y.Y.Y.#.Y.c.c.c.c.c.z.#.z.c.c.c.Y.Y.c.Y.c.c.Y.c.c.",
"d.L.L.L.L.d.d.L.L.d.d.d.d.L.d.d.d.d.d.L.d.L.L.L.d.d.d.d.d.d.k.L.L.L.k.U.U.U.P.P.P.P.P.P.U.P.P.U.U.R.P.P.R.P.U.U.U.R.W.W.W.W.U.P.P.U.U.P.P.P.k...s.k.P.P.U.U.L.I.U.W.W.W.U.P.L.s...V 8 q 8 j G F F H 3.t.t.t.t.i.a.a.u.t.p.P.W._.'.`.`.`.&X`.`.W.'.`.`.&X&X&X&X&X!.`.`._.W.!.W.W.!.Q.!.R... .R.!.Q.W.!.!.W.!.!.R.!.^.R.!.!.E.J.Q.W.^.!.E.J.Y.R.J.R.E.R.R.J.j.J.l.R.R.E.R.J.R.R.E.E.E.E.P.J.J.J.R.J.E.E.E.E.!.!.E.R.R.E.R.^.&X&X&X&X&X&X^.&X&X#X^.#XQ.^.#X!.Q. .@.Q.Q.Q.Q.~.Y.Y.Y.Y.Y.c.Y.c.c.c.c.c.c.z.z.z.c.Y.c.z.z.c.Y.c.Y.Y.c.",
"d.f.[.L.L.L.L.U.L.L.L.L.d.L.d.d.d.d.d.L.d.d.d.d.d.U.d.L.d.d.k.k.L.P.k.k.P.P.P.P.U.U.P.k.L.P.x.P.P.P.P.P.U.I.U.U.W.W.W.W.W.W.U.P.P.U.P.P.P.s.} k.P.U.U.P.P.I.U.P.U.W.I.U.P.L.L.d.s.V > = = D F D F F t.t.t.t.t.i.i.g.u.u.u.P.L.L._._.'.'.'.`.`.).`.`.).!.&X&X&X&XW.!.!.).).W.W.`.!.W.!.!.W.z.[ l.!.`.!.!.W.W.E.E.R.!.E.!.!.!.!.R.!.^.!.Q.~.R.R.J.R.Y.z.R.R.J.J.R.R.R.R.R.Y.J.E.!.R.J.R.R.Y.l.J.R.E.E.R.R.!.Q.Q.E.Q.E.E.Q.!.&X&X&X&X&X&X&X^.&X!.!.!.!.Q.#XE. .z.#X!.!.!.Q.~.Y.Y.Y.c.Y.c.Y.c.c.z.c.c.z.z.c.c.c.Y.c.#.z.c.c.c.Y.Y.Y.",
"d.d.d.L.L.L.d.d.d.d.L.U.d.d.d.d.d.d.K.s.} s.d.d.d.d.d.k.d.L.U.L.L.P.P.P.k.k.L.U.P.P.L.k.L.P.P.k.k.P.U.x.U.U.P.W.W.W.W.U.P.U.U.U.P.P.j.k.s.s.k.P.P.P.P.P.I.W.U.I.I.I.P.P.P.k.k.j...V @ @ % C A D F F t.t.t.t.t.u.i.f.i.u.p.X.x.x.x.R._.'.`.'.).).`.`.`.W.`.&X&X&X).`.`.).'.P.W.`.W.W._.W.R.E.l.[ ..W.!.!.W.R.E.E.E.P.E.R.E.W.!.E.!.^.!.!.R.E.R.R.R.R.Y.R.E.R.l.R.~.J.J.J.R.J.J.E.R.J.Y.R.R.Y.R.R.E.E.!.R.E.!.E.!.#XE.^.^.^.^.&X&X&X^.!.Q.^.!.!.Q.!.#XQ.^...j.#X#X#X!.#X!.~.Y.Y.Y.Y.Y.c.c.c.Y.c.z.z.Y.Y.Y.Y.c.c.c.z.c.z.c.Y.Y.Y.Y.",
"L.L.d.d.L.d.d.d.d.d.d.d.s.s.} } } p.} } d.k.L.L.L.L.d.L.L.U.U.x.x.P.P.P.L.x.k.I.P.I.L.P.L.P.P.j.x.U.U.U.P.P.P.W.R.W.W.R.U.U.U.U.P.x.s.X.j.P.U.U.P.U.U.U.W.W.I.U.U.U.U.P.P.L.x.s...h @ o 0 = , j F F u.t.t.u.u.t.u.a.a.u.{ C k.L.P.P.U._._.`.`._._.`.`.!.!.&X&X`.`._.&X_.`.W.W.&X!.).!.!.!.!.R.E.s.[ P.!.W.W.E.E.E.l.R.!.W.E.R.!.^.`.^.E.P.R.R.R.~.Q.R.l.l.R.~.J.J.l.l.J.z.Y.Y.E.R.J.l.J.R.R.Y.R.R.E.!.Q.R.!./.^.&X&X^.^.!.^.&X&X^.^.!.Q.Q.!.!.~.Q.#XR. .j.!.#X#X&X#X#X!.Q.Y.Y.Y.Y.T.T.T.c.Y.c.c.#.c.Y.Y.Y.Y.Y.c.c.c.c.c.c.Y.Y.T.",
"d.L.L.L.L.L.L.L.s.d.p.} } } } } } } s.d.d.x.L.U.U.U.k.L.L.P.P.P.P.P.P.P.P.x.P.U.k.x.L.P.k.j.P.k.k.P.l.P.k.P.U.W.W.W.W.R.R.U.U.U.k.s.s.L.P.P.U.U.U.W.W.U.W.W.W.W.I.I.P.P.U.x.d.....h o 0 +.e > = d D t.3.u.u.u.t.t.a.f.t.f ' k.x.P.k.P.P.W.W._.).`.`.).!.!.`.'._.'.`.&X&X_.`.`.`.`.`.&XW.!.!.W.W.E.l.' ..R.W.W.!.!.E.E.!.!.^.!.^.`.!.!.!.E.R.J.R.P.R.l.Y.R.R.R.l.R.z.l.J.z.Y.E.~.~.~.J.J.l.J.R.R.R.R.Q.^.Q.^.&X&X!.!.^.^.!.^.&X&X#X!.!.Q.Q.#X#X!.~.E. .z.Q.!.&X&X&X&X&X#X#XQ.~.Q.~.Y.Y.Y.Y.Y.c.Y.c.z.c.c.c.Y.Y.Y.c.Y.T.c.c.c.c.c.",
"d.L.U.L.L.L.L.d.d.L.L.} } } } } X.] s.d.L.L.L.L.U.P.L.P.P.I.P.P.P.P.P.U.P.k.P.L.P.P.P.P.P.P.P.P.P.k.k.x.P.U.W.W.W.W.W.W.W.P.P.j.d.P.U.W.W.U.U.U.x.P.W.W.W.).W.W.I.P.U.L.P.k.d.s...e o 0 0 [ #._ 7 , A ] i.t.i.t.3.a.f.G , Q k.k.k.k.x.j.k.P.W.!.`.W.!.`._.'.W._.&X&X&X&X`.`.`.&X&X`.`.`.W.W.W.!.Q.R.P. .X.P.R.^.!.E.R.Q.!.^.^.^.^.^.!.^.^.^.E.E.E.R.R.J.J.R.J.l.R.Y.Y.~.Y.z.Y.R.R.R.J.Y.J.P.l.R.E.R.Q.&XQ.!.!.^.&X^.!.!.^.&X#X#X^.#X#X#X&X!.!.@XQ...l.^.^.!.&X&X&X&X&X#X@X@XQ.Y.Y.Y.Y.Y.Y.c.Y.Y.Y.Y.Y.T.Y.Y.Y.Y.c.c.c.c.c.c.z.c.",
"L.L.L.L.L.d.L.d.d.L.K.} } } } } } } s.L.L.U.L.k.x.P.P.P.I.P.P.P.U.P.P.U.P.P.P.k.P.U.P.U.U.P.P.P.P.P.P.U.W.W.W./.W._._.W.W.j.s.k.W.W.W.W.W.P.P.U.s.j.P.U.W.W.W.W.U.P.I.k.P.x.d.s...q o - - $ h +.Q = ; j u.u.i.i.u.a.f.f > C P.k.k.P.x.k.k.l.U.W.`.!.!.!.W.!.W.!._.!.`.`.`._._.&X`.`.&X`.W.W.W.W.W.W.E.E.j.X...E.^.!.E.E.R.!.!.!.!.&X&X&X&X&XE.Q.Q.E.E.J.J.J.l.R.R.Y.Y.~.l.l.Y.~.R.l.J.Y.Y.J.J.R.R.E.^.!.!./.Q.#X&X&X!.!.^.&X!.E.!.^.#X#X#X#XQ.Y. .l.&X&X^.#X&X&X*X*X&X&X#X@XQ.Q.Q.Q.Y.c.Y.c.c.Y.T.c.T.Q.Y.c.c.Y.Y.c.Y.Y.Y.c.Y.c.",
"L.L.L.L.L.L.L.d.d.d.L.} p.d.s.} s.d.d.L.L.L.k.P.P.L.P.P.P.P.P.P.P.L.L.P.k.P.P.L.P.R.P.x.U.P.P.P.W.U.P.R.).)._._._.W.W.W.j.s.U.U.W.W.W.W.W.U.W.W.U.U.P.P.I.I.I.I.R.U.P.L.L.k.s.s...q # q d - - - - - ; ; f ] i.i.i.g.H ; - q x.k.j.x.x.x.j.k.x.x.R.W.W.W.W.!.W.)._.!._._.!.!.!.`.).W.`.`.&X`.R.W.P.W.J.R.P.P. .X.l.!.!.^.^.!.^.!.Q.#X&X&X&X&X!.Q.E.E.!.E.R.J.Y.Y.l.l.R.J.J.Y.Y.Y.~.l.Y.J.E.R.J.l.l.J.Q.Q.Q.&X&X^.&X&X^.^.&X!.Q.~.E.^.#X#X#XQ.l. .z.!.&X&X&X&X&X&X&X@X&X&X&X@X#X#X@XQ.T.Y.Y.c.c.T.Y.T.Y.c.c.c.Y.Y.Y.c.c.z.c.c.Y.c.",
"L.U.L.L.L.d.L.L.K.d.L.d.d.U.L.L.U.L.x.L.L.k.k.P.L.P.L.I.P.x.P.P.P.P.L.P.P.L.P.U.W.W.W.W.U.P.U.U.W.R.W.W.W._.W.W.W.U.k.s.k.W.W.W.W.W.!.).W._._.W.U.P.U.U.I.P.P.P.U.k.k.P.P.L.d.s...0 % D G B C 7 7 7 7 > > d u.i.u.u., - 7 q d.k.k.k.k.j.k.j.j.l.l.x.P.R.!.!.).W.`._.W.`.!.R.R.W.!.!.&X`.`.&X`.!.W.E.!.W.E.P.J. .' j.E.!.^.!.!.!.!.^.^.&X!.^.!.!.R.R.!.R.R.R.Y.l.J.J.J.l.Y.Y.Y.l.Y.~.Y.J.l.R.l.J.l.J.R.~.!.&X&X&X&X&X^.!.#X^.!.E.Q.!.E.^.Q.Y. .Y.&X#X#X&X&X&X&X&X#X#X&X&X&X@X@X#X@X~.T.T.Y.Y.T.~.T.Y.T.Y.Y.c.c.Y.Y.c.c.c.Y.c.c.c.",
"L.U.U.U.L.L.L.d.K.K.L.L.U.U.L.L.L.L.L.L.L.x.P.L.k.P.L.x.x.P.U.P.U.I.P.I.U.U.W.W.!.!.!.W.U.W.W.W.W.R.W.W.W.W.W.W.U.j.j.W.W._._.W.U.).&X`._._.W.U.U.U.P.I.U.P.I.P.P.P.K.L.P.P.k.s. .> ; u.u.u.u.j 8 7 > > , , j p.u.C - 7 9 D x.x.P.x.j.j.s.s.j.j.j.j.l.R.R.!.).).!.!.).!.!.R.R.`.`.`.`.!.`.`.`.!.!.!.!.!.W.E.~.J.j.' ..P.E.!.!.^.!.^.&X^.!.^.Q.!.!.E.!.~.R.R.R.J.R.R.Y.Y.Y.Y.~.Q.Y.~.Y.R.Y.R.Y.~.R.J.J.~.!.&X&X&X&X&X#X&X&X!.Q.E.Q.~.Y.!.Y...R.#X&X&X#X&X&X&X#X#X#X#X#X&X#X&X#X#X#XT.Q.Q.~.~.T.T.Q.Y.Y.c.c.Y.c.Y.Y.Y.Y.c.c.c.z.c.",
"I.I.I.I.U.L.L.d.d.K.L.I.I.U.k.k.k.L.P.U.P.x.k.d.L.x.P.U.P.U.U.U.I.W.W.W.W.W.).W.U.!.!.W.W.R.U.U.W.W.W.W.R.R.W.P.s.l._.`.'._.'.`.!.!.`.'._.).W._.W.U.P.P.U.P.P.P.P.P.L.x.P.U.P.s...; d u.i.a.u.] { f 8 > 7 8 8 j ] - % 5 d p.x.x.P.P.j.j.j.j.l.l.j.j.j.v.l.W.!.).!.!.).`.)._.W.W.!._.W.W.`.!._.`.!.!.E.R.W.W.E.J.J.j. .' j.E.^.!.^.^.^.!.^.&XE.#X^.Q.R.~.~.E.R.~.R.Y.Y.Y.Y.l.Y.E.~.Y.l.R.J.Y.Y.R.R.l.R.~.Q.!.^.#X&X!.#X#X&X#XQ.Q.Y.E.J.j. .R.&X#X&X&X&X&X#X#X!.&X&X#X#X&X@X&X&X#X#X@X@XQ.T.~.Q.Y.Q.Y.c.c.Y.T.Y.c.Y.Y.T.c.c.c.c.Y.",
"I.I.I.U.L.d.L.L.L.L.L.L.P.U.k.L.P.U.I.I.I.L.d.j.I.P.U.P.P.U.P.U.I.W.W.I.W.W.W._.W.R._.W.W.W.W.W.W.W.W.R.R.P.s.j.W.W.'.&X'.`.).!.`.`._.W.W._.'._.P.P.P.U.P.P.k.L.U.P.k.x.P.P.k.j. .> B u.u.i.t.] ] { D h > 5 0 8 , % 7 5 ] a.d.x.x.P.k.j.k.k.k.x.k.j.j.l.l.U.W.W.!._.W.!.W.!.`.W.!.`.W._.!.W.W.W.W.W.!.W.W.!.E.E.R.J.P.l.X...E.W.!.^./.^.!.^.&X&X!.E.R.R.R.R.R.R.J.J.R.l.Y.J.l.~.~.~.Y.~.~.Y.R.J.R.R.J.Q.~.!.^.^.^.Q.Q.Q.^.Q.#X^.!.!.z. .R.#X&X&X&X#X&X#X#X&X#X&X&X&X#X#X@X#X#X#X#XQ.@X@X@X~.Q.Q.T.Q.T.T.Y.Y.Y.c.c.Y.T.T.Y.c.c.Y.",
"L.I.U.U.L.L.U.L.L.P.P.U.I.P.P.U.P.U.W.W.U.U.I.U.U.U.P.W.U.P.P.W.I.I.U.U.)._.W._._.W.W.W.W.U.R.!.W.R.P.R.l.j.U.P.!.!.&X'.`.&X`.`._.'._._.).W.).W.W.I.U.U.I.W.P.P.U.U.x.P.P.P.k.j.' 8 D 3.u.i.u.t.t.t.u.{ d > 0 0 - % 7 j f.f.f.x.L.P.l.j.x.P.j.l.l.k.l.l.k.l.l.P.W.W.W.).W.W.R.W.!.!.!.W.!.W.R.R.P.W.W.W.U.W.W.W.R.E.E.W.J.s.' k.!.^.&X!.!.!.^.&X^.R.E.E.E.R.~.~.Y.R.R.~.~.Y.Y.Y.E.~.~.Y.Y.~.E.J.R.Y.R.~.~.Q.Q.!.^.^.Q.E.^.^.#X!.Y.j. .E.#X!.#X&X&X#X#X#XQ.&X#X&X&X#X&X&X&X#X#X#X#X@XQ.Q.Q.Q.Y.Q.T.Q.Q.Q.c.Y.Y.z.z.Y.Y.Y.Y.Y.z.c.",
"U.U.U.U.L.L.L.U.P.W.W.I.I.I.I.W.).U.P.P.P.P.W.I.L.U.U.W.I.U.P.I.W.W.P.W.W.W.W._._.W.W.W.).).!.W.P.P.j.s.l.W.W.R.).W._._._.`.&X`._.'._._.W.).W.W.).W.I.I.U.W.P.P.U.P.P.x.P.x.k.s.' 8 D H 5.i.i.u.t.t.p.u.D j 7 w 6 $ - p.h.f.f.P.x.x.P.l.k.U.P.x.l.x.x.l.l.j.j.l.U._.W.!.R.P.P.R.R.!.!.W.W.W.W.R.W.W.W.W.W.!.W.W.W.W.W.W.E.R.s.' ..^.^.`./.!.^.&X!.Q.Q.Q.E.R.Q.Q.~.Y.~.E.J.Y.~.l.Y.Y.Y.Y.~.~.~.R.J.R.Q.~.~.Q.~.Q.^.^.!.^.&X!.Q.l.z. .~.&X!.#X#X&X#XQ.#X&X!.#X!.!.&X#X#X&X&X&X#X#X#X#X@XQ.Q.Q.Q.Q.T.Q.Q.Q.c.T.Q.c.c.Y.Y.T.Y.Y.Y.c.",
"U.P.I.U.L.d.U.L.I._.I.I.I.I.P.P.W.U.P.P.P.I.W.I.I.I.I.I.P.I.W.P.U.W.W.R.W.W.W.W.W.W.W.!.W.W.W.U.P.j.s.j.W.W.W.W.R.R.`.!.`.`.`.&X'.'._._.U.W.W._.W.W.W.P.L.I.W.U.I.U.U.k.k.k.s. .^ 8 B F 3.u.f.u.3.t.i.a.t.] f 7 9 $ f g.b.b.f.L.j.P.P.l.l.P.l.l.l.j.l.l.l.j.l.l.l.R.E.W.P.R.R.R.R.!.W.W.W.W.R.R.W.W.W.W.W.R.W.E.W.R.W.W.W.R.J.l. . .R.^.`.^.&X^.!.E.E.!.!.!.E.E.E.E.Q.Y.~.Y.E.l.l.~.~.Y.R.J.~.E.R.Y.E.E.~.E.Q.!.!.^.!.^.^.!.!.z...Q.!.&X&X&X&X#X~.!.Q.#X&X&X#X!.#X#X~.#X&X#XQ.Q.@X&X#X@X@X@X@XY.T.T.Y.Q.Y.Y.Q.Y.Y.Y.Y.T.T.T.c.c.",
"s.d.L.L.L.U.I.P.I.I.I.I.I.U.I.I.W.U.I.I.I.L.P.L.P.U.P.L.P.U.L.k.U.k.R.P.W.W.W.W.W.W.W.W.U.W.W.x.j.l.W.W.W.W.W.W.R.W.'.!._.`.`.'.'.'.W.W.R.P.W.W.W.U.W.U.x.U.U.I.W.P.U.P.P.k.j. .Q 8 q F H g.h.H 3.u.u.a.i.i.' 5 6 2 G i.b.f.f.d.P.l.x.k.l.l.l.l.P.l.l.l.j.l.l.j.l.j.P.P.R.R.R.W.R.R.W.R.U.W.R.P.U.W.R.W.W.P.W.R.P.R.W.U.E.E.P.R.R.l.X.J.!.!.!.^.!.!.!.R.!.R.R.~.E.R.E.~.Q.Q.Q.Q.l.~.Y.Y.Y.~.E.Q.R.R.R.Q.Q.~.R.E.Q.!.E.&X#X!.Y.z.R.@X^.&X#X#X&X!.!.@X@X@X#X#X^.#X@X@X@X#X#XQ.Q.Y.Q.#X#X@XQ.@XQ.~.Y.Q.T.T.Q.Q.Q.~.T.Y.Y.Y.Y.~.T.Q.",
"i d.P.I.L.I.I.I.I.I.W.I.I.P.W.W.U.P.I.I.I.L.P.I.P.I.L.R.P.P.P.P.R.U.E.P.U.W.R.U.W.W.W.W.U.W.P.j.R.P.W.W.R.).`.!.!.'.&X`.'.`.`.`.W.).R.W.U.R.U.U.W.U._.).W.I.I.I.U.P.U.W.U.P.s. .C 8 O C H f.b.A F u.3.i.a.a.t.j 2 5 G i.h.f.f.L.P.P.l.l.l.P.l.P.J.R.J.l.l.l.l.z.l.l.j.j.x.P.W.!.!.W.!.R.R.R.W.R.W.W.P.P.P.x.W.W.R.R.W.R.!.P.E.W.E.!.~. . .R.E.!.&X&X!.J.E.Y.R.Q.!.E.R.~.Q.Q.~.Q.Y.Y.Y.l.Y.E.R.Y.E.~.~.~.E.~.~.~.E.~.Q.!.#Xl.#.E.#X#X#X!.!.&X#XQ.@X&X@X!.#X&X#X#X@X!.#X&XQ.~.#X~.Q.#X@X@X@X@X#X~.Y.~.@XQ.~.Q.Q.Q.Q.T.Q.T.Y.T.Y.Y.",
"' G d.I.U.U.I.I.W._.I.I.I.W.W.W.I.U.I.U.I.P.I.P.P.P.P.P.U.P.P.P.U.W.W.U.W.W.W.W.W.W.R.P.j.s.U.W.R.R.W.!.W.!.!.W._.`.&X'.'.'.&X_.R.U.P.U.W.U.W.W.W.W.W.U.).I.U.P.U.I.W.W.P.P.j...Q 8 % , F a.b.H J t.J t.a.u.i.G = 8 D i.h.a.p.x.P.x.x.j.l.l.P.R.J.R.l.J.R.l.l.l.P.l.l.j.l.P.P.R.W.!.W.W.R.R.W.R.R.R.P.U.W.P.!.W.W.W.W.!.E.J.!.!.!.!.^.!.l. .z.E.^.^.^.Q.Q.~.R.!.^.E.E.!.!.Q.~.Q.~.~.Y.~.Y.Q.!.~.R.~.~.Y.Y.~.E.R.Y.~.Q.~.j.#.~.!.!.^.Q.&X#X#X#XQ.#X&XQ.^.&X&X#X!.#X!.@X#XQ.@X#X#XQ.Q.Q.@X#X#XQ.Q.Y.@X@XQ.~.T.@XQ.Q.Q.@XT.~.Q.T.c.",
"d.B G L.U.I.I.I._.W.I.P.W.W.U.I.U.U.U.U.U.P.L.P.I.W.U.P.W.P.U.U.P.k.P.U.U.R.W.W.U.P.x.j.j.P.W.!.!.R.!.W.W.!.!.W.!.`.!.`.`.`.'.W.R.W.W.R.W.W.W.W.W.!.W.W.`.W.U.U.U.I.W.U.U.P.j...Q q - o g i.b.H H t.l F 3.F t.] 8 5 D u.i.t.H x.x.k.k.x.l.j.l.P.J.l.l.J.R.R.l.R.R.P.l.l.l.l.l.P.R.~.P.P.R.R.R.R.W.R.j.P.W.!.)._.`.!.!.R.!.W.!.^.^.^.&X`.!.E.....Q.^.&X!.!.Q.E.!.!.R.Q.Q.Q.Q.!.~.Q.~.R.!.Y.~.!.E.~.E.Y.Y.R.R.R.~.~.~.~.#.#.E.#X^.!.!.^.#X^.^.#X@X&X#X@X^.^.^.#X~.!.@X@X@XQ.@X@X@X@XQ.Q.@XQ.T.Y.Q.Q.@XQ.Q.Q.Y.Q.Q.T.Y.@X@XQ.Q.Q.T.",
"k. .Z G k.I.U.I.W.I.I.U.W.W.I.I.I.U.P.W.U.U.P.P.U.U.P.P.P.P.W.U.k.l.U.U.W.P.P.U.P.s.s.R.!.W.!.`.`._.`.W.!.!.W.W.`.`.!._._.W.W._.!.!.!.W.)._.P.W.W.U.W.W.W.W.W.P.I.W.W.U.U.k.j.s.^ q 5 @ d t.u.H 3.g.J F F k J u.f , F i.i.t.F x.k.P.s.j.l.l.j.R.R.l.J.Y.l.J.l.R.P.P.l.l.l.l.j.l.R.R.E.R.E.!.P.R.R.R.P.P.W.W.W.W.W.`./.!.!./.`.&X!.!.^.`.^.!.!.z.X.l.^.!.Q.E.R.!.Q.Q.R.Q.Q.Q.!.~.~.~.Q.Q.Q.Y.E.E.R.~.l.Y.Y.Y.R.~.~.~.#.z.Q.#X&X#X&X#X#X^.@X#X#X@X&X!.Q.Q.^.#X#X#XQ.@X@X#X@XQ.#XQ.Q.~.Q.T.Q.@X~.T.Q.Q.Q.Q.@X@XQ.Q.Q.~.Q.Q.Q.@X@X@X",
"d.K.s.V X.k.k.I.W.I.I.I.W.U.P.I.U.P.W.I.U.U.P.U.U.P.P.P.P.U.R.W.P.P.P.x.U.P.k.j...j.R.W.W.W.!.!.`.!.W.`.!.!.W.W.`.!.R.&X`.!.W.).!.).W.E.W.W.U.W.R.W.W.W.W._.W.P.U.P.W.W.U.P.k.s.Q e 0 - ; D H F u.f.F 3.i.J 3.u.C j t.i.g.a.u.x.P.W.P.k.j.l.l.l.l.l.l.J.l.J.J.l.P.l.l.l.l.P.l.l.J.l.R.R.!.!.W.W.P.R.R.R.W.W.W.W.R.R.`.`.!.!./.^.E.E.!.^.^.Q.Q.^.E. .z.^.!.R.E.!.E.!.E.Y.Q.Q.Q.~.Q.E.!.!.^.^.!.Q.E.~.~.Y.Q.E.E.~.c...j.E.!.#X#X#X!.^.#X&X^.!.^.#X&X#X@X#XQ.@X&X@XQ.Q.@X@XQ.Q.Q.Q.Q.~.Q.Q.Q.Q.@XT.T.Q.Q.Q.@X@X@X@XQ.Q.Q.~.T.@X#X@X",
"K.K.K.s.V ] j.I.I.P.U.U.W.W.U.L.I.L.W.P.P.P.U.U.U.U.U.U.P.U.W.W.U.P.P.P.P.P...s.P.W.W.W.W.W.!.`.&X!.!.!.!.!.W.W.`.!.W.`._.W.!._.W.`.!.W.R.W._._.W.)._.).W.W.W.I.W.I.W.W.I.P.l.s.' h e 5 O , g F a.b.H u.f.3.i.u.D p.u.3.a.f.a.d.x.W.k.U.P.P.l.P.l.l.l.J.J.R.R.R.l.l.l.l.l.l.l.J.l.l.l.l.Q.!.`.R.R.R.P.P.R.R.R.W.R.W.!.`.W.!./.^.!.!.^.^.!.^.^.&X^.!.z. .R.E.R.E.!.!.!.R.!.Q.Q.!.^.Q.Q.Q.!.#X!.!.E.Q.~.~.E.E.!.z...l.Q.E.Q.^.!.&X&X#X&X&X&X#X&X#X#X#X#X#X@X@X@X@X&X@X@X@XQ.@XQ.Q.Q.Y.T.~.Q.T.T.Q.Q.Q.Q.Q.Q.Q.@X@XQ.@X#X#XQ.Q.#X@X"
};
