/* XPM */
static char *_2ca2dcef73244dfe4473b9012b94d6bTIne4v9PuHqiP2M6[] = {
/* columns rows colors chars-per-pixel */
"256 455 256 2 ",
"   c #09060A",
".  c #0C090C",
"X  c #080506",
"o  c #150C09",
"O  c #1A120C",
"+  c #120E11",
"@  c #1A0F12",
"#  c #151214",
"$  c #1B1718",
"%  c #0E0C10",
"&  c #26160B",
"*  c #261C16",
"=  c #331B0D",
"-  c #28231B",
";  c #36261A",
":  c #39260E",
">  c #221D22",
",  c #321E21",
"<  c #2B2926",
"1  c #382A24",
"2  c #33332C",
"3  c #3B3428",
"4  c #343532",
"5  c #3B3B34",
"6  c #393A37",
"7  c #312C34",
"8  c #1E1D21",
"9  c #573909",
"0  c #472B18",
"q  c #563918",
"w  c #4B2F11",
"e  c #663A15",
"r  c #442C25",
"t  c #473728",
"y  c #573927",
"u  c #463C34",
"i  c #553B32",
"p  c #643D28",
"a  c #481D0E",
"s  c #3B413B",
"d  c #5C4316",
"f  c #5C430D",
"g  c #684707",
"h  c #795708",
"j  c #654917",
"k  c #775915",
"l  c #6F5010",
"z  c #7C6414",
"x  c #5A422B",
"c  c #484438",
"v  c #564838",
"b  c #544C35",
"n  c #674629",
"m  c #785629",
"M  c #684A35",
"N  c #734D37",
"B  c #69543B",
"V  c #785639",
"C  c #724E27",
"Z  c #7C632D",
"A  c #5A650D",
"S  c #3B3546",
"D  c #443D4D",
"F  c #3E4C4A",
"G  c #3E4453",
"H  c #3E5074",
"J  c #454B49",
"K  c #574B44",
"L  c #44524E",
"P  c #5C5348",
"I  c #445352",
"U  c #4C5A54",
"Y  c #4B5855",
"T  c #545B58",
"R  c #494756",
"E  c #665848",
"W  c #785A45",
"Q  c #665B54",
"!  c #6D544C",
"~  c #56615C",
"^  c #7A634A",
"/  c #6B6358",
"(  c #766857",
")  c #7C735B",
"_  c #6C624D",
"`  c #4D556D",
"'  c #5B6567",
"]  c #686967",
"[  c #766C64",
"{  c #7C7368",
"}  c #797979",
"|  c #6B7075",
" . c #665B66",
".. c #933914",
"X. c #845B09",
"o. c #B35216",
"O. c #886508",
"+. c #936C06",
"@. c #9A7407",
"#. c #876715",
"$. c #987516",
"%. c #916E15",
"&. c #A37C09",
"*. c #A57B15",
"=. c #835C37",
"-. c #8C542B",
";. c #89643A",
":. c #956938",
">. c #906D2D",
",. c #A97737",
"<. c #AE7630",
"1. c #B25829",
"2. c #CC651C",
"3. c #D56C26",
"4. c #DA722B",
"5. c #D16E2D",
"6. c #E4772E",
"7. c #C65E1A",
"8. c #855C48",
"9. c #8A5B4B",
"0. c #886648",
"q. c #936B48",
"w. c #98734A",
"e. c #886955",
"r. c #956B56",
"t. c #86765C",
"y. c #987557",
"u. c #8A724B",
"i. c #A47B57",
"p. c #A97948",
"a. c #877A67",
"s. c #987964",
"d. c #877C73",
"f. c #8A6E66",
"g. c #A57A67",
"h. c #AE5A44",
"j. c #CF784B",
"k. c #78827C",
"l. c #7E8207",
"z. c #AB840B",
"x. c #B48B0C",
"c. c #AB8415",
"v. c #B58C15",
"b. c #BB9217",
"n. c #BB920B",
"m. c #B88831",
"M. c #958622",
"N. c #C39717",
"B. c #C3960B",
"V. c #CE9136",
"C. c #EDAA38",
"Z. c #E38F39",
"A. c #B2854F",
"S. c #8E826B",
"D. c #8C8265",
"F. c #94846C",
"G. c #9B8A6D",
"H. c #958567",
"J. c #8D8274",
"K. c #8B847B",
"L. c #938573",
"P. c #968975",
"I. c #9C8C73",
"U. c #958A7B",
"Y. c #9B8D7B",
"T. c #938679",
"R. c #9E917C",
"E. c #9D9174",
"W. c #9A9271",
"Q. c #A28D75",
"!. c #A29275",
"~. c #A4947B",
"^. c #AA9A7D",
"/. c #A8977B",
"(. c #AB896E",
"). c #9B895F",
"_. c #CE9149",
"`. c #E49246",
"'. c #E9AA49",
"]. c #D99E55",
"[. c #71768A",
"{. c #5A678E",
"}. c #7B8786",
"|. c #7C8498",
" X c #7B85A5",
".X c #888985",
"XX c #968D83",
"oX c #9D9283",
"OX c #99948A",
"+X c #8E9494",
"@X c #A39682",
"#X c #AB9B83",
"$X c #A69A87",
"%X c #A89C90",
"&X c #97A499",
"*X c #AAA497",
"=X c #B3A891",
"-X c #9B9CAD",
";X c #979AA8",
":X c #9C9DB2",
">X c #959AB2",
",X c #858DA6",
"<X c #A39EB3",
"1X c #A69EA5",
"2X c #9EA1B4",
"3X c #9EA2B9",
"4X c #9EA4AA",
"5X c #AAA8AA",
"6X c #B3ACA9",
"7X c #BAB4AA",
"8X c #A3A4B4",
"9X c #ACACB4",
"0X c #A4A5B9",
"qX c #ABACBC",
"wX c #A8A7B8",
"eX c #B3ABB6",
"rX c #AEB1BD",
"tX c #B3B2B5",
"yX c #B4B4BB",
"uX c #B9B6BA",
"iX c #BCBABC",
"pX c #BCB6B5",
"aX c #A6B5A7",
"sX c #C5BAA8",
"dX c #C3BCB7",
"fX c #C9ADBA",
"gX c #C8B397",
"hX c #C9C3BA",
"jX c #D5CAB8",
"kX c #D5CBB1",
"lX c #E4D6BB",
"zX c #DBC8A0",
"xX c #AAAEC1",
"cX c #ADB2C4",
"vX c #AEB6CA",
"bX c #B3B4C3",
"nX c #B8B9C8",
"mX c #B5B8CD",
"MX c #C4BAC6",
"NX c #C7BACA",
"BX c #C9C5C4",
"VX c #D3CCC4",
"CX c #DAD3C8",
"ZX c #D5D7D1",
"AX c #E5DBC8",
"SX c #E6DED0",
"DX c #F6EBD6",
"FX c #FBF5DA",
"GX c #EFE5CD",
"HX c #FCF9E7",
"JX c #FDFBFC",
"KX c #FCFBF4",
"LX c #EDEAE6",
"PX c #DCE3CD",
"IX c #B8C5BC",
"UX c #827E82",
/* pixels */
"c J < < < 2 < < < < - < $ $ < < < < < < 2 2 < 2 2 2 < < 2 < < < 2 < - $ # + # $ # # # # $ $ $ - 5 2 2 < 5 5 u c u 5 c < - $ $ $ $ $ O $ $ $ $ - - - 2 1 3 3 < 3 3 3 t 3 t c c b E b P b P v u 5 3 3 c 3 3 3 c u t t t 3 3 3 3 3 c c c b B b b b B E B B _ B B B c t 3 3 b b E ) W.E.P.P.F.G.F.D.D.S.F.S.S.D.S.a.F.P.I.P.S.S.a.) t.a.S.a.a.a.D.D.D.a.F.S.F.F.S.a.t.t.t.( ) t.) ) a.a.t.) ( ( _ E _ ( E _ E E ( _ _ P P v _ [ d.J.K.K.d.[ Q P K K K K K P P K K K K K J J J K T Q / / / / / ] ] / / ] ] ] / Q T P Q / ] ] / / / / ",
"< 6 4 < < < < < $ < $ < < $ 8 < < 2 < 2 < 2 2 2 2 2 2 4 2 < < < < < - 8 $ # + # # # # # # $ - < 2 - 5 2 2 5 4 3 u c < < $ $ $ $ O * $ $ $ $ $ $ - - - 1 1 c 2 3 2 u u v v c K v K v v b b u c u 3 c 3 c 3 t 3 3 t t 1 3 3 3 t c b b b B E _ b B b b B E _ c 3 ; ; t 3 3 3 3 t t b c a.( E.E.F.W.E.I.W.P.S.a.F.a.a.S.F.S.S.P.a.a.a.a.( S.S.S.S.a.S.D.a.a.t.) D.D.a.t.a.) t.( ) ) a.a.a.a.) ) t.( _ ( ( ( ( ( ( _ ( _ E P v v c P [ d.K.K.K.K.} ] T K K K K K P P P K K K J J J u / / / / [ [ ] / / / Q P P Q / / / / ] / / / / / ",
"< 6 4 < < < < < $ < $ $ - $ < < < < 4 5 2 < 2 < < < 2 2 2 4 4 2 < < < < $ # + + # # 8 # - $ - 5 2 < 5 5 2 5 2 2 < - - - $ $ $ $ $ $ - $ $ $ - 2 - 1 3 3 3 c 5 5 3 c K v c c K P v c c - 3 3 < 5 3 3 3 3 ; 3 1 3 t t 3 t t 3 c c b B B B E B B B b b b b t 1 1 3 ; c 3 3 1 t t c t c b c E W.I.E.R.I.W.F.I.F.P.S.S.a.a.S.S.S.S.a.D.t.a.a.a.a.t.t.t.S.a.a.( t.( t.t.) ( ( ) ( ( ) ( ) ) S.S.S.S.a.a.) a.t.) t.) _ ( ) E E _ P E Q P P / / { K.K.K.d.d.[ Q K K K K K T T K K K K K / / [ [ [ [ [ [ [ / / ] ] / ] ] ] ] ] ] / / / / ",
"< c < < < < < < - < 2 2 < - $ + $ < 2 < < < 2 < 2 2 2 2 2 4 2 2 2 < 2 < $ # + + # # - - - - - 4 2 2 2 5 2 - < < < - $ $ $ $ $ $ $ - - $ $ $ - - - 1 3 3 5 c c c c c b b b c c c - - $ - 2 < 2 5 3 c 3 - 3 t t 3 c 3 3 c b b b E b B E b E B b b b b 3 3 ; 1 ; - t c t t t t t c c c b b B _ B ) F.F.P.a.F.F.D.L.P.P.P.S.F.S.a.P.a.a.t.a.a.a.a.a.a.a.a.a.t.F.t.) a.) _ ( ) ( ( ( ) ) a.D.a.D.S.D.D.S.S.S.a.a.) ) ( _ E _ _ Q ( ( _ / ( P K P / [ { K.J.K.d.{ ] P K K K R P T T [ [ [ [ [ [ [ [ [ [ [ [ [ [ [ [ ] / / / / / / / / ",
"2 < 6 2 4 < 2 < < < < 2 2 < < $ $ < < $ - < < < < < < < 2 2 2 4 4 2 4 2 - # $ # # # 8 < - - - 2 2 5 < 2 < < 2 < < < $ # # # $ * $ $ $ $ $ - - - - 3 5 5 c c c c b c c c b < - - $ - * * * - 3 2 3 u 3 ; 3 c c t 3 c c v b b c b b b b B B c t 3 3 t ; ; ; 3 3 3 b t t 3 t 3 c c b b b B B B b B E _ D.) F.E.F.F.F.F.F.F.P.P.P.F.F.D.a.a.D.a.a.t.t.S.t.a.a.a.t.t.D.t.) ) t.) ) ) a.D.a.t.D.t.D.a.t.) t.S.a.a.a.a.) ) D.a.) a.a.) ) ) / / Q _ Q _ P P ( [ d.K.K.K.{ [ / P K K P P Q / / ] [ [ [ [ [ [ ] [ ] / / Q Q / / / / / / Q ",
"4 < 4 6 < < 2 < 2 2 4 < < 2 2 < < < < < - < < < - < < < < 2 < 2 4 2 2 2 2 $ 8 - $ $ $ - - $ - 2 < 2 2 5 < 2 2 2 - - $ $ # # $ $ $ $ $ $ $ - - - - u u 3 c c c c c c b c - - * * - - * $ $ - - 2 3 c 3 3 c u b v c v P b b B b c b b b t 3 ; ; 3 3 t 3 3 ; c t c t c c 3 t c b x b b B E B E B _ _ B b t x _ E a.P.E.I.F.I.F.S.F.F.S.F.a.a.a.a.t.a.S.a.t.D.t.D.D.F.D.t.t.t.t.t.t.a.t.) t.t.) a.a.t.) ) a.D.D.S.D.S.a.t.D.D.D.D.a.a.{ a.{ ( _ ( / ( ( ( ( _ _ / [ d.K.d.d.[ ] [ { [ / / Q P P P P P P P P T Q / [ / / P / T / / / ",
"6 4 2 4 4 4 4 4 2 < 2 2 4 4 2 2 2 4 2 < < < < < < < - < < < < < < < < 2 6 < < < $ $ - < - - < 2 2 2 2 5 4 2 2 2 2 < $ $ # # # $ - # - $ $ - - - 2 u 5 c u c c c 5 3 5 < $ * - * * * - - - - - < 3 3 3 c c c P v b b t b b b b b c 3 3 1 3 3 1 1 3 3 c t 1 b t t t c c c B b E b B B B B B B b c t 3 3 c t t t t c ) E.G.I.P.F.F.I.I.S.F.S.a.D.S.F.D.S.D.F.F.D.D.D.F.F.D.a.) a.a.t.) ) ( ( ( ) ) ( t.t.a.a.a.a.a.D.a.a.t.a.D.a.a.D.a.) { ) ( ( ) ( { E ( ( _ ( P E E / d.K.d.d.d.d.d.{ { { { { [ [ ] [ [ ] / T P T P Q T P T Q / ",
"4 4 < 2 2 2 2 6 2 4 4 2 4 4 2 2 < 6 5 6 5 2 2 < < < - < < < 2 < < < < < < - < 2 < - - < < 2 2 2 2 2 2 2 2 2 2 2 2 < - $ # # o - - $ $ $ - < < 2 5 2 2 2 3 u 3 2 * $ - $ $ - $ $ - - - * - - - < c t b u K c P b b P b B B P u 3 3 ; 3 ; 3 1 ; ; t t t 3 t b t c b b b B B b B b E B B _ E t c t 3 3 c t t c t 3 c c E ( R.E.E.F.I.I.I.P.F.S.D.D.a.D.a.F.S.S.F.D.D.H.F.S.D.a.S.a.a.a.( _ ) a.a.t.t.t.t.a.a.a.a.a.) a.a.t.t.a.D.D.D.D.D.S.D.a.) ) ( { ) ) ( ( ( ) _ _ E E K Q ( { d.d.d.d.{ { { [ / Q P P P P T P P P P P T T T P ",
"4 4 $ 6 4 4 4 4 2 < 6 4 4 2 4 4 < 2 2 2 2 < 2 6 2 2 < < < 2 < 2 < 2 < < < - < < 2 2 < 2 2 < < < 5 2 2 2 2 2 < < 2 2 < # # $ # $ - - - - < 2 2 2 2 - 3 2 2 2 - * $ $ * $ $ $ $ * < < - - < - - 2 u u v c v b b b b b c u u c 3 3 1 3 ; 3 t - ; 3 3 u t t t b c b E B E E b E B B b c c 3 t t t t 3 t t t t c t 1 c c b t ) t.F.F.G.F.F.G.E.I.F.F.D.D.t.a.D.D.D.D.t.D.D.a.a.F.F.S.S.F.D.S.S.F.S.D.t.S.D.a.a.a.a.a.a.D.a.a.a.a.S.F.S.D.D.D.a.a.D.a.{ ) ) a.) ) ) { { ( ( _ / _ v b E Q / / / Q T P c K K P P P K P P P T P P T T T ",
"6 2 $ 2 4 4 2 2 < 2 4 4 4 4 4 < < 2 2 2 4 < < 5 4 6 6 < < 4 4 2 < 2 2 2 < < - < < 2 < < < < < < 2 2 2 2 2 2 < < 2 2 < 8 # $ $ $ < - $ - < < 2 < 2 2 4 2 2 < * $ * O - $ $ O < < < < - - - - - 5 - b K c c v b c c u 3 ; ; u 2 3 - ; 3 3 3 ; ; 3 c c t b b b b B B b b E B E b t t 1 t 3 c c 3 t t t t 3 3 t b b t b B b B E B _ _ a.E.G.D.L.F.F.a.t.t.a.a.D.t.t.t.a.D.D.D.t.S.F.F.a.S.S.F.D.a.F.D.D.D.D.S.a.D.D.a.S.a.t.a.a.a.F.S.F.F.a.t.D.a.a.) ) ) a.a.a.) ) { ( ( ( _ ) _ _ ) ( v P c c K J J K K J J K P P P P T P P T P P ",
"6 4 < < 2 2 2 4 4 4 4 4 4 4 6 4 2 4 4 6 4 4 2 2 2 4 6 2 2 4 4 4 4 < 2 < < 2 < < < < < - < - < < < 2 2 < < 2 < 2 2 < < < < - - $ $ $ - - < < < 2 2 2 2 2 2 < - $ $ $ - $ $ $ - - - - - * $ - 2 c c K b u c c c t 3 1 2 2 ; 3 ; 3 < 3 u 3 3 3 3 1 b b b _ _ b b E E E E v c 3 3 ; 3 ; 3 c 3 t t c c c t c b c b b b B b B E E _ E B B ) H.W.F.D.F.I.P.S.a.D.t.D.D.a.t.a.t.t.a.a.t.D.a.a.a.t.t.a.t.( ) a.F.F.S.D.D.a.D.D.D.F.S.t.t.a.D.F.F.S.D.D.a.t.t.a.D.a.a.) ) ) ( ) ( ) ( ( ) ( ( / _ E P P Q c K c J J K P K K P P K K P P P ",
"2 4 2 < 2 4 4 4 4 4 2 4 4 4 4 4 2 2 4 4 2 2 2 4 < 2 6 2 2 2 2 2 6 4 2 5 2 < < < 2 2 < < < < 2 2 2 2 2 < - 2 2 < < < 2 2 < < < - - < 2 2 2 2 2 < 4 2 2 2 2 < < $ # $ $ $ $ $ - - < - - $ - 3 b v 3 c c u 5 t 3 < < < < - < 3 - 3 3 3 c 3 u c u b b B B E E b b E b c c t 3 ; 1 3 3 3 3 u t c c t t c t b c b b B b b E b B E B b c t t t x _ _ S.W.F.F.D.F.S.F.G.F.F.a.D.a.) ) t.a.a.a.a.a.) ) a.a.) a.a.S.a.D.S.S.S.a.a.D.a.t.a.D.D.a.D.S.a.D.t.) a.a.a.a.a.) ) t.) ) ) ) ) ) ) ( ( ( ( ( ( Q [ / P c s K c K K P P P P K b K P ",
"6 4 4 < 4 4 4 4 2 2 2 4 4 4 4 4 4 2 6 4 2 2 2 6 6 2 4 2 4 6 6 4 6 4 4 4 4 2 2 2 < 2 2 2 2 < < 2 < < < < < < 2 < < - 2 < - < - - < 2 < < 5 5 2 2 4 2 5 4 < < - $ $ $ - - - * - - - - - - - u P c 2 5 < < 2 2 2 < - * < - 1 ; - ; 3 3 c c c v c b b b b E b E b c t 3 3 3 1 1 3 3 t 3 3 c c c b c c b c b b B B b b E B P b b 3 c t t t 3 t t t t b b c B B B B B ^ D.t.F.H.F.D.D.S.a.t.a.t.a.) t.a.a.a.a.S.D.D.S.a.a.t.D.D.a.a.a.a.a.a.D.F.F.F.F.S.D.t.D.a.a.a.a.a.a.t.t.) ) ) { ( ) ) ) ) ) { ( ) ) P K K b c K K K K K K c K K ",
"4 4 2 < 6 6 4 4 < 6 4 4 4 4 4 4 4 4 4 4 2 2 4 2 4 2 4 4 < 4 4 2 6 6 4 4 4 4 6 5 4 2 2 2 2 2 5 2 < 2 4 2 < < < < < < 2 < < < < - - < < - 2 2 5 2 5 2 2 2 2 2 < < $ $ $ - < - - - - - 2 2 3 3 v 5 2 3 2 - 2 - - - - - 5 - < < 2 3 3 c u v v b K b c b E b t c c t 3 3 3 c ; 3 1 u 3 3 t t t c b b c E P b E B E B B b 3 c 3 t ; c c t t t c t t x x x x b b B B B B _ B E _ F.W.E.W.F.D.t.a.a.a.a.S.a.a.D.F.F.S.S.S.D.D.D.a.t.t.t.a.a.t.a.D.t.S.S.S.S.S.F.F.D.D.D.a.D.a.a.D.a.a.a.) ) a.) ) ) ) ) ) ) ( E E ( / K K c K J K K K K ",
"< 4 2 < 4 4 4 2 2 6 6 4 4 4 4 6 4 < 2 4 4 4 2 4 4 4 4 4 2 4 4 4 4 4 4 4 4 6 6 2 5 2 5 2 5 5 5 2 5 5 5 5 2 5 5 2 2 2 5 4 2 2 2 < - - - - < < < 2 2 2 2 2 < 2 5 < - $ - $ - - < - < 2 2 2 u 5 b 5 5 5 < < - - * * - - - < 3 2 3 u u c b c v b K P u t t - 2 ; u 3 3 1 3 3 3 u 3 t c c t c 3 t b b b E E E _ _ _ b t 3 t 3 c 3 ; c t t 3 t t b t b b B b B b B B _ B B E c t x b a.W.I.F.G.S.a.a.S.F.F.F.F.S.F.a.P.S.S.D.D.D.t.t.t.t.t.) a.t.a.t.D.S.a.D.S.F.S.D.a.D.a.a.D.D.D.D.S.a.a.a.) ) t.) ) ( { ( ( ) { { ( / P u K c c K K ",
"< < < $ 4 4 6 2 4 4 4 2 2 4 4 4 2 < 4 6 6 4 4 4 4 4 4 4 4 4 4 4 4 2 6 4 4 6 6 2 2 6 4 2 2 4 5 5 5 5 5 5 4 5 4 2 2 2 5 5 2 5 5 2 2 < < < < < - - - - < $ - - 2 2 - - < - - - < 2 2 5 5 4 4 3 c 3 4 5 2 - - * * * - < - 2 3 2 5 c c c v c c P v 3 - - < - 2 - ; 3 1 1 ; u t u u c t c t c b c B E E B B E B v t 3 t ; c 3 c t 3 b c 3 b b b b b b B E E B b B b b c t b c t c x t c B ( F.F.S.F.I.W.I.F.I.Y.I.E.W.F.F.F.P.F.F.F.F.a.t.t.D.t.F.D.a.S.S.D.a.D.D.F.D.D.D.D.S.S.D.D.a.a.a.a.a.a.a.{ { ) { ( ) ( ) ( ( ) ( / ( K P P K ",
"4 2 < < 4 2 4 4 4 4 4 2 4 2 2 2 2 4 4 4 4 4 6 4 4 6 4 4 4 4 4 2 4 < 6 6 4 4 6 4 < 2 6 4 5 5 2 5 5 2 5 5 6 6 6 2 2 2 5 5 5 c 5 5 5 5 5 5 s 2 < 2 2 < $ $ - - < < < < - < < < 2 5 2 5 2 2 4 4 c 5 5 u 2 - $ - - - - - 3 2 u 3 3 c b c c c K 5 - < 2 - - - ; - 2 u 3 1 3 c t c t u c v 3 b P P b b b v c 3 3 3 3 c 3 u 3 t c t t b b b B B B B B b B B b b c t 3 t t t t u c t b c b b x b _ B ^ ) G.~.G.F.I.G.D.D.H.S.I.F.D.F.F.G.F.D.S.a.t.a.D.D.F.S.F.D.D.D.S.S.D.S.D.D.S.D.D.F.F.D.a.t.t.a.a.a.) a.a.{ { ) ( ) ( ( ) ) ( _ / P ",
"I J F s 6 2 < 2 < < 2 < < 2 < 2 < 4 2 4 2 < 2 4 4 4 2 4 6 4 4 4 4 2 4 4 4 4 4 4 < 2 5 2 5 5 5 6 5 2 6 s 6 4 2 5 4 5 5 5 5 5 6 6 5 5 5 5 c 5 5 5 5 < < 2 < < < $ - - $ - < 2 < 5 2 5 5 3 5 3 c c c c u - - - - < 2 2 2 2 3 2 < 5 u u u c < - - 2 3 - < - 3 1 1 u c 3 3 c u c t v c u b b b b u 3 ; 3 1 3 ; 3 t 3 3 c c 3 t b b B E b E b B B _ b b b t 3 3 3 t c t c t t c c c b b B b b b _ B B B _ ( D.E.!.E.W.W.F.S.H.D.t.t.E.F.a.a.) a.D.D.D.D.S.a.a.a.D.S.S.S.D.S.S.S.S.F.F.F.S.S.a.D.a.S.a.a.t.a.a.a.a.{ ) a.a.a.a.a.a.a.) ",
"I I I I I J J J F 6 6 6 2 2 < < < 2 < < < < 2 4 2 < 4 4 6 4 6 4 4 < 2 4 6 4 4 4 4 6 5 2 5 2 4 4 4 2 4 6 6 6 5 4 5 5 5 5 5 4 6 6 5 5 5 5 5 5 s 5 2 2 2 2 5 4 < < < - - $ - 2 - 2 2 2 5 5 3 5 c c 5 c 5 - 2 < < 5 2 < - 5 c c 5 u u u u 5 - - - 2 < - - - 1 2 2 u c 3 c c b c b b b c 5 3 < - ; 1 ; 3 3 3 3 3 3 3 t c c b b E E E b b E b c c c 3 1 t t 3 t t t t t c t c t b b B B B B B b E E x t t 3 t B E E ) F.F.I.G.H.t.t.D.D.G.D.t.a.) ) ) a.t.t.a.a.a.a.D.D.S.S.S.D.D.a.F.F.H.F.F.D.D.D.a.a.a.a.S.a.F.S.a.a.a.a.a.D.a.) ) ",
"I I I I I I I I I I J L J F F 6 6 4 2 < 2 2 < < < < 2 4 4 4 2 4 4 4 4 4 6 4 4 2 6 6 2 5 4 4 6 4 5 2 2 2 4 6 5 6 5 6 4 5 5 4 6 6 6 5 s 5 5 5 5 5 2 < 4 5 5 2 2 2 4 5 5 5 5 2 2 < - < < 4 4 u c 5 5 5 3 2 2 - 2 5 2 3 5 5 c u c u u 5 5 5 < - 2 2 < < < 5 < 3 3 c c 3 c u c c c 2 < 2 - - < - - 1 < 5 3 3 3 3 3 t c b c b b b v b b c t t 3 ; - ; 1 t c 3 c t 3 c 3 b b B b B B B B E b b c c t 1 t c t t t b c t b ) H.F.I.F.F.F.F.G.D.a.D.) a.t.) t.a.t.a.a.a.D.t.t.a.t.D.t.t.D.D.D.H.H.F.F.S.D.D.t.D.S.S.S.S.S.F.F.S.S.S.D.a.a.",
"I I J L I I I I I I I I I I L I I J F F F 6 6 4 < 2 < 4 < < < < 2 2 < 4 4 4 < 2 4 6 2 4 4 6 6 5 4 6 4 4 6 6 2 6 6 5 5 5 5 6 5 6 s 5 5 s 5 5 5 5 5 < 2 5 5 2 5 5 2 2 5 5 5 5 2 5 2 2 2 2 < 2 5 5 2 u 2 < 5 2 2 5 < 5 c 5 5 c c 5 c c 5 3 - * 4 2 - < 2 2 5 3 t c c u c c 3 5 - - < 2 - - < < ; 3 2 3 u u c u t c c b b v b c t 3 ; 3 1 1 1 ; 3 3 3 c 3 c c t b t b b B B b b B b b 3 b t t t t t t t t t c b c x b b b ( H.!.H.F.H.G.G.G.D.( ) a.a.a.a.t.D.D.D.a.a.t.t.t.D.D.D.D.D.D.a.D.H.D.D.F.F.D.D.D.t.D.a.a.a.D.t.D.S.S.L.D.",
"I I I I I I I I I L I I I I I I I I L J L L L J J J F 6 2 < < < 2 2 4 4 2 2 < 2 2 4 2 4 4 2 4 4 2 4 6 4 4 2 4 4 4 5 5 2 6 6 s c 6 6 6 s 5 c 5 c 5 2 5 5 4 2 5 s 5 4 5 4 5 5 5 2 4 4 5 5 5 5 < 5 2 5 2 < 2 2 5 5 4 5 4 4 c c u u c c u 3 2 - 2 3 2 5 3 4 4 3 3 u 5 2 < - < - * < < 3 - < < 2 2 u t 3 v c c c c b b c b c < 2 3 < < 3 3 t ; 3 u 3 u c c b b P b b b E P E b b ; c 3 3 c 3 3 c ; t 1 t b b b b b b b B B B B B ( t.F.E.W.G.G.F.S.S.S.S.a.F.H.D.D.t.t.t.t.a.a.a.D.D.H.D.D.H.D.D.D.D.D.D.D.D.) t.a.t.t.t.t.D.a.S.S.F.",
"L L I I I I I I I I L I I I L I I I I I J I I I I I I L I L J J F 6 4 4 4 2 2 < 4 4 2 2 4 6 6 4 2 4 6 2 2 4 4 6 2 6 6 4 6 5 6 6 6 6 6 6 6 c 5 5 2 5 c 5 5 5 5 5 c 4 5 5 2 5 c 5 c u c c c c 5 c c 5 5 u 5 2 2 2 5 5 2 < 2 5 5 u 5 u c 5 4 2 < 4 < 4 4 c 5 4 5 5 5 2 - - - * * 2 2 < - < - 2 3 3 u 3 3 u u 5 u c 2 - 1 2 - - 2 - 2 3 t u 3 3 3 u c c b b E P b b b b t u 3 3 ; c ; 1 c t 3 t t c c b b b B b b b B b b b x x t x c ) E.G.G.H.S.F.E.I.F.G.G.G.t.t.) t.D.a.D.D.F.D.F.D.D.D.D.D.t.t.D.t.t.t.t.D.t.t.t.t.a.a.t.a.a.D.",
"F F L I I I L I J J I I J I I I I I I F F I I I I I I I I I I I I I I L F F s 6 4 4 2 2 4 4 4 2 2 4 4 4 4 4 6 4 < 6 6 6 6 6 2 6 c 6 6 2 5 c 5 5 5 2 2 5 5 s 2 5 5 s 5 5 5 5 s c c 5 5 c c 5 2 c c 5 u c 2 c c 5 5 5 c 2 2 5 2 2 2 3 5 4 2 2 3 2 2 2 2 2 3 5 5 4 5 5 < * * * * - 2 4 < - - 3 - - 2 2 t c 3 1 2 1 * 2 < 2 - - 2 < 2 - c 3 3 c v c b b b b P c 3 u 3 3 3 3 ; 3 ; b 3 t c b b b b P E b b b b b b b b b c 3 c x c c c b b E t.) E E b _ D.I.W.G.G.H.F.F.F.S.D.D.F.F.D.D.G.H.D.G.H.H.D.F.D.D.D.D.t.t.t.t.t.t.t.a.D.F.",
"L L L I F J L I J F L F L I I I I I L J I L I I I I I I I I I I I I I I I I I I I L J F s 6 4 < < 4 < 2 6 6 5 4 2 4 4 6 6 6 6 c s 6 6 6 s s 5 5 5 2 5 6 5 5 5 6 s c 5 c 5 c 5 5 c 5 5 c 5 5 5 c c c u u 5 c 5 c 5 c c c 2 c c 5 5 4 2 < 5 2 2 2 4 2 4 5 5 5 u 5 5 5 2 - - $ $ 2 - < 2 2 2 2 2 3 2 2 K - - - $ < - 4 4 2 < < 1 - 5 2 u c c b b c b v c < - < - 5 3 3 c 3 ; c 3 c t t b b b b c b b P b b b t t 1 b b 3 t b b c c b c c b b b b B B B B E ^ _ ) G.I.I.F.G.H.F.S.F.G.H.F.D.D.F.D.F.t.D.F.H.D.D.t.a.t.t.t.t.t.t.t.D.",
"F L F F F I I I I F F F L L I I I F F F L I I I I I I I I I I I I I I I I I I I I I I I I I I L J J 6 4 2 4 4 2 < 2 4 6 2 5 6 6 5 6 6 6 5 6 2 5 s 5 5 c 6 c 6 5 5 s 5 c s c 4 6 5 5 c 6 c c 5 c c u c c u u u J c c c 5 c J c 5 c 5 5 2 5 4 2 2 5 2 2 2 2 2 5 u 5 4 5 2 < - - 2 < - - 2 2 5 4 4 2 2 5 < - < * < - < 2 < - < 2 4 3 5 c c c b c 2 5 2 - - < < - u u 3 u 3 3 c b B c P b b b b c b c 3 3 3 3 c 3 u c c t c b t c c b b B b B B B B _ E B _ b c c c c b B D.G.I.I.F.I.F.D.a.a.D.t.a.t.t.t.t.) a.) a.D.t.D.a.t.t.) t.",
"I I F F I I I I L F F F L I I L F F F F F I I I I I I I I I I I I I I I I I I I I I I I I I Y I Y Y I I I L J F 6 6 4 4 2 6 4 < 2 4 6 6 6 6 5 6 5 5 2 6 4 c 5 6 s 5 5 c c 5 4 5 5 5 5 5 c s 5 5 c 5 5 c 5 c c c 5 5 c c c c 5 c c c 5 u c 5 5 5 u 4 2 2 < < < 2 2 2 < 2 2 < < 2 < < < < < 2 2 2 2 2 < < * $ < - - 2 2 - 3 4 2 u 5 4 5 u u 2 - < - < - < - 2 2 u 3 t 3 c c c b P b b c u u 3 ; 3 3 ; ; 3 c t 3 c c t b c b c b b B b B B B B b c b b c c c c c c b b b b B _ a.a.W.W.a.t.) a.a.t.t.) t.t.) ) t.t.t.t.t.D.D.t.t.a.",
"I I I I L I L I I I I I I F F F F F F J L I I I L I I I I I I I I I I I I I I I I I I I I I I I I Y Y I I I I I Y I L J F s 4 2 6 6 4 4 4 6 5 4 6 6 6 6 6 4 6 4 c c c 5 5 5 s s 5 5 s c 5 c c 5 c c 5 5 c J 5 J c 5 c u 5 5 c c u c 5 5 c c 6 c 5 2 5 5 2 2 < < < - < < < - < - < 2 2 2 5 4 2 2 2 2 - < $ $ < < < 2 < - 2 2 < 4 < < < - - 2 - - - 2 < < 2 5 2 3 u u v K K P v v c 3 3 3 3 3 3 5 - t 3 c 3 ; 3 c c b b b b b b B B B b b c t c 3 c t c c c c c b b b b b v b c u c a.D.D.a.a.t.a.t.) t.t.) t.t.a.D.t.D.t.D.a.a.t.",
"F F F L I I F F I I I F F F L F F J L L L F I I F L L I I I I I I I I I I I I I I I I I I I I I I I I I I I I I I I I Y I I I L J J F s 6 6 5 4 4 6 6 6 5 5 2 4 6 6 5 5 c c c s 5 5 c c c c c 5 c c c 6 c c c J c c 5 c s c c c c c c c 5 5 c c 5 5 5 5 5 4 2 5 4 2 2 < < < < 2 2 < < 2 2 2 < 2 2 2 < * < * - - - < - - 2 2 2 2 $ < - - $ - < - $ 4 - 2 < 3 3 3 c u c c c b 2 3 3 - 5 3 1 t 3 3 3 t 3 c t c b b b b b b b b v c c u 3 3 b c t c b c c c b c b c b c u t 2 * O O * 3 E ) t.a.H.G.H.D.H.a.t.t.t.) a.D.D.a.D.S.a.t.",
"F F F I I I I I L I F F F F F F F F F F F F F I L L I L I F J I I I I I I I I I I I I I I I I I I I I I I I I I Y I I I I I I Y Y Y Y Y Y I L J J s 6 4 6 4 6 6 4 5 4 4 5 c c c c s J J c J c 5 c c c 5 5 c c J c c c 5 c c c c c c c 5 c 2 c s 5 2 6 5 5 5 5 5 5 4 5 6 2 2 2 4 2 2 < < < < - - < < < < < < < < 2 < 2 < < < 2 2 < - $ - $ - - - - 2 < - < 2 5 2 3 u 4 2 - - - 4 4 < 2 3 3 3 3 3 c 3 u v b v b b c b b c c u ; u t t 3 u v u c b b c c c c u t 3 - - * $ $ $ $ O ; t c b b b b _ W.W.D.D.D.D.D.D.t.a.D.a.a.a.t.t.",
"F L L F F F I L F F F F F F F L F F F F F F F L J F L L I L L J I I I L I I I I I I I I I I I I I I I I I I I I Y I I I I I I Y I I I Y Y Y I Y Y I I L L J J s 6 4 4 6 6 6 5 c u c c c 5 c J c J c c 5 c J c c c c c c c c c 5 c 5 c c c u 2 6 5 5 6 2 5 5 5 5 5 5 5 6 5 4 5 2 5 2 2 2 2 2 2 < < < * < < < < < 2 2 2 2 5 2 2 2 2 < - - < - < < < < - < < < - 2 2 < * < - * - u 2 - 5 1 ; 3 c c c K v c b u c c t 3 3 t 3 t 3 t c u t b u c c c c 3 3 3 3 - - - - - * * $ $ $ $ 3 c b b B b b c _ G.G.W.H.H.F.D.D.F.D.a.t.t.t.) ",
"I L F F F F F F F F F F F F I I L F F F F F F F F F F L I I L J L I I F I L I I I I I I I I I I I I I I I I I I Y Y I I I I I Y I I I I Y I I Y Y Y I I Y U Y Y I L J F J s c c 5 c 6 c s s c 5 c c c c c c 5 J J c c c c 5 s c c c 5 c c 5 2 s 5 c 6 5 s 5 5 2 5 u 5 4 4 4 4 6 5 4 4 4 2 2 4 6 2 2 * < < - < < < < < 2 2 2 2 2 4 < < - < < < < < < 2 2 2 < < < < < $ < < $ < 5 < < 2 2 - c v b c c v c u - - 3 3 2 2 3 3 5 3 c u c u c c t 3 3 < - - - - - * * - - * * $ $ # o ; 3 b b E b b b c 3 ) t.F.D.( ) G.G.D.H.D.H.t.t.",
"F I F F F F F F F F J F F F F F F F F F F F F F F F F F F L F I L J I I I I I I I I I I I I I I I I I I I I I I I I I I I I I I I I I Y Y Y Y Y Y Y Y I Y Y Y Y Y Y Y Y U Y Y L J J J s s s 5 5 c 5 6 5 c c c c 5 5 c c c 5 c c c 5 5 5 c 5 c 6 6 c 6 5 5 5 5 5 5 u 5 5 5 4 2 6 6 4 6 4 2 5 5 5 2 < < 2 2 < 2 2 < < < < - < 2 < < < < < 2 2 < 2 2 2 2 < < < - < - - - - - * < 5 2 - < 1 5 K c 5 u < - - 2 * 2 5 1 3 3 5 4 3 5 u u u 5 3 1 * - - - - - - - - - * * * $ $ $ # o o - t b B B B b b c 3 3 3 F.( X X _ ) D.F.G.H.D.a.",
"F F I J F F F F F F F F F F F F F F F F F F F F F F F F F F L I J J I I F I I I I I I I I I L I I L I I I I I I I I I I I I I I I I I I I I Y Y I I I I I Y Y Y Y Y Y Y T Y Y Y U U U Y I L J c c c c 5 2 2 6 s c 5 5 c c c c 5 c 5 5 5 5 5 5 6 6 6 6 5 6 6 6 4 5 2 5 6 4 4 4 6 6 5 4 4 4 4 6 5 4 4 < 2 6 2 2 2 < 2 < < < 2 2 < < < < < < < 2 2 2 2 2 2 < < * < - * $ < $ $ - - - $ - 2 c u * < < - < - 2 - 2 3 2 u 5 u u 3 2 2 3 < - - - - - - - - - - - - * $ $ $ # # # o . . 2 c P P b b b b t 3 - . P $ X X X X X - t.H.D.D.",
"F F F F F F F F F F F F F F F F F F F F F F F F L L F F F F I I J J J L L L I I J I I I I I I I I I I I I I I I I I I I I I I I I I I I I Y I I I Y Y I Y Y Y Y Y Y Y Y Y Y Y Y Y Y T T T U U U U U Y L J s s 5 5 5 5 5 5 5 s 5 s 5 6 s s 5 c c 6 s c 5 6 6 6 6 6 2 6 5 4 6 6 6 5 6 4 4 6 6 6 6 4 4 < 4 2 2 2 4 5 4 2 < < < 2 2 < < < < < < < < < < 2 < 2 < < * * $ - * < < < < < < < 5 K 2 $ - - - 2 < 2 - 2 2 3 4 5 4 2 < - * - - < - < - - - - - - * $ $ $ $ # # + . o . . . < b P B P B b b c 3 - .   X X X X X X X - E W.a.",
"&X.Xk.' I F F F F F F F F F F F F F F F F F F F F F F F F F F F L J F F F F I L L I L I I I I I I I I I I I I I I I I I I I I I I I I I I I I Y I I I I I Y Y Y Y Y Y Y Y Y Y Y Y Y Y T T U U U U U U T T U U U L J J s 5 5 2 5 5 s 5 5 c s 6 6 6 c u c 5 6 6 6 5 6 6 6 6 6 6 6 6 5 6 6 4 4 5 5 4 4 < 2 5 6 2 2 4 4 2 < 2 2 2 < 4 < 2 4 < < < < < < < < < < < * < - - < < < < < < < - 2 K - $ < - - < < - < < < < < - * $ $ * - - < < < < - - * * $ * $ # # o o + o . . o . o o - c b b E P B b c 5 - # # . X X X X X X X X $ E ",
"aXaXaXaXaX4X&X+X}.| ' Y F F F F F F F F F F F F F F F F F F F F F F F J F F F L L I I I I I I I I I I I I I I I I I I I I I I I I I I I I I I I I I I I I I Y Y I Y Y Y Y Y Y Y Y Y Y T Y Y Y T T T T U U U U T U T T T U U Y L J c 5 5 6 6 c 5 6 6 5 6 5 s 6 5 2 6 c 6 6 c 6 c 6 6 5 6 4 5 2 4 2 4 2 6 4 4 5 4 4 6 6 2 2 2 2 2 4 4 2 2 < < 4 2 < < < < < < < $ < < < < < < < $ < - - 2 5 * * - - - < < - - - * * $ * * * - - * - - < - * * $ $ $ # # + + o + + + o o o o . . . - c b E E E P B c 5 - $ $ $ o .   X X X X X X X ",
"aXaXaXaXaXaXaXaX&X&X&X&X&X+X+X}.} ] ' I F F F F F F F F F F F F F F F F F F F L L L I I I I I I I I I I I I I I I I I I I I I I I I I I I I I I I I I I I I I Y Y Y Y Y Y Y Y Y Y Y Y Y Y Y Y T T T T T T U U T T T T T T T T T T T T U L J J 6 6 6 6 5 5 6 6 6 6 6 5 6 6 c 6 s 5 5 5 6 6 6 5 2 4 5 2 2 4 6 6 6 5 2 4 2 2 2 2 4 4 4 2 2 4 2 2 2 4 2 2 2 < < < < < < < < < < < < - < - 2 < - - * * * * * $ * * * * * * * * * - * * * * * $ $ # # + # + + + + + + o o o o . . . . < b P E E _ P c b 2 < $ $ - # + + . . . X X     ",
"aXaXaXaXaXaX&X&X&X&X&X&X&X&X&X&X&X&X&X&X+X+X}.} | ' T I F F F F F F F F F J F F L I F F F L I I I I I I I I I I I I I I I I I I I I I I I I I I I I I I I I I I I I I I Y Y Y Y Y Y Y Y Y Y Y U Y T T T T T T T T T T T T T T ~ ~ ~ T T T T T T T U Y J J 6 6 6 6 6 5 6 4 6 5 6 4 6 6 6 6 4 6 6 4 6 2 < 5 5 2 2 4 4 4 4 4 4 2 4 2 2 2 4 4 2 2 2 < 2 2 2 2 < < < < < < < < < < < < * $ < 4 - < - - * * * * * * $ $ $ $ $ $ $ * $ $ # # + # # # # # # # # + + + + o o . . X X X X $ b P E E E E b b 3 2 * - - $ # # # . . . .     ",
"aXaXaXaXaXaX&X&X&X&X&X&X&X&X&X&X&X&X+X+X+X+X+X+X+X+X+X+X}.}.} | ' T I F F F F F F F F F L F I I I L J J I I I I I I I I I I I I I I I I I I I I I I I I I Y Y Y Y Y I Y Y Y Y Y Y Y Y Y Y Y Y Y Y T T T T T T T T T T T T T T ~ ~ T T T ~ ~ ~ T ~ T ~ ~ ~ T U U J J 6 6 4 5 6 6 4 6 6 6 4 4 6 6 6 4 5 2 6 6 6 4 6 4 4 4 4 6 2 2 2 4 4 4 4 4 4 4 < < 2 < < < 2 < < < < < < < < < < - - 2 < - - - - * - $ * * $ $ $ $ $ $ $ # $ $ # # # # # # # # # # # # + + . o . . X X X X X X   5 b P E E P b b 3 - - - < $ # $ + . . o .     ",
"aXaXaXaXaXaX&X&X&X&X&X&X&X&X&X&X&X+X+X+X+X+X+X+X+X+X+X+X+X+X+X+X+X+X+X}.}.} | ' ~ I F F F F F I F I I F I I L L I L I I I I I I I I I I I I I I I I I I I I I Y Y Y I Y Y Y I Y Y Y Y Y Y Y Y Y Y Y Y T T U T T U T T T T T T T T T T T ~ ~ ~ ~ ~ ~ T ~ ~ T T ~ ~ ~ T T I J J s 6 4 6 4 4 2 4 2 4 4 4 < 5 4 4 4 4 6 6 4 4 4 4 4 4 2 4 2 4 2 2 2 < 2 2 2 2 2 < < < < < < < < < < < < - 2 - $ * * * $ $ * * * $ $ $ $ # # # $ # # # # # # # o o o + o o o X X X X X X X X X X X X   < b b E P b c c 2 - - < - $ # # + o . + . .   ",
"aXaXaXaX&X&X&X&X&X&X&X&X&X&X&X&X+X+X+X+X+X+X+X+X+X+X+X+X+X+X+X+X+X+X+X+X+X+X+X+X+X+X}.}.| | ' Y I F L F F I F I L L I L L I I I I I I I I I I I I I I I I I I I Y Y I I Y Y Y Y Y Y Y Y Y Y Y Y Y Y T T T T T U U T T T T T T T T ~ ~ T ~ ~ ~ ~ ~ ~ ~ ~ T T T ~ ~ ~ T ~ ~ T T T T Y J J s 6 4 2 4 2 2 < 2 2 2 4 2 4 6 4 4 4 4 4 4 2 4 2 4 4 2 2 2 2 2 2 2 2 < < < < 2 2 < 2 < < < < < 2 < * * * * $ $ $ $ $ $ $ $ $ $ $ $ $ # # # + o o + + o . . . . X X . . . . . . . . .       $ c b K b b c c 2 < < < - # + # + o o + . . . ",
"aXaX&X&X&X&X&X&X&X&X&X&X&X&X&X&X+X+X+X+X+X+X+X+X+X+X+X+X+X+X+X+X+X}.+X}.}.}.}.}.}.}.}.}.}.}.}.}.}.}.} | ' ~ I I L J J F F I I I I L L L I I I I I I I I Y I Y Y I Y Y Y Y Y Y Y Y Y Y Y Y Y Y Y Y T T T T U T T T U T T T T ~ ~ ~ ~ ~ ~ ~ ~ ~ ~ ~ ~ ~ ~ T T ~ T ~ T T T ~ T T T ~ T T T T T U U L J s 2 < < 2 4 2 2 < 2 4 4 4 2 2 2 4 2 2 2 4 2 2 2 2 2 < < < 2 < 2 2 2 < < < < < < < < < - < - - $ $ $ $ $ $ $ $ $ $ $ # # # # # # # # + .   X .     . + + o o . . . . . . . . . . 1 c b c c c 5 2 < < < $ $ # + + . . . . .   ",
"+X+X&X&X&X&X&X&X&X&X&X+X+X+X+X+X+X+X+X+X+X+X+X+X+X+X+X+X}.}.}.}.}.}.}.}.}.}.}.}.}.}.}.}.}.}.}.}.}.}.}.}.}..X}.}.}.| | ' T I L L F F L L L I I I I I I I I I I I Y Y I Y Y Y Y Y Y Y Y Y Y Y Y Y Y T T T T Y T T T T T T T T ~ ~ ~ ~ ~ ~ ~ ~ ~ ~ ~ ~ ~ ~ ~ ~ ~ T ~ ~ T ~ T T T T T T T T T T T T T T T T U L J J 6 4 < < 2 < 2 < < 2 < < < 4 2 2 2 2 < < < 2 < 4 < 2 2 2 < 2 < < < < < < < - < - * $ $ $ $ $ $ $ $ $ $ $ # # o o + # # o o o . . + + + + + + o o + + . . . . . . . . O 2 3 u 5 5 2 < < - - # # # + + . . . . . . ",
"F I ~ ] | k.}.}..X+X.X+X+X+X+X+X+X+X+X+X.X}.}.}.}.}.}.}.}.}.}.}.}.}.}.}.}.}.}.}.}.}.}.}.}.}.}.}.}.}.}.}.}.}.}..X.X}.}.+X+X+X.X}.} | ' ' Y L F L L J L L L I I I Y I I Y Y Y Y Y Y Y Y Y Y Y Y Y Y Y Y T T T T T T T T ~ ~ ~ ~ ~ ~ ~ ~ ~ ~ ~ ~ ~ ~ ~ ~ ' ~ ~ ~ ~ ~ ~ ~ ~ T T T T T T T ~ T T T T T T T T T T T T T T U L J s 6 4 < < < < < < 2 2 2 4 < < 2 2 < 2 < 2 < 2 2 < 2 < < < < < 2 < < < - - - * $ $ $ $ $ $ $ $ # # # o o + + o + # # + + + + + # + . . . + + . . . . . . .   o - - - < - - - - # # + . .   . . . .   - ",
".X} ] ' T J 6 4 6 J Y ~ ' | } k.}.}.}.}.}.}.}.}.}.}.}.}.}.}.}.}.}.}.}.}.}.}.}.}.}.}.}.}.}.}.}.}.}.}.}.}.}.}.}.}.}.}.}.}..X+X+X+X+X+X+X+X+X+X.X}.k.| | ' I J L I I I I I Y Y Y Y Y Y Y Y Y Y Y Y Y Y Y T T T T T T T T T ~ ~ ~ ~ ~ ~ ~ ~ ~ ~ ~ ~ ~ ~ ~ ~ ~ ~ ~ ~ ~ ~ T T T T T T T T ~ T T T U U T T T T T T T T T T U U T T U T U I J F 6 4 2 < < < < < < < < < < 2 < < < 2 2 < < < - < < < < - - - - * $ $ * $ $ $ $ $ # # # # + + + # # # # # # # + + + + . . . . . . . . . . . .     . # $ $ $ 8 $ $ + + .             . . < ",
"+X+X+X.X.X.X}.}.} | ' T I F 7 < 4 F I T ' ' | | | } } } k.k.}.}.}.}.}.}.}.}.}.}.}.}.}.}.}.}.}.}.}.}.}.}.}.}.}.}.}.}.}.}.}.}..X.X+X+X+X+X+X+X+X+X+X&X&X&X&X&XOX.Xk.| ~ I I I I Y Y Y Y Y Y Y Y Y Y T T T T T T T T T T T ~ ~ ~ ~ ~ ~ ' ' ' ~ ~ ~ ~ ~ ~ ~ ~ ~ ~ ~ ~ ~ T T T T T T T T T T U U U U U U T T T T U T Y U U T T T T T U U T U U T U L J F 6 6 2 < < < < < < < < < < < < < - < < - * * * $ $ * $ $ $ $ $ $ # $ $ # # # # # # # # # # # # # # + + + . . . . . . . . . . . .       . # $ $ $ + + . .   X X X X X   $ 2 5 ",
"&X&X+X+X+X+X.X.X}.}.}.}.}.}.k.k.} | ' T J s < < 7 F F I T ' ] | | | | | | | } } } } } k.} } } [.}.}.}.}.}.}.}.}.}.}.}.}.}.}.}.}..X.X+X+X+X+X+X+X+X+X+X&X&X&X&X&X*X*XaX7XaX*XOX.X} ' I Y Y Y Y T Y Y T T T T T T T T ~ ~ ~ ~ ~ ~ ~ ' ] ] ] ' ' ' ' ' ' ~ ~ ~ ~ ~ ~ ~ ~ T T T T ~ T T T U U U U U U U U U U U U U U U U T U U U U U U U U U Y Y U U T U U U Y I J F 6 2 < < < < < < < < < < - * * $ $ * * $ $ $ $ $ $ # $ $ # # # # # # # # # # # # # # + + + . . . . . . . . . . . .               X X     X X X $ 2 s J Y U U U ",
"} k..X+X+X+X+X+X+X.X.X.X.X.X}.}.} } [.}.[.[.}.} } ] ' T J 6 < < 7 s F I U ~ ' ' | | | | | | | } } } } } } } [.}.} }.}.}.}.}.}.}.}.}..X.X.X.X+X+X+X+X+X+X&X&X&X&X*X*X*XaX7X7XsXhXkXkXjXhX7X*XOXk.' Y I T T T T T T ~ ~ ~ ~ ~ ' ] ] ] ] ] ] ' ] ] ' ] ' ' ~ ~ ~ ~ ~ ~ ~ T T T T T T T T T T T U U U U T T Y U U Y Y Y Y U U U U U Y U U U Y U U T U U U U T U U U U U U Y Y J F 6 4 < - < < $ * $ $ $ $ $ $ $ $ $ $ $ # $ $ # # # # # # # # # # # # # + + + . . . . . . . . . . . .         X X X X X   8 2 s J L U Y Y U U U U U ",
"` ` ` R R R T ' ] | } } .X.X.X.X.X.X.X.X}.}.}.}.[.[.[.} [.[.[.} | ] ~ Y F 6 < 8 7 4 F J Y ~ ' ' ' ] | | | | } } } } } k.k.}.k.}.}.}.}.}.}..X.X.X+X+X+X+X+X&X&X&X*X*X*X*X7X7X7XhXhXkXkXkXkXlXlXAXAXAXjXhX=XOXk./ T T ~ ~ ~ ' ' ] ] | | | | | | | | ] ] ] ' ~ ~ ~ ~ ~ T T T T ~ ~ T T T T U U U U U U U U Y U U U Y Y U U U U Y U Y Y Y Y Y U U U U U U U U U U U U U U U U U U U U U Y L J s 6 < 8 $ $ $ $ $ $ $ $ $ $ $ $ $ $ # # # # # # # # # # # + # + % . . + . . . . . . . .       X % < 2 s J U Y U Y Y Y Y Y Y U U U U U ",
"` ` ` ` ` ` ` ` ` ` ` R R R R Y T ' ] | | } } k.k.k.}.}.}.}.}.[.} [.} } } } [.} | ] T Y J 4 8 8 < 4 F J Y T ' ] | | | | } } } } k.}.}.}.}.}..X.X.X+X+X+X+XOX&X&X&X&X*X*XaX7X7XsXhXhXkXkXkXlXlXlXAXAXGXGXGXGXDXGXlXkX7X*XOXK.] ] | | } } | | | | | | | ] ' ' ~ ~ ~ ~ ~ T ~ T T T T T U U U U U U Y U Y Y Y Y Y Y Y Y Y Y Y Y Y Y Y Y Y Y Y U U U U U U U Y U U U U U U U U U U Y U Y Y Y U U U U U L J s 5 < * $ $ $ # $ $ $ $ # $ $ # # # # # # # # # # # % . . + + . . . .   . # < 2 s J Y U U Y Y U U U Y Y U Y U U U U U U U ",
"] ] ' T ` ` ` ` ` ` ` ` ` ` ` ` Y R R R R R R R Y T T ] ] | | } } } } } } } [.[.} [.} } } } [.} | T ] ] ' T L F 6 6 F I T ' ] | | | } k.k.k.}.}.}..X.X+XOXOXOXOX&X&X&X*X*XaX7X7XsXhXkXkXkXkXlXlXAXAXGXGXGXDXDXDXGXGXGXGXDXFXKXKXSXZXhX7X*XK.{ } { | | ] ] ' ~ ' ' ~ T T T T T U T U U U U Y U Y Y Y Y Y Y Y Y Y Y Y Y Y Y Y Y Y Y Y Y Y Y Y Y U Y U U Y U Y Y Y Y Y U U I Y Y Y I I Y Y I Y Y Y U U U U U U U L J c 6 < $ # # $ $ $ $ # $ $ # # # # # + % . . . . . . % 8 4 s J L L L L U L U U U Y U U U U U U Y U U U U U U U ",
"$XOXXXK.K.} { ] ] ' T ` ` Y Y Y ` ` ` ` ` R R R R R R R R R R R R R T ~ ' ] ] } } } } } } } K.d.k.} } } } } } } } } | ] ~ Y J F 6 F J Y ~ ] | } k.k.k.k..X.XOXOXOX&X&X&X*X*XaX7X7XsXhXkXkXkXlXlXlXAXGXGXGXDXDXDXDXDXGXDXFXHXJXJXJXJXJXJXKXHXDXAXkX7X%XU.{ ] ~ ~ ~ ~ T T T ~ T T U U U Y U U Y U Y Y Y Y Y Y Y Y I Y Y Y Y Y Y Y Y Y Y U I I I I I I Y U U U U I I I I I I I I Y I Y Y Y Y Y Y Y U U U U U U U U U U U U U L J 6 4 < $ $ # # # # # # # + . . # 8 < 4 F J L L L L L U U U U Y U U Y Y U U U U U U U U U U U U U U ",
"7X=X=X=X$X$XOXXXXXK.K.d.{ [ ] ] ' T T ` R R R R R R R R R R R R R G R R G G G S G R Y T T ] ] } K.} } } } } } } } } } } } } } } } } | ] T I J 6 6 F U ~ | | k.k.K..XOXOX&X&X*XaXaX7XsXkXkXkXkXlXlXAXGXGXGXDXDXDXDXDXDXFXHXKXJXJXJXJXJXJXJXKXHXFXDXGXAXlXjXjX7XaX+Xk.| ~ Y Y U U Y U Y Y U Y Y Y Y Y Y Y Y Y Y Y Y Y Y I Y Y Y Y Y U U Y I I I I I I Y U U Y I I I I I I I I Y Y Y U Y Y U U U I Y U U U U U U Y U U U U U Y I I I I L J F 6 < < # # 8 < 2 6 s F F F F F L L L L L U U U Y Y U Y U Y U U U Y Y Y U U U U U U U U ",
"sXsX7X=X=X=X*X%X$XOXOXOXXXXXK.K.d.} } } [ ] ] ' ~ T Y R R R R R R R R R R R R R R G G G G G G J J R Y T T ] ] | } } } } } } } } } } } } [.} } } } | ] ' T L F s s U ~ ] k.K.+XOX&X*XaX7XsXkXkXkXlXlXAXGXGXDXDXDXFXFXFXHXKXJXJXJXJXJXJXJXJXJXKXHXFXFXGXAXCXjXkXhXIXIXIXpXaX&X+X}.] U Y I Y Y Y Y Y Y Y Y Y Y Y Y Y Y I I Y Y Y Y Y I Y I I I I I Y Y U U I I I I I I Y Y I Y Y Y Y U U U U U U U U U I U U U U U U U U U U U U I I I I I L L J F 6 4 4 4 6 s s F F F F J L L L L U U U U U U U Y U Y Y U U Y Y Y U U U U U U U U ",
"kXsXsXsX7X=X=X=X*X*X%X%XOXOXOXXXXX.X.X.XK.K.d.} } { } [ ] ] ] ' ~ T Y Y R R R R R G R R R R R R R R R R G G R R R R Y T ' ] | } } } } k.k.k.} [.k.k.k.}.k.k.k.k.} } ] ~ T L J J T / { k.XX&XaX7XhXkXkXCXPXGXDXFXFXFXHXKXJXJXJXJXJXJXJXJXJXJXJXKXKXHXHXGXCXlXjXhXIXIXIXIXaXaXaXaXaXaXaX4X&X+X}.| ] T I Y I I Y I Y Y Y Y Y Y Y Y Y U U U U U U I I I I U Y Y I I I Y U Y U Y U U Y I Y Y U Y Y Y U U U U U U U U U U U U U U U I Y I I I I L J J s 4 4 6 6 s s F F F L L L L L L L L L L U U Y Y Y Y U U U U Y Y U U U U U U U U ",
"kXkXsXsXsX7X7X=X=X*X*X*X%X%X$X$XOXXXOXXXXXXXK.K.K.K.K.d.d.} } } } { { [ ] ] ] ] ~ T T R R R R R R R G G R R R R R R R R R R R R R T T ' ] | } } k.K..X.X.X.XK..X.X.XK..X.X.X.XK.K.k.} ] / ~ T ~ / k.K.&X7XhXCXGXFXHXKXJXKXLXLXJXJXJXJXJXJXJXJXJXJXJXJXJXHXlXkXhXIXIXIXIXIXaXaXaXaXaXaXaXaX4X4X&X4X4X&X+X}.k.| ' T I I I Y Y Y Y Y Y I Y Y I Y I I I I Y I I I I Y U Y Y I Y Y I I I I Y Y Y I I U U U U U U U U U U U U U U U U Y Y Y I I L L J s 4 4 6 6 s s F F F L L L L L L L L U U Y Y Y Y U Y Y U Y Y U U U U U U U U U U ",
"kXkXkXkXsXsXsX7X6X=X=X*X=X%X%X$XOXOXOXOXXXXXXXXXXX.X.XK.K.K.K.K.K.d.d.d.} } } } } { { [ ] ] ] ]  .T T Y R R R R R R R R R R Y Y Y T ` ` ` T T T T ' ] | } } .X+XXXOXOXOX+XOXXXOXOXOXOXOXOX&X&X&XOXOXOXOXOX.XK..X*XpXZXLXJXJXJXJXJXJXJXJXJXJXJXJXJXJXJXJXKXFXPXVXhXIXIXIXIXIXaXaXaXaXaXaX4X4X4X4X4X&X&X&X&X&X&X&X&X+X+X}.k.| ' T I L I I I I I I I I I Y Y Y Y I Y Y Y Y I I I I L Y Y Y I Y I Y U Y U U U U U U U U U T T U U U U U U Y I I L J s 4 6 6 s s F F F L L L L L L L L Y U Y Y Y Y Y U U U U U U U U U Y Y Y U U T T ",
"kXkXkXkXkXsXsXsX7X6X=X=X*X*X*X%X%X%XOXOXOXOXOXXXXXXXXX.X.X.X.X.XK.K.K.K.K.K.K.d.d.d.} } } } } } { { { { { [ ] ] ] ' T T T Y Y Y Y I Y Y T T T ' ' ' ] | | | | { } } } K.K.XXOX*X*X*X*X=X=X7X7XhXjXjXSXLXKXJXJXJXLXLXSXZXLXJXJXJXJXJXJXJXJXJXJXJXJXJXJXKXHXPXZXVXhXIXIXIXIXaXaXaXaXaXaXaX4X4X4X&X&X&X&X&X&X&X+X+X+X+X+X+X+X+X+X+X+X.X}.} | ' ~ Y L L L L L L I I L L L Y Y Y Y Y L L I I Y I I I U Y U U U T U U T T T T T T T U T T U Y I I L J s 6 6 s F F F J L L L L L L L L L U U Y Y Y Y U U U U U U U U U U U U T ~ / ( [ ",
"lXlXkXkXkXsXsXsX7X7X7X6X=X*X*X*X*X%X%XOXOXOXOXOXXXXXXXXXXX.X.X.X.X.X.XK.K.K..XK.K.K.K.K.K.d.K.K.K.d.d.d.d.} d.} } } } } } { { [ [ ] ] ] ] T T T T T ~ ' ' ] ] { } K..XOX*X*X*X*X*X*X%X$X$X=X7XkXjXCXSXLXKXJXJXJXJXJXJXJXJXJXJXJXJXJXJXJXKXKXDXSXAXAXCXjXhXIXIXaXaXaXaXaXaX&X&X&X&X&X&X&X&X&X&X&X&X+X+X+X+X+X+X+X+X+X+X+X+X+X+X+X+X+X+X+X+X+X+X+X.X.X}.k.} | ' T L L J L L Y L L L L L L Y Y Y Y Y U U U T T U U T T T ~ ~ T T T T T T T U I I J s 6 s s F J J L L L L L Y U U U U Y Y Y Y Y Y Y U U U U U U ~ / ( { a.a.a.a.) ) ",
"lXlXlXkXkXkXsXsXsX7X7X7X6X=X*X*X*X*X%X%XOXOXOXOXOXOXXXXXXXXXXXXX.X.X.XK.K.K.K.K.K.K.K.K.K.K.K.K.K.K.K.K.K.K.K.K.K.K.K.K.K.K.K.K.K.K.K.K.K.K.K.K.d.} } { { [ [ [ / ] [ { } K.K.XX*X7XhXjXjXjXhX7X=X*X*X=X7XhXSXLXLXKXJXJXJXJXJXJXJXJXJXJXJXJXJXKXDXlXsX%XU.{ ] ~ ' ] | k.k.}.}.}..X.X+X+X+X+X.X+X+X+X+X}.}.}.+X+X}..X}.}.}.}.}..X.X.X.X.X.X.X.X.X.X.X+X+X+X+X+X+X+XOX+XK.} | ~ Y J J L L Y Y Y Y Y Y U U T T T T ~ ~ ~ ~ ~ ' ~ ~ ' ' ~ ~ T Y I J s s F F F L L L L Y Y Y Y Y U Y Y U Y Y Y U U U ~ / ( { a.D.D.D.D.a.a.a.a.a.) ) ",
"AXlXlXlXkXkXkXsXsXsXsX7X7X=X=X=X*X*X*X%X%XOXOXOXOXOXOXXXXXXXXXXXXX.X.X.XK.K..XK..XK.K.K.K.K.K.K.K.K..XK.K.K.K.K.K..X.X.X.X.X.XXXXXXXXXXXXXXXOXoXOXOXoXOXoXoX@X@XoXOXR.U.U.K.K.J.J.J.J.K.U.R.OX*X*X*X=X*X*XOXXXU.XX%X6XdXhXLXJXJXJXJXJXJXJXJXJXJXJXKXHXSXCXhX7X*XOX.X} ] T L F F F I ~ ' ] | | } } } k.k.k.k.}.}.k.k.k.k.k.k.}.}.k.}.}.}.}.}.}.}..X.X.X.X.X.XOXOX+XOXOX&X*X*X*X6X=X*X*XOXXXJ./ L L U T T T T T T ~ ~ ' ] ] ] ] ] ' ~ ~ ~ T U I J F F F F L L Y Y U U U Y Y Y Y Y Y U ~ / ( { D.F.F.H.F.F.D.a.D.a.a.a.a.a.t.) ) ) ",
"AXlXlXlXkXkXkXkXsXsXsX7X7X7X=X=X=X*X*X*X%X%XOXOXOXOXOXOXXXXXXXXXXXXX.X.X.X.X.XK..X.X.XK.K.K.K..X.X.X.XK.K.K..X.X.X.XXXXXXXXXXXXXOXOXOXOXOXOX$X$X%X%X%X%X=X=X=X=X=X=XgXgXsXsXsXzXzXzXzXsX7X=X=X=X$XOXXXU.K.J.J.K.K.K.K.J.CXJXJXJXJXJXJXJXJXJXJXKXLXLXSXVXhXhXhXhX7X6X*X&XOX+X.X.X}.} ] ~ Y J F 6 F L Y ~ ~ ' ' ] | | | | | | | | | | } } k.k.k.}.}.}.}..X.X.X.X.X.X.XOXOX&X*X*X*X=X7XsXkXkXkXlXlXlXkXhX7X*X.X[ / / / ] ] ] ] ] ] ] ' ' ~ ~ T I I F F F I I I Y Y U Y Y L P / ( { D.G.W.G.G.H.H.H.H.H.F.D.D.a.a.a.D.D.t.a.t.) ) ) ",
"GXAXAXlXkXkXkXkXkXsXsXsX7X7X=X=X=X*X*X*X*X*XOXOXOXOXOXOXOXOXXXXXXXXXXXXX.X.X.X.X.X.X.X.X.X.X.XK.K.K..X.X.XXXXXXXXXXXXXXXXXXXXXOXOXOXOXOX$X$X$X%X%X%X*X=X=X=X7X7XsXsXkXkXkXkXlXlXlXAXGXDXDXFXHXHXHXHXLXLXSXPXCXjX7X*XOXY.LXJXJXJXJXJXJXJXJXJXJXJXJXJXJXKXKXGXjX7X6X*XOX.X.X.X.X.X+X+X.X.XK..X.X}.} | ] ' T L F 6 F F I T T ~ ' ] ] ] | | | | | } } } k.k.k.K..X.X.X.X.XOXOX&X*X*X*X=X7XzXkXkXkXlXGXDXFXKXJXJXJXKXLXZXhX7X%XJ.{ [ ] ] ] ~ ~ T I L F J L Y U U U / { S.F.W.E.W.W.W.W.W.W.G.G.G.H.H.H.H.H.D.D.a.a.a.a.t.a.t.) ) ) ) ",
"GXAXlXlXlXkXkXkXkXsXsXsXsX7X7X=X=X=X=X*X*X*X%XOXOXOXOXOXOXOXOXXXXXXXXXXX.X.X.X.X.X.X.X.X.X.X.X.X.X.X.XK.XX.X.XXXXXXXXXXXXXOXOXOXOX$X$X$X%X%X%X*X=X=X=X=X7XgXgXsXsXzXkXkXlXlXlXGXGXFXFXHXKXJXJXJXJXJXJXJXJXJXJXJXKXHXlXkXKXJXJXJXLXLXLXLXKXKXKXKXKXKXKXKXHXHXDXSXCXjXhXpX6X*X&XXX.X} } } { | | } d..X.X}.[.[.[.[.} | ] T T R J F F J Y T ~ ' ] | ] ] | } } } k.k.k.K.K..XOXOX&X*X*X=X7XzXkXkXlXlXGXFXHXJXJXJXJXJXJXJXJXKXFXDXAXlXkX=X$XU.{ ~ U L L ~ ) { S.R./.^.^.^.^.!.!.!.!.!.W.W.W.E.G.G.H.H.F.H.H.D.D.a.a.a.t.t.a.t.) ) ) ) ",
"GXGXAXlXlXlXkXkXkXhXhXsXsX7X7X=X=X=X=X=X*X%X%XOXOXOXOXOXOXOXOXOXOXXXXXXXXX.XXXXX.X.XXX.X.X.X.X.X.X.X.XXXXXXXXXXXXXXXXXXXXXOXOXOX$X$X%X%X%X%X*X*X=X=X=X7XgXsXsXkXkXkXkXlXlXAXGXGXFXFXHXKXJXJXJXJXJXJXJXJXJXJXJXJXJXJXFXlXKXJXJXJXGXjXkXgX=X7X%XOX1X5X5X*X*X5X6X6X6X6X6X6XaX5X5X*X&X&XOXOXXX.X.X} } ] ] ] ] ] ] | } } }.} [.UX[.[.} } ] ] T T L J J J Y T ] ] [ { } k.k.K.K..XOXOX%X*XaX7XhXkXlXlXGXFXKXJXJXJXJXJXJXJXJXJXHXFXDXGXlXlXkXkXkXsXaX&X$X$X#X#X#X^.^.^.^.^.^.^././.!.!.E.E.E.W.G.F.F.F.F.H.D.D.a.a.t.t.t.t.t.t.) ( ^ u.",
"GXGXGXAXlXlXkXkXkXkXhXhXsXsX7X7X7X7X=X=X*X*X*X%X%XOXOXOXOXOXOXOXOXOXOXXXXXXXXXXXXXXX.X.X.X.XXXXXXXXXXXXXXXXXXXXXXXXXXXOXOXOXOXOX$X%X%X%X*X*X=X=X=X7X7XgXsXsXkXzXkXkXkXlXlXGXGXFXFXHXJXJXJXJXJXJXJXJXJXJXJXJXJXJXJXJXKXAXKXJXJXJXKXHXLXSXVXhX%X} } | | | ' ' ' ' | | | } [.[.[..X.X.X.X.X.X.X.X.X.X.X.X.X.X.X} } | ] ] ] ] ] ] ] ] } } UX[.} } [.} } | ] ~ T P P L U ~ ] [ } k..XOXOX&XaX7XkXkXAXGXFXKXJXJXJXJXJXJXJXJXJXJXKXHXFXDXGXlXkXkXkXsXaX=X=X=X=X#X#X#X^.^.^.^.^././.!.E.E.E.G.G.G.F.H.D.D.D.D.D.t.) t.u.u.u.u.w.:.;.:.:.",
"DXGXGXAXlXlXlXkXkXkXkXhXsXsXsX7X7X7X=X=X*X*X*X*X%X%XOX%XOXOXOXOXOXOXOXOXXXXXXXXXXXXXXX.XXXXXXXXXXXXXXXXXXXXXXXXXXXOXOXOXOXOXOX$X%X%X%X*X*X*X=X=X=X7XgXsXsXkXkXkXkXkXlXlXGXGXDXFXHXKXJXJXJXJXJXJXJXJXJXJXJXJXJXJXJXJXJXFXKXJXJXJXJXJXJXJXJXJXJXLXZXBXuX5X+X| ' ` ` ` ` ` ` ` ` ` ` ` ` ' | | | | [.[.[.} } } } [..XUXd.d.UX[.[.} } | ] ] ] ] ] ] [ { } k.k.k.} K.K.k.{ [ ] / ~ ~ ~ / { J.OX*XsXjXGXFXJXJXJXJXJXJXJXJXJXJXJXJXJXKXKXKXKXGXkXhXIX7X7X=X=X=X=X=X=X^.^.^.^.^./.!.!.W.G.G.H.H.H.D.t.t.u.u.u.^ B C :.:.:.,.:.,.,.:.:.,.",
"DXGXGXGXAXlXlXjXkXkXhXhXhXsXsXsXsX7X=X=X=X*X*X*X%X%X%XOXOXOXOXOXOXOXOXOXXXXXXXXXXXXXXXXXXXXXXXXXXXXXXXXXXXXXXXOXOXOXOXOXOXOXOX$X%X*X*X*X*X=X=X=X=X7XgXsXsXkXkXkXkXlXlXAXGXDXFXFXKXJXJXJXJXJXJXJXJXJXJXJXJXJXJXJXJXJXJXJXJXJXJXJXJXJXJXJXJXJXJXJXJXJXJXJXJXJXKXLXZXhX6X&X.X| ` ` ` ` ` ` ` ` H H H ` ` ` ` ' | | [.| } } } } } } } } d.} d.d.d.UXd.} { ] ] ] [ [ [ { k.K.XXXXOXOXOXXXOXU.U.U..XXXOX*XBXSXKXJXJXJXJXJXJXJXJXJXJXJXJXJXJXHXGXkXhXsXaXaX=X=X=X=X#X^.^.^./.!.!.W.W.F.D.).y.u.w.;.w.w.;.:.p.:.;.m ,.,.,.,.,.,.,.:.:.,.",
"FXDXGXGXAXAXAXlXjXjXjXhXhXhXsXsXsX7X7X6X=X*X*X*X*X*X%X%XOXOXOXOXOXOXOXOXOXOXXXXXXXXXXXXXXXXXXXXXXXXXXXXXXXXXOXOXOXOXOXOXOXOXOX%X%X*X*X*X=X=X=X=X=X7XsXsXsXzXkXkXkXlXlXAXGXDXFXHXKXJXJXJXJXJXJXJXJXJXJXJXJXJXJXJXJXJXJXJXJXJXJXJXJXJXJXJXJXJXJXJXJXJXJXJXJXJXJXKXKXHXFXFXGXGXCXjXsX6X;X+X[.[.` ` ` ` ` ` ` ` H ` ` ` ` ` ` ` ' | | | | } } } } [.} } .XK..X.X.X.X.X.XK.K.K.K.K.U.U.oX*XsXCXPXLXLXKXKXKXLXLXKXJXJXJXJXJXJXJXKXJXKXKXKXLXPXjXhXsXaXaX*X$X$X$X^./.E.W.G.H.).w.w.w.V :.,.,.<.<.:.,.,.:.p.m.,.>.-.,.,.<.,.,.,.,.:.,.,.",
"FXDXDXGXGXAXAXCXjXjXjXjXjXhXhXhXdXdXpX7X7X6X6X*X*X*X*X*X*X%X%XOXOXOXOXOXOXOXOXXXXXXXXXXXXXXXXXXXXXXXXXXXXXOXOXOXOXOXOXOXOXOX$X%X*X*X*X*X*X=X=X=X=XgXsXsXkXkXkXkXkXlXlXGXGXFXFXKXJXJXJXJXJXJXJXJXJXJXJXJXJXJXJXJXJXJXJXJXJXJXJXKXLXDXLXLXLXHXLXKXKXKXKXKXKXKXKXHXFXDXGXGXlXlXlXjXkXkXhXsXsX7X6X6X5X+X+X}.[.[.' ` ` ` ` ` ` ` ` ` ` ` ` ` ' | | | [.[.[.[.[.UX.X.X.X.XXXOX%X*X*X=X7XhXkXkXjXSXLXJXJXJXJXJXJXJXJXJXJXJXJXJXHXDXlXkXsX=X=X*X&X&XOXOXU.U.W.W.D.D.u.u.:.:.>.>.>.<.<.-.<.m.<.m.<.<.m.A.p.m.A.A.m.>.m.<.,.<.m.m.,.>.A.,.",
"FXDXDXGXGXSXAXCXlXjXjXjXjXhXhXhXhXdXpXpX7X7X6X6X6X6X5X5X5X*X*X*X&X&X&XOXOXOXOXOXOXOXOXXXXXXXXXXXXXXXOXOXOXOXOXOXOXOXOXOXOX%X%X%X*X*X*X*X=X=X=X=X7XsXsXsXkXkXkXkXlXlXAXGXDXFXFXKXJXJXJXJXJXJXJXJXJXJXJXJXJXJXJXJXJXJXJXJXJXKXHXAXzXzXzXzXzXzXkXkXkXkXkXkXzXkXsXsXzXzXzXzXsXsXsXsXsXsX7X6X=X=X=X*X*X*X%X%XOXOXOX+X+X.X}.[.[.[.| | | ' ' ' ' ' ' ' | | | | } } [.UX.X.X.X.XXXOXOX*X=XsXjXAXHXJXJXJXJXJXJXJXJXJXJXJXJXJXJXJXJXKXFXlXkX=X$XP.a.) ( Q P b M C n -.>.>.<.<.m.m.<.m.m.>.V.<.*.V.m.<.A.,.p._._.m.m.>.m.m.m.m.m.m.<.>.A.m.",
"FXDXDXDXGXSXAXAXCXCXjXjXjXhXhXhXhXhXpXpXpX7X7X6X6X6X6X5X5X5X5X*X1X1X%X%X&XOXOXOXOXOXOXOXOXOXOXOXOXOXOXOXOXOXOXOXOXOXOXOX%X%X%X*X*X*X*X*X=X=X7X7XsXsXsXkXkXkXkXkXlXlXAXGXDXFXHXKXJXJXJXJXJXJXJXJXJXJXJXJXJXJXJXJXJXJXJXKXDXDXlXzXgXgXgXgX=X=X#X#X@X~.Y.R.~.$X$X#X$X$X#X$X#X$X$X$X$X$X$X@X$X$X@X@XOXOX$XOXOXOXOXOXXXXXXXXXXXXX.X.X.X.X.X[.[.[.[.[.} [.[.[.[.} } } } .X.XXXXXOXOX%X%X*X*X7XjXSXKXJXJXJXJXJXJXJXJXJXJXJXJXJXJXLXSXlXkX=X$X@X@XY.P.J.) q m >.-.<.*.<.m.m.V.V.m.V.V.>.V.<.<.V.m.<._.A._._._.V._.>.m.m.m.m.A.A.<.,.m.m.",
"FXDXDXDXGXSXAXAXCXCXVXjXjXjXhXhXhXhXdXpXpXpX6X7X6X6X5X5X5X5X5X5X1X5X1X1X1X&X%X%X%X&X;X&XOXOXOXOX&X&X&XOXOX&X&XOX&X%X&X%X%X*X*X*X*X*X=X=X=X=X7X7XsXsXhXkXkXkXkXlXlXlXGXGXFXFXHXJXJXJXJXJXJXJXJXJXJXJXJXJXJXJXJXJXJXJXJXKXGXGXHXDXGXAXlXkXsX=X#X@X~.~.Y.Y.U.U.P.U.T.T.T.K.J.J.T.T.T.P.T.U.U.U.U.U.U.U.U.U.U.U.T.T.U.U.T.U.T.T.K.U.U.T.T.XXU.U.U.XXU.XXXXOXOXOX$X%X%X%X%X%X%X%XOXOXOXOXOXXXXXU.OX6XiXVXSXLXKXJXJXJXJXJXJXJXJXJXJXKXFXGXkXgX#XP.( ^ ! m >.,.>.<.m.V.V.V.V.V.V.V.V.<._.m.m.V.V.m._.m._.].]._._.,._.V.m.m._.m.m.,.m.m.",
"HXFXDXDXGXSXSXAXAXCXCXVXVXjXhXhXhXhXdXdXpXpX7X7X6X6X6X5X5X5X5X5X5X5X5X1X1X;X1X;X%X%X;X;X&X&X&X&X;X;X;X;X%X%X%X&X1X*X*X*X*X*X*X*X6X*X6X6X6X7X7XsXsXsXhXkXkXkXlXlXlXAXGXDXFXFXKXJXJXJXJXJXJXJXJXJXJXJXJXJXJXJXJXJXJXJXJXKXGXGXJXJXJXJXJXJXKXKXHXDXCXkX=X%X@XoXY.U.T.T.T.K.K.K.K.K.d.d.d.d.d.d.d.d.d.d.d.d.d.d.d.K.K.K.T.T.T.T.K.K.K.K.K.T.T.U.U.T.U.Y.R.@X@X$X$X#X=X=X=XgXzXkXkXkXlXlXjXVXhXpX6X*XOXXXXXXXXX%X*X7XdXhXjXVXVXCXjXhXhXhXsXgX=X#X) y t -.<.m.<.V.V.V.V.Z.V.V.V.V.Z.<.V.V.V.V._.p.V.V.].].].]._.m.V.V.V.V._.m.m.<.m._.",
"HXFXDXDXGXSXSXAXAXCXCXVXVXjXjXhXhXhXdXdXpXpXpX6X6X6X6X9X5X5X5X5X5X5X5X5X1X1X;X;X1XOX;X;X;X;X1X;X;X;X;X;X;X1X1X1X5X5X5X*X5X5X6X6X6X6X7X7X7X7XsXsXsXhXkXkXkXjXlXlXAXGXGXDXFXFXKXJXJXJXJXJXJXJXJXJXJXJXJXJXJXJXJXJXJXJXJXJXDXDXJXJXJXJXJXJXJXJXJXJXKXKXHXDXGXlXkXkXsX6X%X%XoXXX.XK.K.K.d.d.d.d.d.d.d.d.d.d.d.d.d.d.d.d.d.d.d.d.d.d.d.d.K.d.L.J.L.L.L.L.P.P.P.Y.Y.~./.#X#X=XgXzXkXkXlXGXFXKXJXJXJXJXJXJXJXKXLXLXSXCXVXsX*XT.[ / Q / ) { Y.Y.#XkXa.t y :.<.m.<.V.V.Z.C.'.'.C.V.C.C.m.V.C.Z.Z.Z.,._.'.'.'.].].V.m.V.V.V._._.V.V.<.A._.",
"HXFXDXDXGXGXSXSXAXCXCXCXVXjXVXhXhXhXhXdXpXpXpXpX6X6X6X9X5X5X5X5X5X5X5X5X5X5X5X1X1X;X;X;X;X;X;X;X1X;X1X1X1X1X;X5X5X5X5X5X5X5X6X6X6X7X7X7X7XpXsXsXsXhXhXjXkXjXlXAXAXGXDXDXFXHXKXJXJXJXJXJXJXJXJXJXJXJXJXJXJXJXJXJXJXJXJXJXHXDXJXJXJXJXJXJXJXJXJXJXJXJXJXKXHXFXDXGXAXlXkXkXsXsX6X=X%X%XOXOXXXXXXXT..XK.K.d.d.d.d.d.d.d.d.d.d.d.d.d.d.d.a.a.d.d.d.d.d.d.d.d.L.L.P.P.I.I.Q.Q.~.^.=XgXgXzXlXGXHXJXJXJXJXJXJXJXJXJXJXJXJXJXJXJXKXLXZXhX6XOXJ.sXGXFXF.y n <.V.V.<.V.Z.'.C.C.'.C.C.C.C.m.V.C.V.'.V.A.].'.'.'.].'.V.m.V.V.V._._._.V.,._._.",
"HXFXDXDXDXGXSXSXAXCXCXCXVXjXVXhXhXhXhXdXdXpXpXpXpXtXtX9X5X5X5X5X5X5X5X5X5X5X5X1X1X;X;X1X;X;X;X;X1X1X1X1X1X5X5X5X5X5X5X5X5X6X6X6X7X6X7X7XpXsXsXdXdXhXhXjXjXjXAXAXAXGXDXFXFXHXKXJXJXJXJXJXJXJXJXJXJXJXJXJXJXJXJXJXJXJXJXJXKXFXJXJXJXJXJXJXJXJXJXJXJXJXJXJXJXKXHXFXDXGXAXlXjXjXjXsXsX7X=X=X*X*X*X%X%X$XOXOXXXXXXXXX.XK.K.d.d.d.d.d.d.d.d.d.d.d.d.d.d.d.d.d.d.d.d.d.d.d.L.P.Y.~.~.#X^.=X=XgXzXkXAXDXHXKXJXJXJXJXJXJXJXJXJXJXJXJXJXJXKXKXKXFXFXFXH.y V <.V.V.m.Z.C.C.'.'.'.C.C.C.C.m.'.V.V.V.C.,.'.'.'.'.].'._.m.Z.V.V._._._._.,._._.",
"HXFXDXDXDXGXSXSXAXCXCXCXCXVXVXVXhXhXhXdXdXdXpXpXpXtXtXtX9X9X5X5X5X5X5X5X5X5X5X1X5X1X1X5X1X;X1X1X5X1X5X5X1X5X5X5X5X5X5X5X5X5X6X6X7X7X7XpXpXpXsXdXdXhXhXjXjXjXCXAXAXGXDXFXFXHXKXJXJXJXJXJXJXJXJXJXJXJXJXJXJXJXJXJXJXJXJXJXKXFXJXJXJXJXJXJXJXJXJXJXJXJXJXJXJXJXKXHXFXDXGXAXAXlXjXkXkXsXsX7X7X7X6X6X=X*X*X%X%X%X$XOXOXOXXXXXXXXXXXXXT.K.K.T.T.T.J.K.d.d.d.d.d.d.d.d.d.d.d.d.L.L.L.P.P.I.Q./.=XgXgXgXzXlXAXDXFXHXHXKXKXKXKXJXJXJXKXKXKXKXHXDXGXFX!.n -.<.V.V.m.C.C.C.C.C.C.C.C.C.C.V.Z.C.C.C.V.m.'.'.'._.'.'._.V.'.V.V._._._._.,.V._.",
"HXFXDXDXDXGXSXSXAXAXCXCXCXVXVXjXhXhXhXhXdXdXpXpXpXtXtXtX6X6X5X5X5X5X5X5X5X5X5X*X5X;X1X1X5X5X1X1X5X5X5X5X5X5X5X5X5X5X5X5X5X6X6X6X6X7X7XpXpXsXdXdXhXhXhXjXjXCXAXAXGXGXDXFXFXHXKXJXJXJXJXJXJXJXJXJXJXJXJXJXJXJXJXJXJXJXJXJXJXKXJXJXJXJXJXJXJXJXJXJXJXJXJXJXJXJXJXKXHXFXDXGXAXAXlXjXkXhXsXsXsXsXsX7X7X=X*X*X*X*X%X%X%XOXOXOXOXOXOXOXOXOXOXOXoXoXOXOXoXoXoXoXoX@X@X@X~.Y.P.P.P.P.P.P.I.I.I.!./.^.^.^.^.#X=X=XgXgXgXzXkXkXkXkXkXlXlXlXzXzXzXzXzXFXt.n >.V.V.Z.m.C.C.C.C.C.C.C.C.C.C.V.C.C.C.C.V.m.'.'.'.'.'.'._.V.Z.V.V._._._._.m.V._.",
"HXHXDXDXGXGXSXSXAXAXCXCXVXVXVXVXhXhXhXhXhXdXdXpXpXpXtXtXtX9X9X5X5X5X5X5X5X5X5X5X5X1X1X5X1X1X1X1X5X5X5X5X5X5X5X5X5X5X5X6X6X6X6X6X7X7XpXpXpXsXdXhXhXhXhXjXjXCXAXAXGXGXDXFXFXHXKXJXJXJXJXJXJXJXJXJXJXJXJXJXJXJXJXJXJXJXJXJXJXKXJXJXJXJXJXJXJXJXJXJXJXJXJXJXJXJXJXKXHXFXDXGXGXAXAXlXjXkXhXhXdXdXsXsX7X7X*X*X*X*X*X%X%X%X%X%X%XOX%XOX%X%X%X%X$X%X%X%X%X%X%X%X=X=X=XgXgXgXgXgXgXgXsXzXzXzXlXlXkXzXsXgXgXgX=X=X=X=X#X#X^.#X^.^.^./.(.(./.^.(.^.zXFXs.n >.V.Z.Z.V.C.C.C.C.C.C.C.C.C.C.V.C.C.C.C.C.A.'.C.'.'.'.].V.m.V.V.V._._.].V.m.V._.",
"HXHXDXDXDXGXSXSXAXAXCXCXCXVXVXVXhXhXhXhXhXdXdXpXpXpXtXtXtXtX9X5X5X5X5X5X5X5X5X5X5X5X1X5X1X5X5X1X5X5X5X5X5X5X5X5X5X5X5X6X6X6X6X6X7X7XpXpXsXdXdXhXhXhXhXhXjXjXAXAXGXGXDXDXFXHXKXJXJXJXJXJXJXJXJXJXJXJXJXJXJXJXJXJXJXJXJXJXJXKXJXJXJXJXJXJXJXJXJXJXJXJXJXJXJXJXJXKXHXHXFXDXGXGXAXAXjXjXhXhXhXhXhXdXsXsX7X6X6X6X*X*X*X%X%X%X%X%X%X%X%X%X%X%X%X%X*X*X=X=X=X=X=XgXsXsXzXzXzXzXkXlXlXlXGXDXHXKXKXKXKXKXKXKXKXKXKXHXHXGXAXjXzXgX=X^./.(.(./.).gXFXGXM C >.V.Z.C.V.C.C.C.C.C.C.C.C.C.C.V.C.Z.N.C.C.m.'.'.'.'.'.'._.V.Z.V.V.`.].].V.m.V.V.",
"HXFXDXDXDXGXSXSXAXAXCXCXCXCXVXVXVXBXhXhXhXdXdXiXpXpXpXtXtXtXtX9X5X5X5X5X5X5X5X5X5X5X1X5X5X1X5X5X5X5X5X5X5X5X5X5X5X5X9X9X6X6XtXtX7XpXpXdXdXdXhXhXhXhXhXhXhXjXAXAXGXDXDXFXFXHXKXJXJXJXJXJXJXJXJXJXJXJXJXJXJXJXJXJXJXJXJXJXJXJXJXJXJXJXJXJXJXJXJXJXJXJXJXJXJXJXJXKXHXHXFXDXGXGXAXAXjXjXjXhXhXhXhXhXdXsX7X7X6X6X6X*X*X*X*X*X*X%X%X%X*X*X%X%X*X*X*X=X=X=X=X=XgXgXsXzXzXkXkXlXlXlXGXGXFXHXKXJXJXJXJXJXJXJXJXJXJXJXJXJXJXJXKXKXHXFXGXlXzXzX(.=X_ =Xy m <.V.Z.'.V.C.C.C.C.C.C.C.C.C.C.V.C.Z.N.C.C.m.'.'.'.'.'.'.V.V.V.V.V.`.].]._.m.V._.",
"HXDXDXDXDXGXSXSXAXAXCXCXCXVXVXVXBXBXhXhXhXdXdXpXpXiXpXuXtXtX6X9X9X9X5X5X5X5X5X5X5X5X1X5X5X5X5X5X5X5X5X5X5X5X5X5X5X5X9X6X6X6XtXtXpXpXpXdXdXdXdXhXhXhXhXhXhXjXCXAXGXDXDXFXHXHXKXJXJXJXJXJXJXJXJXJXJXJXJXJXJXJXJXJXJXJXJXJXJXKXJXJXJXJXJXJXJXJXJXJXJXJXJXJXJXJXJXKXKXHXFXDXGXGXAXAXCXjXjXjXjXjXhXhXhXdXsXpX7X6X6X*X5X*X*X*X*X%X%X*X*X*X*X*X*X*X=X=X6X6X6X7XsXsXkXkXkXkXlXlXlXGXGXDXFXKXJXJXJXJXJXJXJXJXJXJXJXJXJXJXJXJXJXJXJXKXKXFXDXGX=X=Xv =Xx -.,.V.Z.C.V.C.C.C.C.C.C.C.C.C.C.V.C.V.Z.C.V.m.'.'.'.'.'.'._.V.V.V.V.`.'.]._.m.V.V.",
"HXDXDXDXDXGXSXSXSXAXCXCXCXVXVXVXVXBXhXhXhXdXdXiXiXiXpXtXtXtX6XtXtXtX9X5X5X5X5X5X5X5X5X5X5X5X5X5X5X5X5X5X5X5X5X5X5X5X6X5X5X6X6XpXpXpXdXdXdXdXdXhXhXdXdXdXhXhXjXAXGXDXDXFXHXHXKXJXJXJXJXJXJXJXJXJXJXJXJXJXJXJXJXJXJXJXJXJXJXKXJXJXJXJXJXJXJXJXJXJXJXJXJXJXJXJXJXKXHXHXFXDXDXGXGXAXCXCXjXjXjXjXhXhXhXdXdXsX7X7X6X6X5X*X*X*X*X*X*X*X*X*X*X*X*X6X6X6X6X7X7X7XsXsXkXkXkXlXlXlXAXGXGXFXHXKXJXJXJXJXJXJXJXJXJXJXJXJXJXJXJXJXJXJXJXJXJXKXFXFXgX=Xv 7Xy -.,.V.Z.`.V.C.C.C.C.C.C.C.C.C.C.V.C.V.C.C.C.m.C.'.'.'.'.'._.V.V.Z.V.`.'.].V.<.V._.",
"FXDXDXDXGXGXSXSXAXAXCXCXCXCXVXVXVXBXhXhXhXhXdXdXpXuXuXpXpXtXtXtXtXtX9X5X5X5X5X5X5X5X5X5X5X5X5X5X5X5X5X5X5X5X5X5X5X5X9X6X6X6X6XpXpXpXdXdXdXhXdXhXhXhXhXhXhXjXjXCXSXGXDXFXHXHXKXJXJXJXJXJXJXJXJXJXJXJXJXJXJXJXJXJXJXJXJXJXJXKXJXJXJXJXJXJXJXJXJXJXJXJXJXJXJXJXKXKXHXHXFXDXDXGXGXAXCXCXVXjXjXjXjXjXhXhXdXsXpX7X6X6X5X5X5X5X5X5X5X5X5X5X*X*X*X6X6X7X7X7X7XsXsXsXkXkXlXlXlXlXGXGXDXFXHXKXJXJXJXJXJXJXJXJXJXJXJXJXJXJXJXJXJXJXJXJXJXJXKXFXgX=XM gX:.m.m.V.Z.C.V.C.C.C.C.C.C.C.C.C.C.V.'.C.'.C.C.m.C.'.'.`.'.'._.V.V.Z.V.`.]._.V.m.V._.",
"FXDXDXGXGXSXSXSXAXCXCXCXCXCXVXVXVXBXhXhXhXhXhXdXdXiXuXuXpXtXtXtXtXtX5X5X9X5X5X5X5X5X5X5X5X5X5X5X5X5X5X5X5X5X5X5X5X5X9X9X6X6XtXpXpXpXdXdXdXhXhXhXhXhXhXhXhXjXjXCXAXGXDXDXFXHXHXKXJXJXJXJXJXJXJXJXJXJXJXJXJXJXJXJXJXJXJXJXJXKXJXJXJXJXJXJXJXJXJXJXJXJXJXJXJXJXKXKXHXHXFXDXDXGXSXAXCXCXVXjXjXjXjXjXhXhXdXsXpX7X7X6X6X5X5X5X5X5X5X5X5X5X5X5X6X6X7XsXsXsXsXsXsXsXkXjXlXlXlXlXGXGXDXFXHXKXJXJXJXJXJXJXJXJXJXJXJXJXJXJXJXJXJXJXJXJXJXJXKXFXgXgX0.zXm.V._.Z.C.C.V.C.C.C.C.C.C.C.C.C.C.V.'.'.'.C.Z.m.C.C.'.'.'.'._.V.V.Z.V.Z.].V.V.m.V.V.",
"DXDXDXGXGXGXSXSXAXAXCXCXCXCXVXVXVXhXhXhXhXhXhXdXdXiXuXpXtXtXtXtXtX9X9X5X5X5X5X5X5X5X5X5X5X5X5X5X5X5X5X5X5X5X5X9X5X5X6X6XtXtXpXpXpXpXdXdXdXhXhXhXhXhXhXhXjXjXVXCXAXSXGXDXFXHXHXKXKXJXJXJXJXJXJXJXJXJXJXJXJXJXJXJXJXJXJXJXJXKXKXJXJXJXJXJXJXJXJXJXJXJXJXJXJXJXKXKXHXHXFXDXDXGXSXAXCXCXVXVXVXVXjXjXhXhXdXdXpXpX7X6X6X6X6X6X6X5X5X5X5X5X5X5X6X6X7XsXsXsXsXsXsXhXkXkXlXlXlXlXGXGXDXFXHXKXJXJXJXJXJXJXJXJXJXJXJXJXJXJXJXJXJXJXJXJXJXJXKXFXgXgXw.zXm.V._.Z.C.'.V.C.C.C.C.C.C.C.C.C.C.V.'.'.'.V.'.m.'.'.'.'.'.'._.V.V.Z.V.V.V.V.V.<.V.V.",
"DXDXDXGXGXGXSXSXSXAXCXCXCXCXVXVXVXBXhXhXhXhXhXdXiXuXiXuXtXtXtXtXtXtX5X5X5X5X5X5X5X5X5X5X5X5X5X5X5X5X5X5X5X5X5X9X5X9X9XtXtXtXpXpXpXpXdXdXhXhXhXhXhXhXhXhXjXjXVXCXAXSXGXDXFXHXHXKXKXJXJXJXJXJXJXJXJXJXJXJXJXJXJXJXJXJXJXJXJXKXKXJXJXJXJXJXJXJXJXJXJXJXJXJXJXJXKXHXHXHXFXDXDXGXSXAXAXCXVXVXVXVXVXjXhXhXhXdXpXpX7X6X6X6X6X6X6X6X6X6X6X6X6X6X6X7X7X7X7XsXsXsXsXhXjXjXlXlXlXAXGXGXGXFXHXKXJXJXJXJXJXJXJXJXJXJXJXJXJXJXJXJXJXJXJXJXJXJXKXFX7XsXw.zXm._._.Z.C.C.V.C.C.C.C.C.C.C.C.C.C.V.C.'.'.Z.C.m.'.'.'.'.'.'.V.V.V.Z.V.V.V.V.V.m._._.",
"DXDXDXGXSXSXSXSXAXAXCXCXCXCXVXVXVXVXBXhXhXhXhXdXdXiXiXpXiXpXtXtXtXtX9X9X5X9X5X5X5X5X5X5X5X5X5X5X5X5X5X5X5X5X9X9X5X9X9XtX6XtXpXpXpXpXdXhXhXhXhXhXhXhXhXjXjXVXVXCXCXAXGXDXFXHXHXHXKXJXJXJXJXJXJXJXJXJXJXJXJXJXJXJXJXJXJXJXJXHXKXJXJXJXJXJXJXJXJXJXJXJXJXJXJXKXKXHXHXHXDXDXGXGXSXAXAXCXVXVXVXVXjXjXVXhXhXdXdXpX7X6X6X6X6X6X6X6X6X6X6X6X6X6X6X7X7XsXsXsXsXsXdXhXkXjXlXlXlXAXAXGXDXDXFXKXJXJXJXJXJXJXJXJXJXJXJXJXJXJXJXJXJXJXJXJXJXJXKXFX7XsXw.zXm._._.Z.C.C.V.C.C.C.C.C.C.C.C.C.C.V.Z.C.C.'.'.m.'.'.'.V.'.'.V.V.V.Z.V.V.V.Z.V.<._.V.",
"DXDXDXGXGXSXSXSXAXAXCXCXCXCXVXVXVXVXBXBXBXhXhXhXdXiXiXiXuXpXtXtXtXtXtX9X9X9X5X5X5X5X5X5X5X5X5X5X5X5X5X5X5X9X9X9X5X9X9XtXpXpXpXpXpXdXdXhXhXhXhXhXhXhXhXVXjXjXVXVXCXAXSXGXDXFXHXHXHXKXJXJXJXJXJXJXJXJXJXJXJXJXJXJXJXJXJXJXJXHXKXJXJXJXJXJXJXJXJXJXJXJXJXJXKXKXHXHXHXHXDXDXGXGXSXAXCXCXVXVXjXVXVXVXVXhXhXdXdXsXpX6X6X6X6X6X6X6X6X6X6X6X6X6X6X7X7XsXsXsXsXsXhXkXkXjXlXlXlXAXAXGXGXDXFXHXJXJXJXJXJXJXJXJXJXJXJXJXJXJXJXJXJXJXJXJXJXJXKXFX7XsXi.zXm.V._.Z.C.C.V.C.C.C.C.C.C.C.C.C.C.V.'.N.C.C.'.A.C._.V.'.'.'.V.V.V.Z.V.V.V.V.V.<.V._.",
"DXDXDXGXSXSXSXSXAXAXCXCXCXCXVXVXVXBXBXBXBXhXhXhXdXiXiXiXuXpXtXtXtXtXtXtXtX9X5X5X5X5X5X5X5X5X5X5X5X5X5X5X5X5X5X9X5X9X6X6XpXpXpXpXpXdXdXhXhXhXhXhXhXhXhXVXVXjXVXVXCXAXAXGXDXDXHXHXHXKXKXJXJXJXJXJXJXJXJXJXJXJXJXJXJXJXJXJXJXHXHXJXJXJXJXJXJXJXJXJXJXJXJXJXKXHXHXHXHXFXDXDXGXSXAXlXkXjXjXjXjXjXVXVXVXhXhXhXdXdXpX7X6X6X6X6X6X6X6X6X6X6X6X6X7X7X7XpXsXsXsXsXdXhXkXjXlXlXlXAXAXGXGXDXFXHXJXJXJXJXJXJXJXJXJXJXJXJXJXJXJXJXJXJXJXJXJXJXKXFX7XsXi.zXA._._.`.`.C.V.C.C.C.C.C.C.C.C.C.C.<.'.'.'.V.'.m.C.`.'.'.'.'.V.V.V.V.V.V.V.V.V.<._._.",
"DXDXGXSXSXSXSXSXAXAXCXCXCXCXVXVXVXBXBXBXhXBXhXBXdXiXiXiXiXpXtXtXtXtXtXtXtX9X5X9X5X5X5X5X5X5X5X5X9X5X5X5X5X5X5X9X9XtXtX6XpXpXpXpXpXpXdXhXdXhXhXhXhXhXhXVXVXVXVXVXCXAXSXGXDXDXFXHXHXHXKXJXJXJXJXJXJXJXJXJXJXJXJXJXJXJXJXJXJXHXLXJXJXJXJXJXJXJXJXJXJXJXJXKXKXHXHXHXHXDXDXDXGXAXlXkXhXhX7X7X7XhXhXBXhXhXhXhXdXpXpXpX6X6X6X6X6X6X6X6X6X6X6X6X7X7XpXsXsXsXsXsXsXhXkXjXlXlXlXAXAXAXGXDXFXHXKXJXJXJXJXJXJXJXJXJXJXJXJXJXJXJXJXJXJXJXJXJXHXFX=XsX).zXA.V._.`.Z.'.V.C.C.C.C.C.C.C.C.C.C.V.'.'.'.'.C.m.'.'.'.C.'.'.V.V.V.V.V.V.V.V.V.<._.V.",
"DXDXGXSXSXSXSXSXAXCXCXCXCXCXVXVXVXBXBXBXhXBXBXhXdXiXiXiXiXuXpXuXtXtXtXtXtX9X5X9X5X5X5X5X5X5X5X5X9X5X5X5X9X9X9X9XtXtXtXpXpXpXpXpXpXpXdXdXhXhXhXhXhXhXVXVXVXVXVXCXCXAXSXSXGXDXFXHXHXHXKXKXJXJXJXJXJXJXJXJXJXJXJXJXJXJXJXJXJXHXLXJXJXJXJXJXJXJXJXJXJXJXKXKXHXHXHXHXFXDXGXGXAXjXjXhX7X6X$XOXT.*XsXdXhXhXhXhXdXdXpXpXpX6X6X6X6X6X6X6X6X6X6X6X7XpXsXsXsXsXsXsXsXhXjXkXlXlXlXlXlXAXGXGXDXFXKXJXJXJXJXJXJXJXJXJXJXJXJXJXJXJXJXJXJXJXJXJXHXFX=XgX).zX_._._.`.`.'.V.C.C.C.C.C.C.C.C.C.C._.V.'.'.'.'.m.'.C.C.C.'.'.m.V.V.V.Z.V.V.V.V.<._.V.",
"DXDXGXSXSXSXSXSXAXCXCXCXCXCXVXVXVXBXBXBXhXhXhXhXdXiXiXiXiXuXuXuXtXtXtXtXtXtX9X9X5X5X5X5X5X5X5X9X9X9X5X5X9X9X9XtXtXtXtXpXpXpXpXpXpXdXdXhXhXhXhXhXhXhXjXVXCXVXVXCXCXCXAXSXGXDXDXFXHXHXHXKXKXJXJXJXJXJXJXJXJXJXJXJXJXJXJXJXJXLXLXJXJXJXJXJXJXJXJXJXJXJXKXHXFXDXDXDXDXDXGXAXCX=X=XsX6X*XU.( / _ %X6XpXpXhXhXhXdXpXpXpXpX7X7X7X6X6X6X6X6X6X6X7XpXsXsXsXsXsXsXdXhXkXkXlXlXlXlXlXAXGXGXDXFXHXJXJXJXJXJXJXJXJXJXJXJXJXJXJXJXJXJXJXJXJXKXFXFX=XgX).zXA._._.`.`.C.V.C.C.C.C.C.C.C.C.C.C._.`.V.V.'.'.m.C.'.C.C.'.'.m.V.V.V.Z.V.V.V._.m._.V.",
"DXGXGXSXSXSXSXAXAXCXCXCXCXCXVXVXVXBXBXBXhXhXhXhXdXiXiXiXiXiXuXuXtXtXtXtXtX6X9X9X5X5X5X5X5X5X9X9X9X9X9X9X9X9X9X9X9XtXtXtXpXpXpXpXpXdXdXhXhXhXhXhXhXhXhXVXVXCXCXCXCXCXAXSXGXDXDXFXFXHXHXHXKXKXJXJXJXJXJXJXJXJXJXJXJXJXJXJXJXLXLXJXJXJXJXJXJXJXJXJXKXKXKXHXDXAXjXAXAXAXAXCXhX@XY.=X6X*XT.K K P { %X6X6X7XhXdXdXdXpXpXpXpXpX7XpX6X7X7X7X7X7XpXsXsXsXdXdXdXsXsXhXkXjXkXlXlXlXlXAXAXGXDXFXFXKXJXJXJXJXJXJXJXJXJXJXJXJXJXJXJXJXJXJXJXHXFXFX=XgX).zX_._._._.'.'.V.C.C.C.C.C.C.C.C.C.C.V.'.V.'.'.'.,.'.'.C.C.'.'.m.V.V.V.V.V.V.`._.m._._.",
"DXGXSXSXSXSXSXAXAXCXCXCXCXCXVXVXVXVXBXhXhXhXhXdXdXiXiXiXiXiXuXuXtXtXtXtXtX9X9X9X9X5X5X5X5X5X9X9X9X9X9X9X9X9X9X6XtXtXtXpXpXpXpXpXpXpXdXdXhXhXhXhXhXhXhXVXVXCXCXCXCXAXAXSXGXGXDXDXFXFXHXHXHXKXKXJXJXJXJXJXJXJXJXJXJXJXJXJXJXLXLXJXJXJXJXJXJXJXKXKXHXHXFXFXAXsX=X=XsXjXsXsX*X$XT.=X6XOXd.E P K [ K.OX*X*X7XdXdXpXpXpXpXpXpXpXpXpXpXpX7X7X7X7XpXsXsXsXsXsXsXdXhXkXkXjXjXlXlXlXlXAXGXGXDXFXHXKXJXJXJXJXJXJXJXJXJXJXJXJXJXJXJXJXJXKXHXFXDX=XgXA.zXA._.A._.'.`.V.C.C.C.C.C.'.Z.C.C.C.m.'.'.'.'.'.,.'.'.C.C.'.'.m.V.V.V.V.V.V.V._.m._._.",
"GXGXSXSXSXSXAXAXCXCXCXCXCXVXVXVXVXBXBXhXhXhXhXhXdXiXiXiXuXuXuXuXuXtXtXtXtX5X9X6X5X5X5X5X5X5X5X9X9X9X9X9X9X9X9XtXtXtXtXpXpXpXpXpXpXpXdXhXhXhXhXhXhXhXhXVXVXCXCXCXCXAXAXSXSXGXDXDXDXFXHXHXHXHXKXKXKXJXJXJXJXJXJXJXJXJXJXJXJXLXSXJXJXJXKXKXKXKXHXHXHXFXDXGXAXsXP.a.a.@X@XJ.d.oXOX=X%XK.[ Q ] K Q a..X%X*X5X6XpXpXpXpXpXpXpXpXpXpXpXpX7X7X7XpXpXsXsXsXsXsXsXdXhXjXkXjXjXlXlXlXlXAXGXGXDXFXFXKXKXJXJXJXJXJXJXJXJXJXJXJXJXJXJXJXKXHXFXFXDX=XgX).zXA._.A._.`.].V.'.C.C.C.C.C.Z.C.C.C.m.'.'.'.C.C.,.'.'.C.'.'.'.m.V.V.V.V.V.V.V._.m.]._.",
"GXSXSXSXSXSXAXCXCXCXCXCXCXVXVXVXVXBXBXhXhXhXhXhXdXiXiXiXiXuXuXuXuXtXtXtXtXtX9X9X5X5X5X5X5X5X5X9X9X9X9X9X9X9X9XtXtXtXtXpXpXpXpXpXpXdXdXdXhXhXhXhXhXhXhXhXVXVXCXCXCXCXAXAXSXSXGXDXDXDXFXHXHXHXKXKXKXKXJXJXJXJXJXJXJXJXJXJXKXLXSXJXJXKXKXKXKXKXHXHXFXGXGXlXAXkXY.E ( Q ( / c J.K.XXU.a.Q E K P K [ d.XX%X*X6X6X6X6XpXpXpXpXpXpXpXpXpXpX7X7X7XpXpXsXsXsXdXdXsXhXkXkXjXjXjXlXlXlXAXAXGXDXFXFXHXKXJXJXJXJXJXJXJXJXJXJXJXJXJXJXJXKXFXFXFXGX%X=X(.zXA._.A._.`.].V.'.'.C.'.C.C.C.C.C.'._.'.'.'.].V.,.'.'.C.Z.'.'.<.V.V.V.V.V.V.V._.<.].m.",
"SXSXSXSXSXSXAXCXCXCXCXCXVXVXVXVXVXBXBXBXBXhXhXhXdXiXiXiXiXuXuXuXuXtXtXtXtXtX9X9X5X5X5X5X5X9X9X9X9X9X9X9X9X9X9X6XtXtXtXpXpXpXpXpXpXdXdXdXdXhXhXhXhXhXhXhXVXVXVXCXCXCXAXAXSXSXGXGXDXDXDXFXHXHXHXHXKXKXKXJXJXJXJXJXJXJXJXJXKXLXSXKXKXKXKXKXHXHXHXHXFXGXlXsXsXsXY.! E Q u K c P / / d./ K K K Q Q [ d..XXX%X*X*X*X%X%X6X6XpXpXpXpXpXpXpXpX7X7XpXsXsXsXsXdXdXsXhXkXkXjXjXjXlXlXlXlXAXGXGXDXFXFXHXKXKXJXJXJXJXJXJXJXJXJXJXJXJXKXHXFXFXDXGX%XgX(.gXA._.A._.`.].V.'.'.C.C.C.C.C.Z.C.C._.V.'._.'.V.A.'.'.C.`.'.`.<.V.V.V.V.V.V.V._.<._.m.",
"SXSXSXSXSXAXAXCXCXCXCXVXVXVXVXVXhXBXBXhXBXhXhXdXdXdXiXiXiXiXuXuXtXtXtXtXtXtX9X9X6X5X5X5X5X5X9X9X9X9X9X9X9X9XtX9XtXtXtXpXpXpXpXpXpXpXdXdXdXhXhXhXhXhXhXhXVXVXVXCXCXCXAXAXSXSXSXGXDXDXDXDXHXHXHXHXHXHXKXKXKXKXJXJXJXJXJXJXKXLXSXKXHXHXHXHXHXHXDXDXAXjX=X$XF.~.a.E K Q t 1 K K J K d./ u K Q Q d.d.{ K.XXXX.X%XOX.X.XOX&X5X*X6XtX6X6XpX7XpXpXsXsXsXsXsXdXdXdXhXhXkXjXkXjXjXlXlXlXAXAXGXDXFXFXFXHXKXKXJXJXJXJXJXJXJXJXJXKXKXHXFXFXFXDXGX$XgX(.zXA.A.A._.`.]._.'.'.Z.C.C.C.Z.Z.'.'._._.V.V.'.V.A.'.'.Z.Z.`.`.,.V.V.V.V.V.V.V._.<.V._.",
"SXSXSXSXAXAXAXCXCXCXCXVXVXVXVXVXBXBXBXhXBXBXBXBXdXdXiXiXiXiXuXuXuXuXtXtXtXtXtX9X6X9X5X5X5X9X9X9X9X9X9X9X9XtXtXtXtXtXtXpXpXpXpXpXpXiXdXdXdXhXhXhXhXhXhXhXhXVXVXVXCXCXCXAXAXAXSXGXGXDXDXDXFXFXHXHXHXHXHXHXKXKXKXKXJXJXJXJXKXLXZXHXHXHXFXFXFXGXjXsX=X#Xa./ { [ Q K c K u , c K K K P P P c P Q [ d.[ { d.] / { K.d.[ } } OXd.OX6X5X6XpX6X7XsXsXsXsXsXdXdXdXdXhXkXkXjXkXkXjXjXlXlXlXAXGXGXDXFXFXFXHXKXKXKXJXKXKXJXKXKXKXKXHXFXFXFXDXDXGX%X=X(.gXp.A.A._.`.`._.'.'.Z.'.'.C.C.C.V.'.m.'.*.'.'.V.A.'.'.Z.Z.`.'.,.V.V.V.V.V.V.V._.<.V._.",
"SXSXSXAXAXCXCXCXCXCXCXVXVXVXVXVXBXBXBXBXBXBXhXBXhXiXiXiXiXiXiXuXuXuXtXtXtXtXtXtX6X6X9X5X5X9X9X9X9X9X9X9X9XtX9XtXtXtXtXtXpXpXpXpXpXpXdXdXdXdXhXhXhXhXhXhXjXVXVXVXCXCXCXAXAXAXSXSXGXDXDXDXDXFXFXHXHXHXHXHXHXKXKXKXKXKXJXJXKXLXCXHXFXFXFXDXAXsX@Xa.a._ E K P u u u 3 2 4 * < 4 J u < J K J K T K K Q K J u 5 u Q Q P K Q d.[ [ OX5X5XpXpX7XdXsXdXsXsXdXdXdXdXhXhXkXjXkXkXjXjXjXlXlXAXGXGXDXFXFXFXFXHXHXHXKXKXKXKXKXHXHXHXHXFXFXDXDXGXGX@X=X(.gXp.A.A._.`.`._.'.'.Z.'.'.'.C.'.'.'.<.'.'.'.`.V.A.C.'.Z.Z.'.].,.V.V.V.V.V.V.V._.<._._.",
"SXSXSXAXCXCXCXCXCXCXVXVXVXVXVXVXBXBXhXBXBXBXhXdXdXiXiXiXiXiXiXuXuXuXtXtXtXtXtXtX6X6X9X5X5X9X9X5X9X9X9X9X9X9X9XtXtXtXtXtXpXpXpXpXpXpXdXdXdXdXhXhXhXhXhXhXVXVXVXVXCXCXCXAXAXSXSXSXGXGXDXDXDXDXFXFXFXHXHXHXHXHXHXKXKXKXKXKXKXLXCXHXFXFXDXGXjXF.E c { ( u u u < < < > * * * * $ < < * < 6 4 4 J u 1 5 < > * * * < 1 2 u K [ Q Q } %X1XpXpXpXpXdXdXsXsXsXsXdXdXdXhXkXjXjXkXkXjXjXlXlXAXGXGXGXDXFXFXFXFXFXHXHXHXHXHXHXHXFXFXFXFXFXDXGXGXGXOX=X).gXp.A.A._._.]._.`.'.Z.'.'.C.'.'.'.].m.C.'.'.].V.A.'.'.Z.Z.C.`.,.V.V.V.V.V.V.V._.<._._.",
"SXAXAXAXCXCXCXCXCXCXVXVXVXVXBXBXBXBXBXBXBXhXhXdXdXiXiXiXiXiXiXuXuXtXtXtXtXtXtXtX6X6X9X9X5X5X9X9X9X9X9X9XtX9X9XtXtXtXtXtXtXpXpXpXpXpXdXdXdXdXhXhXhXhXhXhXhXBXVXVXVXVXCXCXAXAXSXSXSXGXGXDXDXDXDXFXFXFXHXHXHXHXHXHXHXKXKXKXKXLXZXFXFXDXGXlX=Xa.( E d.d.c 1 2 < > * * $ $ $ $ $ $ $ $ * $ $ $ $ $ * * $ $ $ $ # # * * < D Q Q K [ .X%X6XpXpXdXdXdXsXdXdXsXsXdXhXhXhXjXjXkXkXkXjXjXlXAXAXGXGXGXDXFXFXFXFXFXFXFXFXFXFXFXFXFXFXFXDXGXGXGXGXXX=X).gXp.p.p._._._._.`.`.`.'.'.C.`.'.'.'._.V.'.].]._.A.C.'.V.Z.`._.,.V.V.V.V.V.V.V.V.,.V.m.",
"SXSXAXAXCXCXCXCXCXCXVXVXVXVXVXBXBXBXhXBXBXBXBXdXdXiXiXiXiXiXiXuXuXtXtXtXtXtXtXtX6X6X9X9X5X9X9X9X9X9X9X9XtXtX9X9XtXtXtXtXtXpXpXpXpXiXdXiXdXdXhXhXhXhXhXhXhXhXBXVXVXVXCXCXAXAXSXSXSXSXGXGXDXDXDXDXDXDXFXHXHXHXHXHXHXHXHXHXHXSXBXGXGXGXlX=XY.Q d.d.U.d.K 2 > $ * $ # # $ $ $ $ $ $ $ # # + + + + # # # # + # # + # # @ < u Q K ] { OX5XpXpXpXdXdXsXdXdXdXdXdXdXhXhXhXhXjXjXjXkXjXlXlXAXAXGXGXGXDXDXDXFXFXFXFXFXFXFXFXFXFXFXDXDXGXGXGXGXXX=Xs.gXi.p.p._._._.m.].`.Z.'.'.`.V.'.].'._._.`.V.].].,.'.'.V.Z.`._.,.V.V.V._.V._.V._.m.V.V.",
"SXSXSXAXCXCXCXCXCXCXCXVXVXVXVXBXBXhXhXBXhXBXhXhXdXiXiXiXiXiXiXuXuXuXuXtXtXtXtXtX6XtXtX9X5X9X9X9X9X9XtX9XtXtX6XtXtXtXtXtXtXiXpXpXiXiXiXpXdXdXhXhXhXhXhXhXhXhXVXVXVXVXCXCXCXAXAXSXSXSXGXGXGXDXDXDXDXDXDXDXFXFXHXHXFXFXDXDXSXVXpXlXlXlXgXf.( v E ( { K 2 < $ # $ # $ $ $ $ $ $ $ # # # # + + + + + + + + + + # + + + # $ * u J [ { .X5X5X6X6X7XdXdXdXdXdXdXdXdXhXhXhXhXhXjXkXkXjXjXlXAXAXGXGXGXDXDXDXDXDXFXFXFXFXFXFXFXDXDXDXGXGXGXGXlX.X=X(.gXi.p.p._._._.m.].`.`.`.'.`.`.'._.'._._.m.V._.'.,.Z.'.V.V._._.,.V.V.V._.V._.V._.,.V.m.",
"SXSXCXCXCXCXCXCXCXVXVXVXVXVXBXBXBXBXhXhXhXhXhXdXdXiXiXiXiXiXuXuXuXuXuXtXtXtXtXtX6X9X9X9X5X6X9X9X9X9XtX9XtXtXtXtXtXtXtXtXtXpXpXpXiXdXiXiXdXdXhXhXhXhXhXhXhXBXBXVXVXVXCXCXCXAXAXSXSXSXSXGXGXGXDXDXDXDXDXDXDXDXFXFXDXDXAXAXjXsX*X=X=X#XL.Q u u 1 2 5 < > $ # # # # $ > $ $ $ $ $ # # # + + + + . + . % % + + + + + + @ $ * < K { } d.OXOX*X%X*XpXdXdXdXsXdXdXdXdXhXhXhXhXhXkXjXkXjXlXAXAXAXGXGXGXGXGXDXDXDXDXDXDXDXDXDXDXGXGXGXGXGXAXlXd.=X(.gXi.p.p._._._.A.].`.`.`.'.Z.V.'.V.'.m._.<._.V.'.,.Z.'.V.V._._.,._._.V._.m._.m._.<._.m.",
"SXCXCXCXCXCXCXCXVXVXVXVXVXVXBXBXBXBXBXhXhXBXBXdXdXdXiXiXiXiXuXuXuXuXuXuXtXtXtXtX6X6X9X9X5XtX9X9X9X9X9XtX9XtXtXtXtXtXtXtXtXpXpXpXiXdXiXdXiXdXdXhXhXhXhXhXhXhXBXVXVXVXCXCXCXCXAXAXSXSXSXSXGXGXGXDXDXDXDXDXDXDXDXDXGXGXjXkX6XXXT.a.( E K t 2 < < * * $ # # # # + + $ $ $ $ $ # # # + + + + + . . . . % % % % + + + + # * < u K [ d.} d.d.XXK.XX5XdXdXdXdXdXdXdXdXdXhXhXhXkXhXkXkXjXlXlXAXAXGXGXGXGXGXGXGXDXDXDXDXDXDXGXGXGXGXGXGXAXAXlXUX=X(.gXi.i.p._._._.A.].].`.].`.'.V.'.V.].<.'.].'.V.'.,.V.'.V.V.V._.,.V.V.V._.V._.m._.<._._.",
"CXCXCXCXCXCXVXVXVXVXVXVXVXVXBXBXBXBXBXhXhXBXhXhXiXiXiXiXiXuXuXuXuXtXuXuXtXtXtXtX6X9X9X9X5X9X9X9X9X9X9X9X9XtXtXtXtXtXtXtXtXpXpXpXpXiXpXpXiXdXdXhXhXhXhXhXhXhXBXVXVXVXVXCXCXCXCXAXSXSXSXSXSXSXGXGXGXDXDXDXDXGXGXGXAXlX7X6XU.Q E K u 3 3 < < < < > $ $ # # # # + + # $ $ $ $ + + + + + + + . . . . . % + % + + + + + + $ < K P T [ [ } Q d.d..X*XpXdXdXdXdXdXdXdXdXdXhXhXhXhXhXkXkXjXlXAXAXAXAXGXGXGXGXGXGXGXGXGXGXGXGXGXGXGXGXAXAXlXlXUX=X(.gXi.A.p.A._._.A.].].].].].].V.'.V.`.<.'.'.].V.'.,.V.'.V.V.V.].,.V.m.V._.V._.m._.>.V._.",
"CXCXCXCXCXVXVXVXVXVXVXVXVXBXBXBXBXBXBXBXBXhXdXdXiXiXiXiXiXiXuXuXuXuXtXuXtXtXtXtXtXtX6X9X5X9XtX9X9X9X9X9XtXtXtXtXtXtXtXtXpXpXpXpXpXpXdXdXiXdXdXdXhXhXhXhXhXBXBXVXVXVXVXCXCXCXCXAXAXAXSXSXSXSXSXGXGXGXGXGXGXGXGXAXhX=XY.a.[ P u t 3 3 5 < > * $ $ $ # + # # # + + + # # # # + + + + + + + % .     . . + + + + + + + + # $ 4 K K D Q } / [ d..X%X7XdXdXdXdXdXdXdXdXdXdXhXhXhXhXhXjXjXlXlXAXAXAXAXAXAXGXGXGXGXGXGXGXGXGXGXGXGXAXAXAXlXlXd.=XQ.=Xi.i.w._._.A.A._._.].].].].V.].V.].<.V.'.V.V.V.,._.].V.V._._.,.m.m.V._.V._.m._.>._._.",
"CXCXCXCXCXVXVXVXVXVXBXBXBXBXBXBXBXBXhXBXBXhXdXdXiXiXiXiXiXiXuXuXuXtXtXtXtXtXtXtXtXtX6X9X5X9X9X9X9X9X9X9X9XtXtXtXtXtXtXtXpXpXpXpXpXpXiXdXdXdXdXdXhXhXhXhXhXBXBXBXVXVXVXCXCXCXCXCXAXAXSXSXSXSXSXSXSXGXGXGXSXSXAXhXXXa.a.v v v u 1 1 1 < < $ $ $ # # + + + + + % % % + + + # # # + # # + . .       . % + + + + + + + + + + # < J 6 K [ { [ d.XX%X5XiXdXdXdXdXdXdXdXdXdXhXhXdXdXhXjXkXlXlXAXAXAXAXAXAXAXGXGXGXGXGXGXGXGXGXAXAXAXAXAXlXlXUX=XQ.=Xi.i.w.A._.A.,._._.]._.].].V.]._.].:.<.'.V._.V.,._.].V.V.V._.,.m.m.m._.V._.m._.>.V.V.",
"CXCXCXVXVXVXVXVXVXBXBXBXBXBXBXBXBXhXhXBXBXdXdXiXiXiXiXiXiXiXiXuXuXtXtXtXtXtXtXtXtXtX9X9X5X5X9X9XtX9X9X9X9XtXtXtXtXtXtXtXtXpXpXiXpXpXpXpXiXdXdXdXhXhXhXBXBXBXhXBXBXVXVXVXCXCXCXCXAXAXAXAXSXSXSXSXSXSXSXSXAXCXjX*X( P Q u u u 2 1 < > * * $ $ # + + + + + . . . . . . . + # # # + # # + .           . + + + % % . . . % + # $ * < u K / [ [ d.XX5X6XpXdXsXdXdXdXdXdXdXdXdXdXdXhXjXkXjXlXlXAXAXAXAXAXAXAXAXAXAXAXAXAXAXAXAXlXlXlXlXlXlX[.=X/.=Xi.p.w.A._._.p._._.]._.].].V.]._.].:.<.m.<._.V.,.V.].V.V.V._.,.V.m.m._.V.].m.A.,.m.V.",
"CXCXCXVXVXVXVXVXVXVXBXBXBXBXBXBXhXBXBXBXBXdXiXiXiXiXiXiXiXuXuXuXtXuXtXtXtXtXtXtXtXtX9X5X5X5XtX9X9X9X9X9X9XtXtXtXtXtXtXtXtXpXpXpXuXpXiXiXiXiXdXdXdXdXhXhXBXhXhXhXhXVXVXVXVXCXCXCXCXCXAXAXAXSXSXSXSXSXSXSXCXhX=X[ v u u 2 1 < < < * * $ $ $ $ # + + + % + . . . . . . . + + # + + # + %             . . % + + % . . . % + # # # # < 5 P Q Q Q } XX*X6X7X7XpXsXdXdXdXdXdXdXdXdXdXhXjXjXlXlXAXAXAXAXAXAXAXAXAXAXAXAXAXAXAXAXlXlXlXlXlXlX} =X/.=Xi.p.w.A._.A.p._._.].V._._.V.]._.].,.<.<.<.].m.,.V.].V.V.V._.,.m.<.V._.m._.m.A.,.m.m.",
"CXVXVXVXVXVXVXVXVXVXBXBXBXBXBXhXhXhXhXhXdXMXiXiXiXiXiXuXiXuXuXtXtXtXtXtXtXtXtXtXtX9X5X5X5X5X9X9X9X9X9X9X9XtXtXtXtXtXtXtXtXtXtXpXpXpXiXiXpXpXdXdXdXhXhXBXBXBXhXhXBXVXVXVXVXCXCXCXCXCXAXAXAXAXSXSXSXSXSXAXdX%Xd.u 1 < < * > * $ > $ $ # # # # # + + + + + + . . . . . + + + % % + + % .             . . . + + + . . . . % # # + + # $ u K K u / [ K.OX*X5X7XpXsXdXdXdXdXsXdXsXdXhXjXkXjXlXlXlXAXAXAXAXAXAXAXAXAXAXAXAXAXAXAXlXlXlXlXlX| *X/.=Xi.i.q.p.A.p.p._._.]._._._.V.]._.].p.<.*.<.].m.p.V._.V.V.V._.,.m.m.V._.m._.m.A.,.m.m.",
"VXVXVXVXVXVXVXVXBXBXBXBXBXBXBXhXhXhXhXdXdXMXiXiXiXiXiXuXuXuXuXuXtXtXtXtXtXtXtXtX9X9X9X9X5X5X9X9X9X9X9X9X9XtXtXtXtXtXtXtXtXtXtXpXpXpXiXiXiXiXdXdXdXdXdXhXhXhXhXhXBXBXVXVXVXCXCXCXCXCXCXAXAXAXSXAXSXSXAXsX%X/ c < * * $ * * $ # $ + + # + + # # # + + + + + . .   . . . + + % % % % . . .           . . . + + + . . . . . + % % + + # * < 1 u K Q [ .XOX*X6X6XpXsXdXdXdXdXdXdXdXhXjXkXjXjXlXlXAXAXlXlXAXAXAXAXAXAXAXlXlXlXlXlXlXlXlXlX| *X/.=Xi.i.w.A.A.p.p._._.]._._._.V._._.].A.1.<.V.]._.p.V._.V.V.V._.,.m.<.m._.m._.m.A.>.m.m.",
"VXVXVXVXVXBXBXBXBXhXBXBXBXBXBXBXhXhXhXhXdXMXdXiXiXiXiXuXuXuXuXuXtXtXtXtXtXtXtXtX6XtXtX9X9X5X9XtX9X9X9X9X9XtXtXtXtXtXtXtXtXtXtXuXpXpXiXiXdXdXdXdXdXdXdXhXhXhXhXBXBXBXVXVXVXVXCXCXCXCXCXCXAXAXAXAXAXCXdXU./ 1 < $ $ $ $ $ $ # + + + % . + + + # + + + + % % . .     . . . . . % % % . . .   .         . . . + . . . . . . . . . + % + # * 4 u K Q [ .XXX%X6X6XpXpXsXdXdXdXdXsXdXdXjXjXjXjXlXlXlXAXlXlXAXAXlXlXlXAXAXlXlXlXlXlXlXlXlXlX| *X#X=Xy.i.q.A.p.p.p._._.]._._._.m._._._.A.<.<._._.A.p.V._.V.V.V._.,.m.<.m._.m._.<.A.:.m.<.",
"VXVXVXVXVXBXBXBXBXBXBXhXBXBXBXhXhXhXBXhXdXBXdXiXiXiXiXiXiXiXuXuXuXtXtXtXtXtXtXtXtXtXtX9X9X9X9X9X9X9X9X9XtXtXtXtXtXtXtXtXtXtXtXiXpXpXiXiXiXiXdXdXdXdXdXhXhXhXhXBXBXBXBXVXVXVXCXCXCXCXCXCXCXAXAXAXAXjX%XQ u 3 < < < $ $ # $ # + + . . . . + + + + + + . . . .           .   . % % . . % .     .         . . . . . . . . . . . . . . + # $ 6 K K Q [ { .X%X5X6XsXsXdXdXdXdXsXsXdXdXhXkXjXjXjXjXlXlXlXlXAXlXlXlXlXlXAXlXlXlXlXlXlXlXlXlX| %X#X#Xy.i.q.i.A.p.p._._.]._._.].m._._._.A.m.*._._._.p.V._.V.V.V._.:.<.,.m.V.m._.m.A.>.m.<.",
"VXVXVXVXBXBXBXBXBXBXBXBXBXBXBXhXhXBXBXhXMXiXiXiXiXiXiXiXiXuXuXuXuXtXtXtXtXtXtX9XtXtXtX9X9X9X9X9X9XtX9X9XtX9XtXtXtXtXtXtXtXtXuXuXuXuXiXiXiXiXiXiXdXdXdXdXhXhXBXBXhXhXhXVXVXVXVXVXCXCXCXCXCXCXCXCXjXhX$XQ u 5 < 2 5 $ * $ $ # + % . .   . . + + + . . . . . .           . . . % % % . . .               . . . . % . . . . . . + . . + # # < u u K ] [ d.OX5X6XpXsXdXdXdXdXpXpXsXdXhXjXjXjXjXjXjXjXlXlXlXlXlXlXlXlXlXlXlXlXlXlXlXkXlXjX| %X#X#Xy.i.q.i.A.p.p._._.]._.].].m._._._.A.].<.].m._.p.V._.V.V.m._.:.,.,.<.m.m._.m.A.>.V.<.",
"VXVXBXBXBXBXBXhXBXBXhXhXBXBXhXhXhXhXdXiXiXiXiXiXiXuXiXuXuXuXuXuXuXtXtXtXtXtXtXtXtXtX9X9X9X9XtX9X9X9X9X9X9XtXtXtXtXtXtXtXtXtXuXuXuXuXiXiXiXiXiXiXdXdXdXdXdXhXhXhXhXhXhXBXVXVXVXVXCXZXCXCXCXCXCXhX7X6XXX/ u 1 * * < $ $ # # + + . . . . . . % . . . . . . . .               .   . % . . .   . . .           .   . . . . . . % # + . + # # $ $ - 1 P Q } d.OX*X7XsXdXdXdXdXsX7XpXsXdXjXjXkXjXjXjXjXjXlXjXjXlXlXlXlXlXlXlXlXjXlXkXjXjXjX| %X#X#Xy.y.q.i.i.p.p._._.]._.].].m._._._.A.].]._.<._.p.V._.V.V.V.V.:.,.,.<.m.m._.m.p.>.V.<.",
"VXVXBXBXBXBXBXhXBXBXhXhXhXhXhXhXdXiXiXiXdXiXiXiXiXuXiXiXiXuXuXuXtXtXtXtXtXtXtXtX9XtX9X9X9X6X9X9X9X9XtX9X9X9XtXtXtXtXtXtXtXtXuXuXuXuXiXiXiXiXiXiXdXdXdXdXdXhXhXhXhXhXBXBXVXVXVXVXVXCXCXCXCXCXCX7X$XOX{ P u < * # $ # # # # + % . . . . . . . . . . . .                       . . . . % .   . . .               . . . .   . . + + . % + # # $ $ < 5 K ] [ d.%X6XpXsXdXdXsXpX7XpXsXdXhXjXjXjXjXjXjXjXjXjXjXlXlXlXlXjXlXjXlXlXjXjXkXjXjX .%X%X#Xr.y.q.i.i.i.p.A._.].].].].A._._._.A.].]._.<.].,.V._.V.V.V.V.,.,.,.<.m.m._.A.p.,.V.<.",
"BXhXBXBXBXBXBXhXhXhXhXhXhXdXdXhXdXiXiXiXiXiXiXiXiXuXiXiXuXuXuXuXuXuXuXtXtXtXtX9XtXtX9X9X9X9X9X9X9XtXtXtX9XtXtXtXtXtXtXtXtXtXuXuXuXuXiXiXiXiXiXiXdXdXdXdXBXBXBXBXBXBXVXBXBXVXVXVXVXCXCXCXCXCXCXdXOXOX/ v 3 * $ # # # + + + % . . . . . . . . . . .   .                       . . + . . . .   . .               . . . . . . . + + + % + # # $ $ - 4 K / [ { OX6XpXsXdXdXdX7X6X7XsXdXhXhXjXjXkXjXjXjXjXjXjXjXjXjXlXjXjXlXjXjXkXjXkXjXjX .%X%X#Xr.r.q.i.i.i.p._._._.].].]._._._._.A._.]._.<.].,.m._.V.V.m.V.,.<.,.<.<.m.A.A.p.,.V.<.",
"hXhXBXBXhXBXBXhXhXhXhXhXhXdXdXdXdXiXiXiXiXiXiXiXiXuXuXuXiXiXuXuXuXuXuXuXtXtXtXtXtX9X9X9X9X9X9X9X9X9XtXtXtXtXtXtXtXtXtXtXuXuXuXuXuXiXiXuXiXiXiXiXdXdXdXdXdXhXBXBXBXBXBXBXBXVXVXVXVXCXCXCXCXCXCXhX*XOX/ K * * # # # + + + % % % . . .   . . . . . % . .               .       . . %       . . .               . . . + + + . % + + + + + % + $ $ * u K / [ d.OX6XpXsXdXdXhXhXdXsXdXdXhXhXjXjXjXkXjXjXjXjXjXjXjXjXjXjXjXjXjXjXjXjXkXjXjX' %X=X#Xr.r.q.i.i.i.w._._._.].].]._._._._.m._._._.<._.,.m._.V.m.m.V.:.,.,.<.,.A.m.A.w.,.V.m.",
"BXhXhXhXBXhXhXhXhXhXhXhXdXdXdXiXdXiXiXiXiXiXiXiXiXiXuXuXiXiXuXiXuXuXuXuXtXtXtXtXtXtX9X9X9X9X9X9X9X9XtXtXtXtXtXtXtXtXtXtXuXuXuXuXuXuXuXuXiXiXiXiXiXiXdXdXdXdXhXdXBXBXBXBXBXVXVXVXVXCXCXCXCXCXVXhXdX*X[ E - * # + + + + % . . . . . . .   . .   . . .         .                 .           . .                 . . + + + + + + + + + + + % # $ - 5 J K [ K.%X6XpXdXdXdXhXhXhXdXdXhXhXjXjXjXjXjXjXjXjXjXjXjXjXjXjXjXjXjXjXjXjXjXjXjXjX| *X=X@Xr.r.q.i.i.w.w.A._._.]._.]._.A.A.A.,._._.m.<._.:.m.V.V.V.m._.:.,.,.<.<.A.,.m.:.>.<.,.",
"hXhXhXhXhXhXhXhXhXhXdXdXdXdXdXiXiXiXiXiXiXiXiXiXiXiXiXiXiXuXuXiXuXuXtXuXtXtXtXtXtXtX9X9X9X9X9X9X9X9XtXtXtXtXtXtXtXtXtXtXuXuXuXuXuXiXiXiXiXiXiXiXiXiXdXdXBXhXhXBXBXBXBXBXBXVXVXVXVXVXCXZXZXZXVXVXhXpX%XE 1 * $ + . . % + .       . . .   . .       .         . . . .           .           . .               . . . % + + % + + + + + + % o + # $ < 5 1 Q } 1X6XpXpXdXdXhXhXhXdXdXdXhXhXjXjXjXjXjXjXjXjXjXjXjXjXjXjXjXjXjXjXjXjXjXjXjX| %X=XoXr.r.0.i.A.w.w.A._._.]._.]._.A.A.A.,._._.m.<.].,.m._.,.<.m.A.:.,.<.<.<.m.,.m.:.>.A.,.",
"hXhXhXhXdXhXhXdXdXhXhXdXiXdXdXiXiXiXiXiXiXiXiXiXiXiXuXiXuXuXiXiXuXuXuXtXtXtXtXtXtXtXtX9X9X9X9X9X9X9XtXtXtXtXtXtXtXtXtXtXuXuXuXuXuXuXuXiXiXiXiXiXnXnXnXMXMXBXBXBXBXBXBXBXBXBXVXVXVXVXVXZXZXZXVXVXVX7X%Xd.3 * # + % % . . . .         . . . . . .           . .                   .                                 . . % + + + + + o + + o % + # * < < u [ %X6XpXpXdXdXhXhXhXdXdXdXdXhXhXjXjXjXjXjXjXjXjXjXjXjXjXjXjXjXkXjXjXjXjXjXhX| 1X=X@Xr.r.0.i.A.p.q.A.A.A.A.,.m p.A.A.A.,._._.<.,.].,.m._.<.<.,.A.:.,.,.<.,.A.<.m.:.>.<.p.",
"hXhXhXhXdXdXhXdXdXdXdXiXdXiXdXiXiXiXiXiXiXiXiXiXiXiXiXiXuXuXiXiXuXuXuXtXuXtXtXtXtXtXtX9X9X9X9X9X9X9X9XtXtXtXtXtXtXtXtXuXuXuXuXuXuXuXiXiXiXiXnXiXnXnXnXnXdXBXBXBXBXBXBXBXBXBXBXBXVXVXVXVXVXZXZXVXBX7XK.[ 1 * + % . . . . . .         . . .       . .   .     . . .   .                           X                 . . % + + + + + . % o o % + + @ $ * u ] %X5XtXpXpXdXdXhXhXdXdXdXdXhXhXjXjXhXhXhXjXjXjXjXjXjXjXjXjXjXjXjXjXkXkXjXhX| %X=X@Xr.r.0.y.i.w.w.A.A.A.A.w.m w.A.A.A.,._._.<.m._.:.m._.<.5.,.A.:.,.<.<.,._.<.m.:.-.,.,.",
"hXhXhXhXhXdXhXdXdXiXiXdXdXdXdXiXiXiXiXiXiXiXiXiXiXiXiXuXuXiXiXiXuXuXyXyXuXyXtXtXtXtXtX9X9X9X9X9X9X9X9XtXtXtXtXtXtXuXuXuXuXuXuXuXuXuXuXuXiXiXiXiXiXnXnXnXMXBXBXBXBXBXBXBXBXBXBXBXVXVXVXVXVXCXZXVXhX*X{ 3 $ $ # + . . . . . .       . . . . .   . . . . . .       . . . . .       . .             X                   . + + + % % . . . . . o + + + # $ D } *X6XtXpXdXdXdXdXdXdXdXdXdXhXhXjXjXhXhXhXjXjXjXjXjXjXjXjXjXjXkXkXkXkXjXjXhX| 1X=XoXr.e.8.y.i.w.w.A.A.A.A.A.:.:.A.A.A.,._.A.<._._.:.<.m.<.<.<.A.:.,.,.,.,._.,.m.:.q ,.A.",
"hXhXhXhXhXdXdXdXdXdXdXdXdXiXiXuXiXiXiXiXiXiXiXiXiXiXiXuXiXiXiXiXuXuXuXuXuXtXyXtXtXtXtXtX9X9X9X9XtX9X9XtX9XtXtXtXyXuXtXtXuXuXuXuXuXuXiXuXiXiXiXiXiXiXnXiXiXMXBXMXMXBXBXBXBXBXBXBXBXVXVXVXVXVXVXVXdXXXP * < # + + % . . .   .         % . . .     . . . . .       . . . .         . . .                               . + + . . . . . . . o o + + % # # u .X5XtXpXpXdXdXdXdXdXdXdXdXdXdXhXhXhXhXhXhXhXjXjXjXjXjXjXjXjXjXjXjXjXjXjXkXdX| %X*XXXf.r.8.y.i.w.q.A.A.A.A._.A.w.A.A.A.,.m.m.<._._.:.<.m.,.<.<.A.:.,.,.,.,.A.<.m.V q A.A.",
"hXhXhXdXdXdXdXdXdXdXdXdXiXiXpXiXiXiXiXiXiXnXiXiXiXiXiXuXiXuXuXuXuXuXuXuXuXtXtXtXtXtXtXtX9X9X9X9X9X9X9XtXtXtXtXtXtXtXtXtXtXuXuXuXuXiXiXiXiXiXnXiXiXiXiXnXiXMXMXdXMXBXBXBXBXBXBXBXVXVXVXVXVXBXVXBX7X[ 3 $ < $ + % % % .     .       % # .   .     . . . . .       .                 .         .                     . . . + . . . . . . . % % o o o + $ < } %X5XtXpXiXiXpXpXpXpXdXdXdXdXhXhXhXhXhXhXhXhXhXjXjXjXjXjXjXjXjXjXjXjXjXkXdX' %X=XXXf.e.8.y.i.w.q.A.A.A.A.A.A.p.A.A.A.:.m.<.:._._.:.<.,.<.<.<.m.:.,.,.<.<.m.<.m.C ;.A.A.",
"dXdXdXiXdXdXdXdXdXdXdXiXpXiXiXiXiXiXiXiXiXiXiXiXiXiXiXiXuXiXuXuXuXuXuXuXuXtXtXtXtXtXtX9X9X9X9XtX9X9X9XtXtXtXtXtXtXuXuXuXyXuXuXuXuXuXuXiXiXiXiXiXiXiXnXiXiXMXMXMXMXBXBXBXBXBXBXBXBXVXVXVXVXVXBXpX%XK * $ $ # + + + % .           . # # %   .       . . .         . .       X     . .         .                     . . % + . . . . . . . o o % o o + * < K .X1X1XtXpXiXpXpXpXpXpXdXdXdXhXhXhXhXhXhXhXhXhXjXjXjXjXjXjXjXhXjXhXhXhXjXdX| 1X*XoXf.e.0.y.i.y.q.A.A.A.A.A.A.p.p.A.A.-.<.,.:._.A.:.<.,.<.<.<.A.>.,.:.<.<.,.,.,.C A._.m.",
"dXdXdXdXdXdXdXdXdXdXdXiXiXiXiXiXiXiXuXuXuXiXuXiXuXuXuXuXuXuXuXuXuXuXtXtXuXuXtXtXtXtXtXtXtX9X9X9X9X9X9XtXtXtXtXtXtXtXuXtXuXuXuXuXuXiXuXiXiXiXiXnXnXnXMXMXMXBXBXBXMXMXBXBXBXBXBXBXBXVXVXVXVXVXdX6XXXK < < $ $ + + + .             . # # %           .             . . . .         . .         .                       . + + + . . . . . + + % o o + # * < 2 P .X.X5XuXpXpXpXpXpXpXpXdXdXhXhXhXhXhXhXhXhXhXhXjXjXjXhXhXjXjXhXhXhXhXhXsX{.;X*XXXf.e.8.r.i.w.q.A.A.A.A.A.A.A.p.A.A.-.<.,.:._.m.w.,.,.<.<.<.m.-.,.:.,.,.,.,.,.C A.A.A.",
"dXdXiXiXiXiXdXdXiXiXiXiXuXpXpXpXuXuXuXuXuXiXuXiXuXuXuXuXyXuXuXiXuXtXtXuXuXuXtXuXuXtXtX9XtX9X9XtX9X9XtXtXtXyXtXtXtXtXtXuXuXuXuXuXuXiXiXiXiXnXnXnXnXMXMXMXMXMXMXMXMXMXBXBXBXBXBXBXBXVXBXVXVXVXBXpX*X[ J < $ # + + . . .           . % + % .   X                   . .   . .   . . . .                             .     + + + % .   . . + + o o + + # * < u u } +X5XuXuXuXpXpXpXpXpXdXdXdXhXhXhXhXhXhXhXhXhXhXhXhXhXhXjXjXhXhXhXhXhXpX{.;X5XXXf.e.^ r.i.y.q.A.A.A.A.A.A.A.p.A.A.-.,.,.:._.,.:.,.,.<.<.<.A.-.:.:.,.,.,.,.,.m :.A.A.",
"dXdXdXiXiXpXpXiXiXiXiXiXiXuXuXuXuXiXuXuXuXiXuXuXuXuXuXuXuXuXtXuXtXyXtXuXuXuXuXuXtXtXtXtXtXtXtXtXtX9XtXtXtXtXtXtXtXyXuXuXuXuXuXuXuXuXiXiXiXiXnXnXnXiXnXMXnXMXMXnXMXMXBXBXMXMXBXBXBXBXVXVXVXBXBXiX6XOXu * # + . . + % . .     .   . % + % .   X X               . . .   .       . % .                             . .   . + % . . . . . + + + + + + # * u K Q .X1XtXpXuXuXpXpXpXpXpXdXdXdXhXdXdXdXhXhXhXhXhXhXhXhXhXhXhXhXhXhXhXhXhXpX{.;X6XXXf.e.W r.i.y.q.A.A.A.A.A.A.p.p.A.A.-.,.,.,._.p.:.p.A.,.<.<.A.-.:.>.>.,.,.A.:.V ,.,.,.",
"dXdXiXiXiXiXiXiXiXiXiXiXiXiXiXiXiXiXuXuXuXiXuXuXuXuXuXuXuXuXtXtXtXuXtXuXuXuXuXuXtXtXtXtXtXtXtXtXtX9XtXtXtXtXtXtXtXtXuXtXuXuXuXuXuXuXiXuXiXiXnXiXiXiXnXnXnXMXMXMXMXnXMXBXMXBXBXBXBXBXVXVXVXBXBXiXiX*X1 * $ + . . + + + . .   .   . % . .                         . .   . .   . . + .             . +       .   . + +     . . . . .     + + # + # # # $ K | .X;XtXuXiXuXuXpXpXpXpXpXdXdXdXdXdXdXdXdXhXdXhXhXhXhXhXhXhXhXhXhXhXhXhXhXpX{.;X6XXXf.e.W e.i.y.0.A.A.p.A.A.A.p.,.A.A.-.<.,.,._.p.w.,.A.,.<.<.A.-.:.>.,.>.,.,.,.V A.,.:.",
"dXdXiXiXiXiXiXiXuXiXiXiXiXuXuXuXuXuXuXuXuXuXuXuXuXuXuXuXyXtXtXtXtXtXuXuXuXuXtXtXtXtXtX9XtXtXtXtXtXtXtXtXtXtXtXtXtXtXuXtXuXuXuXuXuXuXiXiXiXiXiXiXiXiXiXiXnXMXMXMXMXMXBXBXBXBXBXBXBXBXVXVXVXBXBXBXiX%Xu $ $ + .   + # $ .           . %     X X X         X                     . + %   X         . +     . + . . + # .         . .   . + + + # # * # * T +X5X9XyXiXiXuXuXtXtXpXpXpXpXdXdXdXdXdXdXdXdXhXhXhXhXhXhXhXhXhXhXhXhXhXhXdXtX{.;X6Xd.f.e.W e.i.y.0.A.A.p.A.A.A.p.p.A.A.;.:.,.,._.p.:.p.m.<.<.<.A.-.>.>.>.:.p.:.p.C ,.,.>.",
"iXiXiXiXiXiXiXiXpXiXiXiXuXuXtXuXuXuXuXuXuXtXuXuXtXuXyXtXtXtXtXuXtXyXyXuXyXyXtXtXtXtXtXtXtXtX9X9XtXtXtXtXtXtXuXtXtXyXuXyXyXuXuXuXuXiXiXiXiXiXiXiXiXiXiXnXnXnXdXMXnXMXBXBXBXBXBXBXBXBXVXBXVXBXBXBXuX.XK * + + .   + $ $ .     X   X   .     X X X                               . % % .   X X       .       + + . + + .         . .   . + + + + $ 2 $ 7 T 5XyXuXuXuXuXuXuXyXtXtXpXpXpXdXdXdXdXdXdXdXdXdXhXhXhXhXhXhXhXhXhXhXhXhXhXhX6X[.;X6Xd.f.e.W e.g.y.0.i.A.A.p.A.A.w.p.A.A.;.-.,.,.A.p.:.,.,.<.<.<.,.-.>.>.:.:.p.,.p.n ,.,.-.",
"iXiXiXiXiXuXuXuXuXuXuXuXuXuXuXuXuXuXuXuXuXuXuXtXuXuXuXyXuXuXtXuXuXtXtXuXtXtXtXtXtX9XtXtX9X9XtX9X9XtX9XtXyXyXuXuXyXuXyXyXuXuXuXuXuXiXiXuXuXiXiXiXiXiXnXnXnXnXiXMXiXnXMXBXBXBXBXBXBXBXBXBXVXBXBXBXuX] ] < + . . . # # # .       X     .     X X X               .                 . % .   X X X X         . # + . % . .     .     . . . + + + + $ u D J } 9XuXiXiXiXuXuXuXuXtXtXpXpXpXpXpXdXdXdXdXdXdXdXdXdXdXdXdXdXdXhXhXhXhXdXhXhX6X{.;X6Xd.f.e.W e.g.s.0.i.A.i.p.A.A.w.p.A.A.:.-.,.,.m.,.:.<.,.<.<.<.p.-.:.:.:.,.:.,.:.: :.,.-.",
"iXiXiXiXiXiXiXiXuXuXuXuXuXuXuXuXuXuXuXuXuXuXuXuXyXuXuXuXuXtXtXuXuXuXyXtXtXtXtX9XtXtX9X9X9X9X9X9X9X9X9XtXyXyXuXuXyXyXyXuXuXuXuXuXuXuXiXiXuXiXiXiXiXiXiXiXiXiXiXiXnXnXnXBXMXBXBXBXBXBXBXBXBXBXBXBXBX.XT 5 * . . . # % % .   .             X X X         X       . .               . . .       X X       . . % % . + % . . . .     . . . + + + % $ 6 ] ] +XyXnXnXiXiXuXuXyXtXtXpXpXpXpXpXpXpXdXdXdXdXdXdXdXdXhXdXdXdXhXhXhXhXhXdXhXdX6X{.;X7XK.f.e.W s.G.s.W i.A.i.p.p.A.w.p.A.A.q.-.:.,.A.,.:.,.<.<.,.,.,.-.:.:.,.,.>.p.V ; :.,.k ",
"iXiXiXiXiXpXiXtXuXuXuXuXuXuXuXuXuXiXuXuXuXuXuXuXuXyXyXuXuXyXtXtXyXyXtXtXtXtXtX9X9X9X9X9X9X5X9X9X9X9X9X9XtXyXuXuXuXuXuXuXuXuXuXuXuXuXiXiXiXiXiXiXiXiXiXiXiXiXiXiXiXnXnXBXnXBXBXBXBXBXBXBXBXBXBXBXBXiXXXK 6 # + + + % . . . .             X             X                   .     . . .         X         . . % . . % . . .       . . . + + + + $ u | } +XyXnXnXiXiXuXuXyXtXtXuXpXuXpXpXpXdXpXdXiXdXdXdXhXdXdXdXdXdXdXdXhXhXdXdXdXdX6X{.,XpXd.f.e.^ s.(.g.V y.A.A.i.p.A.w.p.A.A.w.-.:.:.p.:.:.,.<.<.,.,.,.-.:.:.,.,.>.,.C ; >.,.>.",
"iXiXiXuXuXuXuXuXuXuXtXuXuXuXuXuXuXuXuXuXuXtXtXtXuXuXuXyXtXtXyXyXtXtXtXtXtXtX9X9X9X9X9X9X9X9X9X9X9X9X9XtXtX9XtXyXyXuXuXuXuXuXuXuXuXuXuXuXuXiXiXiXiXiXiXiXiXnXiXiXiXnXnXnXnXMXBXBXBXBXBXBXBXBXBXBXBXiX&XQ < # # + + . .   . .     X X                   X X                 .       . .               X X   . . . . . . . . .     . . . % + # * > 6 } ] +XtXiXiXiXiXuXuXtXyXtXpXpXtXpXpXpXpXpXpXiXiXdXdXdXdXdXdXdXdXdXdXdXhXdXdXdXdX5X{.,XpXd.f.e.W t.G.y.V w.A.A.p.i.A.w.p.A.).w.:.:.:.,.:.>.,.<.<.<.,.,.-.>.:.:.,.>.,.;.x >.,.-.",
"uXiXuXuXtXuXuXtXuXuXtXtXtXtXyXuXuXuXuXuXuXuXtXtXuXuXuXuXtXyXuXuXtXtXtXtXtX9X9X9X9X9X9X9X9X9X9X9XwXwXwX9XtX9XyXyXtXuXyXuXuXuXuXiXuXuXiXuXiXuXiXuXiXiXiXiXiXiXiXiXiXiXiXnXnXMXMXBXBXBXBXBXBXBXBXBXBXiX{ J 7 + + # + . . . %     X X                     X X X X             . .                             . . . . . .   . . .   . . % + + * t [ | .X.X;XyXiXiXiXuXuXuXtXtXtXpXpXpXpXpXpXpXpXpXiXdXdXdXdXdXdXdXdXdXdXdXdXdXdXdXdXdX5X{.,XpXd.f.e.W e.s.r.W y.A.A.i.i.A.w.p.A.).w.>.:.:.,.>.:.,.,.<.<.,.,.-.>.:.:.p.>.,.Z y >.,.-.",
"iXuXuXuXuXuXuXtXuXuXuXtXuXtXtXtXyXyXuXuXuXuXyXuXuXuXiXuXuXyXyXtXyXyXtXtXtXtX9X9X9X9X9X9X5X5X5X9XwX5X9XwX9X9XtX9XtXtXyXuXyXyXuXiXuXuXuXuXiXiXuXuXiXiXiXiXnXiXiXiXiXMXnXiXiXnXnXMXBXBXBXBXBXBXBXBXBXiX.XJ > # + # . . . . % .   X X X           X       X X X X X           . .     .         .     .   X     . . . % .     . .   . % + + # 1 ! +X;X5X5X9XbXnXiXiXiXuXuXtXtXtXtXpXtXpXpXpXpXpXpXpXiXiXdXdXdXdXdXdXdXdXdXdXdXdXdXdXdX5X{.,XpX{ f.e.^ t.y.r.0.w.A.i.i.A.A.q.p.A.A.w.-.:.:.A.:.:.p.,.,.,.<.:.m >.:.:.A.k A >.n >.>.k ",
"uXuXuXuXuXuXuXuXyXuXuXuXyXtXtXtXyXuXuXuXuXuXyXuXuXuXuXuXuXyXyXuXyXyXtXtX9XtX9X9X9X9X9X5X5X9X9X9X5X5X9X9X9X9X9X9X9XyXyXyXyXuXuXiXiXiXuXuXiXiXiXuXuXiXiXiXnXiXiXiXiXiXnXnXiXnXMXMXBXBXBXBXBXBXBXBXBXMX5X.X] < . + . . % . .   X X X X         X         X   X X X                 . . .     . . . . +           . . . .       . . . . + # * t W 1X9XyXnXnXnXnXiXiXuXuXuXtXtXtXtXtXtXtXpXpXpXpXpXpXpXiXiXdXdXdXdXdXdXdXdXdXdXdXdXdXdX5X{.,XpX{ f.e.^ t.y.y.8.i.A.i.A.A.A.q.p.).y.:.-.:.:.A.:.;.A.,.,.m C C m -.:.:.>.A A A.M >.>.C ",
"uXuXuXuXuXuXuXtXtXuXyXtXtXtXtXtXuXuXuXuXyXtXyXyXuXuXuXyXuXuXyXtXtXtX9X9XtXtX9X9X9X5X9X9X9X9X9X5X9X9X5X9X9X9X9X9XtX9XtXuXyXuXuXuXnXiXiXiXuXuXuXuXiXiXiXiXnXnXiXiXiXiXiXiXnXMXMXBXBXBXBXBXBXBXBXBXBXBXtX+XOXd.K # . . + .         X           X X X   X X X X X X       X X     . . . . . . . . % # $ + . . . . . . . .       .   % + + # * i e.5XyXnXnXnXnXnXbXbXuXuXuXyXtXtXtXtXtXtXtXpXpXpXpXpXpXpXiXdXdXdXdXdXdXdXdXdXdXdXdXdXdX5X{.,XpXf.f.e.^ f.s.t.0.y.A.i.).i.A.q.A.A.;.:.-.:.>.p.-.=.A.,.,.-.:.p m -.:.:.A A A A.M -.>.j ",
"uXuXuXuXuXuXuXyXtXtXtXtXtXuXtXtXtXuXuXyXyXyXtXtXuXuXyXuXuXtXyXtXyXtX9X9X9X9X9X9X9X5X9X9X9X9X9X5X9X9X5X9X9X9X9X9X9X9X9XtXyXyXuXuXuXuXiXiXuXuXuXuXuXiXiXnXnXnXiXiXiXnXiXiXiXMXMXBXBXBXBXBXBXBXBXBXBXBX9XT ] } ] < %   . .         X           X X X X X X X X X X       X     . + # # + . + % % & ; 1 $ # + + . . + % .   . . . . # $ + # * M f.5XnXnXnXnXnXnXbXbXuXuXuXyXtXtXtXyXtXtXtXpXpXpXpXpXpXpXpXdXdXdXdXdXdXdXdXdXdXdXdXdXdX5X{.,XpXd.f.e.W f.s.f.0.i.A.i.i.).i.q.A.w.m ;.-.:.-.p.-.;.p.,.,.,.,.=.m >.>.>.A.A.A.A.n m -.j ",
"uXuXuXuXuXtXuXyXyXtXtXtXtXtXtXtXtXyXuXyXyXyXyXtXyXyXyXtXtXtX9X9X9X9XtX9X9X9X9X9X9X9X9X9X9X9X9XwX5X9X9X9X9X9X5X9X9X9X9XtXtXtXyXtXyXuXiXiXuXuXiXiXiXiXiXiXiXnXnXiXiXiXnXiXnXMXMXMXMXBXBXBXBXBXBXBXBXBX9X5 T K u * .     . .             X   X X X X X   X X X X           . . + * * * # + + + @ r x x ; * * - # + + + . . . . . # * 1 # # * ! s.uXnXnXnXnXnXbXbXuXuXuXuXyXyXyXtXtXtXtXtXtXpXuXuXpXpXpXiXdXdXdXdXdXdXdXdXdXdXsXsXdXpX;X{.|.pXd.f.e.^ e.s.e.0.y.).i.).i.i.q.A.w.m ;.-.:.-.p.m w.A.A.p.:.,.w.C >.:.A.A.A.A.>.x m >.C ",
"uXuXuXuXtXyXuXuXtXtXtXtXtXtXtXtXtXyXyXyXyXyXyXyXyXyXtX9X9X9X9XtX9X9X9X9X9X5X9X9X9X9X9X9X9X9X9X5X9X9X9X9X9X9X9X9X9XtX9X9X9XtXtXyXuXuXuXiXuXuXuXuXiXiXuXiXiXiXiXiXiXnXnXiXnXnXMXMXMXBXBXBXBXBXBXBXBXBX5X< K 2 < $     . % .       .       X X X X X X   X X X               + # 1 r 1 & + * * r M V W v r r v 3 * $ + + + + + + * r i 1 * 1 ! d.nXnXnXnXnXnXbXbXuXuXuXuXyXyXyXtXtXtXtXtXtXtXpXpXuXpXpXpXiXiXdXdXdXdXdXdXdXdXsXdXpXpX;X{..XpXd.f.e.^ e.s.e.0.y.).i.i.i.p.q.i.;.;.;.-.:.-.p.m w.A.p.,.:.,.p.m :.A.A.A.,.m.M.l >.>.C ",
"uXuXuXuXyXyXtXtXtXtXyXyXuXtXtXtXyXyXyXyXyXtXtXtXtXyXtX9X9X9X9XtX9X9X9X9X9XwX5X9X9X9X9X9X9XwXwX9XwXwX5X9X9X9X9X9X9X9XtXtXtXtXyXyXyXyXuXuXuXiXuXuXuXiXiXiXiXiXnXnXiXiXnXnXnXnXnXMXBXBXBXBXBXBXBXBXBXBX;XD J < * $ . . + . .     . # . .                 X X X       . % . . + * t v t @ + 1 r v 8.0.r.e.M M ^ W i 3 - $ - - * * ; M ! M i i W XXnXnXnXnXnXnXnXuXuXuXuXuXuXyXyXtXtXtXtXtXtXtXpXpXuXuXuXpXiXpXiXiXpXdXpXpXdXdXdXdXpXdX;X{.|.pX} [ ( _ e.s.e.0.i.i.i.i.w.w.q.A.=.q.;.>.:.:.,.-.w.A.,.:.>.,.p.m :.A.A.A.Z z %.z k -.m ",
"tXtXyXtXyXtXtXtXtXtXtXyXuXyXyXyXuXyXyXyXyXtXtX9XtXyXtXtXtX9X9X9X9X9X9X9X9X9X5X9X9X9X9X9X9XwX5X9XwX9XwX9X9X9X9X9X9X9X9X9X9XtX9XyXyXyXuXiXuXuXuXuXuXuXiXiXiXiXnXnXiXiXnXnXnXnXnXMXMXBXBXBXBXBXBXBXBXBX+X6 6 < $ + . % # +       . # . .                 X X X   . + % # + + # 7 i K i @ * t i ! 0.r.g.r.W 0.y.s.0.M M r i i r 1 y W 8.e.W W 0.%XMXnXnXnXnXnXnXnXiXuXuXuXyXyXtXtXtXtXtXtXtXtXtXtXuXuXuXuXiXpXpXiXpXdXpXpXdXdXdXdXpXpX;X{.|.pX} [ ( ! e.s.e.0.).i.i.i.y.w.q.A.;.;.=.:.:.-.,.-.:.A.>.:.>.,.p.m m.M.M.M.z z l.j -.>.m ",
"tXtXyXyXyXyXyXyXyXyXyXyXyXyXtXyXuXyXyXyXtXtXtXtXtXtX9X9X9XtX9X9X9X9X9X9X9X9X9X9X9X9X9X9X9X5X5X5X9X9X9X9X9X9X9X9X9X9X9X9X9X9X9XtXyXyXyXyXuXuXuXuXuXiXiXiXnXiXnXnXiXiXnXnXnXnXnXMXMXBXBXBXBXBXBXiX5X5X] 2 < < < > $ $ # .       * > . % . . .                 + $ * # @ # @ , i K ! i * 1 t i ! r.y.(.s.0.q.g.(.r.V r.! M E t M N 8.e.r.s.r.e.5XnXnXnXnXnXnXbXnXuXyXyXuXyXtXtXtXtXtXtXtXtXtXtXtXtXpXuXpXpXpXiXiXdXpXdXpXdXdXpXpXpXpX;X{.[.7Xd.[ ( ! e.s.e.0.i.i.i.i.w.w.q.).;.;.C w.A.w.A.).(.).>.>.>.:.w.>.z l.M.M.l.l.#.x >.:.m ",
"tXtXyXyXtXyXyXyXyXyXyXyXyXtXyXyXyXyXyXyXyX9XtXtXtXtX9X9X9X9X9X9X9X9X9XwX9X9X9X5X5X5X9X9X9X5X5X9XwX9X9X9X9X9X9X9X9X9X9X9X9X9X9XyXyXyXuXuXuXuXuXuXuXiXiXuXiXiXiXnXiXiXnXnXnXnXMXBXBXBXBXBXBXBXnX] < 4 $ < 6 < * > 8 $ $ .       * 4 > $ # # + %   . . + + # * * < ; * @ + @ u ! P ! t 1 t r i W 0.r.(.y.e.r.y.(.i.r.g.r.W W y V 8.e.r.y.g.r.r.yXnXnXnXnXnXnXnXnXuXbXbXuXyXyXyXtXtXtXtXtXtXtXtXtXtXpXuXiXiXiXiXiXiXpXpXdXpXpXpXpXpXpX;X{.[.pXd.[ ( ! e.s.e.0.i.i.).i.y.w.q.w.;.;.).).).!.Z Z w.A.:.:.>.:.w.>.>.M.M.z z M.k n >.,.m ",
"yXtXuXyXtXyXtXtXyXtXyXtXtXtXtXyXyXtXtXyXtX9X9XtX9X9X9X9X9X9X9X5XwX9X9X9X9X9XwXwXwX5X9X9X9X9X9X9X5X5X9X9X9X9X9X9X9X9X9X9X9X9XqXqXrXyXuXuXuXuXbXuXbXbXbXbXiXiXnXnXiXnXnXnXMXnXBXBXBXBXBXBXBXBX} $ . . . . $ # + . + # # .   X X . < < > * * $ # + # * * , - 1 r r 3 ; * o @ i ! P v r t t t i V 8.q.g.y.q.y.r.g.g.g.(.(.y.s.y 8.e.e.e.y.i.r.r.bXnXnXnXnXnXnXbXbXbXbXuXuXuXyXyXtXtXtX9XtXtXtXtXtXtXuXuXuXuXuXpXpXiXpXiXpXpXpXpXpXpXpX;X{.[.tXd.[ ( ! ( s.r.^ y.i.).y.w.w.q.w.u.).u.Z ).w.:.V Z A.:.:.>.>.:.>.A.A.A.,.m.M.m x >.,.C ",
"tXyXyXtXtXyXtXtXtXtXyXtXtXyXtXyXyXtXyXtXtX9X9X9X9X9X9X9X9X9X9XwX5X9X9X9X9X9X9XwX9X9X9X9X9X9X9X9X9X9X9X9X9X9X9X9X9X9X9X9X9XrXrXqXrXyXyXyXyXyXbXuXuXbXbXbXnXnXnXnXnXnXnXnXnXnXBXBXBXBXBXBXBX6Xx t 3 ; * - - ; O o             X X + * * * * * $ $ * * 1 1 r t i t t r ; * @ u ! P i r i i i i N V q.y.r.q.y.y.r.i.g.g.(.(.(.M e.r.0.8.r.i.r.f.nXnXnXnXnXnXnXbXbXbXbXuXuXuXyXyXyXtXtXtXtXtXtXtXtXyXuXuXuXpXuXuXuXpXpXpXpXiXpXpXpXpXpX+X{.[.tX} [ ( ! ( s.e.0.y.y.).y.w.w.q.w.u.u.V A.A.p.;.;.;.p.:.:.>.:.:.:.,.p.p.w.m.m.>.n >.:.n ",
"9XyXtXtXtXtXrX9XyXqX9X9XqXrXrXrXyXtXtXtX9X9X9X9X9X9X9X9X9X9X9X5X5X9X9X9X9X9XwX5X9X9X9X9X9X9X9XwX5X9XwXwX9X9X9X9X9X9X9X9X9X9X9XyXyXyXyXyXyXyXuXyXuXbXbXbXbXnXnXnXnXnXnXnXnXnXnXBXBXBXnX} XX^ x x x q 0 0 y : : ; * # .           % $ * * * * * * * < 1 3 r t t i i i r 1 < r ! K i i i y i i N V q.r.0.q.y.y.q.r.i.i.g.(.(.W 0.y.r.0.r.y.r.s.nXnXnXnXnXnXnXbXnXnXbXbXyXuXyXyXyXyX9X9XtXtXtXtXtXyXyXyXyXuXuXuXuXuXpXpXpXiXpXpXpXtXtX+X{.[.pX| [ ( ! ( s.e.0.y.y.y.i.w.w.q.w.q.q.;.A.A.A.=.w.q.w.:.:.>.:.:.:.p.w.w.w.,.,.:.n >.:.n ",
"yXtX9XyXyX9X9XqXqX9X9XqXqXqXrXyXrXtXtXtX9X9X9X9X9X9X9X9X9X9X9X9XwX9X9X9X9X5XwX5X5X9X9X9X9X9X9X9X5XwXwX9X9X9X9X9X9X9X9X9X9X9X9X9XrXyXyXyXyXyXuXuXbXuXbXbXbXnXnXnXnXnXnXnXnXMXBXBXBXBX;X# O q n d d d d C C w = : 0 ; ; * * $ $ # o # * * < * , * * * 1 r r r t i i i i t 1 1 i i i i i i i M M V 0.r.0.r.y.y.r.y.y.i.g.g.(.W 8.r.s.y.r.y.r.s.nXnXnXnXnXnXnXbXnXnXbXbXyXyXyXyXyXrXrX9X9XtXtXtXyXyXuXuXuXuXuXuXuXpXpXuXuXuXpXpXpXpXtX+X{.[.tX} [ ^ ! ( f.e.e.y.y.i.y.w.y.u.u.q.u.w.w.m p.;.q.q.w.:.:.:.:.;.w.w.w.w.w.:.,.M.n >.:.n ",
"tX9XyXyXrXtX9XtX9X9X9XqX9XyXrXrXyXrXrXrX9X9X9X9X9X9X9X9X9X9X9X9X9X9X9X9XwX5X5XwX9X9X9X9X5X5X5XwX5XwX8XwX9X9X9X9X9X9X9X9X9X9XtXtXrXyXyXyXyXuXuXuXuXuXuXuXbXuXnXnXnXnXnXnXnXnXMXMXnX2X[.t n l Z Z m j w n d d w : : q q q q 0 ; ; ; # * * 1 * * * $ * 1 1 r r r t i i i t 1 * r i i i i i i M M V 0.r.0.0.y.r.y.y.y.i.i.g.(.N V r.g.s.r.y.r.e.1XyXnXnXnXnXnXnXnXnXbXbXuXyXyXyXyXrXrXtXtXtXtXtXtXyXyXyXyXyXuXuXuXuXuXuXuXpXpXpXpXpXpX+X{.[.tX} [ ( ! ( s.e.e.i.y.i.y.w.w.q.q.w.u.y.-.=.:.w.V q.p.:.:.:.:.;.q.p.w.:.w.>.:.:.m >.:.n ",
"rX9XqXqXyXrXrX9X9X9XrXrXqXyXtXtXyXqXrXtX9X9X9X9X9X9X9X9X9X9X9X9XwX9X9X9X9X5X5X5X9XwXwXwX5XwXwXwXwXwXwX9X9X9X9X9X9X9X9X9XtX9XrXrXqXrXyXyXyXyXuXuXuXuXuXbXbXbXnXnXnXnXnXnXnXnXMXBXnXK i >.>.k Z >.>.Z q w w d d q : : w q d d q q q ; # * ; 1 * < * * 1 1 1 1 r t t t t r 1 & 1 i i t t y i p M N 0.r.8.r.r.r.i.y.i.g.g.g.g.M V e.s.G.r.r.q.V E d.uXnXnXnXnXnXnXnXbXbXbXyXyXyXyXrX9X9XtXtX9XtXyXyXuXuXyXuXuXuXuXtXtXuXuXpXpXuXpXpXpX+X{.[.tX} [ ( ! ( s.e.e.y.y.y.y.w.y.q.0.w.q.;.:.w.-.p.m q.p.:.:.:.:.=.q.w.:.:.w.>.:.:.Z >.:.e ",
"rX9X9X9XrXrX9X9X9X9X9X9XrXtXtX9XqXrX9X9X9X9X9X9X9X9X9X9XwX9XwXwXwXwXwX9X9X9X5X9XwX8XwXwX9X9X9X9X9XwXwXwX9X9X9X9X9X9X9X9X9X9XqX9X9XrXrXyXyXyXuXuXuXuXbXbXnXnXnXnXnXnXnXnXnXnXBXBXiX).;.>.>.>.>.>.#.>.C : = : d j d w w w 9 9 d d d q ; @ * 1 * < * @ < 1 1 ; r r 1 ; , * , * 1 r t t t y i i M N 8.r.8.r.r.y.i.i.g.g.g.g.0.y N 0.s.(.r.r.0.B & 0 K.nXnXnXbXbXbXbXbXbXbXbXbXyXyXrX9X9XwX9X9XtXyXyXyXyXuXuXuXuXyXtXtXpXpXuXuXuXuXpXpX.X{.[.tXd.[ ( ! ( f.e.e.y.y.y.i.w.y.w.0.w.u.=.A.A.p.w.V q.w.:.>.:.:.=.:.:.:.:.w.;.:.q.m >.>.e ",
"9X9X9X9X9X9X9X9X9X9X9X9XrXtX9X9XrX9XrX9X9X9XwX9X9XwXwX9X9X9XwXwXwXwXwX9X9X9X9X9XwXwXwXwX5XwX8XwX9X9XwXwX9X9X9X9X9X9X9X9X9X9X9XqX9XrXyXyXrXbXbXbXbXbXbXnXnXnXnXnXnXnXnXnXnXBXBXMX~.;.m l k z l l l l j 9 w = : d j j 9 w 9 9 f d j d q * & 1 3 * - @ * ; * ; r ; = * & * , , 1 1 t t r t y i M M 8.r.8.r.r.y.i.i.g.i.g.g.M y N 0.y.s.r.e.0.M X o 3 5XnXnXbXbXbXbXbXbXbXbXbXyXyXqX9X8X8X9X9XrXyXyXyXuXuXuXuXuXuXuXtXtXpXuXuXuXuXpXpX.X{.[.tX| [ ( ! ( f.e.^ y.y.y.y.y.w.w.0.w.u.w.:.;.w.:.;.q.p.:.;.>.:.V :.:.:.:.w.;.:.:.n >.>.n ",
"9X9X9X9X9XwXwX9X9X9X9X9X9X9X9X9X9XqXqXrX9X9X9X9X9XwXwXwXwXwXwXwXwX8XwXwX9X9XwXwXwXwX5X5X5X5XwXwXwX9X9X9X5X9XwX9X9X9X9X9X9X9X9X9X9XqXyXyXyXbXbXbXbXbXnXnXnXnXnXnXnXnXnXnXMXMXiX$XZ l C l l l k l l l j f 9 w = w j j j 9 w q 9 j j j f y * 1 t 1 * * * ; & ; ; = * * * * , 1 1 1 1 r r r y p M M 8.0.0.r.r.y.i.i.i.i.g.s.y y M W r.y.r.0.W M X X O OXnXnXbXbXnXnXbXbXbXbXyXuXyXqXwX8XwX9X9XyXyXyXyXyXuXuXuXyXyXtXtXtXtXuXuXuXuXuXtX.X{.[.5X} [ ( ! ( f.e.W r.y.y.w.y.w.w.0.w.u.w.A.A.p.q.0.;.w.:.;.>.:.;.q.:.:.:.w.;.:.;.q >.>.C ",
"9X9X9X9X9X9XwX9XwX9X9X9X9XyXqXwX9X9XqXqX9X9X9X9XwXwXwXwXwXwXwXwXwXwXwXwX9X9XwX9XwXwX5X9X9X9XwXwXwXwXwXwXwX9X9X9XwX9X9X9X9X9X9XqXqXqXyXyXyXbXbXbXbXbXnXnXnXnXnXnXnXnXnXnXMXnX$X;.>.>.>.Z k k k k k k k j j d q w 9 j j d 9 w 9 f j l j d x u ; 1 * @ & ; O ; ; = , * * * * 1 1 1 1 1 r r y M M M 8.0.r.q.r.y.i.y.i.i.g.r.0 y M W e.e.0.0.W y X X 0 P.nXnXbXbXbXbXbXbXbXbXbXyXrXqXwX8XwX9X9XtXyXyXyXuXuXuXuXuXuXyXtXtXtXtXuXuXuXyXtX.X{.[.5X} [ ( ! ( f.e.^ u.y.y.y.y.y.w.0.w.u.q.q.;.w.w.N q.w.:.:.:.:.V :.q.:.:.w.;.:.;.y >.>.C ",
"9X9X9X9X9X9XwX9X9X9X9X9X9XqX9X9X9X9XrX9XqX9X9XwXwXwXwXwXwXwXwX9X9XwXwXwX9XwXwX9X9X5X5X9X9XwX9XwXwXwXwXwXwXwX9X9X9X9X9XwX9X9X9XqX9XqXyXyXbXbXbXbXbXnXnXnXnXnXnXnXnXnXnXnXMX=XA.>.>.m l l l l g l k k k l j j j j 9 9 l j j j 9 w 9 j j j n t * - * @ O * O * ; ; , , * * * 1 r 1 1 , r r i M M N 0.0.r.q.r.y.i.y.y.g.s.! = 0 y M W W W W N 0 X = m w.nXbXbXbXnXnXbXbXbXbXuXyXrXqXwX8X8X9X9XqXrXyXyXyXuXuXuXuXuXtXtXtXtXtXuXuXuXyXtX[.{.[.9X} [ ( ! ( f.e.W u.r.y.y.w.y.w.0.w.u.w.A.A.:.w.V q.w.;.:.:.:.N :.:.:.:.:.m ;.Z y m >.C ",
"9XqX9XwX9X9XwXwXwXwXwX9X9X9X9X9X9X9X9X9X9X9XwXwX9XwXwXwXwXwXwX8X8X8XwX5XwXwXwXwXwXwXwXwX9XwX9X9XwXwX9XwXwXwXwXwXwXwXwX9XqX9X9XqXqXqXyXyXyXyXbXbXbXnXnXnXnXnXnXnXnXnXnXnXuXH.:.>.k j j g g g g l h l l l l j f l l j g l k k k j w 9 d j j d - * * @ @ & * * 1 r ; , 1 , 1 r i & & , 1 t i p M N 0.0.r.r.r.y.i.i.g.g.y.y : w w q n M N N n : : l $.>.uXnXnXbXnXbXbXbXbXbXbXyXyXqXwX8X8X9X9XqXrXyXyXyXuXuXuXuXyXyXyXtXtXtXuXtXuXyXtX[.{.[.9X} [ ( ! ( f.^ W u.r.y.u.w.y.w.0.w.u.=.=.:.A.w.V ;.w.;.:.>.:.V ;.:.:.;.;.m ;.V x m >.C ",
"9XqX9X9X9X9X9XwXwX9X9X9X9XwX9X9XwX9X9X9X9X9XwXwX9XwXwXwXwXwX8X5X5XwXwX5XwX8XwXwXwXwX5XwXwX9X9X9XwXwX9X9XwXwX9XwX9X9X9XqXwX9XqXqXqXqXqXrXyXuXbXbXbXbXnXnXnXnXnXnXnXnXnXnX^.w.Z k k k k l l g g g g l l l l l f j j k k k k #.#.k j w w d j f q * O & O O & & , r 1 ; 1 , 1 r B X X , , i M i M V 8.0.0.0.r.y.y.g.(.(.^ = : w q q y n n n C l k $.c.>.tXnXnXbXnXbXbXbXbXbXbXyXyXqXwXwXwX9X9XqXyXyXyXyXuXuXuXuXuXuXuXuXyXuXuXtXyXyXyX[.{.[.8X| [ ( ! ( f.e.W r.y.y.u.y.u.w.0.w.u.w.w.;.;.w.V ;.w.:.:.:.:.V ;.:.;.;.Z ;.;.V d m >.m ",
"9XqXqXwXwXwXwX9X9X9X9XqX9XqXqX9X9XwX9X9XwX9X9X9X9X9XwXwXwXwX8X8XwXwX5XwXwX8XwXwXwXwXwXwXwXwXwXwXwXwX9X9XwXwX9XwX9XqXqXwXwXwX9X9XqXqXrXrXyXyXbXbXbXbXbXbXnXnXnXnXnXnXMX=X).=.k k Z k k k l g h h l k k k k l l g 9 9 k k k k #.k l l 9 w 9 g j w o * * * * * * , 1 ; * * $ o >.O X < , i M M W 8.8.0.0.0.r.r.i.(.(.y.t = : w 9 9 j C l m #.$.$.&.c.<.*XnXnXnXnXnXnXbXbXbXbXyXyXqX9XwX9X9XqXrXrXyXyXyXuXyXuXuXuXuXuXyXyXyXyXyXyXyXtX[.{.[.5X} [ / ! ( f.e.^ u.r.y.y.y.u.r.0.w.0.w.i.y.V q.V q.w.;.:.:.:.V ;.q.;.;.;.Z ;.V n C =.>.",
"9XwXwXwXwXwXwX9X9X9X9XwXwXwX9X9X9X9X9X9XwX9X9X9X9XwXwXwX8X8X8X8XwXwXwXwX8X8XwXwXwXwXwX5XwXwX8XwXwXwXwXwXwXwXwXwXqXqXqXwX9X9X9X9XqXqXrXrXyXyXbXbXbXbXbXnXnXnXnXnXnXMX7X).>.Z >.>.Z C C l g l l h h k h k h k k k l g g k z k k #.k k l j w f j f = O ; 0 r t r 1 r ; o X X X m ; . * , t M N 0.0.0.0.0.r.r.y.(.(.g.B & = : w 9 g g k h O.O.*.@.&.z.m.@XnXnXnXnXnXnXbXbXbXbXyXbXrXqXwX9X9X9X9XqXrXrXyXuXuXyXyXyXyXyXyXtXtXyXyXyXtXtX[.{.[.8X} [ ( ! ( f.( ^ e.r.y.y.y.y.y.0.w.0.w.i.p.V ;.N q.:.-.:.:.:.W ;.q.;.=.;.m ;.V n C =.:.",
"wX8X9XwXwXwXwX9X9X9X9XqXwXqX9X9XqXqXqXqXqXqXqXwX9XwXwXwX8X8X8X8X8X8XwXwX8X8X5X5XwX8X5X5XwXwX8X8XwXwXwX8XwXwXwXwX9X9X9XwXwX9XqXqXqXrXrXrXyXrXbXbXbXbXbXnXnXnXnXnXnXMXW.>.Z >.>.>.k j g g g l h l h h h h h h z z k k k g l #.k k #.k k k j w 9 f w & = y M x x i i * X X X X e y   % # * r M W N V 8.0.r.y.g.(.(.0.: & = : 9 9 g 9 X.h O.X.@.+.&.&.c.(.nXnXnXnXnXnXbXbXbXbXbXbXqXqX9XwX9XqXrXqXrXyXyXyXuXyXyXyXyXyXyXtXyXyXyXyXyXyX[.{.[.8X[.[ ( ! ( f.e.W r.r.y.y.y.y.y.0.w.e.y.i.i.m q.N ;.:.;.>.:.:.V ;.;.;.;.;.V ;.Z n m ;.Z ",
"wX8XwXwX9X9XwX9X9X9X9X9X9XwX9X9XqXqXqX9XqXqX9X9XwXwXwXwX8X8X8X8X8X8XwXwXwXwX5X5X5X5XwX8XwXwX5XwXwXwXwX8XwX8XwX9XwX9X9XwX9XqXqXqXqXrXyXyXbXyXbXbXbXbXbXnXnXnXnXnXnX6Xu.Z Z Z >.Z j f g g g l l l k h h h h h h z #.k k k 9 k #.k k h k k k j w f q ; & i W ! M i r . X X X X 0 y   . . o $ ; r r r t M B W s.(.i.d : O = = 9 9 9 9 k g O.X.+.+.+.@.$.,.$XtXnXnXnXnXnXnXbXbXbXrXqXqX9X9X9XqXqXqXrXyXyXyXyXyXyXuXuXuXuXtXyXyXyXyXyXtX[.{.[.8X} [ / ! ( f.^ W r.u.y.r.y.y.y.u.y.0.y.i.w.m q.M :.:.:.>.:.:.V ;.:.=.=.;.V ;.0.C m ;.Z ",
"8X8X8XwXwXwXwXwXwXwX8X8XwX8X9X9XqX9XqXqXqXqX9X9XwX8X8X8X8X8X8X8X8X8X8X8X8X5XwXwX8X5X8X8XwXwX5XwX8X8XwX9XwXwX9XwXwXwXwXwXwXqXqXqXqXyXyXbXbXbXbXbXbXbXbXnXnXnXnXnXnXG.Z Z Z >.Z m d j g g g l k k h h h k z h h h k #.#.#.k g k #.k h h h k z j 9 d w & ; W W ! M , X X X X X a y . . . + # # @ @ $ * * ; 3 v t.V 9 w & = : 9 9 9 g h g X.h O.O.O.+.$.$.:.I.yXnXnXnXnXbXbXbXbXyXqXqXqX9X9XqXqXqXrXrXyXyXyXyXyXuXyXyXuXyXyXyXyXyXyXtX[.{.[.-X[.[ ( ! ( f.( W r.u.y.y.s.y.u.u.y.0.m q.0.=.q.n q.q.:.>.:.:.V ;.:.;.;.;.V ;.;.Z m :.C ",
"8X8X8X8X8X8X8X8XwX8XwXwXwX8XwXwXwX9X9XqXqXqX9XwX8X8X8X8X8X8X8XwX8X8XwXwX8X8XwXwX8X5X8XwX5XwXwXwXwXwX8XwX8XwXwXwXwX9XwXwXwXqXqXqXrXrXyXbXbXbXbXbXbXbXbXnXnXnXnXnXtXu.Z >.>.Z m j d f g g g l k k h k k z #.#.#.#.k k #.#.#.z 9 #.#.#.k l k z k j 9 d = o y 8.W M & X X X X X = p = ; * 1 3 1 * # + + # # $ * E y 9 w = = a 9 9 9 g h g h h X.X.+.+.*.O.%.#.5XnXnXnXbXbXbXbXbXrXrXqXqXqX9XqXqXqXrXrXyXyXyXyXyXuXuXyXyXyXyXyXyXyXyXrX[.{.[.-X[.[ / ! ( f.^ W r.y.y.y.y.y.u.u.y.^ q.m n q.;.M q.q.;.:.:.;.V ;.;.;.q.0.V ;.;.m ;.:.C ",
"8X8X8X8X8X8X8X8X8X8XwXwXwX8X8X8XwXwXwX9X9X9X9XwXwXwX8X8X8XwXwXwX8X8XwXwX9XwXwXwX8X8X8XwXwX8X8XwX8X8X8X8X8X8XwX9XqX9XqXqXqXqXqXqXrXyXyXbXbXbXbXbXbXbXnXnXnXnXnXnX*XZ Z >.Z Z l j d f f g g l k k k k h h O.#.#.#.#.#.#.#.#.#.j f #.%.#.#.l l z m j 9 w & O M W i . X X X X X , n j C n n M M v u r - $ # # $ y : w 9 = & w g g e g h h l h h X.@.$.*.$.%.%.5XnXnXnXbXnXbXbXbXrXqXqXqXqXqXqXrXqXyXrXyXbXyXuXuXyXuXyXuXyXyXyXyXyXyXqX[.{.[.-X} [ _ E ( f.( W r.y.y.y.H.y.u.u.w.^ 0.w.0.w.;.M q.q.:.-.>.;.V ;.;.;.;.q.V :.Z m >.w.V ",
"8X8X8X8X8X8X8X8X8X8X8X8X8X8XwXwXwXwXwXwX9XwX9XwXwXwXwXwXwX8XwX8X8XwXwXwXwXwXwXwX8X8X8X8X5X8X8X8X8X8X8X8X8XwXwXqXqXqXqXqXqXqXqXrXqXbXbXbXbXbXbXbXbXbXnXnXnXnXnXnXG.m Z Z Z C j j f f g g g g k z k h k #.#.O.#.#.#.#.#.#.#.#.#.9 l #.#.%.#.l l k z j q : @ * y * X X X X X X w j k #.#.=.;.V W W W M v v u 1 * = : 9 : = w 9 9 g g h h X.X.O.+.&.@.@.@.*.<.6XnXnXnXbXbXbXbXbXrXqXqXqXqXqXqXqXyXrXyXyXyXyXyXyXyXyXyXyXyXyXtXtXyXrXrX[.{.[.;X|  ._ E _ a.( W y.y.y.y.s.y.0.u.y.^ ;.y.y.0.0.n q.q.:.=.;.;.V ;.:.;.=.q.V :.V V m :.Z ",
"8X8X8X8X8X8X8X8X8X8X8X8X8X8XwXwXwXwX8XwX9XwX9XwX8X8XwXwXwXwX8X8X8X8X8XwX8XwXwX8X8X8X8X8X8X8X8X8X8X8X8X8X8X8XwXwXqXqXqXqXqXqXqXqXqXqXbXbXbXbXbXbXbXbXnXnXnXnXnXtXZ m Z Z m C j j f j j g g g g k z z k #.#.O.#.#.#.#.#.#.#.#.#.k w k #.%.%.#.l h z k j w = + . X X X X X X O j j k X.#.>.>.>.;.;.0.0.0.e.e.E * = : w f w 9 w 9 9 9 9 g O.+.@.@.+.+.+.+.c.m.uXnXnXnXnXbXbXbXcXrXqXqXqXqXqXqXqXqXqXyXyXyXbXyXyXyXyXyXyXyXyXtXtXtXrXrX[.{.[.;X|  .Q Q / f.( W y.y.r.y.y.y.0.y.y.^ u.m m ;.;.N q.q.;.=.=.=.V ;.;.;.=.:.m :.V m m ;.C ",
"8X8X8X8XwX8X8X8X8X8X8X8X8X8X8X8XwXwXwXwXwXwX8XwX8X8X8XwX8XwXwX8X8X8X8X8XwXwX8X8X8X8X8XwXwXwX8X8X8X8X8X8X8X8XwX9XwX9XwXqXqXqXqXqXqXqXrXbXyXbXbXbXbXbXnXnXnXnXnXXXm Z Z Z m j C C j j l l l l l h k k #.#.#.#.#.#.#.#.#.#.#.#.#.#.l g h #.%.%.#.g l z l j 9 & . X     X X X q k l k k #.#.%.>.>.>.:.q.0.r.i.0.: : a 9 9 9 9 9 9 9 9 9 g X.+.+.+.O.O.O.+.*.m.nXnXnXnXnXnXnXbXcXrXqXqXqXqXqXqXqXqXrXrXrXyXbXyXyXyXyXyXyXyXyXyXyXyXyXrX[.{.[.1X|  .Q ! Q f.( W r.s.y.y.y.y.0.y.y.^ V q.;.q.=.V q.;.;.-.=.=.V ;.;.;.=.q.=.;.V m m ;.C ",
"8X8X8X8X8X8X8X8X8X8X8X8X8X8X8X8X8X8XwXwX8X8X8XwXwXwX8X8XwXwX8X8X8X8X8X8X8XwXwX8X8X8X8X8X8X8X8X8X8X8X8XwXwXwXwX9XwXqXqXqXqXqXqXqXqXqXqXqXyXbXbXbXbXbXnXnXnXnXnXd.k Z m k m j j j j j g l l l k k k k z #.#.#.#.#.#.#.#.#.#.#.#.X.#.g l z #.%.%.k g g l g l w o .         X C l l g l X.X.#.%.>.>.>.,.w.y.i.m w 9 9 9 9 9 9 g 9 9 9 g g h X.X.O.X.X.O.@.*.$.nXnXnXnXnXnXnXbXcXrXqXqXqXqXqXqXqXqXrXqXqXyXyXyXyXbXbXyXyXyXyXrXqXrXrXrX[.{.[.5X|  .! ! Q f.( W t.y.r.y.y.y.0.y.y.^ V y.y.0.0.M q.:.;.-.=.=.V ;.;.;.=.q.=.:.V m m ;.d ",
"8X8X8X8X8X8X8X8X8X8X8X8X8X8X8X8X8X8XwX8X8X8X8X8X8XwXwXwXwXwXwXwX8X8X8X8XwX8X8X8XwX8XwX8X8X8X8X8X8X8X8XwXwXwXwXwXwXwXqXqXqXqXqXqXqXqXqXqXqXyXbXbXbXbXnXnXnXnXnX^ k k m j C d d d d d j l g g g l k #.#.#.#.#.#.#.#.#.#.#.#.#.#.O.#.#.g h #.%.%.%.k 9 9 g l j : .         X C l l g k X.X.#.#.%.>.>.*.<.,.i.m q w 9 9 9 9 9 9 9 9 9 9 g h h h X.X.O.@.*.@.O.tXnXnXnXnXnXbXbXcXrXqXqXqXqXqXqXqXqXrXqXcXbXbXbXbXbXyXyXyXyXyXqXrXrXqXyX[.{.[.5X}  .! ! E f.( W e.y.y.y.^ u.0.w.y.^ V q.w.V 0.n q.;.=.-.m V N ;.;.;.=.q.=.q.V m 0.).t.",
"8X8X8X8X8X8X8X8X8X8X8X8X8X8X8X8X8X8X8X8X8X8X8X8X8X8XwXwXwX8XwX8X8X8X8X8XwXwX8X8XwX8XwX8X8X8X8X8X8X8X8XwXwXwXwXwXwXwXqXqXqXqXqXqXqXqXqXqXqXyXbXbXbXbXnXnXnXnXtXm m k j j C d d d f j k l l g g g g h #.#.#.%.#.#.#.#.#.#.#.#.O.O.#.#.g h O.%.%.%.#.k w : g g d &     X X w k k l k #.#.%.#.#.#.%.%.*.*.*.,.>.k w a 9 g 9 g g g g g h X.X.X.X.O.+.@.@.@.X.+.tXnXnXnXnXnXbXbXcXrXqXqXqXqXqXqXqXqXqXcXcXrXbXbXyXyXyXyXrXrXyXrXrXqXrXrX{.{.[.1X}  .Q ! E f.( W t.t.y.s.V 0.0.y.y.^ W N ;.V 0.y q.:.=.=.m V N ;.;.;.;.q.=.:.H.e.0.V x ",
"8X8X8X8X8X8X8X8X8X8X8X8X8X8X8X8X8X8X8X8X8X8X8X8X8XwX8X8X8X8X8XwX8X8X8X8XwXwX8X8XwX8X8X8X8X8X8X8X8XwXwX8XwXwXwXwXwXwXqXqXqXqXqXqXqXqXqXqXqXcXbXbXbXbXnXnXnXnXtXm C C d C j d d d f j k j l l z #.h g g z z #.%.%.#.#.#.#.#.#.#.#.#.#.k g h #.%.%.%.#.k & & w f 0       & z #.z h h X.#.%.%.>.#.#.%.*.c.*.@.c.*.#.w a f g g g g h X.O.O.O.O.+.@.@.+.O.O.O.@.tXnXnXnXnXbXbXbXcXrXqXqXqXqXqXqXqXqXrXyXbXcXbXrXyXyXyXyXrXrXyXyX9X9XyXqX{.{.[.;X[. .Q ! ! e./ W t.t.t.s.V W 0.y.y.W V n n ;.0.y q.;.=.=.V V M =.V =.m ;.m n t.H.H.H.a.",
"8X8X8X8X8X8X8X8X8X8X8X8X8X8X8X8X8X8X8X8X8X8X8X8X8X8X8X8X8X8X8X8X8X8X8X8X8X8X8X8XwXwXwX8X8X8X8X8XwX8X8XwXwXwXwXwXwXqXqXqXqXqXqXqXqXqXqXqXrXcXbXbXbXbXbXnXnXnXtXm j j d m d d q 9 9 d j g l k #.%.%.#.l h h g h #.$.%.#.O.O.#.#.#.#.#.z l l #.%.%.%.#.z d = O : t $ + X q >.#.#.#.#.O.O.+.$.$.%.+.+.c.z.&.&.&.v.m.j a 9 g g g g h X.*.O.X.O.@.+.O.X.X.O.+.&.tXnXnXnXnXnXnXbXcXrXqXqXqXqXqXqXqXqXqXqXrXbXbXyXyXyXyXyXrXyXrXyXqX9XrXyX{.{.[.;X| ] ! ! ! e._ W t.t.y.s.0.W 0.y.y.W V p p q.0.y q.;.=.=.m V M m =.V m m m n q M C n n ",
"8X8X8X8X8X8X8X8X8X8X8X8X8X8X8X8X8X8X8X8X8X8X8X8X8X8X8X8X8X8X8X8X8X8X8XwXwX8XwX8XwXwX8X8X8X8XwXwXwXwXwXwXwXqXqXqXqXqXqXqXqXqXqXqXqXqXqXrXcXbXbXbXbXbXbXbXnXnXuXC j j d Z j d 9 d d f f g g l z #.%.%.#.#.h h g h h %.#.h h O.O.#.#.h h k g h #.%.%.#.#.k q & o * * - 0 Z >.>.#.X.O.%.+.+.$.$.@.@.&.z.z.&.&.z.v.c.j 9 9 g h h h h h @.@.+.@.@.+.O.O.+.@.&.c.tXnXnXnXnXnXbXbXcXcXrXqXqXqXqXqXqXrXrXqXyXbXbXyXyXyXyXyXrXyXrXyXqX9X9XqX' {.[.+X .[ Q / ! e._ W e.e.y.y.e.0.^ t.y.W V n V ;.0.p q.;.=.=.m V M =.=.=.;.m m V n q q q w ",
"8X8X8X8X8X8X8X8X8X8X8X8X8X8X8X8X8X8X8X8X8X8X8X8X8X8X8X8X8X8X8X8X8X8X8XwXwX8XwXwXwXwXwXwXwXwXwXwXwXwXwXwXwXwXwXwXwXqXqXwXqXqXqXqXqXqXrXrXcXbXbXbXbXbXbXbXnXnXtXC j j l >.d d d 9 9 d f g l l l k z #.#.%.%.#.h h h g O.h g h h h #.z h l 9 l O.#.z #.#.#.j w O o o * C #.#.#.#.X.O.+.+.@.&.*.*.&.z.z.x.z.z.z.x.%.w w 9 h h h h h h X.+.@.&.&.&.@.@.@.&.c.c.5XmXnXnXnXnXbXbXcXcXrXqXqXqXqXqXqXrXrXrXrXrXrXyXrXrXyXyXqXrXrXyXqX9X9XqX{.{.[.+X .d./ ! ! e._ W e.t.y.r.e.0.0.y.y.W =.N q.V 0.y q.=.=.;.m ;.M =.=.;.=.m m C C m C n e ",
"8X8X8X8X8X8X8X8X8X8X8X8X8X8X8X8X8X8X8X8X4X8X-X-X8X8X8X8X8X8X8X8X8X8XwXwXwXwXwX8XwXwXwX8XwX8XwXwXwXwXwXwXwX8XwXwXwXwXqXqXqXqXqXqXqXqXrXbXbXbXbXbXbXbXbXbXnXnX5XC C l Z >.d d d d d f j l l l l h k h z #.%.%.$.%.$.#.O.#.h h h h O.h h l 9 9 h #.h #.#.#.k 9 = O @ O j k l l k h %.$.@.@.&.*.z.c.c.v.x.x.x.x.x.%.k a g h h X.h h h X.X.O.+.@.@.@.@.@.&.c.c.tXnXnXnXnXnXbXbXcXcXrXqXqXqXqXqXqXqXrXqXcXbXbXyXyXrXrXyXyXyXrXrXrX9XqXqX{.{.[.+X .[ E P ! ( / W e.r.r.e.e.0.^ y.s.W =.0.w.m ;.y q.=.V =.m ;.M =.;.=.=.V =.C m m m m C ",
"8X8X8X8X8X8X8X8X8X8X8X8X8X8X8X8X8X8X8X8X8X8X-X-X8X8X8X8X8X8XwX8XwXwXwXwX8XwX8X8X8XwXwX8X8X8X8X8X8X8XwXwXwXwXwXwXwXqXqXqXqXqXqXqXqXqXqXbXbXbXbXbXbXbXbXbXnXnX*Xm m k >.>.d d d d f f j l l l k k k z z #.#.%.%.$.%.%.%.%.#.#.#.O.O.O.h h 9 w g h h h #.z z g : & & & q w 9 g h h %.$.*.*.*.*.c.c.c.v.x.x.x.x.x.c.m.a h O.O.O.O.O.O.O.O.O.O.O.O.+.+.+.+.c.m.nXnXnXnXnXnXbXbXcXcXrXqXqXqXqXqXqXqXrXrXrXcXbXbXyXyXrXyXyXyXrXrXrXqX9XqX` {.[.+X .[ ! K ! ( / W e.t.r.e.u.e.e.t.y.W Z y.q.n ;.n q.=.m =.V V M =.=.=.=.;.;.;.-.;.-.-.m ",
"8X8X8X8X8X8X8X8X8X8X8X8X8X8X8X8X8X8X8X8X8X8X8X8X8X8X8X8X8X8X8X8X8XwXwX8XwXwX8X8XwXwX8X8X8X8XwX8X8X8XwXwXwXwXwXwXwXqXqXqXqXqXqXqXqXqXqXbXbXbXbXbXbXbXbXnXnXnX*Xm j m >.Z d d 9 d d d j l l l l h h h z z #.O.+.%.%.%.%.%.%.#.#.#.#.#.O.z h g 9 g h h z #.#.k w = & : 9 9 9 9 h h %.+.$.$.*.c.c.z.z.z.v.v.v.v.v.b.m.w f h O.+.@.@.@.@.@.@.&.@.@.@.@.+.O.*./.nXmXnXnXnXnXbXcXcXcXrXqXqXqXqXrXrXrXcXrXrXcXcXbXbXyXyXyXrXqXrXrXqXqX9XqX` {.|.+X] / ! ! E ( Q W e.e.y.0.u.e.B M t.E 0.y.w.m =.n 0.=.m =.V V M =.=.=.=.V ;.=.=.;.:.-.-.",
"8X8X8X8X8X8X8X8X8X8X8X8X8X8X8X8X8X8X8X8X8X8X-X-X-X8X8X8X8X8X8X8X8X8X8X8XwXwX8X8XwXwX8X8X8XwXwX8X8XwXwXwXwXwXwXwXqXqXqXqXqXqXqXqXqXqXqXyXbXbXbXbXbXbXbXnXnXnX5Xm j >.>.k d d d d d j j l l k z k z z #.#.%.%.%.%.%.%.%.%.%.#.#.#.#.#.O.h O.#.g 9 g h h O.#.#.f : = q j z k k h h X.X.O.O.+.c.c.z.v.x.x.x.v.n.b.b.m.w w 9 g X.+.z.z.z.z.z.z.&.&.&.&.@.@.*.6XnXmXnXnXnXnXbXbXcXcXrXrXqXwXqXqXrXrXcXrXcXcXcXbXrXrXrXyXrXqXqXrXqX9X9XwX` {.|.+X] Q E E ! ( Q W e.e.y.0.u.e.W W e.W y.0.w.V V n q.V m V m V M =.=.=.=.V ;.=.=.-.-.-.-.",
"8X8X8X8X8X8X8X8X8X8X8X8X8X8X8X8X8X8X8X4X8X4X-X-X4X-X4X8X8X8X8X8X8X8X8X8XwX8XwXwXwXwXwXwXwX8X8X8X8XwXwXwX8X8XwXwXqXqXqXqXqXqXqXqXqXqXqXcXbXbXbXbXbXbXbXnXnXnXpXC l >.Z j d q 9 d d j j l l k z z z #.#.#.#.%.%.%.%.%.%.%.#.#.#.#.O.O.h h h h k g 9 g h g #.#.l w : 9 9 k #.#.#.O.O.X.X.h h +.&.z.v.b.z.x.x.n.v.b.>.9 9 9 9 g X.&.&.z.z.c.z.&.&.&.*.&.&.*.uXmXnXnXnXnXnXbXcXcXrXqXqXqXqXqXqXrXqXrXrXrXrXrXrXrXrXrXyXrXrXrXqX9X9X9XwX` {.,X+X| Q E P ! ( Q W e.e.t.0.u.e.^ e.^ W u.q ;.N V M 0.V C m m ;.M =.=.V V V V =.=.C j l l ",
"8X8X8X8X8X8X8X8X8X8X8X8X8X8X8X8X8X-X8X-X-X-X-X-X-X-X4X8X8X8X8X8X8X8X8X8XwX8XwX8X8X8XwXwXwX8X8X8X8X8XwX8X8X8X8XwXqXqXqXqXqXqXqXqXqXqXqXbXcXcXcXbXbXbXnXnXnXnXyXC k >.k j q q d d j j j l l k k k k k z O.h #.#.#.#.#.%.O.O.#.O.h h h h h h h k l 9 9 k g z h #.f w w w 9 f g h h %.%.O.h h h O.&.b.b.x.z.x.n.v.b.>.j 9 9 9 9 X.@.@.@.&.&.&.z.&.&.&.&.&.*.uXmXmXnXnXnXnXbXcXcXrXqXqXqXqXqXqXrXrXqXrXrXrXrXrXqXrXqXrXrXqXqXqX9X9X9XwX` {. X+X| / ! K / ( _ W e.e.t.0.u.u.e.t.W B B y =.N V M 0.m m m m ;.n =.=.V V V m =.=.C C m C ",
"8X8X8X8X4X8X8X8X8X8X8X8X8X8X8X8X-X-X-X-X8X4X-X-X-X4X8X8X8X8X8X8X8X8X8X8XwX8X8XwXwX8X8X8X8X8X8X8X8X8X8X8X8XwXwXqXqXqXqXqXqXqXqXqXqXqXxXxXxXxXcXbXbXbXbXnXnXnX5XC m Z C d q q d d j j j l l g l l k k k #.h X.#.#.O.O.O.X.O.O.X.h h h O.h h h k j 9 w l j l l #.g 9 j j 9 9 9 f f #.$.@.+.O.X.h O.v.b.n.x.x.x.b.b.k 9 9 9 9 9 O.+.O.+.@.@.&.&.&.&.&.@.&.*.^.nXmXnXnXnXbXbXcXcXrXqXqXqXqXqXxXxXqXrXrXrXrXrXrXyXyXrXrXrXrXqXqX9X9XwX8X` {. X+X}  .! K / ( _ W e.u.t.e.u.e.( t.^ x n n V N V M 0.V m m m V n V V V V V m m m C C e C ",
"8X8X8X8X2X4X8X8X8X8X8X8X8X8X8X8X4X-X8X-X8X8X8X8X-X-X8X8X8X8X8X8X8X8X8X8XwX8X8XwXwX8X8X8XwXwXwX8X8X8X8X8XwXwXwXqXqXqXqXqXqXqXqXqXqXqXcXxXxXxXbXbXbXbXnXnXnXnX&XC C C x x q d d d f d j l l l g g l k k k h h h h O.O.O.#.%.#.O.X.O.O.O.h h h l j 9 w 9 j 9 l k j j z k 9 j l j d 9 h &.&.&.+.O.X.+.z.b.b.v.x.b.b.l 9 g 9 9 g h O.O.+.+.@.&.&.@.&.&.@.@.&.m.6XmXnXnXnXbXcXcXrXrXqXqXqXqXqXxXcXrXqXqXrXcXrXrXrXyXrXrXrXrXqXqXwXwXwX8X` {.,X+X[. .! K / ( _ W e.t.t.e.e.e.e.t.e.y V V N N V M 0.=.m m V Z n m V N =.p.A.].:.n q e e ",
"8X8X2X8X8X8X8X8X8X8X8X2X8X8X8X8X-X-X-X-X-X-X-X-X-X:X4X4X4X4X8X8XwX8X8X8X8X8XwXwXwXwX8XwX8XwXwX8X8X8X8X8X8XwXwXqXwXqXqXqXqXqXqXqXqXqXxXcXcXxXxXbXbXbXbXnXnXnX;Xd d d d x d d d d d d j g k k l g g h k k k h z #.#.#.+.$.%.#.O.O.#.O.h h h h h j 9 : w g 9 j 9 9 f %.#.j g m C d w 9 O.z.v.z.*.+.O.+.z.N.b.v.n.b.9 9 l g 9 g g X.O.+.+.&.&.@.@.&.&.&.@.&.c./.mXnXnXnXcXcXcXrXrXqXqXqXqXqXqXxXqXqXrXrXrXrXrXrXrXqXrXqXrXqX9XwX8X8X8X` {.,X,X[.[ ! M / ( ! W e.e.e.e.e.t.^ t.e.x 0.0.n V V M 0.V m m V V n w.A.].].].]._.p.C p q w ",
"8X8X8X8X2X8X8X8X8X8X8X4X4X4X8X8X8X-X-X-X-X-X-X-X-X-X-X-X-X4X8X8X8X8X8X8X8X8XwXwXwX8X8X8XwXwXwXwX8X8X8X8X8XwXqXqXwXqXqXqXqXqXqXqXqXqXxXxXbXxXxXbXbXbXbXnXnXnX5X0 q x x d d d d j j j l l k z k k l k z #.k k #.#.#.#.$.$.#.O.O.#.#.#.#.O.h h h l w & & 9 9 j w w w k %.k g j j d j l g O.z.v.v.z.&.+.@.b.N.N.n.b.w 9 g h h g g g h O.@.&.z.&.+.@.&.&.&.&.&.).nXnXnXnXbXcXcXrXqXqXqXqXqXqXqXqXqXqXrXrXcXrXrXrXrXqXqXqXrXqX9X8X8X8X8X` {.,X+X|  .! K / ( ! W ^ e.e.t.y.e.W e.e.M w.w.C =.V M 0.m ;.p.A._._._._._.V.V._.A.A.A._._._.",
"8XwX8XwX8X8X2X8X8X8X8X4X8X8X-X-X4X-X-X-X-X-X-X-X4X-X-X8X-X8X8X8X8X8X8X8X8X8X8X8XwX8X8X8X8X8XwXwX8XwXwXwX8X8X8XwXwXqXqXqXqXqXqXqXqXqXxXxXbXbXbXbXbXbXnXnXnXnXnX0 0 q x q d d d j j j k k k k k k k k k k h k k #.h #.$.$.#.#.#.%.%.%.%.#.#.#.#.l w = & : 9 9 9 w w 9 #.#.l f w n k k k h &.v.v.v.v.&.+.c.N.N.N.c.a 9 g h h h h g g h $.&.z.z.@.@.&.&.@.&.c.A.nXmXnXbXbXcXcXrXqXqXwXqXqXqXqXqXqXqXrXrXrXrXrXrXrXrXqXqXqXqXwX8X8X8X8X` {.,X,X|  .P P / [ / W e.e.e.e.t.e.V e.e.B w.w.N V V M _.].].].].].].].].].].].].]._._._._._.",
"8X8X8X8X8X2X2X8X2X2X-X-X8X8X-X-X-X-X-X-X-X-X4X4X4X-X-X8X-X4X8X8X8X8X8X8X8X8X8X8XwX8X8X8X8X8X8X8X8X8X8XwX8X8XwXwXwXqXqXqXqXqXqXqXqXxXxXxXxXbXbXbXbXbXnXnXnXnXnXn 0 w q d d d d d d g l k l k k k k l h l k k h l l %.$.%.#.%.%.%.#.#.#.h O.#.#.h f w : : 9 9 9 q d w l +.z j w d k k O.h @.*.c.v.v.x.&.z.N.N.N.%.9 9 9 h h h X.h h h +.&.&.z.&.@.&.z.z.c.c.A.nXnXnXbXbXcXcXxXqXqXqXqXqXqXqXqXqXqXqXrXqXqXrXrXrXqXrXqXqXqXwX8X8X8X4X` {.,X+X|  .E K Q [ / ! e.e.e.t.t.e.W e.0.M n V 8.V V V _._._._._._._._._._.].].].].].].].].].",
"2X8X8X8X2X2X8X8X2X8X4X-X-X-X-X-X-X-X-X-X-X-X-X-X-X-X8X8X4X-X8X8X8X8X8X8XwXwX8X8X8X8X8X8X8X8X8X8X8X8X8X8X8X8XwXwXqXqXqXqXqXqXqXqXqXqXxXxXbXbXbXbXbXbXnXnXnXnXuXZ w 0 : q q d 9 d d j g g l l l l l j l l l h l l k $.$.%.%.%.%.%.#.#.#.h O.#.O.O.h 9 w : 9 l 9 j C d 9 O.#.j q 9 k O.h O.@.@.&.c.v.b.v.z.b.N.b.l 9 9 g h g h h h h X.+.@.&.&.&.&.z.z.z.c.c.(.nXnXnXnXcXcXcXxXqXwXwXqX0XqXqXqXxXqXqXqXrXrXrXrXqXrXrXqXqXqXwX8X8X8X4X` {.,X,X]  .P K Q ( _ ! e.e.^ t.e.t.W e.e.v y y u.V N V _._._._._._._._._._._._._._._._._._._.",
"8X2X8X8X2X2X8X2X8X8X8X8X:X:X2X:X-X-X-X-X-X-X-X-X-X-X-X-X4X4X8X8X8X8X8X8XwX8X8XwX8X8X8X8X8XwX8XwX8X8XwX8X8X8XqXwXqXqXqXqXqXqXqXqXqXxXxXbXbXbXbXbXbXbXnXnXnXnXuX;.q 0 : : 0 q d d d d j l l l j j d j j l l l l k #.@.$.$.%.%.%.#.#.#.h h #.%.#.O.h g : = f h g k k l 9 h #.j C 9 g #.O.O.@.@.&.&.z.x.b.b.n.b.c.9 g 9 9 h h g g h h O.+.@.@.&.&.z.z.c.c.c.c.#XnXnXnXnXcXcXcXqXqXqX0XqXqXqXqXqXqXqXcXrXcXqXrXrXrXrXqXqXqXqXwX8X4X4X-X` {.,X,X .Q P K Q ( ! W e.e.^ y.0.e.^ u.0.M N n 0.N N V _._._._._._._._._._._._._._._._._._._.",
"2X2X8X8X8X8X8X2X8X8X8X8X2X2X8X:X-X-X-X-X-X-X-X-X-X-X4X-X-X4X8X8X8X8X8X8X8X8X8X8X8X8X8X8X8X8X8X8X8X8X8XwX8X8XwXqXqXqXqXqXqXqXqXqXxXxXbXbXxXbXbXbXbXbXnXnXnXnXnX0.n w : : : 0 d d d f l l l j j j 9 d j j l l k k k +.$.$.%.#.#.O.#.h h h %.+.O.O.h 9 = : l h h z z k j g %.#.#.j 9 z #.#.+.&.&.&.z.x.x.b.N.v.X.9 g g 9 g h h h g h O.+.&.@.z.z.c.c.c.c.c.c.*XvXnXnXnXvXcXcXqXqXqXqXqXqXqXqXqXcXcXcXrXrXqXrXrXrXrXqXqXqXqXwX8X4X;X-X` {.,X,X .Q P K / ( E ! e.e.e.t.M t.W e.^ ! u.0.W V C W _._._._._._._._._._._._.j._._._._._._.",
"2X8X8X8X8X8X8X2X8X8X8X8X8X2X8X:X2X2X-X-X-X-X-X-X-X-X-X-X-X8X8X8X8X8X8X8X8XwX8XwX8X8X8X8XwX8X8X8X8X8XwXwX8XwXwXqXqXqXqXqXqXqXqXqXqXxXxXxXxXcXbXbXbXbXnXnXnXnXnXL.n q w : : : q d d d j k k j j q 9 d j j j l k k k $.$.$.#.#.#.h h h h #.@.+.O.O.g = = w h #.#.#.#.z l g %.@.+.l 9 l #.+.+.&.&.z.z.x.x.n.N.*.9 9 g g g 9 X.O.h h g h @.z.z.c.v.v.v.c.c.c.c.9XmXnXnXnXcXcXcXxXqXqXqXqXqXqXqXxXcXcXcXrXrXrXrXrXrXqXqXqXqX9XwX8X-X;X-X` {. X,X| Q Q K Q ( E ! ^ e.e.e.V u.W 0.^ ! y.u.M V C =._._._._._._._._._._._._._._._._._._._.",
"2X2X8X8X8XwX8X8X8X8X2X2X2X8X8X:X-X-X-X-X-X-X-X-X-X-X-X-X-X-X8X8X8X8X8X8X8X8X8X8XwX8XwXwX8XwX8X8XwXqXwXwX8XwXwXqXqXqXqXqXqXqXqXqXqXxXxXxXxXxXbXbXbXbXvXnXnXnXnX5XM w q 0 : : : q d d f l C l d d d d d d j l m l z $.$.$.h O.h h h k h +.@.@.+.O.f w w w #.h #.#.#.#.#.l h c.@.X.g g #.$.+.@.&.z.z.x.x.x.N.h 9 g g g g g g O.O.h h g +.c.v.v.v.v.v.c.c.c.M.bXmXnXnXbXcXcXcXxXxXqXqXqXqXqXqXcXcXcXcXrXrXrXqXqXqXqXqXqXqX9XwX8X-X-X;X` {.,X,X .Q P K Q / ! W ^ e.e.e.^ e.V ^ W E V e.B W M V _._._._._._._._._._._._._._._._._.j._.",
"2X2X8X8X8X8X8X8X8X8X2X2X2X:X-X-X-X-X-X-X:X:X-X-X-X-X-X-X-X:X8X8X8X8X8X8X8X8X8X8XwX8XwXwXqXwX8X8XwXqXqXwX8XwXwXqXqXqXqXqXqXqXqXqXqXqXxXxXxXcXbXbXbXbXbXvXnXnXnXnXd.q q 0 : = : : d d f j k k d d d 9 d d j k k l #.$.$.z h #.k h h #.+.@.@.+.O.g 9 9 q w #.h #.%.#.#.#.#.O.c.&.+.l g h $.@.@.&.&.z.v.x.x.v.9 9 g g g g g g h %.O.X.h h +.z.c.v.c.c.c.c.c.A.nXnXnXnXnXcXcXcXxXxXqXqXqXqXqXqXxXxXcXrXrXrXqXqXqXqXqXqXqXqX9XwX8X-X-X-X` {.,X+X| Q Q K  .[ Q ! ^ e.0.e.W ^ V ^ ^ v y M W B B =._._._._._._._._._._._._._._._.j._._.j.",
"2X2X8X2X2X8X8X8X8X:X:X2X2X2X:X-X-X-X-X-X-X-X-X-X-X-X-X-X-X-X8X8X8X8X8X8X8X8X8X8XwXwXwXwXqXwXwXwXwXqXwX8X8XwXwXqXqXqXqXqXqXqXqXqXqXqXcXbXxXbXbXbXbXbXnXnXnXnXmXmXyXq q q 0 : ; : w d d j j j d d d d d d j j j l $.%.#.h z #.k h h X.@.z.@.h g 9 j 9 j q %.#.h %.$.O.#.#.$.@.c.+.k g l $.z.&.&.z.z.v.n.n.*.9 9 g g g g g g g %.+.O.X.h g +.@.&.&.z.z.z.c.#XmXnXnXnXnXcXcXcXcXxXqXqXqXqXqXxXxXqXqXrXrXqXqXqXqXqXqXqXqXqXqXwX8X-X-X>X{.{.,X+X| Q Q K Q [ Q ! ^ e.0.0.^ ^ B ^ 0.v x y 0.M V =._._._._._._._._._._._._._._._._._._._.",
"8X2X8X8X2X8X8X2X2X:X2X:X2X2X-X-X:X-X-X-X:X2X:X:X:X2X2X8X:X:X8X8X8X8X8X8X8X8X8XwXqXwXqXwXwXwXwX8XwX8X8X8XwXqX8XwXqXqXqXqXqXqXqXqXqXxXxXbXxXbXxXxXcXbXnXnXnXmXmXmXnXE q q q 0 : : = w d j j j d d d d d d j j j l $.#.h h %.%.l l l O.z.@.X.g 9 9 l 9 j d #.%.h +.c.O.X.O.c.+.@.z.O.l g #.c.z.z.z.z.x.n.n.$.9 9 9 h g g h g g O.+.+.O.h h h O.+.@.&.&.z.<.5XmXnXnXnXnXcXcXcXcXcXqXqXqXqXqXqXxXxXxXcXcXqXwXqXqXqXqXqXqXqXwX8X8X4X-X>X` {.,X,X| Q K K  ./ Q ! ( e.^ ^ e.^ B W ^ E ^ y W M B V _._._._._._._._._._._._._._._._._.j._.",
"2X2X2X2X2X2X8X8X2X2X:X:X8X2X:X:X2X2X-X-X8X8X8X:X:X:X-X2X:X:X8X8X8X8X8X8X8X8X8X8X8XwXwX8XwXwX8XwXwXwX8XwXwX8XwXwXqXwXqXwXqXqXqXqXqXxXxXxXxXbXbXcXxXbXbXnXnXnXmXnXmXd.q d q q : ; : : d d j d j d d d d d d j j l %.k k #.%.%.k l g $.z.+.g h g w k l 9 9 k *.#.O.c.*.%.O.z.@.O.z.@.h g h c.x.z.v.x.z.x.x.$.g 9 9 h g g h h h O.+.+.@.+.X.h h O.+.&.&.&.!.nXnXnXnXnXnXcXcXcXcXcXqXqXqXqXqXqXqXqXcXcXcXqXqXqXqXqXwXwXwXwX8X8X8X4X-X>X` {.,X,X] Q K K  ./ E ! ( ( ^ W e.^ B W W E u.V N B B x m C e C -.;.;.p.p.p.p.p._._._._._._._.",
"2X2X8X8X2X2X8X8X8X2X2X2X2X2X2X2X:X-X:X8X8X:X8X8X:X:X:X:X:X:X8X2X8X8X8X8X8X8X8X8X8X8XwXwXwXwX8X8XwX8X8X8X8X8X8X8XwXwXwXqXqXqXxXxXxXxXxXxXbXxXxXcXcXbXnXbXnXmXnXmXmXOXx q q q 0 : : : : d d d n d d d d d d j j l z k k #.#.#.k j h z.@.O.g #.l 9 h O.l 9 g $.$.%.z.c.*.$.c.&.X.O.z.+.l g z.x.z.v.x.z.n.b.#.g g 9 l h h h h h h O.+.@.@.@.O.O.X.O.+.*.M.9XvXvXnXnXnXnXcXcXcXcXcXrXqXqXqXqXxXxXxXcXcXrXwXwXwX8XwX8X8X8X8X8X8X8X4X-X>X` {.,X,X] Q K K Q / Q ! ( ^ e.^ e.^ B W W x M 0.M V B x N C n p M V n V V V =.C V e p -.-.=.:.",
"2X2X8X8X2X8X8X8X8X8X8X2X2X2X8X:X2X-X:X:X:X:X:X2X8X:X:X8X2X2X8X8X8X8X8X8X8X8X8X8X8X8XwXwXwXwX8X8X8XwXwX8X8X8X8X8XwXqXqXqXqXxXxXxXxXxXxXxXxXxXxXxXxXbXbXbXnXnXmXnXmX8Xx q q q q 0 : = = w d d d d d d d 9 d j j j k k k #.#.#.k 9 %.z.@.X.X.O.l l g %.k j 9 k $.+.c.c.*.c.v.z.%.h @.@.h g &.b.x.v.v.x.v.N.k g g 9 g O.h h h h h h O.+.$.*.$.@.+.O.O.$.^.nXnXnXnXnXnXvXcXcXcXcXcXcXxXqXqXqXqXqXqXcXcXqXwX8X8X8X8X8X8X8X8X8X8X8X4X-X>X` {.,X,X| Q P D  .Q E E ( W e.^ e.^ B W W v t ^ M W B y M n q p N W M ^ 0.N V V V y 0 n n ; 0 ",
"2X0X8X8X3X3X3X0XwX8X8X8X8X8X2X8X2X2X:X:X-X-X:X:X:X-X-X8X2X2X:X8X8X8X8X8X8X8X8X8X8X8XwXwX8X8X8X8XwXwX8X8X8X8X8X8XwXqXqXqXxXxXxXxXxXqXxXxXxXxXxXxXxXxXbXbXbXnXmXnXmXbXn q d d q q 0 : : : q d d d d d d d d d j j j l k #.#.#.j 9 $.z.&.X.#.k k j j $.k z l g %.*.v.c.+.&.v.x.$.h h @.O.g +.b.b.b.v.v.b.V.f 9 g 9 9 X.O.h h h h h h O.+.$.$.$.$.@.+.).bXmXmXnXnXnXvXbXcXcXcXcXxXqXxXxXxXxXxXqXqXcXcXqX8X2X8X2X8X8X2X8X2X8X8X8X4X-X;X` {.,X,X| Q P v ] Q Q ! ( ^ e.e.e.^ B ^ W v B y V V B i C n p y y 8.M ^ ^ N W W W y 0 n n ; r ",
"2X2X8X8X0X2X0X0XwX8X8X8X2X-X2X-X8X2X:X2X-X-X-X:X-X-X:X2X2X2X8X8X8X8X8X8X8X8X8X8X8X8X8XwX8XwX8X8XwX8X8X8X8X8X8XwXwXqXqXqXqXqXxXqXqXqXqXqXqXqXxXxXxXbXbXbXbXnXmXmXnXBX_ q q q q q q 0 : : : d d d d d d d j j d d j l k z #.#.f j *.x.@.#.h #.%.f l $.#.h #.g h *.b.b.@.@.v.n.*.#.h +.@.h +.b.b.b.b.v.b.b.9 w g g 9 l %.O.h h h h h X.O.+.$.$.$.$.>.6XvXvXmXvXvXnXvXbXcXcXcXcXxXqXxXxXxXxXqXxXqXcXcXcX2X2X2X2X2X8X8X4X8X2X8X8X2X-X,X` {.,X,X .Q P v ] Q Q ! ( ^ ^ e.e.e.! ^ ^ E 0.n V V V M V V C C q N M ^ ^ V W ^ V y t M n r r ",
"2X0X2X0X0X0X0X0X0X8X8X2X2X-X2X-X:X:X-X-X-X-X-X-X-X-X-X-X2X2X2X8X8X8X8X8X8X8XwXwX8XwXwX8X8X8X8X8XwX8X8X8X8X8X8XwXwXqXqXqXqXqXqXqXqXqXqXqXqXqXxXcXxXbXbXbXbXnXmXmXnXmXJ.q q w w q q q w 0 : w d d d d d j d j f d j j k z #.k 9 j $.x.+.#.h z %.h h +.$.h h #.g *.v.N.*.@.v.b.&.$.h h *.X.@.b.b.x.v.v.N.$.9 w 9 g g 9 %.+.O.X.X.X.h X.O.O.+.@.@.$./.nXvXvXvXvXvXvXbXbXcXcXcXcXqXqXxXxXxXxXxXqXqXcXcXqX2X2X2X4X4X8X8X2X2X8X8X4X-X-X,X` {.,X,X| Q P v Q Q Q ! ( ^ e.t.f.t.E ^ ^ E e.W B W V B 0.V N N V V M 0.^ V ^ ^ V n y n n r t ",
"2X2X2X8X0X8X2X0X0X0X8X8X2X2X2X:X:X:X:X:X:X:X:X:X-X-X-X-X2X2X2X2X2X8X8X8X8X8X8X8XwXwX8X8X8X8X8XwXwXwX8X8X8X8X8XwXwXwXwXqXqXqXqXqXqXqXqXqXqXxXxXxXxXcXbXbXbXnXmXnXnXmXOXx q w w w w w w q w w q d d d d j d j f d d j j k #.j j C #.x.+.#.O.k k $.%.#.*.#.l #.k $.b.b.c.*.c.v.z.@.k g +.O.*.b.b.x.x.b.*.O.9 f 9 g g 9 h @.+.X.X.O.O.X.O.O.O.+.$.).yXvXvXnXnXnXvXvXvXbXvXcXcXcXqXqXqXxXxXxXqXqXcXcXcXqX2X2X2X2X2X2X2X4X-X-X-X-X-X-X,X` {.,X,X .Q P i Q Q Q ! ( ^ ( f.^ a.E ^ _ x y ^ M W V E u.V C C V B M 0.^ ^ ^ 0.V M y n V y y ",
"2X2X2X0X8X2X0X0X0X0X8X0X8X:X:X:X:X:X:X:X:X:X:X:X:X-X-X:X-X2X2X2X2X8X8X8X8X8XwXwXwXwX8XwXwXwXwXwXwXwXwX8X8XwX8XwXwXwXwXqXwXqXqXqXqXqXqXqXqXqXxXxXxXcXbXbXbXnXmXmXnXmX9Xn q q q q w w w w q w w q d d j j d d d j d d j k z g k l l v.@.h #.l #.$.c.X.c.@.k l #.%.v.b.v.*.z.v.c.&.#.l h O.*.v.b.v.v.*.h #.9 g w 9 g g g O.+.O.X.O.O.O.O.+.O.$.A.6XmXvXnXvXvXvXvXvXvXvXvXvXcXcXwXqXxXxXxXxXcXcXcXcXcXqX2X2X2X-X-X-X-X-X-X-X-X-X-X-X,X` ` ,X,X . .P i Q Q E E ^ ( ( ^ v f.W ^ ^ v x V B V B M y.C C C V V B ^ ^ 0.0.W N M y n V t x ",
"2X2X2X2X2X3X8X8X3X0X0X2X2X2X2X:X:X:X:X:X:X:X:X:X:X:X:X:X:X:X:X:X8X8X8X8X8X8X8X8XwXwXwXwXwXwXwXwXwX8XwX8X8X8X8XwXqXqXwXqXqXqXqXwXqXqXqXqXqXqXxXxXbXbXbXbXbXnXnXmXnXnXnXB q q q q q q w w w w w w q d j j j d d j d f j l k j z l j &.c.l %.9 #.#.v.O.$.*.%.l l #.v.b.b.c.&.c.v.&.@.h g h @.v.c.v.c.l 9 #.q 9 9 9 9 g g h +.O.O.O.O.O.X.O.$.,.*XmXmXnXnXvXnXvXvXvXvXvXvXvXvXcXwXwXxXxXxXxXxXcXcXcXcXqX4X;X-X-X;X-X-X-X;X-X-X-X-X-X,X` ` ,X,X .T P v  .Q Q E W ( t.^ ^ ^ ^ ( _ v M M V M B v t.N N N N W B ^ ^ ^ V 0.B V x n V t n ",
"2X2X2X2X2X2X2X0X2X3X2X3X2X2X2X:X:X:X:X:X-X:X:X:X:X:X:X:X:X-X:X-X2X8X2X2X8X8X8X8XwXwXwXwXwX8XwXwXwXwXqXwX8X8XwXwXqXqXqXqXwXwXwXqXqXwXwXqXqXqXxXxXxXbXbXbXnXbXbXmXnXnXnX( x q q q q q w q w w w w q d d j j d d d j d j j l k k l 9 %.$.9 >.w $.l c.$.#.*.$.#.l h &.b.N.c.&.z.v.z.@.X.h h +.c.@.*.#.w 9 >.T.9 g 9 9 g g g O.O.O.O.X.X.X.O.$.$XmXmXvXvXnXvXvXvXvXvXvXbXvXvXcXxXqXqXxXxXxXxXqXxXcXcXcXqX4X;X;X;X;X-X-X-X-X-X;X-X-X-X,XH ` ,X,X . .P K  .Q Q E ( ( f.( e.^ ! e.^ v W M V B B M u.V C N B W E 0.^ ^ V 0.C V x n V y n ",
"2X2X2X2X2X2X3X0X0X0X2X2X2X2X:X:X:X:X-X-X-X-X:X:X:X:X:X:X:X:X:X:X2X:X-X:X:X8X8X8X8XwXwXwXwXwXwXwXqX8X8X8X8X8XwXwXwXqXqXwXwXqXqXqXqXqXqXqXqXqXxXxXxXcXbXnXnXnXnXmXnXnXnXU.x q q q q q 9 9 w w w : w q d j j j d d j j j f l k l j 9 #.%.w >.w $.h O.*.X.*.c.%.O.g +.v.N.v.z.z.v.v.z.O.X.h $.&.&.+.l 9 g >.iX/ 9 l 9 g g g h O.O.O.O.h X.$.!.bXmXmXvXnXnXvXvXvXvXvXvXvXvXxXcXxXxXxXxXxXxXxXxXqXxXcXcXwX4X;X-X;X-X-X-X-X-X-X-X-X-X;X,X` ` ,X,X . .K D  .Q Q E ^ ( t.^ e.W ^ e.^ v V M V B M B ^ V N C M W B e.0.^ ^ 0.M V M n V y n ",
"2X2X2X2X2X2X0X0X0X0X2X2X2X2X:X:X:X:X-X:X-X-X:X:X:X:X:X:X:X:X:X:X:X-X-X-X2X2X2X8X2XwXwXwXwXwXwXwXqXqXwX8X8X8XwX8XwXwXqXwXwXqXqXwXqXqXqXqXqXqXqXxXxXbXbXnXnXbXnXnXmXnXnX5Xn d q q q q d d 9 w : = : w q d j j d d j j d f l k l j q #.l w >.9 $.X.g *.#.+.c.$.+.l h z.b.v.&.z.v.v.x.$.O.h c.&.z.#.f f g $.uX8Xd.V g g g g g h O.O.O.O.#.!.yXmXmXmXvXnXnXnXvXvXvXvXvXvXvXcXxXxXxXxXxXxXxXxXxXxXxXcXcXwX4X;X-X;X-X-X;X;X;X;X;X;X;X;X X` ` ,X,X' T K u ] Q Q E ^ ( e.^ t.W ^ ( ^ v V M B W M B ^ V N n n V B e.e.0.0.0.M V M n V t x ",
"2X2X2X2X8X8X0X0X0X0X0X8X8X2X2X:X:X:X:X:X:X:X:X:X:X:X:X:X:X:X:X:X:X:X:X:X2X:X2X2X2X8X8XwXwXwXwXwXqXqXqXwXwX8X8X8XwXqXwXwXwXwXqXqXqXqXqXqXqXqXqXxXxXcXbXbXnXbXnXmXmXnXmXnXM q d d d d d d q w : : w w w w d j d d f j j j j C j 9 q %.g 9 $.9 $.O.g %.%.X.c.*.+.#.l @.n.n.z.&.z.v.b.c.%.h m.z.v.$.w j g $.1XmXnX5Xd.^ C g g h h X.#.;.~.rXvXvXvXvXvXvXvXvXvXvXvXvXvXcXvXvXxXxXxXqXxXxXxXxXcXcXcXcXcX0X-X;X;X;X-X-X;X-X;X;X-X-X-X;X XH ` ,X,X'  .K u ] Q P E ( ( e.W ( W E e.^ v V B B W M E V V C n n B B e.e.0.0.0.M ^ n n V y x ",
"2X2X2X2X8X0X0X8X8X0X0X2X0X3X2X2X:X:X:X:X:X:X:X:X:X:X:X:X:X:X:X:X:X:X:X-X:X:X2X8X2X8X8X8X8X8X8XqXwXwXqXwXwX8X8XwXwXwXwXwXwXwXqXwXwXqXqXqXqXqXqXxXxXxXbXbXnXbXnXnXmXnXmXNX/ d d d d d d d q q w w w w : = : d d j j d j j j j C f q #.h f $.g %.+.l h $.$.%.c.+.%.l O.z.N.x.&.@.&.x.b.+.X.v.c.v.%.w j g *.J.mXmXmXbX5X%XP.a.e.e.t.P.*XbXvXmXvXvXvXvXvXvXvXvXvXvXvXvXvXvXcXxXxXxXxXxXxXxXxXcXcXcXcXcX0X-X;X;X;X;X;X;X;X-X-X-X-X-X;X X` {. X,X .T K u Q  .Q E ( ( t.! E ) t e.^ v V B B B B E V V C C M B B ^ e.e.^ 0.M ^ n n V y n ",
":X2X2X2X8X8X2X2X8X0X0X0X0X8X2X2X:X:X:X:X:X:X:X:X:X-X:X:X:X:X:X:X:X:X:X-X-X-X2X2X8X2X8X8X8X8X8X8XwXwXwXwXwXwXwXwXwXwXwXwXwXwXwXwXqXqXqXqXqXqXxXxXxXxXbXbXbXnXmXmXmXnXnXNXXXx d d d j j d 9 q q w 0 : : O O q j j j j j j j j j d q k %.9 c.X.h $.h g $.c.X.v.*.%.h h &.N.n.z.@.@.@.b.c.+.v.x.x.%.a g g &.;.mXmXmXmXmXmXnXuX9XwX9XvXmXmXmXmXvXvXvXvXvXvXvXvXvXvXvXvXvXvXvXxXqXxXxXxXxXxXxXxXcXxXcXcX0X2X;X;X-X-X;X-X;X;X-X-X-X-X;X XH {. X,X .T K u Q Q E E ( ^ e.! E ( y ( ^ v B B M B B ! V V C n n B B ^ e.0.^ ^ C V n M V y n ",
":X2X2X2X2X2X0X0X8X0X0X0X0X0X2X2X:X:X:X:X:X:X:X:X:X:X:X:X:X:X:X:X:X:X:X:X-X-X-X2X:X8X8X8X8X8X8X8X8XwXwXwXwXwXwX8XwXwXwXwXwXwXwXwXwXqXqXqXqXqXxXxXxXxXbXbXbXnXmXmXmXnXnXmXbXM d d d d d d 9 q q q w : = & = w q j j j j d j j j f q l $.w $.$.X.$.h l #.v.+.@.v.@.X.h $.b.B.v.z.+.O.c.v.&.v.n.x.k w l g c.>.9XmXmXmXmXmXmXmXmXmXmXmXmXvXmXmXvXvXvXvXvXvXvXvXvXvXvXvXvXvXvXxXxXxXxXxXxXxXxXxXxXqXcXcX8X-X;X;X;X-X-X;X;X;X;X;X-X-X-X XH {. X,X .T K u Q Q Q E ( ( ( ^ E ( y ^ ^ x B B M ! B ! V N n n n B B ^ 0.0.^ ^ B W M V B y n ",
"2X2X2X2X2X2X0X3X2X0X0X0X0X8X8X0X8X:X:X:X:X:X:X:X:X:X:X:X:X:X:X:X:X:X:X:X-X-X-X2X2X2X8X8X8X8X8X8XwXwXwXqXwXwXwX8XwXwXwXwXwXqXwXwXwXqXqXqXqXqXqXxXxXcXbXbXbXbXnXnXmXnXnXNXNXa.C n d d d d 9 q q q w w = = : 0 w w f d j j d j j d 9 l %.w h c.$.c.+.k g c.c.O.z.z.O.h O.n.B.x.v.@.O.@.z.z.x.n.x.l 9 l h v.*.*XmXmXmXmXmXmXmXmXmXmXmXmXmXvXvXvXvXvXvXvXvXvXvXvXcXvXvXvXvXvXxXxXxXxXxXxXxXxXxXxXxXxXcX2X-X;X;X;X;X;X;X;X;X;X;X-X-X-X X` {. X,X|  .R u Q Q P E ( _ ( W ! ^ v E _ v B B M ! E ! V B n n n B B e.e.0.0.^ V W B V M y n ",
"2X:X2X2X2X2X2X0X3X2X3X0X8X2X8X8X8X:X:X:X:X:X:X:X:X:X:X-X:X:X:X:X:X:X:X:X-X-X2X-X2X2X8X8X8X8X8X8XwXwXwXwXwXwXwX8XwXwXwXwXwXqXwXwXwXqXqXqXqXqXqXqXxXbXbXbXbXbXnXnXmXnXnXmXmX1Xn m d d d d 9 q q q d w : : : : : = w q d d d j j d d j #.w l O.$.v.&.X.l O.b.*.+.x.@.X.h z.N.n.v.&.O.+.x.x.x.n.x.g 9 h h v.c.(.mXmXmXmXmXmXmXmXmXmXvXvXmXvXvXvXvXvXvXvXvXvXvXvXcXvXvXvXvXxXxXxXxXxXxXxXxXxXxXxXxXxXxX2X2X;X;X;X;X;X;X;X;X;X-X-X-X-X X{.{. X,X|  .J u P Q P E ( _ ! ( _ ! E E ! v M B M B B ! W N n n M B B ^ e.u.0.0.V V n V x y x ",
":X:X2X2X2X2X2X0X3X2X0X8X8X0X2X2X8X2X:X:X:X:X:X:X:X:X:X:X-X-X:X:X:X:X:X:X:X2X2X2X2X2X8X8X8X8X8XwXwXwXwXwXwXwXwX8XwXwXwXwXwXwXwXqXqXqXqXqXqXqXxXqXbXbXnXbXbXnXnXnXnXnXmXmXmXnXW m d f f d q 9 9 9 q w : 0 w w : = & : 9 d d j j j j j k 9 l k h c.v.+.h g c.v.+.@.c.O.h +.N.b.v.&.+.&.x.n.z.n.x.9 9 h h v.v.m.nXmXmXmXmXmXmXmXmXmXvXmXvXvXvXvXvXvXvXvXvXvXcXvXcXcXvXvXvXcXxXxXxXxXxXxXxXxXxXxXxXxXqX2X-X;X;X;X;X;X;X;X;X;X;X-X-X;X X{.`  X,X' T R u Q E P E ( ! ! ( ( E W E E u x B B B B E W N n n M B B ^ 0.0.^ ^ V W x V y y x ",
":X2X2X2X2X2X2X0X2X2X8X0X0X8X3X2X2X8X:X:X:X:X:X:X:X:X-X:X:X:X:X:X:X:X:X:X2X2X2X2X2X2X8X8X8X8X0XwXwXwXwXwXwXwXwX8X8XwXwXwXwXwXwXqXqXqXqXqXqXqXxXxXbXbXbXnXbXnXnXnXnXmXnXnXmXNXY.j d d f q d q d d q w w q w w : = & = w w q d j j j j l l g #.l O.x.&.h g O.b.v.h v.@.O.X.b.N.b.z.@.x.v.N.z.n.n.9 9 h h v.b.v.pXmXmXmXmXmXmXmXmXmXvXvXvXvXvXvXvXvXvXvXvXvXcXcXcXcXvXvXcXxXxXxXxXxXxXxXxXxXxXxXxXxXqX2X-X;X;X;X;X;X;X;X;X;X;X-X-X-X X{.H  X,X| T R 6 T P P E ( Q ! ( ( B W E E r y W B B B E ! B n n M B B W ^ V V V V B n W y y x ",
":X2X2X2X2X2X2X2X2X2X2X2X0X3X2X2X2X8X8X:X:X:X:X:X:X:X:X:X:X:X:X:X:X:X:X:X:X:X:X:X2X2X2X8X8X8X8XwX8XwXwXwXwXwXwX8X8X8X0XwXwXwXwXwXqXqXqXqXqXqXxXbXbXbXnXnXnXnXmXmXmXmXnXmXNXBXa.9 d 9 d d d d d d d w d d q w : & = : : : : w 9 j j j 9 k 9 %.k l @.c.O.h g $.b.#.+.v.+.X.c.N.N.z.x.N.v.N.x.B.b.w 9 h h v.b.b.#XmXmXmXmXmXmXmXmXvXmXvXvXvXvXvXvXvXvXvXvXvXcXcXcXcXvXvXxXxXxXxXxXxXxXxXxXxXxXxXvXcXqX2X-X-X;X-X-X;X;X-X-X-X-X-X-X-X[.H G [.,X| T R 6 P Q K P ! ! ! _ ( B W E ! 3 y B W M M E W M n n M B M V W V W B V B x W y y x ",
"2X2X:X2X2X2X2X2X2X2X8X2X0X8X2X2X2X8X8X:X:X:X:X:X:X:X:X:X:X:X:X:X:X:X:X:X:X2X:X2X2X2X2X8X8X8X8X8XwXwXwXwXwXwXwX8X8X8X0XwXwXwXwXwXqXqXqXqXqXqXxXxXbXbXnXnXbXmXnXmXnXnXnXmXNXnXx d q 9 d d d j d d q w j j f w : & = : : = = : w 9 j j 9 k j #.%.k h *.c.O.h h z.c.h v.z.X.c.b.n.x.N.N.n.B.x.n.b.a 9 h h v.b.b.A.mXmXmXmXmXmXmXmXvXmXvXvXvXvXvXvXvXvXvXvXvXvXcXcXcXvXvXxXxXxXxXxXxXxXcXxXxXxXvXxXcXqX2X-X;X;X-X-X;X-X;X-X-X-X-X-X-X[.H R [.[.| T R 5 Q Q K P E ! ! ( ( B ! E ! 1 x M B n v E V M n n M B n n B W ^ M W B x V y y x ",
":X:X:X:X:X2X2X2X2X2X3X0X8X2X8X2X8X8X8X:X:X:X:X:X:X:X:X:X:X-X:X:X:X:X:X:X:X:X:X:X:X:X8X8X8X8XwXwXwXwXwXwXwX8XwX8X8XwXwXwX8XwX8XqXqXqXqXqXqXqXbXbXbXbXbXbXnXnXnXnXnXnXnXmXNX5Xq 9 d d 9 q d j 9 d w 9 j j f q : ; : : : : = : : 9 f j 9 j k #.$.#.l h z.@.O.l O.z.O.+.b.+.&.N.b.x.N.N.N.B.n.n.c.a g h h x.b.b.m.yXmXmXmXmXmXmXmXvXvXvXvXvXvXvXvXvXvXvXvXcXcXcXcXcXcXvXxXxXxXxXxXxXxXcXxXxXxXcXcXcXqX2X-X;X;X-X-X-X-X;X;X-X-X-X-X;X[.` R [.| |  .R u P Q K K ! ! E ( _ E E E E ; v x E x v E B M p n n B M V V W W V W B x B y y n ",
"2X2X:X:X:X2X2X2X2X2X2X0X8X3X3X3X2X8X8X:X:X:X:X:X:X:X:X:X:X-X:X:X:X:X:X:X:X:X2X:X:X:X8X8X8X8X8X8XwXwXwXwXwX8X8X8X8X8XwXwXwXwXwXqXqXqXqXqXqXxXbXbXbXnXbXbXnXnXnXmXnXnXnXmXNXXXq q 9 w w q j w f w w j j j j q w 0 q w : : ; : w d g k f 9 j h %.%.k l #.c.%.h h +.&.X.c.*.&.N.b.z.B.N.N.B.B.n.$.w g h h x.b.v.v.=XmXmXmXmXmXmXmXvXvXvXvXvXvXvXvXvXvXvXvXcXcXcXcXcXvXvXxXxXxXxXxXxXxXxXxXcXxXcXcXcXqX2X-X;X;X;X-X-X-X;X;X;X-X;X;X;X[.` ` } }  . .R u P Q K K Q ! ! ! P ( _ E _ 1 B M M x v B E M n y n M x V V W V ^ ^ B x V x y n ",
":X:X:X:X2X2X2X2X2X2X2X2X2X8X3X3X0X8X8X:X:X:X:X:X:X:X:X-X-X-X:X:X:X:X:X:X:X2X2X2X:X8X8X:X2X8X8X8X8XwXwXwXwXwX8XwXwX8X8XwX8X8XwXwXqXqXqXqXxXbXbXbXbXnXbXbXbXnXmXmXnXnXnXmXNX( q w w w q d q w d : f C j j d q w d j q w : : : q j k k j 9 f g h %.#.k l +.c.O.h h $.$.+.c.z.b.z.x.B.N.N.N.B.n.#.9 g h h x.b.b.b.(.mXmXmXmXmXmXvXvXvXvXvXvXvXvXvXvXvXvXvXcXcXcXcXcXcXvXvXvXxXxXxXcXxXxXxXxXxXxXcXcXwX2X-X;X;X-X-X-X-X-X-X-X-X;X;X;X[.` ` [.} ]  .K u P Q K K E ! Q E v / E E _ 1 W M M x x E M M p y x v B M 0 ^ u.V ^ B x B y t x ",
":X:X2X2X2X2X:X:X2X2X8X8X8X8X8X8X0X8X8X:X:X:X:X:X:X:X:X-X:X-X:X:X:X:X:X:X:X2X2X8X:X8X8X<X8X8X8X8X8XwXwXwXwXwX8X8XwX8X8X8X8X8XwXwXqXqXqXqXbXbXbXbXbXnXbXbXmXmXmXmXmXnXnXNXMXx q w q d d q : d w w j j j j d w q j j d q : w w d k #.k f d j 9 g h #.#.k h $.$.O.h O.*.@.@.x.b.+.x.N.N.N.N.B.n.k 9 g h X.x.b.b.v.m.bXmXmXmXmXmXvXvXvXvXvXvXvXvXvXvXvXvXvXcXcXcXcXvXvXvXvXxXxXxXxXvXxXxXxXxXxXxXxXcXwX2X-X-X;X-X-X-X-X;X;X-X;X;X;X;X{.H {.| [.|  .R u P Q K K ! ! _ E E E E E _ t W M M x x E B M p y x v M M W e.e.B ^ B x M x t y ",
":X:X:X:X:X2X2X8X2X8X8X8X8X8X8X8X8X8X8X:X:X:X:X:X:X:X-X-X:X:X:X:X-X:X:X:X:X:X8X:X:X:X:X<X8X8X8X8X8X8XwXwXqXwXwX8X8X8X8X8X8XwXqXqXqXqXqXqXrXbXbXbXbXnXbXbXbXnXnXnXnXnXnXnXnXC j n C d q w q q : j j j j d 9 w d l C j d w q g k %.#.l j j f 9 9 9 l k k h h $.%.#.O.%.z.&.v.c.+.x.N.N.N.N.B.n.l 9 g h X.v.b.b.v.m.6XmXmXmXmXvXvXvXvXvXvXvXvXvXvXvXvXcXcXcXcXcXvXvXvXvXxXxXxXxXxXxXxXxXxXxXxXxXxXxX0X2X-X;X;X-X-X-X-X;X;X;X;X;X;X;X{.` {.[.| |  .P u P Q K P E P v v E E E E _ v E x x x x E M n j q x x v M t.0.^ M V M n M x t x ",
":X:X:X:X:X:X8X8X8X8X8X8X8X8X8X8X8X8X:X:X:X:X:X:X:X:X-X-X:X:X:X:X:X:X:X:X:X:X:X:X:X:X:X<X8X8X8X8X8XwXwXwXqXqXwX8X8X8X8X8X8X8XwXwXwXqXqXqXqXrXbXbXnXnXbXbXbXnXmXmXnXnXnXnXnXA.A.;.d 9 w w d = 9 j j j j f 9 9 j k k j d q j k %.$.k j j j j d 9 9 9 g g k l h %.#.#.O.&.&.&.+.+.z.N.N.N.B.B.n.k 9 h h X.z.b.b.v.v.#XvXmXmXmXvXvXvXvXvXvXvXvXvXvXvXvXvXvXvXvXcXcXcXvXvXxXcXcXxXxXxXxXxXcXcXxXxXxXqX8X2X-X-X-X-X-X-X-X;X;X-X;X;X;X;X{.` {. X[. .T T u P Q K K E E Q v v E v ! E c M x x x x E M M n q x v ^ t.e.^ ^ M V M n M x y n ",
":X:X:X8X8X8X8X8X<X<X8X8X8X8X8X8X8X8X:X:X8X:X:X:X:X:X:X-X:X-X>X-X:X:X:X:X:X:X:X:X:X:X:X:X2X8X8X8X8XwXwXwXwXwXwXwX8X8X8X8X8XwXwXwXwXqXqXqXqXxXbXbXnXnXbXnXnXmXnXnXnXnXnXnXnXA.>.f 9 9 9 d w w d j j j d 9 9 j j k C j 9 q j %.*.<.k k m j l j j 9 w 9 9 g k h h #.#.O.O.+.O.X.+.z.N.N.B.N.N.N.j 9 h h X.z.b.b.v.b.A.nXmXmXmXvXvXvXvXvXvXvXvXvXvXvXvXvXvXcXvXvXcXcXvXvXvXvXcXvXcXxXxXcXxXcXxXxXcXqX8X2X-X-X-X-X-X-X-X;X;X-X;X;X;X;X{.` {. X[. .T P 6 P P K K P ! ! E E P i _ E i M M v x y E M n n q x x ^ ^ ^ V W B V M M n M y n ",
":X:X:X:X:X:X3X3X:X8X8X8X8X8X8X8X8X8X8X:X<X:X:X:X:X-X-X-X:X:X:X:X:X:X:X:X:X:X:X:X:X:X:X:X:X:X2X8X8XwXwXwXwXwXwX8X8X8X8X8X8XwXwXwXwXwXqXqXqXbXbXnXnXnXnXnXnXnXmXnXnXnXnXnXMX).j d d 9 q d = d j j j j f 9 d j l l l j q d k $.c.*.#.m #.l z l j q w 9 9 l k h h #.$.g g g h X.+.c.N.N.B.N.B.N.w 9 h h X.z.b.b.v.b.m.tXmXmXmXvXvXvXvXvXvXvXvXvXvXvXvXvXvXcXcXcXcXvXvXcXvXvXvXvXvXvXxXxXcXcXxXxXcXqX8X2X-X-X-X-X-X;X-X;X;X;X;X;X;X;X{.H {. X,X] T R 6 K P K K K E ! P v E t ^ W v v v v x y E x n p q x x V W ^ B V B V M M n M t n ",
":X:X:X<X8X3X3X3X3X3X8X8X8X8X8X8X8X8X:X<X<X:X:X:X:X:X-X-X-X:X:X:X:X:X:X:X:X:X:X:X:X:X:X2X:X:X2X8X8X8XwXwXqXqXwX8X8X8X8X8X8XwX8XwXwXwXqXqXbXbXbXnXnXbXnXnXnXnXnXnXnXnXnXnXnXa.d d 9 d n w d d j j j j 9 9 d j k k l j q j #.c.m.$.>.#.%.k #.k j 9 9 9 j #.z h h $.c.9 9 g h X.+.c.N.N.B.B.n.c.a 9 h h X.z.b.b.v.b.m.=XmXmXmXmXvXvXvXvXvXvXvXvXvXvXvXvXvXvXcXcXcXcXcXcXvXvXvXvXxXxXcXcXcXcXxXxXcXqX8X2X-X-X-X-X;X;X-X-X-X;X;X;X;X-X{.H {.|.|.| T J 5 K K K v K E E v b E t ( Q v x v x x t B x x q q x x B ^ ^ V B B W v B M v t n ",
":X:X:X<X:X8X3X3X3X2X8X8X8X8X8X8X8X8X:X:X<X<X:X:X:X:X-X-X:X-X:X:X-X:X:X:X:X:X:X:X:X:X:X:X:X:X2X8X8XwXwXwXwXwXwX8X8X8X8X8X8X8XwXwXwXwXwXqXqXbXbXbXnXnXnXnXnXnXnXnXmXnXnXnXMXa.d d d n q w j j j j j f f 9 j j k k l q 9 j $.c.c.#.>.%.$.#.#.l C 9 9 g k %.h h h $.<.g g g h X.+.z.N.B.B.B.n.@.a 9 X.h X.z.b.v.v.v.v.(.vXmXmXvXvXvXvXvXvXvXvXvXvXvXvXvXvXcXcXcXcXcXvXcXvXvXvXvXcXcXcXcXcXcXcXcXcXqX8X2X2X-X-X-X;X;X;X;X;X;X;X;X-X2X{.H [.|.[.| Y J 4 K K K K K E E v v E t ( Q v t v v x t E x n q q q x B ^ W B B B W v M x v y n ",
":X:X:X<X:X:X3X8X8X8X8X8X8X8X8X8X8X8X8X:X8X8X:X:X:X:X:X:X-X-X:X:X-X:X:X:X:X:X:X:X2X:X:X:X:X2X8X8X8XwXwXwXqXqXwX8XwXwX8X8X8X8X8XwXwXwXqXqXqXbXbXnXnXnXnXnXnXnXnXnXnXnXNXNXMX_ d d n d : C n j j j f 9 d 9 j j k k j q d k c.c.c.O.%.$.*.$.#.k k f j l #.#.h g h c.$.g g g h X.O.&.N.N.B.B.B.$.w g X.h X.z.b.v.v.b.v.m.tXvXmXvXvXvXvXvXvXvXvXvXvXvXvXvXvXcXcXcXcXcXcXcXcXcXvXvXvXvXvXcXvXcXcXcXcXqX8X2X-X;X;X;X;X;X-X;X;X;X;X;X;X-X{.H [.[.[.| R J 4 J K K K v P K c v E u ( _ v r v v y t E v x q q q v B ^ V B M B W M M x x y n ",
":X:X:X:X:X:X:X3X8X8X<X:X8X8X8X8X8X8X8X:X:X:X:X:X:X:X:X:X:X:X:X:X:X:X:X:X:X:X:X:X:X:X:X:X<X8X8X8X8XwXwXwXwXqX8X8XwX8X8X8X8X8XwXwXwXqXqXqXqXxXbXnXnXbXnXnXnXnXnXNXnXnXNXNXNXW d C j w q m j j j j 9 d d d j j k j d q j #.c.c.%.%.#.*.c.*.%.#.k l k h %.#.h h h c.*.h g g h X.O.&.N.N.B.N.B.%.9 g X.h X.z.b.v.b.v.b.m.*XvXmXvXvXvXvXvXvXvXvXvXvXvXvXvXvXvXcXcXcXcXvXvXvXvXvXvXvXvXcXvXvXcXcXcXcXrX0X2X-X;X;X;X;X+X+X+X+X+X;X;X;X;X{.H [.[.[.[.R J 4 K K K K v P v c c E v ( _ t 0 M v x t E v y q q q x B V W B M B B B M n x y x ",
":X:X:X:X:X:X:X:X:X:X8X8X8X0X0X8X8X8X8X:X:X:X:X:X:X:X:X:X:X-X:X:X:X:X:X:X:X:X:X:X:X:X:X2X8X8X8X8X8XwXwXwXqXwX8X8X8X8X8X8X8X8XwXwXwXwXqXqXeXbXxXbXbXbXnXnXnXnXnXnXnXnXnXNXMX^ C C d w j m j j j 9 d j d d j j j j 9 q l $.c.c.h %.#.c.c.c.%.#.k #.#.#.%.#.h h O.x.c.h g g h X.O.&.N.N.B.N.B.#.9 g O.l X.&.b.b.v.v.b.b./.mXmXvXvXvXvXvXvXvXvXvXvXvXvXvXvXvXcXcXcXcXvXvXvXvXvXvXvXvXvXvXcXcXcXcXcXqX8X4X;X+X.X[.{ [ [ [ [ [ | } UX.X{.` | [.[.| R D 5 K K c c v K v c u E v ( _ t r B v y t B x y q q y i B B B B M B B x M n x t y ",
":X:X:X:X8X8X:X8X8X8X8X8X8XwX0X8X8X8X8X8X:X:X:X:X-X-X:X:X-X:X:X:X:X:X:X:X:X:X:X:X:X:X2X2X:X:X8X8X8XwXwXwXqXwXwX8X8XwX8X8XwXwXwXwXwXwXqXqXeXbXxXbXbXbXnXnXnXnXnXNXNXNXNXNXMX) n d w q m j j d d 9 j d d d j l l j 9 j k z.c.$.X.#.m c.c.c.$.%.#.%.#.%.O.#.h O.+.x.z.h g g h X.O.&.N.N.B.N.B.h 9 h O.l X.&.b.v.v.b.b.b.A.cXmXvXvXvXvXvXvXvXvXvXvXvXvXvXvXcXcXcXvXcXcXvXvXvXvXvXcXcXvXcXcXcXcXcXcX9X;X+X.X} { { { { [ [ [ [ [ [ { [ { } } | | ] T K u c K u c c K v u t E v ( _ ; i v v y i B x y q 0 y u B B V B M B 0 * M M x y x ",
":X:X:X:X8X8X8X:X:X8X8X8X8X8X8X8X8X8X8X:X:X:X:X:X-X-X:X:X-X:X:X-X:X:X:X:X-X-X:X:X:X2X2X2X:X:X8X8X8X8XwXwXqXqXwX8X8XwX8X8X8XwXwXwXwXwXwXwXqXqXbXbXbXbXbXnXnXnXnXnXNXNXNXNXMXt.9 w w 9 m j d d 9 d j j d d j l j d q j %.c.c.%.#.#.#.c.c.c.@.$.#.%.$.%.#.h X.O.+.n.&.h 9 g h X.O.*.N.N.B.N.N.l 9 h O.h X.&.b.v.b.b.b.b.m.6XvXvXvXvXvXvXvXvXvXvXvXvXvXvXvXcXcXvXvXcXcXvXvXvXvXvXcXcXcXcXqXwX8X;X.X} } } { { { [ [ [ [ [ [ { { { { { { [ [ [ { a.d.a.d.{ [ [ E K K v v t P v _ Q ; v x v t t E x y w 0 y t B W V B B V x * M B x y x ",
":X:X:X8X:X8X8X:X<X:X8X8X8X8X8X8X8X8X8X8X8X:X:X:X-X-X:X:X:X:X-X-X:X:X:X:X:X:X:X:X:X:X:X2X2X2X8X8X8X8XwXwX8XwXqXwX8X8X8X8XwXwXwXwXwXwXwXwXwXeXeXbXbXbXbXbXnXnXnXNXNXNXNXNXNX( q w q C j d d 9 d j j d d d j j j 9 q l $.c.c.#.#.%.#.c.c.c.$.*.O.%.%.%.#.h O.O.+.n.&.h 9 g h X.O.&.N.N.B.N.N.l 9 h O.h X.&.b.b.v.b.b.b.m.#XvXvXvXvXvXvXvXvXvXvXvXvXvXvXvXvXvXvXcXvXcXvXvXcXcXvXqXqX4X;X.X} { { { { { [ [ [ { [ [ [ { { { { { { [ [ { { a.{ { { { { { d.d.d.d.d.d.a.[ E P v / E 1 E x v y i E x y q 0 y t B B V B B W W t M B x t x ",
":X:X:X<X:X:X:X8X8X8X8X8X8X8X8X8X8X8X:X:X:X:X:X:X:X:X-X:X:X:X:X:X:X:X:X:X:X:X:X:X:X:X:X2X2X8X8X8X8X8XwXwXqXwXwXwX8X8X8X8XwXwXwXwXwXwXwXwXeXeXeXbXbXbXbXnXnXnXnXnXnXNXNXNXNX! w q q C d j d 9 d d d d f j j j j w j #.c.c.$.O.O.$.#.c.v.c.*.*.O.$.%.%.h X.#.O.+.n.&.h g g h X.O.@.N.N.B.N.N.g 9 h O.h X.&.b.v.v.b.v.b.b.A.bXvXvXvXvXvXvXvXvXvXvXvXvXvXvXvXvXvXvXvXvXcXxXcXqX8X&X.X} { { { { { { { { { [ [ { { { { { { { { { { { d.d.d.d.d.a.d.{ d.d.d.d.d.d.d.d.d.a.Q u 2 t u u v u v x u B x y q 0 y t M B B M M B B v M B x t y ",
":X:X:X:X:X:X:X:X8X8X<X8X8X8X8X8X8X8X8X:X:X:X:X:X:X-X-X-X:X:X:X-X:X:X:X:X:X:X:X:X2X2X2X2X2X8X8X8X8X8XwXwXwXwXwXwXwXwX8XwXwXwXwXwXwXwXwXqXwXeXeXbXbXbXbXbXbXnXnXnXNXNXNXNXNXB : 9 d C j 9 9 d d j f j d j j j d w k $.v.c.O.O.O.M.#.v.v.v.c.*.%.$.%.#.h #.O.O.+.n.c.h g g h h O.@.N.N.N.N.N.g 9 h O.g X.&.b.b.v.v.v.b.b.A.yXvXvXvXvXvXvXvXvXvXvXvXvXvXvXvXvXvXcXvXvXrXqX;X+Xd.K.d.{ { [ [ [ [ [ [ { { { { { { { { { [ { { { { d.d.d.{ { { { d.K.K.d.d.d.d.a.a.a.( 4 7 7 7 7 7 7 < , < 3 2 i t t 0 0 t t n n B M n B B v M B y t y ",
":X:X:X:X:X:X<X<X8X8X8X8X8X8X8X8X8X8X8X<X:X:X:X:X:X-X-X-X:X:X:X:X:X:X:X:X:X:X:X:X2X2X2X2X2X2X2X8X8X8XwXwXwXwXwX8XwXwXwXwXwXwXwXwXwXwXwXqXqXeXeXbXbXbXbXnXnXnXnXnXNXNXNXNXdXw 0 q C d d 9 d d j d f j d j j j q d k x.b.$.X.O.&.c.%.b.b.b.v.*.$.$.$.#.O.%.O.O.&.b.c.h g g l h O.+.b.B.N.N.N.g 9 h O.g X.&.b.b.b.b.b.b.b.m.6XmXvXvXvXvXvXvXvXvXvXvXvXvXvXcXcXcXcXqX2X;XOXXXXXXXXXU.XXU.K.d.{ [ ( [ { { { { { { { { { { { { d.{ [ [ { { d.Q ( / d.K.d.d.d.d.[ Q K 7 7 7 7 7 < > 8 8 > < 7 7 7 < 1 < < 2 1 x x M M x B E x v M t y y ",
":X:X:X:X:X:X<X8X8X8X8X8X8X8X8X8X8X8X8X8X:X:X:X:X:X:X:X-X:X:X:X:X:X:X:X:X:X:X:X2X2X2X2X2X2X8X8X8X8X8XwXwXwXqXwXwXwX8XwXwXwXwXwXwXwXwXwXwXwXqXeXbXbXbXnXnXnXNXNXNXNXNXNXNXXX: q q C d f f d d d j j j j j j j q j %.v.v.+.h O.v.*.$.b.N.v.v.c.%.c.$.%.#.#.#.O.c.b.z.h g 9 g h O.+.b.B.N.N.N.g g h O.g X.&.b.b.b.v.b.b.b.b.=XvXvXvXvXvXvXvXvXvXvXvXvXvXcXwX4X;X+X.XXXXXU.J.d.d.d.T.U.U.U.U.XXXXK.K.{ { { [ { { { { { { a.a.{ { [ [ { { [ J / / J Q { ] P J 4 7 7 7 7 7 < > $ 8 > < 7 7 7 7 7 > 7 > < < < < 1 3 r t M B x v M t y y ",
":X:X:X:X:X:X8X8X:X<X:X:X:X8X8X8X8X8X8X8X:X:X:X:X:X:X-X-X-X:X:X:X:X:X:X:X:X:X2X2X2X2X2X2X2X8X0X8X8X8X8XwXqXqXqXqXwXwXwXwXwXwXwXwXwXwXwXwXwXqXeXbXbXbXnXMXNXNXNXNXNXNXNXNXn w d C d f f d d d d f d m j j j q 9 k @.v.c.#.h +.v.%.$.N.N.v.c.*.X.$.c.$.#.#.#.+.c.b.z.X.g g g h O.+.b.B.N.N.N.g g h +.g O.&.v.b.n.v.v.b.b.b.^.vXvXvXvXvXvXvXcXvXvXxX8X;X+XXXT.T.K.K.K.J.J.J.J.d.d.K.d.d.T.T.d.d.T.U.U.Y.T.T.J.K.d.{ { a.d.a.{ { { { [ [ 7 7 < ] T 6 7 7 7 7 7 7 7 7 7 > 8 > > 7 7 7 7 7 7 7 7 < < < 7 7 7 < < < < < < - ; 1 t ; t y ",
":X:X:X:X:X8X8X8X:X:X:X:X:X8X8X8X8X8X8X<X:X:X:X:X:X:X-X-X-X-X:X:X:X:X:X:X:X:X:X2X2X2X2X2X2X2X2X8X8X8XwXwXwXqXqXqXwXwX8XwXwXwXwXwXwXwXwXwXqXqXeXbXbXbXnXMXNXNXNXNXMXNXNX6X9 n g Z d d d d d d d f j k j j j q d h x.x.$.O.h @.b.h $.b.N.v.v.*.X.@.c.$.%.#.O.@.z.N.c.X.g g g h X.+.x.B.N.N.N.h g h O.g +.&.n.b.n.v.v.b.b.b.A.bXvXvXvXvXvXvXvXqX-X+X.XK.K.K.T.K.K.d.{ d.U.U.U.T.T.T.T.d.{ a.d.U.U.U.U.T.T.T.U.XXXXoXU.T.K.K.K.d.a.T.Y.J.u 4 7 7 7 7 7 7 7 7 7 7 7 > < 7 7 7 7 7 7 7 7 < > 7 7 7 7 7 7 7 7 7 < > > > > * * $ $ # $ * ",
":X:X:X:X:X8X8X8X:X8X:X:X8X8X8X8X8X8X8X:X8X:X:X:X:X:X:X-X-X-X:X:X:X:X:X:X:X:X:X2X2X2X2X2X8X8X2X0X8XwXwXwXqXqXqXwXwXqXwXwXwXwXwXwXwXwXwXeXqXqXbXbXbXbXbXMXNXNXNXNXMXMXNXT.w m k m d j d d d d f d k l j d d w C +.n.z.+.h h c.v.l %.N.N.b.v.*.X.@.c.$.$.%.+.@.&.b.z.X.g g g h X.+.x.B.N.N.b.X.g g O.g +.&.x.b.v.v.n.b.b.b.A.tXmXvXvXcXqX8X;X+XXXXXT.J.K.d.d.{ d.J.d.T.T.J.d.d.d.d.d.T.U.XXY.U.T.d.a.d.J.XXoXXXU.J.d.J.d.a.{ d.oXoXoXoXXX[ 4 7 7 7 7 7 7 7 < > > 7 7 7 7 7 7 7 7 7 < 7 7 7 7 7 7 7 7 < > < 7 7 7 7 7 7 7 < * $ # # ",
":X:X:X:X:X8X8X8X<X8X:X:X8X8X8X8X8X8X8X8X:X:X:X:X:X:X:X:X:X:X:X:X:X:X:X:X:X:X:X2X2X2X2X2X8X8X8X0X8X8XwXwXqXqXqXwXwXwX8XwXwXwXwXwXwXwXeXqXqXeXbXbXeXyXbXMXMXNXNXNXMXMXNXB q k >.j d d d d d d d j #.k j j 9 9 z *.x.&.O.h #.v.z.l +.b.N.b.b.*.h @.c.$.*.$.@.&.z.n.*.h g g g l X.+.z.B.N.N.N.%.g g O.h O.@.x.n.v.v.v.b.b.b.m.*XqX4X;XOXXXXXXXXXXXU.T.J.d.{ [ K.T.T.T.T.T.J.d.d.d.K.U.U.U.T.J.d.d.T.XXoXoXXXU.T.K.K.J.a.( ( d.R.Y.T.U.Y.Y.U.XX[ K 7 7 7 7 7 7 7 7 7 7 7 7 7 7 7 < 7 7 7 7 7 7 7 7 7 7 7 7 7 7 7 7 7 7 7 7 < > $ $ # ",
":X:X:X:X:X:X8X8X<X8X:X:X:X8X8X8X8X8X8X:X:X:X:X:X:X:X:X:X:X:X:X:X:X:X:X:X:X:X:X2X2X2X2X2X2X2X0X8X0XwXwXwXqXwXqXwXwXwXwXwXwXqXwXwXqXwXqXeXqXeXbXbXeXbXbXbXMXNXNXNXNXNXdXy j k >.f f f d d d d j >.#.l j d 9 l O.c.z.+.k l %.b.z.g +.x.N.b.b.*.X.$.c.*.*.&.@.z.b.n.@.h g g g g h O.z.N.N.N.N.$.g h X.h O.@.x.b.b.v.v.b.b.b.m.).J ] d.a.d.d.K.U.U.U.U.XXXXXXXXXXU.T.d.d.d.J.U.U.U.U.T.T.J.J.J.T.XXXXU.T.T.T.T.J.d.d.{ [ / T.@XY.U.T.P.P.T.T.d.T.U.U.T.d.[ K 7 7 7 7 7 7 7 7 7 7 7 7 6 6 7 7 7 7 7 7 7 7 7 7 7 7 7 7 7 < > > $ # # + ",
":X:X:X:X:X8X8X:X8X8X8X:X8X8X8X8X8X8X8X:X:X:X:X:X:X:X:X-X:X:X:X:X:X:X:X:X:X:X2X2X:X:X2X2X2X2X2X8X0XwXwXwXwXwXwXwXwXwXwXwXwXqXwXqXqXqXqXqXeXeXeXeXeXuXbXMXMXNXNXNXNXNXdXy l Z m f d f f d d j k >.l j j d w z @.c.*.O.h k $.b.@.g +.x.N.b.n.@.h *.*.c.@.&.&.c.n.n.+.h h g g h h O.x.N.N.N.N.*.g h X.h +.@.z.b.b.x.v.b.b.b.m.m.c J Q Q Q / [ [ / d.T.U.U.U.XXXXXXXXXXU.oXXXXXU.d.d.d.T.XXoXoXoXXXU.T.T.d.d.a.a.{ / E T.@XoX@XoXR.Y.Y.T.a.a.U.Y.oXU.XXY.U.U.XXd.d.d.[ T 7 > 7 7 7 7 7 7 7 7 7 7 7 7 7 7 7 7 7 7 7 7 < > > $ # + . % ",
":X:X:X:X:X<X8X3X8X8X8X0X8X8X0X0X0X8X8X<X<X:X:X:X:X:X:X:X:X:X:X:X:X:X:X:X:X:X:X2X:X:X2X2X2X2X2X8X0X8XwXqXqXwXwXwX8XwXwXwXwXwXwXwXqXqXqXeXeXeXeXeXeXeXMXMXMXMXNXNXNXNXdXy m >.j f f f f d d l >.#.l j j 9 j #.c.c.@.O.l h *.b.@.g %.x.N.N.B.@.h $.&.c.@.c.&.c.n.z.+.X.h g g h h O.c.N.N.N.N.v.g h h h +.+.x.b.b.x.v.b.b.b.m.m.K S D D R P  .P K P { a.d.J.T.U.U.XXXXU.XXoXoXoX@XoXoXOX@XoXoXoXU.T.d.d.a.[ / E P [ oXY.oXoXY.Y.Y.P.L.P.Y.oXoXY.Y.Y.Y.U.Y.T.U.@XoXoXXXoXoXT.[ Q J < 7 7 7 7 7 7 7 7 7 7 7 7 7 7 < < > $ # # + @ - 0 ",
":X<X:X<X:X<X8X:X8X8X0X0X0X8X0X0X8X8X8X<X<X:X:X:X:X:X:X:X:X:X:X:X:X:X:X:X:X2X:X2X2X2X2X2X2X2X8X8XwXwXwXqXwXwXwXwX8X8XwXwXwXwXwXwXwXqXqXeXeXeXeXeXeXeXfXMXMXMXNXNXNXNXfXC k >.d d f d d d j >.#.k l d d q m O.c.&.+.k l O.z.b.O.g $.n.B.N.N.@.h @.*.z.z.c.z.v.n.&.+.O.h g g h h O.z.N.N.N.N.b.g h h h +.@.z.v.b.x.x.b.b.b.m.m.P D D R  . . . .T T P Q / [ { a.d.d.J.T.T.U.U.U.XXXXXXXXU.U.T.J.d.a.{ [ / Q [ T.@X$XoXU.T.S.d.d.d.Y.Y.Y.Y.Y.Y.U.T.T.T.U.U.Y.oXoXY.Y.Y.Y.U.Y.XXoXXXXXK.[ J > < 7 7 7 7 7 < < < > > 8 # # + & t y w 0 ",
":X<X<X<X:X:X8X:X:X<X8X8X0X0X0X0X0X8X8X8X<X<X<X:X:X:X:X:X:X:X:X:X:X:X:X:X:X2X2X2X2X2X2X2X2X0X0X8X8XwXwXqXwXqXwXwX8XwXwXwXwXwXqXqXqXqXeXeXeXeXeXeXeXeXMXMXMXNXNXNXNXNXdXm #.Z f d f j j j >.#.k Z j d 9 q #.$.*.@.#.l g %.c.c.O.9 &.v.B.B.b.+.h #.c.z.c.x.x.n.n.@.+.O.h h h g h O.&.B.N.N.N.B.h h h X.+.+.x.v.b.x.x.v.v.b.b.m.0.e.e.! K R T T  . . . . .Q T Q Q / { { a.a.d.J.T.T.T.T.J.d.d.a.[ a.a.d.a.@X$X@XY.Y.U.T.U.Y.Y.Y.oXoXoXY.Y.P.U.T.T.Y.Y.oXoXoXY.Y.Y.Y.U.U.T.Y.R.oXoXoXY.U.XXK.] 6 > 7 7 7 > > > > # # @ ; t n n w 0 0 ",
":X<X<X<X<X<X8X8X<X<X8X8X0X0X0X0XwX8X<X8X8X<X<X:X:X:X:X:X:X:X:X:X2X:X:X:X:X:X2X2X2X2X8X0X0X0X0X0X8X8XwXwXqXqXqXwXwXwXwXwXqXwXqXqXqXeXeXeXeXeXeXeXeXeXMXMXfXNXNXNXNXNXdXZ >.k d d d C m #.#.h #.C j 9 9 k h *.$.+.k l g $.v.*.X.9 z.b.N.B.x.+.h #.c.z.z.x.x.x.x.@.+.O.h h h h h X.&.n.N.N.N.N.h h g X.+.+.&.v.n.x.x.v.v.b.b.V.].].].].].].(.s.! R  . .T T T T T P K P P Q / ( ( Q Q J.d.J.%X=X=X%X$X@XoXoXoXY.T.T.J.U.@X@X@XoX@XY.Y.Y.L.T.T.U.Y.oXY.Y.Y.Y.Y.U.P.P.U.Y.U.Y.U.Y.U.Y.U.T.T.T.K..X] > > 8 > $ # # * x V W N q 0 q n y ",
":X:X<X<X<X<X<X<X<X<X8X<X8X8X0X0X8X0X8X8X<X<X:X:X:X:X:X:X:X:X:X:X2X2X:X:X:X:X:X2X2X2X2X2X0X3X0X0X0X8X8XwXwXwXqXwXwX8XwXwXqXqXqXeXqXeXeXeXeXeXeXeXeXfXfXMXMXNXNXNXNXNXfX>.>.k d f j m Z >.g z #.j j q q z %.*.@.O.h l l z.b.@.X.9 c.n.N.N.v.+.h O.c.z.x.x.x.x.z.@.+.O.h h h h h X.&.n.B.N.B.B.X.h g X.@.@.&.v.b.v.v.v.v.b.N.N.V.Z.Z.`.`.`.`.`.].(.e.D R R R R R R R D D D D 4 < u Q ) Q E ) L.P.Y.Y.oX@XY.oXY.Y.Y.Y.oXoXoXR.Y.Y.T.L.T.Y.oXoXR.Y.Y.Y.U.U.U.T.J.P.oXY.Y.XXU.U.U.T.T.J.J.d.d.d.[ [ u + # # + 3 B V ;.0.n = = = q q q ",
":X<X<X<X<X<X<X<X<X<X8X<X8X8X0X0X0X8X8X8X8X<X:X:X:X:X:X:X:X:X:X:X2X:X:X:X:X:X:X2X2X2X2X2X2X3X0X0X0X0XwXwXwXwXqXwXwXwXwXqXqXqXqXeXqXeXeXeXeXeXeXeXeXfXfXMXfXNXNXNXNXNX=X>.Z j f f m m m j l >.k j d w j z @.&.+.#.l l #.v.b.O.l 9 v.b.N.N.x.+.O.X.*.z.c.n.n.x.z.@.+.O.X.h h h h X.c.n.N.N.z.B.O.h g X.@.@.@.c.b.v.v.v.v.b.b.N.V.Z.6.Z.Z.`.`.`.`.`.].].A.e.u D S S S S S S 6 6 7 K [ d.J.a.a.{ Q ( J.Y.U.J.U.J.T.U.Y.Y.U.U.U.Y.P.J.T.R.oXoXY.Y.Y.Y.Y.U.U.U.U.Y.Y.oXXXY.Y.U.U.T.J.d.d.a.[ / Q Q P < . * u W 0.q.V M : = : y y j q q ",
":X:X<X<X<X<X<X<X<X<X<X0X<X0X0X8X0X<X<X<X8X8X:X<X:X:X:X:X:X:X:X:X:X:X:X2X2X2X2X2X2X2X2X2X2X2X2X8X0XwXqXwXqXqXqXwXwXqXqXqXqXqXqXeXeXeXeXeXeXeXeXeXeXfXMXMXMXNXNXNXNXNX%X>.m l f C m m j q #.>.g d q w k O.$.$.#.h g l $.v.v.X.j e v.b.B.B.z.+.X.X.&.z.x.b.n.n.z.@.+.O.O.k h h h h &.v.N.N.&.B.X.h g X.@.@.+.&.v.n.v.b.v.v.b.b.V.Z.Z.Z.Z.Z.6.Z.Z.`.`.`.`.].].(.g.r.D S < 7 R ] d.T.J.d.d.T.T.U.U.d.( ( ) J.d.S.a.P.Y.Y.Y.Y.Y.Y.oXY.oXoXoXoXY.Y.U.T.T.U.oX@XoXoXoXY.XXU.T.T.J.K.{ { ( / Q P v u v ! V =.;.;.;.M & = : = a n C C w w ",
":X:X<X<X<X<X<X<X<X<X<X<X0XwX0X0X8X<X<X<X8X8X<X<X:X:X:X:X:X:X:X:X2X2X2X2X2X2X2X2X2X2X2X2X3X2X2X0X0X0XqXqXqXqXqXwXqXqXqXqXqXqXqXeXeXeXeXeXeXeXeXeXfXfXfXMXMXMXNXNXNXfX%XZ m l j m m j 9 j >.k j 9 q d #.%.$.#.#.l l k c.b.c.X.9 l &.n.n.B.&.%.h #.&.z.v.b.n.n.z.@.+.%.O.h h h h X.+.v.N.N.+.B.O.h g O.@.@.+.&.v.x.v.v.v.v.b.b.N.V.Z.`.Z.Z.Z.Z.4.6.Z.Z.`.`.`.`.`.].].(.s.d.d.d.d.d.d.d.a.d.a.d.J.T.T.J.d.[ d.) L.R.@XY.Y.Y.Y.oXoXoXoXoXoXoXoXY.U.U.T.oXoXoXoXoXY.Y.T.J.d.d.d.[ Q Q Q K u t x W q.0.;.w.V C x 1 = : : : a j j e q :.",
":X:X:X<X<X<X<X<X<X<X8X8XwXwXwXwXwX<X<X<X<X<X<X<X:X:X:X:X:X:X:X:X:X2X2X2X2X:X2X2X2X2X2X2X2X2X3X0X0X0X0XqXqXqXqXqXqXqXqXqXqXqXqXeXeXeXeXeXeXfXfXfXfXfXfXfXfXfXNXNXfXfX#Xm m k m m C f f >.>.g j q q >.h %.%.#.k l l #.v.b.*.X.w #.&.x.n.n.@.%.h #.c.x.b.b.x.x.z.@.+.%.O.h k h h X.O.c.N.b.O.B.+.g g O.@.&.+.@.z.x.v.v.v.b.b.N.N.N.Z.Z.`.`.`.`.`.Z.6.Z.6.Z.Z.6.Z.`.`.`.].].].].(.(.(.(.s.{ a.d.J.T.U.T.d.d.T.T.d.L.P.Y.@X@X@X@X@X@X@XoX@X@XoX@X@X@X@X@XoXY.Y.U.U.T.J.d.{ [ / Q P K v v M W =.=.q.q.W r & x x ; = : : : a e e ,.].`.",
":X<X<X<X<X<X<X<X8X8X8X<XwXwXwXwXwX<X<X<X<X<X<X<X:X:X:X:X:X:X:X:X:X:X:X2X3X2X2X2X2X2X2X2X2X3X3X0X0X0XqXqXqXqXqXqXqXqXqXqXqXqXeXeXeXeXeXeXeXfXfXfXfXfXfXfXfXfXfXfXfXgX(.k m k l C m f z >.k j d 9 m #.#.%.#.#.l g k $.v.b.$.l a c.z.x.x.v.@.O.h O.c.x.b.n.x.x.z.@.+.%.O.h k h h h h *.N.N.O.N.&.g g O.&.&.+.+.@.z.v.v.z.b.b.N.N.N.Z.Z.Z.Z.`.Z.`.`.`.`.`._._.Z.Z.6.6.Z.`.`.`.`.`.`.`.].].].].(.P.L.d.d.d.J.a.d.U.Y.Y.Y.Y.Y.Y.~.@X@X@X@X@X@X@X$X@X@X@X@X@XoXY.U.T.d.{ [ / Q K u 3 t n V 0.;.=.V M * o o O v v ; = = = = w ,.].`.`.`.",
"<X:X<X<X<X<X<X8X<X<XwX0X<XwXwXwX0X0X<X<X<X<X<X<X:X:X:X:X:X:X:X:X:X:X2X2X3X2X2X2X2X2X2X2X8X3X0X0X0XqXqXqXqXqXqXxXxXqXqXqXqXqXqXqXeXeXeXeXeXfXfXfXfXfXfXfXfXgXgX].j.6.,.k m k j m j l >.#.j j 9 9 >.k #.#.O.k g j O.c.b.v.+.9 9 z.z.x.x.c.+.O.h +.x.x.b.n.x.x.x.&.@.%.#.h k h X.h h @.N.N.#.N.c.g g +.&.&.+.+.@.z.c.v.z.v.b.N.N.N.Z.Z.Z.Z.Z.`.`.`.`.`.`._._._._._.Z.V._._.`.`.Z.`.`.`.`.`.`._.].].G.a.a.a.d.T.T.U.U.U.U.U.Y.Y.oXoX@X@X@X@X@XY.oXoX@X@X@XoXY.U.K.d./ P P c u t y B q.;.=.V y O o o o o o O ; & & = = p.].`.`.`.`.`.",
"<X<X<X<X<X<X<X0XwX<XwXwXwXwXwXwX0X0X<X<X<X<X<X<X<X:X:X:X:X:X:X:X2X2X2X2X3X3X3X2X2X2X2X2X3X3X0X0XwXqXqXqXqXqXxXqXxXqXqXqXqXqXqXqXxXeXeXeXfXfXfXfXfXfXgXgX].j.6.6.6.6.<.k m C j m j >.>.k j d q j >.h #.O.#.l g h +.c.b.x.X.w k z.v.x.v.*.%.X.O.@.z.n.n.n.b.n.z.z.$.$.#.k h h h O.h @.N.N.X.N.z.l g +.&.&.+.+.@.&.z.c.z.v.v.N.N.N.Z.6.Z.Z.Z.Z.6.4.Z.Z.V.j.j._._.`.`.`._.`.`.`.`.`.Z.Z.Z.`.4.5.j.5.y.U.T.T.d.T.T.T.T.T.J.L.T.U.oXoXoXoXoXoXoXY.Y.R.oXoXoXoXU.d.[ Q P c t i n m V ;.;.m ; o o o O o o O * ; : : : = e V.`.`.`.`.`.`.",
"<X<X<X<X<X<X<X0X<X<X<XwXwXwXwXwX0X0X0X<X<X<X<X<X<X:X:X:X:X:X:X:X2X2X2X2X3X3X3X3X3X3X0X0X8X3X0X0X0XqXqXqXqXxXxXqXqXxXqXqXqXxXqXqXqXqXeX1X#XfXfXgX].`.6.6.6.6.6.6.6.6.1.m m m m m Z m Z j d q 9 k #.k #.O.k g l O.@.v.b.x.h a $.z.x.z.z.@.O.O.O.@.z.n.n.n.v.b.x.c.&.@.#.#.h h h O.O.&.N.N.O.N.n.h g +.z.@.+.+.@.@.&.&.z.c.v.b.N.N.V.`.`.`.`._.`.`._.4.Z.j.j._._.`.`.`.`.`.`.`.Z.Z.Z.Z.6.4.5.1.-.=.y.U.U.U.U.U.U.U.U.T.d.T.U.oXoXoXY.Y.U.T.T.K.J.J.d.d.U.J.{ ( Q K i y M =.;.=.m C =.0.* * * & O * ; ; 0 0 0 0 0 0 j 2.V.C.`.`.`.`.",
"<X<X<X<X<X<X<X0X<X<X<XwXwXwXwXwXwX0X8X<X<X<X<X<X<X:X:X:X:X:X:X:X2X2X2X2X3X3X3X3X3X3X0X0X0X0X0X0X0XqXqXxXxXxXxXqXxXqXqXqXxXqXqXqX8X;XXX( 9.h.j.6.6.6.6.6.6.6.6.6.6.6.<.Z m m =.m m j m d d 9 C >.k #.#.k l g k %.z.b.n.z.g w v.v.v.v.v.+.O.O.O.@.x.n.n.x.b.b.v.x.z.$.%.#.X.h h O.O.v.N.N.+.B.B.X.g +.z.@.+.@.@.@.@.&.z.z.c.b.N.N.V.`.`._._._._._._._._._._._.`.`._._.`.`.`.`.Z.Z.6.5.5.1.1.q.s.P.T.T.J.T.T.U.U.XXoXoXoXoXoXXXY.Y.T.T.K.J.d.d.[ [ / Q K Q Q P v y M ;.q.w.:.=.;.w.q.V ; * O & ; 0 r t 0 0 0 0 r q C 2.2.Z.`.`.`.`.",
"<X<X<X<X<X<X<X<X0X0X0XwXwXwXwXwXwXwX0X<X<X<X<X<X<X:X:X:X:X:X:X:X2X2X3X3X2X2X3X8X8X3X3X3X3X3X0X0X0X0XqXxXqXxXxXxXqX0XwX0X0X2X;X+X.Xd.d.d.d.y.1.2.3.3.3.6.6.6.6.6.6.6.<.Z m m m j 9 m j d q w Z >.k z #.k g l #.$.v.n.b.v.h k x.v.v.c.c.O.O.O.+.&.n.b.v.x.b.b.v.b.z.@.%.#.z h h O.+.x.N.N.&.B.B.h g @.z.@.+.@.&.&.@.@.&.z.z.b.N.N.V.Z.Z.5._._._._._._.Z.Z.Z.`.`.`.`.`.Z.Z.6.6.4.5.7.1.-.e e r.T.T.T.T.U.T.d.d.U.Y.XXXXY.Y.XXU.U.T.J.d.d.{ [ [ Q P P P D K v x N =.;.w.;.=.;.q.y.y.q.B 1 * ; ; ; ; ; 0 0 t t y y n -.2.7.7.Z.`.`.`.",
"<X<X<X<X<X<X<X<X0X0X0XwX<XwXwXwXwXwXwX<X<X<X<X<X<X:X:X:X:X:X:X:X2X2X2X2X3X2X3X8X3X3X3X3X3X3X3X0X3X0X0XqXqXqXqXqXqX2X;X+X.Xd.d.d.d.d.d.d.d.d.g.j.2.3.3.6.6.6.6.6.6.6.5.=.m m d 9 9 m d d q j #.#.z z #.l j k #.*.v.b.b.b.l $.&.x.x.c.*.%.O.+.+.&.N.b.z.x.b.b.b.b.c.$.+.#.h h h O.@.n.N.N.z.B.B.h g @.z.+.+.+.@.z.+.+.@.z.z.b.N.N.V.4.4.5.V._._.`.`.`.`.`.Z.Z.Z.Z.Z.6.4.4.5.1.o.1.-.y y q e :.d.J.J.T.T.T.U.XXoXY.U.XXU.T.U.T.K.J.d.{ [ T T T K P u 3 3 v W y.q.w.V 0 M q.q.;.;.m u.b 0 0 0 0 1 ; ; 0 0 y n M V V m -.2.7.*.Z.`.`.",
"<X<X<X<X<X<X<X<X0X0XwXwXwXwXwXwXwXwXwX8X8X<X<X<X<X:X:X:X:X:X:X:X:X2X3X3X3X3X3X3X3X3X:X3X3X3X3X3X3X3X0X0X0X0X8X;X+X.X} { d.d.d.d.d.a.a.d.d.d.T.P.g.p.j.4.3.6.3.3.6.6.5.Z m m j 9 k j j 9 w >.#.k #.k k f l #.%.z.v.b.N.b.9 v.x.&.&.z.+.O.O.+.+.@.N.b.@.z.b.b.b.b.v.*.+.#.h h h O.z.b.N.N.n.B.B.h h &.z.+.+.+.@.z.@.+.+.&.z.b.N.N.V._.5.5._._.`.`.Z.Z.Z.Z.Z.Z.Z.6.4.5.1.1.1.1.-.e y M 0.=.C h.s.a.d.T.T.T.T.d.J.K.K.K.K.K.d.{ } [ / Q Q P K 5 - u v n 8.0.0.w.V t = = n =.=.;.m ;.M r 0 0 t 0 t t y y y n V V V V V t -.2.o.2.`.`.",
"<X<X<X<X<X<X<X<X<XwXwXwXwXwXwXwXwXwXwX0X<X<X<X<X:X:X:X:X:X:X:X:X2X2X3X3X3X3X3X3X3X3X:X3X3X3X3X3X3X3X2X>X;X.Xd.} d.d.d.d.d.d.d.d.d.{ { a.d.K.K.T.T.P.Q.g.p.5.3.3.3.4.5.m Z k j j ;.d d q q >.z h #.k g j k #.$.z.b.b.b.$.l b.n.n.x.z.@.O.O.@.+.+.v.b.@.@.b.b.b.b.c.$.+.#.h h X.O.c.b.B.N.B.B.n.h h &.&.+.+.O.@.x.@.+.+.&.z.x.b.N.V._.5.5.5.V.`.`.Z.Z.6.6.6.4.4.7.1.1.1.1.C w y V q.y.=.;.V -.9.{ d.J.T.T.T.T.T.J.d.d.d.d.[ Q / T P K c u 3 3 1 3 W w.w.r.B = = y C m V q.;.;.q.;.M 0 0 0 0 0 t y n B V V V ;.;.0.V ; & 1.o.o.2.Z.",
"<X<X<X<X<X<X<X<XwX<XeXeXeXwXwXwXwXwXwX<X<X<X<X<X:X:X:X:X:X:X:X:X:X2X2X3X2X3X2X3X3X3X:X3X2X2X2X:X;X+X.XUXd.d.d.{ } d.d.d.d.d.d.K.K.d.d.d.d.d.d.d.J.T.d.d.L.G.g.j.5.5.5.=.Z l j >.m d 9 9 C j k h #.l j k #.+.@.z.b.n.n.X.k b.b.b.v.c.&.$.O.z.@.@.z.x.+.@.b.b.b.b.c.c.+.#.h X.O.@.v.n.N.N.B.B.B.h X.&.@.@.+.O.@.z.+.+.+.&.&.z.b.N.V._._.`.`.`.`.Z.Z.Z.6.4.3.7.1.1.1.-.e q n 8.y.w.q.=.;.;.m N 9.T.J.J.T.K.T.T.K.K.d.d.{ ] Q K K u u t i x M V W t B ;.y & = = = n =.;.;.;.=.w.;.V n r r 0 y x y M ;.V V ;.q.0.B 0 = & & = 1.o.o.o.",
"<X<X<X<X<X<X<XwX<XwXeXeXwXeXwXwXeXwXwX0X0X<X<X<X:X:X:X:X:X:X:X:X:X:X2X:X:X:X:X:X:X:X>X>X;X,X.Xd.} } d.d.d.d.d.d.{ { { d.d.K.K.K.K.K.K.T.K.K.a.{ a.d.T.XXY.~.oX~.Q.(.i.;.m m m >.j d 9 d j j z h k g z h #.+.z.x.n.n.@.h #.b.b.b.v.c.z.c.*.&.c.c.c.@.@.v.N.b.b.b.v.c.%.O.h O.O.@.v.n.N.N.B.B.B.g O.&.@.+.O.O.&.&.@.O.+.@.@.z.b.N.V.V.`.`.`.`.Z.6.6.4.3.2.1.1.-.C q y M V 0.q.i.w.q.N q.=.N =.8.d.d.d.d.d.d.d.d.{ { [ Q T K u u v v M M ^ q.0.0.K 1 & & & = = : n =.:.:.;.0.;.m w.M r y n M M V V V 0.w.w.W 0 = = = & O & 0 1.o.o.",
"<X<X<X<XeXeX<XwX<X<XeXeXwXeXwXwXeXwXwX0X0X<X<X<X<X:X:X:X:X:X:X:X:X:X:X>X:X:X>X>X>X,X,X.X} } { { { { { a.d.d.d.d.d.[ [ [ { { d.d.d.d.d.d.K.T.XXK.T.U.T.d.T.P.Y.XXY.Y.!.>.#.Z >.Z d d d 9 j >.k k l k #.z #.@.z.x.n.x.O.h %.N.N.N.b.v.v.c.z.c.v.c.@.@.z.b.b.b.b.b.v.c.$.#.h O.+.&.v.N.N.N.B.B.n.9 +.&.@.+.O.O.@.@.+.O.+.@.@.&.v.b.N.V.V.`.`.`.6.5.5.7.1.1.-.e q M 0.r.8.0.w.w.;.V V V 0.V N =.W ( ( { d.d.d.{ [ / P Q P v u v M V 0.y.y.q.r.W 1 1 5 ; & & = = : C -.:.=.C ;.;.=.q.M M M W 0.V ;.y.y.w.^ t & & = : = & O & & w o.o.",
"<X<X<XeXeXeXwXwXeXeXeXeXeXeXeXeXeXeXwXwXwX<X<X<X<X:X:X:X:X:X:X:X:X>X>X>X>X;X,X.X[.} } { { { { [ [ { { d.d.d.d.K.d.K.K.K.d.[ [ { { { d.d.K.T.T.T.U.XXXXXXT.d.T.T.Y.oX@X;.>.z >.j d d 9 q j >.k l g #.k #.O.@.x.n.n.&.O.h %.N.N.b.b.b.v.&.c.b.z.&.@.z.n.b.b.b.b.v.b.v.$.#.h O.%.&.v.N.N.N.B.B.*.9 +.&.+.+.+.+.@.@.@.+.+.+.@.&.x.x.v.N.V.1.1.1.5.1...-...e p W q.y.y.y.i.0.y C C V =.V 8.V V N M ! / / [ { [ [ Q Q K v v v M W y.y.w.y.u.E * X X + u - & & = = : C =.q.;.=.V ;.q.w.u.w.u.V ;.w.y.y.^ r & & o = = = = & O O & O q o.",
"<X<X<XeXeXeX<XeXeXeXeXeXeXeXeXeXeXeXeXeXwX<X<X<X<X<X:X-X>X:X:X:X>X>X;X,X|.} } { { { d.d.a.d.d.[ ( { { d.d.d.d.d.d.d.d.d.K.J.d.( [ d.d.K.K.T.K.J.K.T.U.XXXXXXJ.XXoXoXY.:.>.>.>.d 9 9 9 d >.>.k j k z #.k h @.x.n.x.+.O.h $.b.b.b.b.v.c.c.v.c.&.z.c.v.b.b.b.b.b.v.b.b.c.%.h #.%.$.b.b.N.B.n.B.#.g +.&.+.+.+.+.+.@.@.@.@.@.@.@.z.x.z.N.m.1.1.1.-.C e e -.:.w.y.w.y.y.B 0 & & M V ;.0.0.w.i.8.p i M P / / / Q ] Q c i v M ^ y.y.q.i.y.v X X X X X X u o & & & = = C =.:.w.w.q.w.w.q.q.=.=.q.y.y.0.r o O o o o = = = = & O O & O o a ",
"<X<XeXeXeXeXeXeXeXeXeXeXeXeXeXeXeXeXeXeXeXwX<X<X<X:X:X:X>X>X;X;X,X|.[.| [ [ { { { { a.d.d.d.K.K.d.d.d.d.d.{ a.d.d.a.d.d.d.K.K.K.K.K.d.{ a.d.d.d.K.T.XXXXXXoXoXU.U.U.d.:.A.,.j 9 9 9 9 l >.k l j #.#.#.k l @.x.n.&.+.X.l c.b.b.b.n.v.z.v.c.&.z.v.v.b.b.b.b.b.b.b.b.m.c.$.O.#.%.$.b.N.B.B.n.x.l h @.&.+.@.@.+.+.@.@.@.@.@.@.&.z.b.b.b.m.y q y r i p -.=.h.y.y.V x = : : y n m w.w.r.q.q.q.0.N 0 n u Q Q Q / P t v M e.(.g.y.i.0.t o o o o o X O 1 3 ; ; : = & = j =.:.w.q.w.w.q.=.;.q.y.y.^ 3 o & * O o O O & & & & & O & & & o = ",
"<XeXeXeXeXeXeXeXeXeXeXeXeXeXeXeXeXeX6X6X=X=X%X1X1X-X-X>X>X;X,X[.} [ [ [ [ [ { { { { a.d.d.d.d.d.d.K.J.K.d.[ [ { { d.K.K.K.K.K.K.K.K.K.U.d.{ { d.K.T.U.XXU.U.U.U.J.a.F.w.A.;.9 9 9 9 9 >.k k g z #.#.h l h z.n.x.@.O.X.k b.x.N.n.N.c.c.z.z.z.v.b.b.b.b.b.n.b.v.b.m.m.b.c.$.#.#.$.b.B.B.n.B.x.l X.&.@.+.+.@.O.+.@.@.@.@.@.&.v.v.b.b.b.m.y M V W q.=.-.0.=.V ; = = : : 0 n =.;.w.;.q.0.=.;.;.p 0 p < J P P K u t B y.y.y.y.V ; ; 1 & & O o * 1 t t 3 t t y y q q n =.w.w.w.;.=.;.q.w.y.^ 1 * - ; ; - * - = * = ; = & & & & & * O = ",
"<XeXeXeXeXeXeXeXeXeXeXeXeXeXeX6X%X#X(.j.j.j.j.j.(.(.%X;X,X[.[.] Q Q / / ( ( [ [ { { [ [ { { d.d.d.d.J.T.K.{ / [ { a.d.K.K.K.K.J.K.K.T.T.U.d.{ d.K.T.U.U.T.U.P.T.J.U.a.:.>.j 9 j d 9 m >.Z j k #.%.O.l g #.z.n.z.+.X.h m.b.z.v.b.n.c.&.z.z.c.b.b.b.b.b.v.b.b.b.b.m.m.b.b.c.$.%.@.b.n.n.n.B.x.h O.&.+.+.+.+.+.O.+.*.@.z.c.&.x.n.b.b.m.w.y.q.q.q.q.8.1.t y i ; = = : a 0 n -.=.q.;.q.;.q.V ;.n 0 q * 2 v B W s.Q.y.q.0.V : 3 r t t & O * 1 t t t t t t y y y M V ;.w.w.0.=.;.q.w.q.0.3 - 4 u t 3 ; ; ; ; ; ; 0 ; : ; & & & & = O ; ",
"<XeXeXeXeXeXeXeXeXeXeXeX6X%X(.j.j.5.5.5.5.5.5.5.6.j.j.A.g.|  .K P P E E Q / ( ( ( ( / ( [ { a.d.d.d.J.T.T.T.K.K.K.{ { d.d.d.d.J.T.U.U.XXOXXXXXXXXXU.T.U.XXJ.U.T.T.d.d.;.Z 9 j C 9 d >.>.k l %.+.O.k l g #.z.x.@.X.h c.c.c.&.v.b.v.c.c.z.z.c.b.b.b.v.v.v.v.b.b.b.b.b.b.b.v.c.$.c.b.n.n.n.n.n.O.+.&.@.@.+.@.@.+.@.z.&.z.z.z.x.n.b.m.m.i.y.w.w.=.C 0 -.; p ;.x = = : : 0 C -.:.q.w.w.w.w.q.m N p e ; x M s.q.(.r.V V 0.e.W x y ; & * ; r r r r r r t t y M V =.0.q.=.;.w.i.w.q.0.0.B u c c t 1 ; ; ; r r t t t t q 0 * O & & * & 1 ",
"eXeXeXeXeXeXeXeX6X6X%Xg.j.j.5.5.5.2.5.5.5.5.5.5.5.5.5.5.5.j.p.N i i i v K E Q Q Q Q / ( ( [ { a.a.d.d.T.T.K.T.U.U.K.{ [ { a.K.U.XXXXU.T.XXXXXXXXoXY.Y.R.oXJ.d.a.Q T R ;.m 9 j j 9 >.>.Z z >.#.%.O.l l l #.x.z.O.h h b.@.&.&.v.v.b.v.v.v.c.c.b.b.b.v.v.v.b.b.b.b.b.b.b.b.b.c.z.b.b.n.n.n.B.B.&.O.@.&.z.@.@.&.+.@.@.&.z.z.z.x.b.m.,.i.).y.W r = 0 ; p * e e : = = : 0 0 C =.:.w.q.q.i.q.;.0.N C p = q n ).y.0.V q.q.y.u.M t * ; 0 r r r r 0 0 t t t n N =.;.q.0.=.w.A.).w.V w.).C n t t 3 1 3 r 0 t t t t 0 y M B M ; & & & & O t ",
"eXeX6XeXeXeX6X%X#Xj.5.5.5.5.5.4.5.3.7.7.7.5.5.5.5.5.4.4.4.6.6.j.h.0 ; t t v v K K E Q / ( / ( { a.d.d.J.T.T.T.U.XXXXXXd.d.K.T.U.XXXXoXJ.K.T.U.U.Y.oXoXU.d.a.K R R R R 0.C 9 j m m >.#.k >.#.%.O.k j j l %.v.@.X.h #.b.@.@.z.z.v.v.v.c.v.b.c.v.b.v.v.v.x.c.v.v.b.b.b.v.v.v.v.x.b.n.n.c.B.B.B.v.X.@.&.c.@.@.&.+.*.@.@.&.c.c.v.m.B g.0.; o o O & * * q = y p = = = : : 0 n ;.:.w.q.=.0.q.w.=.N -.p & 0 q n N 0.u.q.=.0.; * ; 0 1 r 0 r r r ; 0 r c t V ;.q.0.;.q.i.A.).q.W Z q.m ;.B t ; t t t t t t y t 0 x V W B M * & & & & o t ",
"eXeXeX6X%Xg.j.j.5.5.5.5.5.4.4.4.4.4.2.7.1.7.7.5.5.5.4.4.4.4.4.6.6.j.m & * ; 1 i v P E E Q / ( [ [ a.d.d.d.T.T.T.U.U.U.XXXXXXXXXXXXXXXXXXT.d.T.d.[ / T R R R R R R D D ^ j j Z m Z Z l l k O.+.O.l j l k $.x.&.O.h *.x.@.&.c.&.c.c.z.z.c.v.c.c.v.v.v.v.x.x.c.c.v.v.b.v.c.v.c.x.v.v.n.z.B.N.B.b.X.+.&.@.@.@.+.@.c.$.%.%.$.;.n ; , i o o O & * * * = q ; 0 p & = = = : 0 C ;.:.i.i.0.w.w.q.=.M e 0 & 0 0 q r.y.u.N q.y.t x t r r r r 0 0 0 v x t B t r.;.;.w.w.i.y.V M q.0.V ;.;.:.M r t r t t t y t 0 y B W ! E E E - & & & & o u ",
"%X#X(.j.j.5.7.5.7.5.3.5.5.5.4.4.3.5.5.5.4.5.2.2.3.5.3.4.4.4.4.4.6.6.j.p.p O & 1 t t v ! _ / ( Q ( { d.d.d.d.d.T.T.T.K.K.T.U.T.U.T.T.U.T.K.{ K J R R R R R R R R R R D B j >.>.;.f k j l l +.+.O.g j j k c.b.z.@.h v.x.&.@.c.z.&.z.z.&.z.z.z.c.v.v.c.c.z.z.z.z.x.c.c.c.c.c.c.x.x.n.b.x.N.N.B.b.O.&.@.+.@.*.O.%.>.C w ; ; * $ * , 1 O O = , ; * = = e y 0 y ; : = = = 0 n ;.:.p.q.q.w.w.q.=.V w q & 0 0 w 0.8.n ;.q.^ t t y y t t t x n x n W e.M r V y.i.).w.M = & M 0.=.;.;.=.:.M t r t t t t r 0 M W W ! E E E E ; O & & & O v ",
"j.5.5.4.5.2.4.5.5.5.5.2.5.5.4.5.5.5.5.5.5.5.3.3.2.3.3.5.3.4.4.4.6.6.6.6.`.,.N = ; ; t v ! Q E Q / [ { a.d.d.d.d.J.K.K.d.d.d.J.d.K.J.d./ J D D D D R R R R R R R R R R E Z >.>.=.f l j g k +.@.O.g j j k c.b.v.+.h b.c.*.&.c.c.@.@.&.@.&.z.z.c.v.c.c.c.c.z.z.x.z.x.z.c.c.x.c.x.x.x.b.B.N.N.N.N.@.&.@.O.k j w : & + # $ $ $ $ $ > 1 1 ; ; ; ; = ; 0 C n y n 0 : 0 0 y y n C q.w.w.i.w.i.i.V M w p 0 0 n 8.q.V n =.A.V t y t y y x M B M 0.q.w.0.M e.t ).y.B = = = x V 0.q.q.q.w.q.M t r t t 0 0 x W W ! E E E E P P - O & & & O ! ",
"4.4.4.4.4.5.7.7.2.2.3.5.5.4.4.5.3.5.5.5.4.4.4.6.3.7.2.2.2.3.3.4.4.4.4.4.6.6.`._.h.N : 0 v v K E Q / ( { a.a.a.a.a.d.d.d.d.d.d.{ Q R D R R R R R R D D R R R R R R R R E m.m.M.k f j j g g %.+.h g j l O.@.z.c.h $.@.@.+.@.z.v.c.z.&.&.&.z.z.z.v.c.c.c.z.z.z.x.z.z.z.x.x.x.x.x.z.x.x.N.N.N.N.N.c.#.d = # + + . + # $ $ $ $ $ $ * < t y y t 0 0 ; 0 p n e n 0 y y y n M V r.w.w.i.i.i.i.w.n n w C x n V ;.;.q.V 0.w.0.y y y M B N V e.y.u.V V y.e.).) v & = = = : m =.;.;.;.;.;.q.v r t r t x B W ! E E P P E E E E * O O & & & ) ",
"7.2.5.4.5.4.4.7.o.7.7.7.5.4.4.4.4.4.4.4.3.4.4.4.4.4.4.4.4.2.2.4.3.3.4.4.6.6.6.6.6.`._.p.p r t v P E Q _ ( ( { { a.a.d.d.d.[ P D S S D D D D D R R R D D D D D D R R R R :.m.>.j j d j j 9 l +.O.9 j h O.h g %.h v.+.X.X.O.@.*.*.c.c.&.&.&.z.z.z.z.z.c.z.z.z.z.z.z.v.v.x.x.x.x.z.z.x.v.N.N.N.m.x @ + + # # # # $ $ $ $ $ $ $ $ $ * ; i t r 0 t y r y M p N y x n M M V w.w.i.A.A.A.w.w.;.q y a C n m n q.q.q.0.C =.w.y n M N W e.r.u.0.q.i.y.).! v o & = = = = = C m ;.;.q.;.;.0.x y r t B E E E E E E P E E E E E & O O * * & F.",
"1.7.2.5.5.4.4.4.5.4.5.o.o.2.4.4.4.4.4.4.4.4.4.4.4.4.4.6.6.6.3.3.3.4.4.4.6.6.6.6.6.6.6.Z.`.p.n 0 u v v P Q / ( a.d.d.d.{ Q D S S S S S D S S S S D D D D S S D R R R R R ! ,.m j n d f 9 9 9 h k 9 l O.#.g 9 #.O.x.@.+.O.O.O.O.O.+.@.@.@.@.c.v.c.z.z.z.z.z.z.z.z.z.x.x.x.z.x.v.b.x.N.z.N.N.m.t + # # # # # $ $ $ $ $ $ $ $ $ $ $ * * ; r t t 0 r t 0 p p N y M N V V 0.i.(.(.(.0.:.w.q.=.& & = e =.m V w.i.y.i.q.i.q.M V 8.r.y.0.V r.i.).(.u.v * . X & = = = = = n m ;.;.V 0.0.0.x x M M ! E E P P P P P P E E E Q * & & * ; ; G.",
"2.2.1.2.7.5.5.5.5.4.4.4.5.o.7.3.4.4.4.4.4.4.4.4.4.4.4.6.6.6.6.2.3.4.4.4.6.6.6.6.6.6.6.6.6.6.`.j.=.r u i v E / ( [ ( Q 6 7 S S 7 7 S S S S S S S S S D R R D D R R R R R _ j d q w 9 9 9 f j z l w #.$.#.h h g $.x.z.c.*.$.@.+.O.+.O.O.O.O.+.@.z.&.@.@.@.&.@.&.+.x.x.b.b.b.N.N.b.b.N.*.N.>.; + # # # # # $ $ $ $ $ $ $ $ $ $ $ $ * * < 3 t t t 0 0 q p p N V q.0.q.i.(.(.(.0.0 a N =.;.C & = a e =.m q.N 0.q.q.i.w.i.y.i.y.r.r.y.).i.).u.b X o < . X & = = = = = n C ;.;.;.0.V M M E E E E E P P P E P P P E E _ { & & & * 3 3 E.",
"5.5.5.1.1.1.5.1.2.5.4.4.6.5.2.5.3.2.3.4.4.4.4.4.4.4.4.4.4.4.6.4.4.4.6.6.6.6.6.6.6.6.4.6.4.3.4.3.<.0 3 / d.oX@X$XoXd.Q 7 > 7 7 7 7 7 7 S S S S S D D D D R R R R R R D D K t : w w 9 d Z z %.$.k j *.+.%.$.$.h @.b.b.x.x.c.c.c.c.c.*.c.+.$.&.z.z.&.c.&.c.c.v.v.z.b.b.V.N.b.b.m.c.b.m.#.>.# # $ # $ $ $ $ $ $ $ $ $ $ $ $ $ $ $ $ $ $ * < t t r 0 q p n N ;.w.w.w.A.A.i.W 0 a w w a N ;.V & = a e -.V i.q.q.y.A.i.).w.q.r.y.).(.(.).e.t o $ $ + - O * & & & = = = n V 0.V V M M E E E E E E P E E P P P P E ( a.S.I.& & & * 3 t !.",
"5.5.5.5.2.1.o.5.5.5.5.4.4.6.6.6.6.6.4.2.2.3.4.3.3.4.4.4.4.4.4.4.4.4.4.3.4.6.4.4.4.4.4.4.2.o.o.-.r.L.@X@X@X@XoX@X$X%X%X%X[ > < 7 7 7 7 S S S S S S D D D D D D D R R D 6 7 r y d d d j %.%.$.M.k #.$.$.M.#.$.$.+.v.b.x.b.v.v.v.v.v.v.b.*.c.N.b.v.b.N.v.b.N.N.N.b.b.b.b.N.b.b.#.>.Z q - $ $ $ $ # $ $ $ $ $ $ $ $ $ $ $ $ $ $ $ $ $ $ $ * 1 t y q y C C =.q.i.i.i.r.M a a w w w w w C 0.V o & = q m V y.w.y.).).w.q.0.0.y.(.(.(.e.u < 3 1 - * O ; t t t r ; ; & & n V V B B W E E E E E E E E E E P P E ( S.I.!.~.~.O & & * 3 t /.",
"5.5.5.5.7.1.1.1.1.5.5.5.5.4.4.4.4.4.6.6.3.2.2.3.3.4.4.4.4.4.4.4.4.4.4.3.4.4.3.3.3.3.7.o...9.s.Q.Y.U.Y.Y.oXoXY.oXoX@X@X@X%XOXQ > 7 7 7 7 7 S 7 S D D D D D D D D D D J 6 7 u B n x d d #.%.$.M.$.$.$.%.$.#.$.%.X.v.v.v.n.b.v.v.b.b.v.b.c.v.N.b.b.b.N.b.b.b.b.N.b.b.b.c.b.m.Z O * # # # $ $ $ $ # $ $ $ $ $ $ $ $ $ $ $ $ $ $ $ $ $ $ $ * > r B N n C ;.q.q.).0.t = w w w w w w q w C 0.W o o O = p m i.i.i.u.0.0.w.w.).(.(.t.c 6 c P K v t 3 i i t t t t t r t y M V W W E E E E ! E E E E E Q E E _ a.I.!.!.E.!.@X& & & * t t /.",
"5.5.5.4.5.1.o.1.-.1.5.5.5.3.5.3.4.4.4.6.6.3.3.2.2.4.4.4.3.4.3.3.4.4.3.3.3.3.2.7.o.o...9.s.T.U.T.T.T.U.T.P.T.T.T.T.T.T.K.T.oX%X.XR 7 7 D D S D R R D D D D D R R R R R R R E V n d d j #.%.+.$.m.c.$.z k #.$.k h v.v.x.x.b.z.v.b.b.b.N.*.v.b.b.b.b.b.b.b.b.b.b.b.M.z k j : . # $ # # $ $ $ # $ $ # # $ $ $ $ $ $ $ $ $ $ $ $ $ $ $ $ $ * * - M V q.q.q.q.V t b 1 : w w w w w w w w C 0.W o o & & y 0.W M V W 0.y.).).(.e.u 4 K P K b u t t x t t t t t t t y M W W W ! Q Q Q Q Q ! E E E Q E E ( a.E.!.!.!.!.!.E.~.& & & * u t ^.",
"5.5.5.5.5.5.5.<.1...o.2.2.2.3.4.4.4.6.4.4.6.4.4.4.2.4.4.4.3.3.5.3.3.2.7.7.o.o.o.h.r.s.P.L.J.J.T.P.T.T.T.T.a.a.a.[ [ d.Y.@X@X$X$X%X.X] D D S D D D D D R R R R R R R R R R P V n x x x j j l #.$.M.>.: O : : w l $.$.+.*.b.c.b.v.b.b.v.c.b.v.v.v.b.b.b.b.c.M.>.C * $ # + . % $ $ # $ $ $ $ # # # # # # # # $ $ $ $ $ $ $ $ $ $ $ $ $ * $ $ > i w.w.=.x = M E i # = a a w w w w w w C 0.V y r ; ; M B V W 0.y.).(.(.y.v 3 c K P K c t i x x x x x i t y x M W W ! E E Q Q Q Q Q Q E Q E E E Q a.P././././././././.~.& & & * t t @X",
"5.5.5.5.5.5.5.5.5.1...o.2.7.3.4.4.4.4.4.6.6.4.3.4.4.3.4.4.3.5.5.2.1.o.o.1.1.h.i.s.J.d.d.a.a.a.a.d.d.d.d.d.{ Q ! a.U.U.U.U.Y.Y.oXoX@X%XXXK D D D D D R R R D D D R D R R R K v 3 ; * O o o O o & & O           o & & : 9 m k #.#.#.$.#.#.%.$.#.#.>.>.Z n d t * # $ $ $ # . # # $ $ $ $ $ $ # # # # # # # $ $ $ $ $ $ $ $ $ $ $ $ > > $ $ 8 > t 0.y e ; = y * - ; 0 w a a a a a a 0 n V 0.0.v r v W e.0.y.y.(.(.y.w.y.Q K K v c t t t i y i t t y y x M ^ e.^ ! ! Q E Q Q E Q Q E E E E Q [ L.R.~.~.!./././.^././.~.& & & - t u @X",
"5.5.5.5.5.5.4.4.4.4.o...o.o.7.3.5.3.4.4.6.4.6.6.4.4.2.3.5.2.7.7.o.1.1.h.9.r.P.L.d.a.a.a.a.a.a.a.a.a.J.T.T.d.{ J.a.d.d.J.T.U.Y.Y.oX@X%X%X%XXXK 7 S S D D S S S S S D D D R J J <   X X X                     . % % % + + o % % o & * O o & O o + @ # + # # $ $ $ $ $ $ + . # # # $ $ $ $ # # # # # # # # # # # # # $ $ $ $ $ $ $ 8 $ 8 > * , f.r O p ; O r x M M n n p y y q 0 0 a n 0.y.B r ; ; 0 x y.).y.q.w.w.y.y.P v u r t t t t y y t y t x B W 0.t.( / Q Q Q E Q E E Q E E E Q [ S.I././.~././././.^.!./.^.R.& & & * t c #X",
"5.5.5.5.5.5.4.4.6.6.5.o.......o.7.3.3.4.4.4.4.4.3.3.1.o.5.1.o.1.h.r.e.a.L.d.a.a.a.[ { { { { ) { d.J.T.T.U.Y.oXY.oXT.d.d.J.T.P.U.Y.Y.oXoX@X$X%Xd.6 7 7 S S S S S S S S D D D D $                         .   . % % + + + + # # # # # + + + # # # $ $ $ $ $ $ $ $ $ $ $ + + # % . % + # + % + % # + + + + + + + + # # $ $ $ * $ $ $ 8 > * * e.(.! & C y M B M M M M M M n M M M 0.0.u.0.M y t i B 0 y u.y.u.q.q.y.y.^ t t t t t t t t y y i y M 0.^ ^ ( ( ( / / Q Q Q Q E E E E E ( S.I.I./././.!./././././.^././.~.& & & - t c #X",
"2.5.5.5.5.5.4.6.6.5.4.6.6.5.1.o.7.3.2.2.2.2.4.4.7.o.....1.p.r.s.d.a.a.{ { a.{ a.a.a.( ) ( ( a.d.d.d.T.T.T.T.T.U.U.oXoXa.a.d.J.T.U.Y.Y.oXoX$X%X%X%Xd.u > 7 7 7 S S S S S S S S 8 .                         . . . . + + + # # $ $ $ $ $ $ $ $ $ $ $ $ 8 $ > > * $ $ $ # # $ # . . . . . . . % . % + + # # # # # # + # # $ $ $ $ # $ > > * f.(.(.s.i N N B B M M B N N V N V 0.q.u.0.n y y n W 0.B ; i ^ u.0.r.0.0.0.0.t t t i t t t t t v M M W ^ ! / / Q / / / / Q Q Q Q Q E / a.I./.~./././././.!./.^././.^.^.^.R.& & & - t c #X",
"1.1.5.5.4.5.4.4.4.3.4.6.6.4.5.5.5.2.1.1.o.o.o.-.-.-.q.r.s.f.a.a.d.d.a.a.a.a.d.d.a.a.{ _ ( a.a.d.d.d.d.d.d.J.T.T.U.Y.Y.oX{ a.T.L.T.U.Y.Y.XXoX@X$X%X%X%X.XQ < 7 7 S S 7 7 7 7 6 <                           .   . . + # + # # $ $ $ $ $ $ $ $ 8 $ $ $ > > > * $ $ $ $ # $ $ # . . . . . . . % % # # # # $ $ $ $ $ # + # # $ $ $ $ $ $ * f.^./.(.g.W M N B M M M B V V =.r.y.q.V x y q M 0.w.w.q.V 0 x W 0.q.0.y.y.w.B t t t t t t t i B M B W W Q Q / / / / / / / _ / / Q / { P.~.!.^././.!./.!././.!.E.!./.^.^.^.R.& & & - t v #X",
"o.1.5.5.4.4.6.4.4.4.4.3.4.4.7.o.o.o.1.-.-.q.9.e.t.f.a.a.d.d.d.d.d.d.d.d.d.a.a.a.a.a.a.a.d.a.{ { a.a.d.d.d.d.d.d.J.U.Y.oXoXoXU.T.d.d.J.T.P.P.U.oX@X$X%X%X=X%Xd.} [ Q T 6 7 7 7 7               X           .   . % + # # # # $ $ $ $ $ $ $ > $ $ > > > * $ $ $ $ > $ $ $ 8 + . . . . . . % + + # # # $ $ $ $ # $ $ # # # # $ $ 8 $ 1 s.^.(.(.(.(.r.y M M B W B B 0.q.y.u.N n y y V 0.0.0.q.=.C n y B 0.y.0.y.V V w.B t t t t t i v M W ^ W _ / / Q Q Q Q Q Q Q Q _ Q ( ) P.~././././.^././.!.!././.G.^.!./././.^.I.& * * - t v $X",
"o.o.1.5.3.4.4.4.4.4.4.2.7.o.....-.-.r.e.f.a.d.d.a.a.a.a.a.a.a.a.a.a.a.a.a.d.d.d.d.d.J.J.J.J.d.a.a.a.a.a.a.a.a.d.T.P.U.U.U.U.U.P.T.d.{ a.a.a.T.Y.oX$X$X$X$X%X%X%X%X%X%X%XOX] 7 < . . .                       .   . % + + + # $ $ $ $ 8 8 > > $ $ > > > > * $ * * > $ $ $ $ . . . . . . . + % + + # # $ $ $ $ # # $ $ # # # $ $ $ P Q.(.^.(.(.(.(.g.W M M B N 0.w.y.y.W n y 0 w V w.;.m n q p n p M u.0.q.V W N n q.B t t t t x B ! ^ ^ _ Q P P Q Q / / Q Q Q _ Q / { S.~./.^.^.^.^.^./.^.^.^.^.^.^./.^.#X^./.!.~.Y.& & & - t v $X",
"e -.1.1.5.3.4.3.2.2.7.o.o...M 8.t.a.d.d.a.a.a.a.d.d.d.d.d.a.) ) ( / { a.a.a.d.d.d.d.d.a.a.d.J.d.a.[ { a.d.d.d.J.J.T.T.T.U.Y.Y.Y.Y.oXT.[ ) J.Y.oXoXXXY.Y.U.U.XXoXXXXXXXK.d.XX| 4 $ % . .                   .     . % + + + # $ $ $ $ > > > > > > > > $ > 8 > > > > 8 $ $ $ . . . . . . . % + + + + # $ $ $ $ # # $ $ $ # + # 1 f.(.(.(.(./.(.(.(.g.9.M B e.y.(.y.V n x 0 0 y n y q q q p q e C C M ^ V 0.V N V V n W t t M M W ^ ^ ( / Q Q / Q Q E K P Q / _ _ a.P././.^.^.^./.^.^.^.^.^.^.#X^.#X^.^.^.^.^.^././.P.& * & - t v #X",
"u y p -.1.5.7.2.o.o.1.-.8.f.a.{ a.a.a.a.a.a.a.d.d.d.d.d.a.a.) / ( { d.d.a.a.a.a.a.a.a.d.J.d.d.d.d.a.( a.a.d.d.d.d.d.J.T.U.Y.Y.Y.Y.Y.oXT.U.@X@XoXU.U.U.U.T.J.K.K.K.K.d.} ] ] T 7 $ + . .                     . . . % + + # # $ $ $ $ > > > > > > > > > > > > > > > 8 $ $ # . . . .   . . . % % % % # $ + # # # $ $ $ $ # * E Q.(.(.(.(.(./././.(.g.r.M s.(.s.e.M n n W n q q q 0 y n n j m q.;.;.y W V V 0.W u.0.0.V M e.e.^ E Q E E Q Q Q Q Q Q Q E E E E ( a.!.#X^.#X#X#X#X^.^.^.^.^.^.#X#X#X#X#X^.^.^.^.^.^.~.P.& * * ; t P @X",
"7 7 7 r p -.1.1.1.-.W ) ( ( ( [ { { { a.a.a.a.a.a.d.d.d.d.d.d.a.d.a.{ a.{ { a.a.a.a.d.d.a.d.d.d.J.T.T.d.{ a.d.d.d.J.T.T.T.U.Y.Y.Y.Y.Y.Y.oXoX@X@X$X@XT.d.J.J.K.d.d.d.[ Q Q J > 8 $ % . .                       . . % + + # $ $ $ $ 8 > > > > > > > > > * > > > > > $ $ $ .         . . . . . . . . . # # + $ $ $ $ $ $ P s.g.g.(.(.(.(./.#X/.(.(.(.s.W s.0.V V N 0.w.i.V 0 = O ; M p m ;.;.=.;.V t B N M V 0.V 0.V ^ e.a.W Q E P P Q Q P E P P E E E Q ( F.~.~.G.I.I./.#X#X#X#X#X#X^.^.^.^.#X#X#X#X#X^.^.^.^././.P.& * & ; t P @X",
"< < * * a e a e p W ( ( / / ( ( ( [ a.a.a.a.a.a.a.d.d.d.d.d.d.d.d.d.d.{ { { { a.a.d.d.d.T.T.U.U.T.T.T.T.J.a.a.a.d.S.S.J.J.T.Y.oXoXoXoXY.U.U.oXY.Y.oX@XY.XXT.d.d.{ ] Q Q u   # $ # .   .                     .   . . + + # $ $ 8 > > > > > > > > > > * > > > > > > $ $ $             . . . % . . % + + # % # $ $ $ u f.s.g.g.s.(.(.(.(.(.(././.(.(.s.0.M N V 0.i.w.i.y.x O & * : =.q.q.w.0.;.;.V y ! V W B W 0.W e.t.( Q Q Q P P P P P E P P P P P ( a.I.~./././.#X#X/.I.I.!.#X#X#X#X#X^.^.#X^.#X#X^.#X#X#X^.^./.Y.& * & ; t E @X",
"n ;.<.5.j.6.6.5.=.M E ! ! Q _ ( ( [ { a.a.a.d.d.a.a.d.d.d.a.a.d.d.d.d.J.[ ( ( a.a.d.d.d.J.J.T.U.U.U.Y.Y.Y.Y.T.d.a.a.a.a.d.T.T.T.L.U.Y.oXY.T.U.U.T.J.J.T.d.d.d.[ Q T E v t * . + + .                         . . . . + # # $ $ 8 > 8 > > > > > > > > > > > > > > * $ $ +             . . . . . . . + + # + + $ 1 e.g.g.s.s.s.s.g.g.g.g.g.(.(.(.(.(.(.r.n 8.w.i.).i.B O O O O = w.q.q.;.=.V ;.=.B i M B 0.W W e.e.( Q Q Q Q Q Q Q Q Q P P P P P _ { S.I.~./.#X/.^./.^.#X#X#X^.I.G.I.^.=X#X^.^.^.^.#X#X#X#X^.#X#X/.L.& * * ; t E ^.",
"4.3.3.3.3.4.4.4.6.p.N M E ! ! _ / / ) { a.a.a.d.d.d.d.d.d.d.d.d.d.d.d.J.J.( ( a.a.d.d.L.T.U.U.U.U.U.Y.Y.oX@X@X@XY.a.( { a.J.U.Y.Y.Y.U.T.U.U.T.T.J.J.J.J.d.[ Q P T Q e.e.M ; 1 - $ % .                       . . . % + # # $ $ 8 > > > > > > > > > > > > > > > > $ $ $                 . . .   . % # # # # * ! g.g.g.g.s.s.s.s.g.g.g.g.g.(.(.(.(.(.g.s.W q.w.y.! O o o o O O = :.=.0.=.=.N N V x u E M 0.W e.( Q Q Q Q Q T Q Q Q Q Q P P E E a.P.I.I.~.I./.~././././.^.^.^.^.#X#X#X/.G.H./.#X#X#X#X#X#X#X/.^.^.^.F.* * * ; 3 E #X",
"2.3.3.3.3.3.4.4.4.6.j.;.M M E ! ! Q ( ( { f.a.a.d.d.d.d.d.d.d.d.d.T.T.T.T.T.T.d.a.a.a.d.d.d.a.d.a.a.a.a.a.a.{ { a.U.oXoXY.T.U.Y.Y.Y.Y.T.P.T.d.a.d.a.d.[ Q K K K P ( u.y.u./ _ E Q # . .                     . . % % + # # $ $ 8 > > > > > > > > > > > > < > > > $ $ #             .     . .   . . + + * ! s.g.s.s.s.g.s.s.r.s.g.g.g.g.(.(.(.(.(.(.g.g.e.B t o o o o o O O O = =.m =.0.=.V n V x ; v ^ t.( Q E Q Q Q Q Q Q Q Q Q Q T Q / a.F.R.R.~.!.!.~.!././././.^.^.^.^.^.^.^.#X#X#X#X~.F.I.I.#X#X#X#X#X#X^.#XP.* = = ; 3 _ ^.",
"2.3.3.3.3.3.3.3.3.4.4.6.p.N M E E E E _ ( ) a.a.a.a.a.a.d.d.J.d.d.d.J.J.J.T.T.T.U.T.a.{ { { { ) ) a.J.U.U.T.L.{ _ { d.T.a.S.Y.P.T.a.d.d.d.J.d.{ { [ Q P K K v v E B u.y.y.; v M f.1 .                       . . % + + # # $ 8 8 > > > > > > > > > > > < < > > $ * > .                     . . . . < ! r.s.s.s.s.s.s.s.s.s.y.s.s.g.g.g.g.(.(.(.(.(.(.(.s.t X o O o o o o o O = V V C =.V n N V i 1 E ( Q Q Q Q Q Q Q Q Q Q Q E Q T Q { P.R.R.~./.~.!.~.^./././.E.!./.^.^.^.^.!././.#X#X/.^.#X#X^.I.I.I./.=X=X=X#XP.= * = ; 3 _ #X",
"2.2.3.2.2.2.3.3.3.3.3.4.4.`.p.M M E E ! _ ( ( ( ) { a.d.d.d.d.d.d.d.J.d.J.J.T.T.T.U.T.a.) ( ( a.T.Y.Y.Y.Y.Y.Y.oXa.( ) J.Y.f.( S.R.U.a.a.a.{ [ [ Q P K K v v v v W s.(.(.s.= i ! G.! . .                 . . . . % + # # $ $ > 8 > > > > > > > > > > < < > < > $ * $                       X @ 1 E e.e.e.r.r.s.r.s.s.r.s.r.r.r.y.s.g.g.g.g.(.(.(.(.(.(.g.! o o O o o o o o O = m C n n V N M B c u K P Q Q Q Q Q Q Q Q Q Q Q Q Q [ d.~.E.~./.^./.^././.^.^.^.#X/.^.^.^.^././././.~./././.#X#X#X#X#X#X#X/.F.I.I.#XP.* * = ; 1 ( #X",
"7.2.2.2.2.3.3.3.3.3.3.4.4.6.6.j.p.M M E ! E Q _ ( [ a.a.a.a.a.a.a.a.d.d.d.d.d.J.J.P.U.U.a.a.J.U.U.Y.U.Y.Y.oXoXoXoXa._ ) P.Y.a.) a.T.J.{ ( / Q K K v K v v P e.G.(.(.(.(.H.r i i e.v % .                     . % + + # # $ $ 8 > > > > > > > > > > < < < > > * * * # .           X X X X o r M M M 8.e.e.r.e.r.r.r.r.9.r.r.e.r.r.s.g.g.g.g.(.(.(.(.(.(.(.r.; & & O o o o o O = m V =.V V W W ! E P Q Q Q T Q Q Q Q Q Q Q Q Q / [ a.P.~.@X#X#X#X^.#X^.#X#X^.^.^.^./././././.~.I./.~.I.E././././.~.^.^.#X#X#X#X#XI.) * & * ; 1 ( #X",
"7.2.2.2.2.2.3.3.3.3.3.3.3.4.4.6.6.j.=.M B E E _ ( ) ) ) { { a.a.a.a.d.d.J.T.T.T.T.U.U.Y.Y.Y.oXoXY.Y.Y.U.U.Y.Y.oXoXoXR.a.a.Y.oXT.d.{ { [ / K K K c v v W t.Q.(.(.(.(.s.0.0.t ; i M u . . .                 . . % + + # # $ $ 8 > > > > > > > > > > < < > > > > > < $             X X @ * t y x y p W 8.8.e.e.r.r.r.r.e.e.e.e.e.e.r.y.s.g.g.g.(.(.(.(.(.(.r.v * & & & O O O o ; C V V N V W ! E Q Q P Q Q P Q Q Q Q Q Q Q / [ d.a.S.Y./.#X#X~./.^.^././.#X#X#X/.~.!.~.~./.!././.~.~./././.!.~.~.~.~.~./.^.^.^.#X#Xa.* & * ; 1 ( #X",
"7.2.3.3.3.3.3.3.3.3.3.3.3.3.4.4.4.4.6.p.M v E E E _ ( ( ( ) ) { { { a.a.d.T.T.J.T.T.T.U.U.Y.Y.Y.Y.Y.P.T.T.L.T.Y.Y.Y.U.R.{ a.d.d.[ Q P K K c v v v ^ s.(.(.(.(.(.r.V N V ;.t ; y B v + . . .               . % % + + # # $ $ > > > > > < > > < > > < < > > > > > $ # .     X X X # * 0 0 0 y y y y y W 8.e.e.e.e.e.r.r.r.r.e.e.r.r.r.y.g.g.g.g.(.(.(.(.(.g.W 1 - ; * * - * * ; N V B V ! Q Q Q Q Q Q T Q T Q Q Q Q Q / ) { a.L.Y.~.#X^.^.^././.#X#X#X#X#X^.^././././.~././.~.~.~.I.~././././././././././././.~.#Xa.* * * ; 3 E a.",
"7.o.o.2.3.3.3.3.3.3.3.3.3.3.4.4.4.6.6.6.j.N v E E E ! _ / ( ) { f.{ a.d.d.d.d.J.T.T.T.U.U.U.U.U.P.P.U.J.J.T.d.d.d.S.d.a.d./ Q P K K c u u b ! e.(.(.(.(.(.(.0.n e p C C C x 0 x M W + . . .               . % % + + # # $ $ 8 8 > > > > > < < < > < > > > > > > $ . X X X o @ * ; : ; 0 0 0 y y y y n W 8.e.e.e.e.e.e.r.e.e.e.e.r.r.r.y.g.g.g.(.(.(.(.(.g.e.t ; ; ; ; ; r y B B M E Q / / Q Q E P T Q Q Q Q Q Q / ( { a.S.Y.~./.^.^./.^./.^.^.#X#X#X#X/.^././././.~./.~./.~.I.I.~.!.I./.~.~././.~././././.~.~./.a.= * * ; 3 ( #X",
"2.3.3.o.7.2.2.2.3.3.3.3.3.3.3.3.3.4.4.6.6.Z.,.y M M E E E ( ) f.a.a.J.J.J.d.J.T.T.T.T.P.T.T.T.T.T.T.U.T.d.d.a.{ ( / / ! P K c J u u u v ^ s.(.(.(.(.(.(.8.p p n p q n 0.y.V y B W W + . .   .           . . % % + # # # $ $ $ 8 > > > > < < < < < > > > > > > * $ X @ ; r t r r 0 ; : : 0 0 y y y y y W 8.8.9.e.8.8.e.9.8.9.e.e.e.r.r.r.g.g.g.g.(.(.(.(.g.r.E 1 1 r t t t M M M E / / / Q Q Q P P P P P P Q Q / { a.S.Y.R.@X#X^.^.#X^.^.^./.#X/.#X/.~./././.~.^././.~.~.~./.~.~./.I./.~.~.~.~.~.~.~.~./.!./.~./.a.* & * ; 1 { #X",
"2.2.3.4.o.7.2.2.2.2.3.3.3.3.3.3.4.4.4.4.6.6.Z.j.M i v ! _ ( ( ) a.a.a.a.d.d.J.J.T.T.T.T.T.J.J.T.T.J.d.J.d.a.[ / Q K K K c c 3 u v v ^ H.(.(.(.(.(.s.V e q p p n n 0.H.H.).V y M W ^ . . . .             . . . % + + # # $ $ 8 > > > > > > > > > < > > > > > > * * 0 y y y y y y t 0 0 0 0 0 0 0 y y y M W 8.8.8.9.8.8.8.9.8.8.9.0.0.r.r.r.g.g.g.g.g.(.(.g.g.e.t t u u i x v E Q Q Q / / Q Q Q E P P P T T Q / a.J.P.I./.#X^.^.^.^./.^././.^././.^./././.~.^./.~.^./.I.I.!./././.#X~./././././.~.~.I.~.~././.~.~.a.* & * ; 1 ( F.",
"3.2.3.3.4.o.o.7.2.2.2.2.3.3.3.3.3.4.4.4.4.6.6.6._.-.y M ! E ( ( ( ) { a.d.d.J.T.T.T.T.J.d.d.a.a.a.a.{ ( { / / P K K u t u u v B e.(.(.(.(.(.(.y.8.n e q q q N V r.y.y.y.y.W y B V ^ . . . . .           . . . % + + # # $ $ $ > > > > > > > > > > > > > > > * * ; q y y x n n n n n n n N 0.^ 0 0 y y y M W W W W 8.8.8.9.9.8.8.0.0.r.r.r.s.g.g.g.g.(.(.(.g.s.! i v v v P E E E Q Q Q Q Q E Q E P P E Q / ) a.S.I././.^.#X^.^./././.^.~./.!.#X/././././././.#X/.^././.~./././.#X^./././././.@X@X~.!.~.~./././.~.a.* & * ; 1 ( @X",
"2.2.3.3.4.3.o.o.7.2.2.2.3.3.3.3.4.4.4.4.4.4.4.6.6.Z.p.n i v E ! _ ( ( f.a.a.d.d.d.a.a.a.a.{ [ ( Q Q / Q K K c c u u c v v W e.(.).(.(.(.s.B : q.N e e n V r.u.B B B B e.y.0.y M V ^ + % . . .           . . . % % + + # $ $ $ $ > > > < > > < > > > > > > > * * ; y y x n n n M M M N ;.q.0.V y 0 0 q y y M N N W W W W 9.8.9.9.9.8.0.r.r.s.s.y.g.g.g.(.g.g.g.e.i v v P E E P P P P Q Q E Q P P P E Q ( a.S.P./.^./././.^.^.^././.^./.~././.^.^.~./.~./././.^./././././.~.^./.#X/./.#X#X#X/.#X/././.#X/./.~.~.~.{ & & * ; 1 { @X",
"3.3.4.3.3.5.5.3.3.2.2.2.3.3.3.3.3.3.3.4.4.4.4.4.6.6.6._.p.=.i v E ! / ( { ) a.d.a.a.[ ( / Q P K K J c c u t t t c v B e.s.(.(.(.(.(.^ t & & = 0.e n V y.r.V W r.q.w.y.V 0.u.q M N 0.$ % . . . . .         . % % % + # # # $ $ 8 > > > > > > < < > > > > > > > * ; n n n n n M C =.q.q.0.V y y x V y 0 q y y M M N N N W 8.9.9.9.9.9.8.9.r.r.y.s.g.g.g.g.g.g.g.r.! v E E E E E K K P E Q E P P E Q ( t.a.I.!./.^./.^.^./.^.^.^./.^.^.^.#X/.^././././././.^./.^././././.~././.~././.#X/.#X/././.~.~.!./././.~.@X@Xa.& & * - ; a.#X",
"3.3.3.3.3.2.2.2.3.3.3.2.2.3.2.2.2.3.3.3.4.4.4.4.4.6.6.6.Z.`._.0.y M E Q / { d.a.[ / / P K J u u c 5 3 1 3 u v v W t.G.(.(.(.(.s.W * & & = : 0 C =.q.w.u.W y.w.0.0.0.w.y.W u.y M V 0.u % . . . .             . % % + # # $ $ $ $ > > > > > < < > > > < > > > 8 * ; n n n M C =.q.w.q.N y y y x V ;.V y 0 0 y y M M N N N W 8.8.9.8.8.9.8.e.r.r.y.y.y.g.g.g.g.g.s.e.P E E E E E E P P E ( Q _ _ ( ( a.H.G.!././././././././././././.~./././././././.F.#X#X#X~.^./.^.#X/.~.~.Y.!./././.^././.~./.I.#X/.#X#X#X#X#X@Xa.= * * ; ; a.@X",
"2.2.2.2.2.3.2.2.3.3.4.4.7.2.2.2.2.3.3.3.3.3.3.4.4.4.4.4.6.6.Z.`.j.V i K Q E c K P K K u u u u 2 1 3 u v v ! y.(.(.(.(.(.(.e.u X O & & = = 0 y p V q.0.W 0.V W y 0.V w.q.0.0.y M C u.B % . . . .       .   . . % % + # # # $ $ $ > > > > > < > > > > < > > > 8 * * x n N 0.q.w.q.V n n M 0.=.q C C y 0 0 0 r y y p M W W V W W 8.0.9.8.8.8.0.0.r.r.y.g.g.g.g.g.s.e.^ P Q Q Q E E E E ! Q _ ( t.t.F.G.!./././././.!.!.!.!././.!.!././.!./.#X/./.#X#X#X#X/.#X^.I./././.^./.@X/.^.~.~./.#X/.#X/.@X/.#X/.#X/.#X#X/.Y._ = * * ; 1 { #X",
"2.2.2.2.2.2.2.2.2.3.3.3.3.o.7.2.3.3.3.3.3.3.3.3.3.3.4.4.4.4.4.4.6._.p.y r < < 4 u u u 3 1 1 t v v v v ^ s.(.(.(.G.(.(.^ 1 X X X O & & = = : q n m q.B B 0.W B E W V q.0.y.y.y M V u.^ % . . . . .     .   . . % % + # # # $ $ $ > > > < > < > > > > > > > > $ * * M 0.w.w.q.N q q N 0.q.w.0.p w a a a 0 0 0 0 y M M N N W N V 8.9.0.8.9.9.9.9.r.r.r.i.g.g.g.g.g.r.e.( Q Q Q E E Q E E E ( t.F.G.!./././././.!././.!.!./.!.!.!.!.!.!.!.!./././.^.~.#X/./.#X#X#X#X#X/.~./.~././.#X~.^././././.@X@X#X#X#X#X#X~.P.R.( & * * ; ; a.#X",
"7.7.7.7.7.2.7.7.2.3.3.4.4.3.3.3.3.2.3.3.3.3.3.3.3.3.3.3.4.4.4.5.5.5.5.p.t * < 1 3 1 1 3 i v v v ! s.(.(.(.(.(.(.s.E # X X X X X o & & = = = q e C V 0.V q.x 0.y M M 0.0.y.y.y n N ;.^ % . . . . .         . . . % + + # # $ $ $ > > > > > > > > > < > > > > * * ; 0.w.;.C n q N q.q.q.w.0.y w w a : 0 n N n 0 0 y p M N N N 8.8.8.8.8.0.9.9.8.9.9.r.r.y.g.g.g.g.r.r.f.! Q Q E E Q Q Q ( a.I.!./././././.!././././././.!.!.!.I.I.!././.!.!.I.I.~.~./.#X~.!.#X^.^.^./././.#X/.@X~.R./.#X/.#X/./.~.#X#X#X#XY.F./.@X( * * * ; ; a.#X",
"7.o.o.7.7.7.2.3.3.3.3.3.3.3.3.3.3.3.2.2.2.3.2.2.2.2.3.2.3.2.2.2.7.7.o.1.=.+ * - 1 t u i x x W s.(.s.s.(.(.(.e.u X X X X X X X X o & & = = = y p C ;.0.M q.V 0.0.0.u.V y.y.y.i y B u.t.+ . . . . .         . . . % % + # # $ $ $ 8 8 > > > > > > > < > > > > * t e.0.C j C =.q.q.w.q.V y o 0 0 a 0 M V V V V y 0 y y p M M N 8.8.8.8.9.8.9.9.9.9.8.r.0.r.r.y.g.g.r.r.s.( K K E Q Q / ) H././.^./././././.!./.^./.!././.!.!.Q.!.!.I.I.!./.I.!.I.I.~./.~.I.!./.^.!.^./.!.~././.~.~.~./.#X#X^.^.#X#X#X#X/.P.~.#X#X#X( * * * ; ; a.#X",
"o.o.o.o.o.2.2.2.3.2.2.2.2.2.2.3.3.3.2.3.2.2.2.7.7.7.7.7.7.7.1.o.o.o.o.-.y 3 t t t t i v ^ y.y.s.s.H.(.s.W - X X X o o . . X X X o & & = = = q p n 0.q.V V 0.q.r.W W y.y.y.u.M x B ).s.< % . . . .         . . % % + + # # # $ $ $ 8 > > > > > > > > > > * u ! 0.M p n 0.w.w.w.w.0.y O O o 0 q N =.V m ;.V B x q 0 0 y p M M V W 8.9.9.8.8.8.8.9.9.9.9.r.e.r.y.y.y.r.s.e.E E E E ( S.!.^.^.^./.^././.^./.^.^./././././.!././.G.G.G.I.I.G.I.I.I.!.!.E.I.I.Q.~.I.I./.~.~.!.I.#X/.^./.^.^.^./././.#X#XP.P.#X#X#X#X$X) * * * ; ; d.@X",
"o.o.o.o.2.2.2.2.2.2.7.7.2.2.2.2.2.2.2.2.7.7.7.7.o.o.o.o.o.o.o...o.1.-.p ! B i y x ^ t.y.r.s.s.s.G.f.v o X X X X o o o . . X X X X & & & = = y q n ;.V 0.y.q.0.V 0.y.y.y.y.r.B v M y.0.u + . . . .         . . % % + # # # # $ $ 8 > > > > > > > < < < E e.W M p n 0.w.w.w.w.M ; o O & & & ; 0.q.V m V V n y y y r ; r p p M N N 8.8.9.e.9.9.8.0.8.8.9.8.9.r.r.r.r.e.s.e.Q _ f.H.!.I.F.G.^.^.^.^.^.#X^.^.^.^././././.!.!./.!.!.W.G.G.G.I.!.G.I.~.I.!.I.G.~.~.I.I.!.!.I.~.~././.^././.#X#X#X#X/.Y.F.~.#X@X#X#X#X$X( * * * ; ; J.$X",
"o.o.o.7.7.7.o.7.7.o.7.7.7.2.7.7.7.7.7.7.7.o.o.o.o.o...........1...w y y y 0.y.y.y.y.y.y.y.s.s.( t X o X X X o o o o o o X . . . o O & & = = q q p =.V M M V 0.w.y.y.r.r.u.0.W M M 0.i.t.% .             . . . . % + # # # # $ $ 8 > > > > > < < < < 1 n j e n 0.w.:.w.w.W ; o O O O O & & = ;.=.e n n n n y q y y ; 0 y p M N N W 9.9.e.9.9.8.0.0.0.8.8.9.8.0.e.9.0.r.e.t.a.I.!.^.#X#X#XG.H./.#X#X^.^./././.^././././.!.!.!./.G.I.G.G.G.G.I.I./.I.!.!.I.I.I.G.I.I.G.I.I.I./.!.!././.^.#X#X~.F.L.#X@X#X#X#X/.@X#X( * & * - ; S.#X",
"o.o.o.7.7.7.7.o.7.o.7.7.7.7.7.7.7.7.o.o.o.o.o.........o.1.-.e 0 0 y M u.).).w.u.y.y.y.(.t.B & o o X X X X o o o o o o o o o o o o o O & & = 0 q n =.0.0.u.u.y.y.y.r.r.0.W N N 0.i.=.y.s.. .     .         . . . % + + + # # $ $ $ > > > > > > > < < 1 q V ;.;.w.w.q.B * X X O o O o o o & & ;.V y q y n y 0 y x y t ; r y p N N W 8.8.0.0.8.8.8.9.r.8.8.9.8.9.8.W 8.r.e.F.^.^.^.#X#X#X#X#X#X/.H.D./.#X^.^././.^././././././.!.G.G.I.G.G.G.I.I.!.!.I.G.I.G.H.G.I.G.I.G.I.H.G.I.E.!./././.~.a.I./.#X/.#X#X/.#X/.@X( * * * - ; S.$X",
"o.o.o.o.o.o.o.o.o.o.7.7.7.7.o.o.o.o.o.o.o.........-...1.a 0 r t W i.(.A.w.0.u.y.y.s.^ t O o o X . o o o o o o o o o o O & & & O O & & O O & 0 q n V 0.q.y.y.y.y.u.W n M N 0.w.i.w.V 8.( %     . . .       . . . % % + + # # $ $ $ $ > > > > > > < 1 n 0.;.=.;.V y o o X X X O O O o o o O & C m p y y n 0 q y M y t r ; r y p N N 8.8.9.0.0.r.r.r.r.r.0.9.9.9.8.8.e.e.t./.#X^.#X^.#X#X#X#X#X#X#X#XI.a.H./.^.^.^./././././././././.!.E.G.G.I.G.!.!.E.!.I.I.I.G.I.G.G.G.I.G.G.I.I.E.E.I.a.a.I.I.~./.@X@X#X#X#X#X@X( * * * - ; J.@X",
"7.5.5.2.1.o.o.7.7.7.o.o.o.o.o.o.o.o.........1...e a a ..-.n r.(.(.i.0.0.y.r.y.r.W ; & O o X o * * * & O O O o o o * - ; ; ; 1 1 ; 1 ; ; ; ; 0 q y 0.y.y.y.r.0.V M n W r.i.i.i.;.V 0.r.e.% . . .   .       . . . % % + + # # $ $ $ $ $ > > > > > r V q.0.B y ; + + @ @ X X X o o O O o o O & C C y y y 0 q y y y y t r r 0 y p M N V W 8.e.0.r.r.r.r.r.r.r.r.r.e.e.8.0.s.^.#X^.^.^.#X#X#X#X#X#X#X^.#X#X/.G.H.G./.^.#X/./.^./././././.!.I.!.I.I.I.I.~.!.~./.!.!.!.I.G.G.G.H.I.E.E.!.H.( F.I.F.I.I.I.~.Y.#X#X@X#X$X( * * * - ; L.@X",
"o.o.7.7.2.5.o.o.o.o.o.o.o.o.o.........-.-.p = & = = a -...A.A.q.0.0.r.y.y.e.M 0 ; O o # < 1 1 ; & & & & & O & - ; ; ; r r t r t t t t y x x x W y.y.y.y.0.V N M V r.i.i.i.=.m =.N V 0.^ + . . . .       . . . % % % + + # # # $ $ $ 8 > > > > v ! 0.0.y # + # $ * $ @ @ o @ O O O O O O & & C M n x y y y y y y t c K v ; 0 y p M N V W 9.0.e.r.y.y.g.g.g.s.y.e.e.^ 0.Q.^.^././.^.^.#X#X#X^.#X#X#X#X^.#X#X^./.H.a.!.#X#X#X#X^././././.!./.I.I.~.!.E./././././.!.!.G.G.I.G.H.G.G.t.t.I.H.G.H.F.G.F.F.!.I./.#X#X#X/ * * * * O Y.@X",
"7.7.o.o.7.7.5.o.o.o.o.o.o.........-.-.e a 0 ; 0 y 0.w.1.o.-.8.0.e.r.y.^ M y r * o - u v v u t r 1 3 ; * * ; 1 1 r t t u t t i x i t v M y t W y.y.r.0.V V 8.W y.i.).r.=.C =.=.N n n W W @ .     .     .   . . . % % + + + # # $ $ > > > > * P g.! v - o O * < * $ $ @ & * * * * & O O O & * x n n i y y y t t u c K v v t 0 r y p M N V 8.9.8.8.r.r.y.y.g.g.r.e.0.W e.!.!./././././.^.^./././.^.^.^./././.^.^.^./.I.a.H./.#X#X#X^./././.^.~./.!.!./././././.^.^.!.!.I.G.I.H.D.( H.G.F.H.F.F.F.F.F.F.I.G.~.I.~.@XQ * = * & o Y.$X",
"2.2.2.o.o.o.o.o.o.o.o.......o.-.e a 0 0 0 0 N w.A.i.;.-...-.0.e.e.! M x i 1 $ 1 v K v u u t t t r ; ; ; ; 1 t t t t i x x x v v E e.^ W M ^ e.r.0.V 8.0.y.i.i.y.0.N n e n C n p n N V W t * # + % . . .     . % % % + # + + # $ $ $ > * u s.(.(.P @ O * 1 1 1 - * * * * * * * * * * * & O & y y y y y t t u v K v K v v i r 0 0 p p N N W 8.8.9.e.r.r.r.y.y.e.9.W B t.^./././././././.!./.!././././././././.^./././.^./.G.H.H././.^.^.^././.E.I.G.!./.!././.^.!.!././.E.G.) t.G.G.F.F.F.D.H.F.F.F.F.F.F.H.G.F.P.E = & * O o U.$X",
"2.7.2.o.o.o.o.o...........-.e a 0 0 w q 0.A.A.w.V V n e -.1.0.M i x t * - c K K v v t t t t t 1 ; ; r r r t t u i i v i x v W W e.t.e.W 0.e.V m V q.w.i.).y.! = q p e q p N V N n V N N M u < , < > * # @ + + . + % + + + + + & < i ! r.(.(.(.(.! - 1 ; ; ; ; - - - - - - ; ; - - - - ; * * y y y y t t v K K K K K K v i y : 0 y p M N N V 8.8.9.0.e.e.e.e.8.W B W /./././././././././.!././.^././././.!././.!.I.!./.#X#X#X/.D.a.G.!./././.~.I.G.I.!.E.I.G.!.~././.!.D.) G./.I.I.G.F.G.I.H.D.a.F.F.a.F.F.H.F.F.K * & & O O T.~.",
"7.7.o.7.o.o.o.........e a 0 0 w w n q.A.A.q.C C V V C e m -.y t 3 # 1 c K v v i r t t t 1 ; ; 1 r r r t t t t t i u u v E e.e.^ e.^ e.0.W N 8.q.y.i.i.r.M & & & 0 q n N V V N M M C N C M y 1 1 1 2 1 u P ! ! ! ! ! ! P ! ^ ^ e.g.g.g.g.(.(.(.(.( 3 ; ; 1 - ; - - - - - ; ; ; ; - - ; ; r i y y i v v K K K K K K K v v i y r : 0 y p N V W 8.8.8.9.0.0.8.W N B M t.^././.!.!./././././././././././././.!.!././.G.!.!./.!./.^././.I.t.t.G././.I.I.G.H.H.I.I.I.E.!.I.( a.!.!.G.G.I.I.!.G.I.D.H.D.a.F.F.F.F.F.F.d.v * = * & o S.P.",
"o.o.o.o.o.o...o.-.q 0 0 w w q =.i.A.A.;.V N V V =.V y e e p , * t v v v v i t t r r ; ; ; r r r r r t t t t i t t M ! ( e.^ ^ e.e.0.V N V q.i.w.i.0.t & & & & & 0 N W N V N C N N n n C C x 1 1 1 1 1 i ! ^ 9.e.e.r.s.r.r.y.s.s.g.g.g.g.(.(.g.(.e.t u 3 ; ; - * * * - - ; ; ; * * ; 3 t t y u v K v K K K K K K K K v u i i y 0 0 0 y n N N V 8.8.0.8.8.W N B M ^ !././././.!./././././.!././././././././././././.!.!.G.G.!.!./././.^.^.H.t.D.!./.E.G.G.G.H.I./.D.( ~.~.!./.!.!.!.Q.I.G.I.D.I.F.F.F.F.F.F.a.F.F.K = & * & O a.F.",
"o.o.o.....o.-.e a 0 w 0 p q.A.A.w.;.;.0.0.=.;.V M x t a e p t u u t t 1 r t ; ; ; ; ; 1 1 1 r t t t t t t t t M W W W e.W e.e.0.W M W y.i.i.i.V ; o O & & & & & : V V C n C n N C n C n M x 1 1 1 1 r i ! W 9.9.e.y.r.e.e.r.s.s.g.g.g.g.g.g.(.g.e.3 - ; ; ; - ; 1 ; ; ; - - ; 1 r t u t t c v K v K K K K K K K K v i y y t t 0 0 0 y n n N V 8.8.8.8.W V M M M a.!././././././././.^./.!././.!././././.!.!.!.!./.!./.G.G.H.E.I.G.!./.^.^.!.!.a.a.D.E.I.G.G.H.( a.~.^./././././.I.!.!.G.G.H.H.s.a.a.F.a.D.D.P.F.K * * - * * D.P.",
"......o.-.e = 0 0 q V w.A.p.:.=.0.0.0.u.0.N x i t - @ ; ....t ; ; ; ; ; ; ; * - ; ; 1 1 1 1 t t r t t r t M W W W W W ^ e.0.W ^ y.y.).i.y.M & X X X & & & & & & = N C n n n n M C n n n n x 1 1 1 1 r i ! W W e.r.r.r.r.r.r.s.g.g.g.g.g.g.(.(.g.t.- ; ; ; ; ; ; ; 1 ; ; ; r r t x y i v K K K K K K K K K K v v K v v i y 0 0 0 0 y y p n N N V W W W V V N M E I./.^././.!././././.!././.!./.^.!./././././.!./././.!.G.D.H.D.G.G.I./.^.^././.~./.G.t.t.F.t.( I.I././.^././.^././.~.~././.!.I.H.F.a.a.F.F.D.F.P.v * - - * * a.P.",
"o...e a a ; 0 p q.A.A.p.;.=.=.0.q.q.=.M x 0 1 $ @ * 1 1 e ..0 * * * * * * ; 1 ; ; ; ; 1 r r t r r 1 u B ! ! W W W 0.e.W W W u.i.i.i.u.x o X X X X X O & & & & & = M n C j n n M C q y n x x i 1 1 1 r i K ! W e.r.r.r.y.r.r.s.g.y.g.g.g.g.g.g.g.s.- ; ; ; 1 ; 1 ; ; ; r t t v M v v K K K v v K K K K c c K K K K v i x y 0 0 q q y y p p C N V 8.8.W V N M M e./././.!./././.!./.!.!.!.!.^./.^./././././././././.!.I.Q.G.G.F.F.D.I.E./.^.^.^.^./.!.!.I.E E t.I.Q.I.!././././././.!.~.I.I.!.G.G.F.P.F.F.F.F.F.I.v * * - * * a.S.",
"a = a 0 0 M y.A.A.:.;.=.;.0.q.q.=.n n n M * * - - * & & a ..0 & & & * ; ; ; 1 1 ; ; 1 1 r r r r i E W ! ! B W 0.e.W V 0.w.i.).(.0.t X X o o X X X X O & & & & & & n V N C n C p y q y M W ^ v 1 1 1 r i i ! e.e.e.r.r.s.r.r.y.y.r.g.g.g.g.g.g.g.r.; ; ; ; ; ; ; 1 1 t y v M M ! E P K K K K K v v c v v v K K K v v y y y y 0 q y y y p p n N V W W W W V B B H./././.^./.!./././.!.!.!.!./.^./././.!./.!.!././.I.!.I.G.I.H.G.H.D.H.G.~./.^././././.F.( H.!.I.t.t.a.I.!.^./.~./.!.!.~.I.F.F.H.I.F.H.F.F.F.F.P.I.v * * - * * F.H.",
"0 a q W ).A.p.:.=.=.=.0.q.;.C e C C n p n ; & O & & O O & -.y * * ; ; ; ; 1 1 1 1 1 r r r r v M E W ! E W ^ W N M 8.y.i.i.y.W 1 X X o o o o X X X X & O O & & & & y W N C p p q 0 0 W 0.V n r 1 1 r r i v ! 8.9.e.r.r.s.y.r.r.r.y.g.g.g.g.g.g.g.e.- - ; ; ; 1 t r t x M E ! Q E P P K K K K c c c v K K K K K K P M p y y y y y y y y p n n N V V V W V V M B !.^././.I.!./.!.Q./.!.E.!./.!././././././././.!./././.!./.G.G.G.H.F.H.G.G.E././.^./.t.F.^././.!.E.!.D.t.t.G.^./.!.G.I.I.G.G.H.F.F.F.D.F.F.F.F.F.P.c - * * * * P.I.",
"n q.A.A.w.-.=.;.;.;.0.m e 9 C C C j j n y & o o o o O O & ..0 ; ; ; ; ; ; 1 1 1 3 r r t v ! W W W W ^ e.W M n V r.y.y.y.B * X o o o O o . X X X X X O O O O & & & n W V n q q 0 0 y M y q y t 1 1 1 r i v ! W 9.e.r.r.s.y.r.r.r.i.g.g.g.g.g.g.g.e.* * ; ; 0 y t t x B ! ! ! E E P K P K K K v c v v K K K K P _ t.! p y y y y y y y p p M M N N N V W V B M ^ /./.^././.!.!././././.!.!./.!./././././.!././.!./././.!.!./.G.G.H.F.H.G.H.G.I.I.a.t./././././.!.I.G.I.G.G.t.t.D.E.!.I.I.I.G.F.G.H.F.F.F.F.I.I.F.P.i ; * * * * I.I.",
"A.p.;.=.=.;.q.q.;.n q q j C C j j n C n y O O O O O & & = ..e ; ; ; 1 1 1 1 1 r r t v E ! ! ! W ^ e.W M t B y.y.y.0.v o X . o o o o o X X . X o O @ O O O O O & & x ^ N n w a y V 0.t n n B M t 1 1 r r i M W 8.e.r.r.r.r.r.r.r.y.g.g.g.g.g.g.s.W * ; 0 0 0 y x v E E ! ! E E E E P K K K K K c K v K K K Q t.F.I.M y y y y y n p p M M N N N N N N N B B n a././.^.!./././././././././.I.!./././././././.!./././.!.!.!.I.G.I.G.G.F.I.H.H.F.t.a.~.!.!.!./.!./.!.I.!.G.G.G.G.F.t.t.a.F.I.F.H.H.G.I.F.F.F.F.F.P.P.u - - * * & P.a.",
"=.m =.q.q.q.V j e e n j C j e j C V =.=.n & O O O * * * * e -.; ; 1 3 r 1 1 1 u K ! ! ! B W ^ e.V M N B r * u.V r X o o o o o o o X o X o O * * * & O O O O O o & y B y q n V 0.0.V ; n M B M r 1 1 r t i M ! W W e.e.r.r.r.r.r.r.g.g.g.g.g.g.y.W ; r t y y v E E E E E E E E E E E E P K K v K K v K Q a.F.!./.Q.y y y y y p p n M N V V V N V N N M M M x F./././././././././././././.!.!././.^././././.I.!.!.!.!.Q.!.!.!.G.H.G.I.G.G.a.t.I.I.I.E.!.I.G.!././.!.!.I.G.F.F.H.G.I.D.) ) a.F.I.I.F.F.F.F.F.P.P.Y.u * * * * = ( c ",
"=.0.0.0.m e e e C n j e e C m =.=.m =.=.C & & * ; ; - * = a -.y 1 1 1 1 ; u B M M ! W W ^ ^ V M W u.0.V & o O X o o & O o o o o o o o $ 1 1 1 ; ; * * * O @ @ O O 0 n M 0.u.0.V x y M x M i ; ; 1 1 r t i M M W W 9.e.r.r.e.r.r.r.i.g.g.g.g.g.y.W r t y v P E E E P E E E P E E Q Q Q E P K K K v E { F.!./.^.^.G.y y y y y y n M M N V V V V V V N N B M M /./././././.!././.!././././././.!././././././.!.G.I.!.G.G.G.Q.!.E.!.E./.G.t.D.I.G.E.G.I.I.!.G.I.!.!.!.G.I.F.F.D.F.F.F.F.G.D.a.) t.F.I.I.I.F.F.a.F.P.t * & * * * x t ",
"0.0.N j j e e e e e e m m m m =.=.m =.=.m * * * ; ; ; ; * 0 ..n 1 1 1 r t B W ! E ^ e.^ V B V y.y.w.;.t o o o o O & & O o o o O * 1 t u t t t r 3 3 3 ; * 3 t r t B e.y.r.0.M q C 0.w.t & * * * 1 1 1 r t i i N W 8.9.9.r.e.9.r.r.y.g.g.g.g.g.y.B r t t E K P E E E E P E E E E E E E E P P K E ( S.I./.!./././.^ y y y y y p n M M N N W V V V V B N B n E #X/./.^./.!.!././.I.I.!././././.!./.^./././.I.I.I.!.E.Q.I.I.!./.!.I.G.a.t.!.!.!.I.G.G.H.H.F.I.~.I.G.I.G.G.G.F.F.H.F.H.F.F.G.I.G.F.t.( a.F.P.F.F.I.L.t * & * * * b 3 ",
"n e j j C j e e C m m m m m m =.-.=.=.=.N ; * * * ; ; ; ; : o.-.1 t u u v E B ^ e.^ W B ^ u.y.w.^ y O * - & & O & & O o O * * 1 v c u t 1 1 1 1 t t 1 - u i v ^ s.y.s.r.^ N V V 0.u.u.r & * * * 1 1 1 r t y i ! W W 8.8.r.9.9.9.r.g.g.g.g.g.g.y.M v v v t c K P P E E E P P P P E E E P E E ( a.H.!././.^./././.W q y y q y p n M M N V V V V V V B N M x t.^.^././././././././././././.!./.^./././.!.!./.!.!.!./.!.!./.^./.E.D.t.H.I.!.!.I.!.I.G.G.H.F.I.I.I.F.H.F.G.F.F.F.G.F.D.F.H.F.F.G.I.I.I.( _ ( a.P.P.Y.3 & * * O * B - ",
"y n C j j j C m m C C C C m =.=.=.=.=.=.m ; * - * ; ; ; ; = ..-.v v x x M e.e.0.B W 0.r.y.y.W ; O - t t r * O o o X O * - ; u v t r ; ; 1 ; t u t * ; t x ^ y.t.s.t.0.V 0.y.0.0.0.V n ; & & 1 r 1 1 1 r r t i p N W W 9.9.8.8.9.r.r.y.g.g.g.g.r.M v v K K v t v E E E E P E P P E E P E _ ) F.!.^.^.^./././././.B q y y y y p n M N V W V V V N V N M M x F.#X#X^./.^././././.~.!.~./././.!.!.!./.!./.^./././.!././.!././.!.t.t.!./.!./.E.I.G.I.G.I.I.I.I.H.G.H.F.D.F.D.D.F.F.F.G.F.F.D.F.H.G.I.I.I.P.I.a.t.) L.1 & * * o o 3 1 ",
"y C j C j m m m m m m m m =.-.=.=.=.=.=.V 0 * * * * * , 1 r e ..V E M W W B M W r.q.y.e.B ; @ * t v B x r O o o - ; ; t i b v 1 3 1 1 r t 1 ; ; ; r v ^ s.y.s.t.0.0.r.y.u.0.V M x y M 0 ; x v i 1 1 r r r r y i N N W W N V V 9.9.r.y.g.g.g.s.s.v v v K v K K K u v E E E E P P E Q ( a.a.F.!./.^.^.^./.^./.^.~.x q y y q y p M N N V V W W V V V N M x M !.^././.!.!./.!.I.I.I.I.I.!.!.Q.!.G./.!.!./.^.^.#X/.G././.E.!.H.t.I.!././.E.!.I.E.Q.I.G.I.I.G.I.G.I.F.I.F.H.F.F.F.F.F.F.F.F.F.F.F.F.F.I.P.F.P.I.I.P.) * & & * o X 1 K ",
"0 e 9 C m C C m =.V m m C m m -.=.=.=.m m y * * * & * 1 t y y -...W W B B 0.u.y.y.y.M * & 1 t v W B x 0 & @ * ; 1 t u t i t ; 1 r t i t ; ; 1 r v 0.y.y.).r.0.8.u.y.u.V V M 0 0 M B y 0 y M x t 1 1 r r r r y i p M N M M N 8.9.9.r.r.y.g.g.y.r.v v v v K v K v K v c v P Q E E _ ) D.I././.^.#X^./.^.^.^./.^.I.y q q y y p n M N N V W W W V V N M M x B /././././././.!.!.!.I.I.I.I.G.!./.I.!.I./.^.^.^./.^./.^./.I.t.a.!.!./.!./.!.!.G.H.I.I.I.I.I.G.G.I.G.I.P.F.F.I.G.F.F.F.F.F.F.F.s.a.F.F.F.I.P.F.P.I.F.P.; & O * o @ 1 [ ",
"w w 9 m m C C C m m C j C m -.=.-.m V V C y * - = ; ; 0 i i M p ..=.B e.y.w.y.0.M - * 1 v ! ! W M t O & - ; 1 r t t 1 ; ; ; t u i t ; ; t x B u.y.y.y.y.0.=.u.y.V 0.V n q x M M M B x M M V t ; 1 1 r r r r r y y p p p M W 8.8.9.9.r.r.g.g.y.e.v v v K K K v v v P P K c v _ ) S.I./.^./.^.#X^././.^.^.^./.#XH.y q q q y p p M N V V W 8.W W V N M M x ^ /././.^.^.!./.G.G.!.G.G.!.!./.!.!.!.!./././.^././././.!.H.t.!././.G.E./.!.I.!.G.I.I.G.I.I.I.I.I.I.I.F.F.I.I.G.G.F.F.F.a.F.F.I.I.F.F.F.P.F.F.F.F.S.F.P.; & & $ o - 1 K.",
"w 9 9 C =.m -.C m -.m =.-.m -.-.m C =.=.V x r 0 t x x M M ! B e ..-.y.y.w.V y * * 3 v E ! ^ E t O * ; 1 1 3 t r ; * = ; r t i t ; ; t y W q.y.i.y.y.q.q.q.y.y.y.0.n 0 0 M B V V M B V B n n M 1 1 1 r r t r r r y 0 y p p V =.8.9.9.r.r.y.s.r.e.v v v v v v K K K K P P _ ( ) t.!.#X#X#X^.^.#X^./.^.#X#X#X^.#XF.0 0 0 q y y n M N V V W W W V V M n x y t./.#X^.^./.!.G.G.G.!./.I./.!./.!.!./.I./.!.!./././.!.I.t.D.!.!.!.!./.E.G.I.G.I.!.~.F.I.G.I.G.I.I.!.~.F.a.F.F.F.I.F.F.P.I.I.P.F.F.I.I.I.P.a.F.I.S.S.F.P.; * * $   1 c .X",
"w w 9 C =.m C C m m m C -.-.m m m =.;.;.=.n B W W W W B x 0 q -...-.q.V 0 & * 1 i E W W M 3 o * 1 ; ; 3 t 1 1 ; & * ; t t r ; ; r x W y.q.w.y.w.q.q.y.w.y.y.y.0.n M V x n M V C V 0.W M y n n t 1 1 r r r r 1 r 0 r y y p N V 8.9.9.r.r.r.r.r.W v v v v v v K K v E ( ) H.I./.^.H.D./.#X^.#X#X#X#X^.#X^.#X^.^.a.0 0 0 0 q p n N M N W W V W V N M n y x I./.#X/./.I.Q.I.!.!.!.I.I.!.!.G.G.I.!././././.!.!.!.a.t.I.!.G.I./.!.I.!.I.G.~.I.I.~.I.I.I.F.I.Q.F.~.!.I.F.F.I.I.I.I.F.I.I.P.P.P.F.I.I.P.P.F.F.P.F.S.S.P._ 3 O $ - 1 / K.",
"w w w C m C C C m m j C C m C C m =.=.=.0.0.W ^ ^ W y y B V N =...-.y & - 3 i M M x i 1 . $ 1 ; ; * 1 ; ; * = ; ; 3 r ; ; ; 0 y V u.y.i.w.w.;.0.w.w.i.i.q.V M M V 0.0.n y V M V V 0.W x q y y t 1 1 r r t r , ; r r y p M N 8.9.0.9.9.r.r.r.e.W v v v v v v v K E ) F.I././././.^.^.H.H.!.#X#X#X#X^.#X^.^.#X#Xa.0 0 q 0 q p p N N N W W V V N N M n y B /.^.^././.!.!./.H.!./.!.G.!.!.!.I.I.I.I./././.!.!.t.a.I.I.!./.I.I.!.I.G.H.I.I.!.G.I.!.I.I.I.I.~.I.I.!.~.I.~.F.Q.I.I.F.I.~.I.P.F.a.F.P.I.P.I.F.F.S.D.F.I.R.P.{ Q 5 ; d.[ ",
"a w 9 e m m m j m C C m C C C C m m ;.;.=.V ^ W y q V e.e.W y 0 -.q p r v M M x 1 O . * - ; 3 ; ; ; * & & * ; ; ; ; ; * ; y V u.q.y.w.w.=.:.w.w.p.w.w.=.n V V 0.0.;.V V V V V V V ^ B M 0 q t t 1 1 r r t t , 1 r y y p N N 8.9.0.0.r.r.e.0.e.W v v v v v v P / a.F.!.^././././.^.^.#X^.I.s./.#X#X^.^.^.^.^.#Xt.0 0 q q q p p M N N V W V V V N M y y ^ ^.#X#X#X/./././.!./.Q.!.I.I.!.!.G.I.I.!././.I.t.t.G././.I.!.I.!.~./.I.I.I.G.I.~.~.!.I.!.I.I.I.I.I.I.I.I./.~.P.I.I.I.I.I.I.I.I.F.a.P.F.I.F.F.F.F.S.a.F.I.F.S.P.I.{ 3 .XQ ",
": w q e m =.m m m m C n C V =.;.=.=.=.=.=.V n x N ^ 0.0.B ; & * p e p y x i 1 o o & * ; 1 3 ; * - * * * ; ; ; ; ; & ; i B V ;.q.q.0.;.q.w.w.w.w.q.V 0 O : V =.0.V V Z V V V V V N 0.W y 0 y i t 1 1 r r t t , 1 r y p M N N 8.9.9.r.r.r.r.0.0.^ v v v v v E ( F.I.#X/./././././././.^.#X#X^.H.a.!.^.#X#X#X#X#Xt.0 0 q q q p p n N N V V V V N M M x y F.#X/.^./.#X/./.!.^./././.!.Q./././.^.^./.!.G.t.H.!./.!.!./.!.Q.I.I.I.~./.I.I.I.I.~.!.~.~./.~.I.I.I.G.!././.~.I.Y.P.I.I.I.I.P.F.F.F.a.F.P.P.I.F.S.a.a.a.a.a.F.F.L.Q P K.Q ",
"= w q e m m m m m e n C m =.=.;.;.V =.N n n =.0.0.^ M ; & * 1 t p p p p ; o o $ * ; 3 3 1 - * * * ; ; ; ; ; ; * ; y W W ;.;.q.=.V ;.q.w.w.w.w.N : = = = & 0.;.;.;.0.m ;.N n y C n V n x 0 t t 1 1 1 r r t r , 1 r y p M M N 8.9.r.r.r.9.0.0.0.^ u c v E ( a.H.!.!././././././.^././.^.^.#X^.^./.I.D.!.#X#X#X#Xt.0 0 0 0 q y p n N N V V B N N M M x M Q././.^.^.^./.^././.!././././.!.!./.!.!./.a.a.~.!.I.!.!.I.~.Q.I.F.F.I.I.!.I.I.I.!.I.I.I.!.~.I.I.G.I.I.!./.!.^.I.I.I.F.I.I.F.P.I.P.P.F.S.F.P.P.P.P.F.a.S.a.F.F.a.S.u { { [ ",
"= w w j m m m m C C m m V =.V =.=.C n V 0.0.0.W x & O - 3 u u y y p e 0 @ & & - 1 3 1 ; ; 1 ; ; 1 1 ; ; ; = ; x W 0.0.0.;.V V ;.q.q.w.w.q.M ; & = = = r y C V ;.;.m C V N M B M x M y x ; 0 1 1 1 r r r r r , , r y p M M N 9.e.r.r.r.8.8.8.r.! u v ! t.F.G.!.!.!././././././././.^./.^.^.^.^.#X#X^.G.H.!.#X=Xt.0 0 q q q y p n N N V V N N N N n y ^ #X^.^.^.^././.^.!.!.I.!.!.G././.!./.!.I.t.F./.#X/.E.I.F./.~.I.!.!./.~.I.~./.!.I.I.I.!.I.G.~.Q.I.I.I.~.I.P.~.I./.@X~.I.I.P.F.P.P.F.F.I.P.F.F.P.L.P.P.F.a.S.F.F.F.D.1 K.[ ) ",
"& w w q C C C m =.V m C C m m n e =.q.q.q.V y O $ ; t v v v t ; = 0 e p * * 1 3 ; ; 1 3 3 1 1 1 1 1 1 * ; x W 0.0.0.V m C =.:.q.w.q.q.B O X & & & = = y M n V ;.=.V N V y M x M t y B y = t t 1 1 r r r r 1 , , r p M p p N 9.r.y.r.r.0.9.0.y.M E ( a.G.!.!.Q.I./.!.!.G.!.G././.^.^./././././.^.^.^.#X#X/.H.I.a.0 0 0 0 q y p n M N V N M M M M M y t.^.^.^.!.^.^././.~.!.!././.!.!.!.~.!.a.t.Q.^././.#X/.Q.I.!.I.~.!./.~.Q.I.~.I.F.I.I.I.I.!.I.~.I.!.H.Q.I.I.I.I.I./.~.~.~.I.I.P.F.P.P.P.P.I.I.P.P.P.a.S.P.F.F.F.F.F.) K K.[ ( ",
"& a w 9 C C C m V n n C n p n =.;.;.q.=.y O * 1 t i v v x ; o X = p q -.r r 1 1 t t t r r 3 3 3 1 ; ; v ^ 0.0.8.V n j m ;.:.q.q.0.x O X X X O & = = ; 0 M C m :.V 0.x V M M M M y x M n ; t t 1 1 1 r r 1 1 , , r i M p M W 9.r.y.r.r.r.9.r.r.! a.F.I.E./.!.G.!./.!.!.!././././.G./././././././.^.^.^.^.^.^.!.^ 0 0 0 0 y y p M N N N N M M M M n n Q.#X^./.^.!./.!.Q././.!./.!.G.!./.G.t.G./.!.^./.~./.~.!.I.~.!.I.~.~.I.I.I.I.I.I.I.Q.~.I.I.I.~./.~.!.I.I.I.I.P.I.I.~.~.~.P.F.F.I.P.P.P.P.a.S.F.F.F.S.P.P.F.F.S.D.S.P / } a.{ ",
"& a a w C C C C C C n n N =.;.q.0.=.p q 0 r t v v v r ; X o & O = -.p -.t r t u t t 3 r t t r 1 ; v ^ 0.0.W M n j C =.=.;.:.0.v $ X . . % X O & & = = 0 n C m q.n 0.M V y V V y M M x x 1 ; t r r 1 1 r 1 1 1 , r i M M N 9.r.r.y.y.y.y.e.y.e.a.I.G.!.!.G.E.G.!.!./.!./././././.^././././.^././././././.^.^.^.F.0 0 0 q y p p M N N N M N n n M M W #X^.#X^.^.#X/././.!.!./././.!.I.t.e.I.^.^.^././.^.I.!.I.I.I.I.Q.I.~.!.!.I.I.~.~.I.I.!.~.#XQ.I.I.I.F.!.I.I.~.Y.I.I.~.I.R.R.F.P.Y.P.Y.Y.F.P.P.F.S.S.L.S.F.S.S.F.S.F.u d.[ S.a.",
"; 0 y n C m =.V n n m ;.q.:.=.C q q e q i v v v t & X O * * * - 1 p y -.x u t t r 3 1 1 ; ; 1 B W 0.0.W V n j C =.V V =.V x O . o + # o o X O & & = = : n n C ;.C V M V V M n B n M B b t u u r r 1 1 r 1 1 ; , r i i M 8.e.r.r.y.y.y.y.r.r.t.Q.G.!./.!./.!.!././.!.!.!././././.^././.^./././././.^.^./.^.^.#XI.0 0 0 q y y p M n M M B M M M M n y.#X#X/.#X/.#X/./.#X/.!.!.!./.G.e.D.G.!.I././.!.~.!.I.I.I.I.Q.~.I.I.Q.I.I.I.a.I.I.I.I.G.G.G.G.I.I.I.F.I.I.F.Y.I.Y.I.I.~.I.R.P.F.P.I.~.Q.I.P.P.F.L.S.S.S.S.a.L.P.I.a.c K.) S.d.",
"0 x n C V =.n n =.;.:.:.=.n 9 q 9 9 q w x v t $ X @ * * ; 1 3 3 1 t r t t t t 1 ; ; ; ; ; i W 0.0.0.C n C V V V m =.V y O X + * * $ o o o o o & & & = : C n m =.m n x y x V V y B B M x u c u r r 1 1 r 1 1 , 1 t i M N 8.9.9.r.y.y.r.r.e.e.F.!.!.G.!.!.!.!.!.!.!.!.!.!.!././././.^.^././.^././.!./.^./.#X^.@XR.i 0 0 q q y p M M M M M M M M M M !.^.#X#X/./.^././.#X/.^.!.I.a.a.!./.!./././.!./.I.~.~.I.I.~.I.I.G.F.I.Q.I.~.~.~.~.I.F.F.I.F.I.~.Y.~.I.Q.I.I.I.~.I.F.~.~.E.R.P.F.F.P.Y.~.~.Y.P.P.P.P.S.F.a.a.F.S.F.( Q { a.S.S.",
"y n N C C V :.q.q.q.=.j 9 q e q q q p q t @ X O & * ; 1 1 1 r t t t r r r t 1 1 ; ; t M W e.0.0.W N m V 0.V m m V y O X o $ - * * * $ o * * O & & & & = q j m V ;.V ^ V n x y W B B v K c v u 1 1 1 1 1 1 r ; r y i p N W 8.9.r.r.y.r.0.e.^ Q.Q./.E./.I.E.!.!./.!.!.!.!./.!.!././././././././.I./.!.!./.^.^.#X~.y 0 0 q q q p n M M n M M M M M ^ ^.^.^.^./.^./.^./.^.^.!.F.( H.I.!.!.Q.!./.!.I.I.Q.I.~./.Q.Q.I.I.I.I.F.I.I.I.!.I.Q.Q.I.Q.~.I.I.I.I.~.I.I.I.I.Y./.~.I./.I.I.~.R.P.P.P.I.I.~.~.I.Y.L.F.P.F.S.S.F.P.F.K { { J.P.L.",
"V N n =.q.:.w.q.=.e 9 e 9 q q q n e j n r @ * & ; r 1 ; 3 r r r t r 1 r r r r 1 t M 0.0.u.e.W N N 0.0.0.V m V y O X o $ * * * * * * & & & & & & & & & = q n n =.0.V n n M W W E E K K K c K u r 1 1 1 1 1 r 1 r i p M N W W 8.e.r.r.0.8.e.e./.!./././.!.E.I.Q./.G.!.!.!.!././././././.!.Q././././.!./.!.~.#X#X#Xv 0 0 0 q y p n n M M n M n n M H.^.^.#X/.^.^./././.!.G.) t.I.!.!./.!.~./.!.!./.I.Q.I.I.!.I.F.F.G.I.H.I.G.I.~.I.I.I.G.I.Q.I.~.F.I.I.~.~.Q.~.I.I.I.~.~.~.R.R.I.I.Y.P.F.I.P.I.R.Y.Y.R.R.P.S.S.a.a.S.S.K { [ L.J.L.",
"n V q.q.w.q.N 0 e e 9 e 9 e n j e e q n y * ; ; 1 ; ; 3 r r r r r r r r r 1 y B 0.e.u.0.V V V 0.q.0.V V V x O o @ * - - - * * * & * & * * & & & & & & & q q n =.V n y ^ W E v K K K K K K K u r 1 1 1 1 1 r 1 r y i p ! W W W r.r.r.0.8.W H././.!././.!.!.!./.!.!.G.G.!.!.!./.!.!./.G.!.!./.!./.!.!./.!.!./.^./.v 0 0 0 q y p n n M M M n n n N ^.^.#X/./././.^././.F.t.!././.!.!././.I.!.!.!.I.I.G.I.I.I.G.!.I.F.I.I.F.G.I.G.G.I.I.I.I.~.Y.~.~.P.Y.I.Q./.Q.Y.P.I.I./.I.F.Y.Y.Y.R.~.P.I.R.R.R.Y.R.R.~.I.L.F.F.F.F.f.P { ) S.L.a.",
"q.w.w.0.M & O O e 9 e e j j n e e q q j y ; ; ; ; ; ; 1 r t r r r r r r x W e.e.r.e.W M W u.u.0.=.V V i O o O ; 3 1 ; 1 - - * O & & & * ; * * * = & & & 0 q q n n W ^ W v K K K K K K P K K t r 1 1 1 1 r 1 1 r r i p ! W W W e.r.0.V V ^ /./././.!.!.!.!.!.Q.!.G.!.G.!./.Q.!.G.!.!.!././.!.!.!.G.!.!.!././.^./.x 0 0 q y y p n n n n C n n n ^ #X#X#X^.^././.^./.t.G././.!./.!.!./.I.G.I.!.Q.I.!.I.G.I.I.G.~.G.I.G.I.~.I.Q.I.I.~.I.!.I.P.F.I.I.~.I./.#XY.I.I.I.I.~./.I.R.Y.R.R.~.~.I.Y.Y.@X~.R.R.I.R.I.Y.P.S.L.P._ ( { { S.P.L.",
"y.0.i o O o o O q j j C j e p q q N n q n ; ; ; ; ; ; 1 3 3 1 1 ; ; y W e.e.0.e.W N V r.u.0.0.;.M t O o $ ; 3 1 ; 1 ; ; ; ; & * ; ; ; ; ; ; ; ; * ; 3 t y x ^ e.e.^ v v K K K K K P K P P K 1 r 1 , 1 r r r 1 r r i p N N N N 8.8.W N V t./././././././.!.I./././.!.G.!.G.G.G.G.!.!./././././.I.!.I.I.!.!././.E.x 0 0 q y p p p p n M M M n n e.a.!.#X#X^.^./.a.a.^.^././.!./.!.!.G.G.G.I.I.G.I.!.I.I.I.I.~.!.I.G.G.I.F.I.Q.~.~.~.~.~.~.~.I.Q.F.I.~.I.~./.I.~.~.~.~.I.I.P.P.L.R.Y.I.Y.Y.Y.Y.~.~.~.~.R.~.Y.P.P.R.P.E [ ) J.L.F.a.",
"t o o o o o o O j j n n e q w p m V q q y ; ; ; ; ; ; ; 1 ; ; r x M W W 0.0.V N V q.u.u.0.0.B 1 & $ - 3 3 3 r 1 3 ; ; ; ; * ; ; ; ; ; ; ; ; = ; ; t v B ^ t.t.e.E E P P K K K K v K K K P K r r 1 ; 1 r r 1 r r r i p M M N N W W M N W H.~./.!./././.!.!./.!.Q.!.!.G.G.G.G.G.G.G./././.!.!./.!.G.I.!.!.!././.I.i 0 0 q q p p p p n M M M n B Q.#XI.t.F.#X!.( ~.#X^./././.!././.I.G.G.I.G.G.!.!.Q.I.I.~.I.!.I.I.I.I.G.I.I.I.I.I.I.~.~.~.I.Q./.~.I.I.Y.I./.I.~.~.~.~.~.I.I.P.L.I.I.R.I.P.P.P.~.Y.R.R.~.@XY.P.I.Y.S.P { [ I.P.F.) ",
"o o o o o o o o e C C e q q n q n q w w y r ; ; ; ; ; ; ; ; v W 8.0.0.V N C V 0.0.q.0.q.V ; # * < 3 5 t 3 3 3 1 ; ; ; ; ; ; ; ; ; ; ; ; ; ; ; ; t M B e.e.e.W E E E K K K K K K K K K P K i r r 1 ; 1 r r r r 1 r y p M N N N W B B W e./././.!.~.^././././.Q.I.!.!.Q.H.G.G.G.G.I.G.G././././.^./././.!.!.!.!.I.y 0 0 0 q p p p n M M M M M W /.#X^.#Xa.B ( #X#X#X^.^.^./.!./.!.!./.!.I.G.G.G.I.G.I.I.I.!.I.I.I.!.I.F.F.I.G.I.I.Q.~.~.I.~.~./././.~.~.~./.~./.Q.Y.I.P.I.P.P.P.F.F.~.@X~.L.P.R.R.~.R.~.@XR.I.P.~.) Q { a.P.L.S.a.",
"; O o o o o o o q C n j q q p p w q e n y ; ; ; ; ; ; 0 x B W 0.0.W N C V 0.0.W =.V x ; * * < < u t t t 3 1 ; * & = - ; ; - * ; ; ; ; : = ; ; = ; V 0.e.^ W ! E P K P K K P P K K K K K K t 1 r 1 ; 1 r r t r 1 r r p M N N N W B ! B s.~././././././././.!.!./.!.G.G.G.G.G.H.G.Q.!.!././././././././.!./././.I.y 0 q y q p n n n M M M N M ( ^.^.#XQ.( D.F.t.I.^.#X^.^./.!.!./.!./.!.!.Q.G.G.I.I.!.!.!.I.Q.I.~.I.I.I.G.I.I.I.I.P.I.~.Y.~.I./.~.Y.~./.Y.I.Y.Y.~.~.I.Y.~.R.R.Y.I.I.I.~.@XI.P.P.R.~.R.R.~.Y.R.I.R._ / [ J.L.L.J.S.",
"C & o o o o o o q C j n q q q q q C j e x ; ; : ; 0 x B V 0.0.V M n V 0.0.;.V M t * & * 1 u u 3 - - 3 1 ; - * * * - * - ; ; ; ; ; ; ; : t y r , M e.( E E E P K K K K P K K K K K K K K K 1 1 1 1 1 1 r t r r 1 r r i M M M B M W W W !./.!./././.!./././.!.!.G.G.G.G.I.H.G.G.I.G.G.!./././.^.^.^.^./.!.~././.F.t 0 q q y p p p n M N V N B F././.t.a.^.#X/./.!.t.H.^.^.#X^.#X/.!.I./.!.I.G.!././.!.!.~.G.I.I.I.I.I.I.I.I.I.I.F.F.P.I.P.I.I./.I.~.I.I.I.~.I.~.Q.R.I.P.P.~.R.R.R.~.P.I.Y.I.F.L.R.Y.Y.Y.R.Y.I.I.P.P [ [ L.L.L.L.S.",
"-.& o o o o o o 0 m e p w q q j e C e n B r : r v V V e.e.0.M n V 0.q.0.;.B t $ O * 1 3 t t 3 1 1 * & & & = * - * * * ; ; ; ; ; ; ; 0 y y r ; E ^ E ! E E P P K K K K K K K v K K K K P i 1 1 1 1 1 r r t t r 1 r r y p p M N V W W e.^./.G././.!./.!.I./././.!.!.I.I.G.G.G.G.!.G.I.!.!./.!.!./.^.^./././././.a.0 0 q q p n p n M M N N M B Q.Q.t.!./.^.^./.^././.I.t.D./.#X#X#X/./.I.I.I.!.!./.!./.!.I.I.I.I.!.I.~.I.I.I.I.~.I.Q.P.I.I.P.I.I.~.~.~./.~.Y.P.I.~.I.R.Y.P.P.I.I.Y.R.I.I.P.Y.F.P.Y.R.R.P.I.P.Y.I.a.E [ a.P.S.L.S.S.",
"0 p o o o o o o 0 C q p q n N C j C n V V n W W W 0.e.M x n V 0.0.0.;.V t O @ $ - 1 3 1 1 1 1 1 * O & & & & = * * * ; * ; ; ; ; 0 0 y y 0 v ! E E E E E P P P K K K K K K K K K K P P P v 1 1 1 1 1 r r i i t r r y y y n N W W ! B a./././.~./././././.!./.!.!.G.H.H.!.G.G.Q.!.G.G.G.!././.^.^././././.!././.e.0 q q q p n n n N N N N N M t.F././.^.^./././././.^.^.G.t.a.Q././.^././.!.I.!.!.!.!.I.!.~.!.~.~.I./.I.I.I.~./.I.I.I.I.~.Q.I.I.~././.~.~.I.~.I.~.I.~.~.Y.Y.P.P.R.~.P.P.I.S.F.L.F.L.Y.I.I.P.P.I.( Q [ L.R.P.P.P.J.",
"o e = o o o o o = q e n p n j n e C p N V 0.0.0.^ V n q V 0.0.;.0.W y O @ $ - ; 1 ; ; ; ; ; * & & & & - * = ; ; ; - - = ; ; ; ; r 0 y B W E P P P P P P P P P P K K K v v v K K v K E _ v 1 1 1 1 r r r i M i r y y i i M W W W ! M I./././.!././././.!.!.!.I.!.!./.G.G.!.G.G.Q.I.!.I.G.G.!./.^././././.Q.G.I.W 0 0 q q y p n N N N N N M V !.#X/.^.^.^././.~.!./././.!.!.H.e.a.!././././././.H.Q./.~./.!././.I.!.~./.~./.~.I.I.I.I.I.I.I.I.I.I.I./.~.I.I.Y.~.~.~.~.~.~.P.P.R.R.Y.R.I.F.P.F.F.L.L.P.Y.P.I.P.P.E / ( P.@XL.P.P.J.",
"O e p O o o o o & q n M n N C p C =.0.u.u.u.0.N y n V 0.0.m V V x O o O * - ; - - - - * * & & & * * * - ; ; ; * - * = * ; ; ; : = v ^ E E E K K K P P P P P P K K K K v c v v K K Q f.a.v 1 1 1 1 r r r i M y y y y p M W W W W ! x ~.^./.!.!././././.E.!.!.!.G.I.!.G.H.!.I.G.H.G.G.G.Q.G.G.I./././.!.~.Q.~.Q.! 0 0 q q q p C N N N M M M e.^./.#X^.^./.^././.^././.!.!.!.!.!.G.t.t.!.G.I.!.G./././././././.~.I.I.I././.Q.G.I.I.I.Q.I.I.R.I.Q.I.~.I.~.I.I.P.~.P./.~.R.R.R.P.I.Y.R.R.I.I.Y.P.I.L.L.F.P.Y.Y.P.a.E [ ) I.P.Y.P.J.L.",
"O a -.y & o o o & q C n n j n V q.y.y.y.u.V n n V 0.q.;.m n t & o O * - - * * * * * & & & & & & & * * * - - * * * ; * ; ; - = ; E E E P v P K K K P P K K K P P v K K v v v K Q ) a.P.I.E 1 1 1 1 r r t i M y x y p M B W W W W ! v /.^./././.!././.!./.G././.!.!.G.G.Q.!.I.G.G.G.G.I.I.!.!.I.!./.!.!.~.~.Q.Q.E 0 0 q y n n n C N N N N N H.#X/./.^.^.^././.^.^././.!.!.G.!.!././.G.t.t.G.I.I./.!.^././.~.E.I.!.!.I.I.I.!.~.I.I.I.Q.I.I.I.I.Q.~.I.I.I.P.I.I.I.I.P.P.Y.~.R.~.~.@XR.R.~.R.L.I.P.a.F.P.I.I.L.S.{ E [ a.I.E.R.P.L.S.",
"& = e 0 & & O o O n C n n V q.y.r.y.q.V C V V 0.0.0.;.n t O o @ * - - * * * * * O o O O & * * * & * * * * - * - ; ; = * * 3 v E E v v v v v K v v v K P P P E E K K K v P Q ( a.F.I.!.F.v 1 1 1 r r r y i x M M p M M M V W W e.! M #X^./.^././.!.!./.!.!.!.!.!.!.I.I.!.!.G.!.G.I.H.I.!.I.G.G.!././././.~.~./.M 0 0 q q n n n N N N N N M !.#X/.^.^.^./.^./././././././.I.I././././.!.G.t.t.I.!././.^././.~.I.!.~.I.!.~.I.Y.I.P.I.~.~.I.I.I.P.I.I.I.I.I.P.I.I.Y.P.Y.R.R.R.R.R.$X~.@X@X@XR.P.P.F.L.L.P.R.Y.P.Q Q / U.R.Y.Y.L.S.P.",
"r ; : : ; * & O o x n V q.w.w.w.q.;.C m 0.w.q.V ;.N y y O o $ * * * & & * & O O o O * & * * * * * * * * ; ; ; ; ; : 0 r v v t v b v v v v v v v K K P P E K K K P K K E _ a.F.G.I.I./.F.v 1 ; 1 r r r y i M N M M M n N W e.W W ! ! /.^./.!./././.!.!.I.G.G.G.I.!.I./.I.!.I.!.I.!./.!.I.!.!.!./././.!./.Q.~.~.y 0 q q q p n C N N N V V V /.^.^.^././.^./.^././././././././.!.!.G.!./.!.!.I.a.t.F.E./.~.I.Q.!.!.!.~.~.Q.~.~.I.~.~.~.I.~.P.I.I.P.F.a.I.P.I.I.I.Y.I.P.L.Y.I.P.R.R.~.~.@X@XR.R.P.I.L.S.P.@XU.T.P ( / R.P.I.P.Y.L.L.",
"0 0 t t t t 0 ; y V q.w.w.w.y.;.=.;.q.q.w.q.V m q 0 p n - * * * * & & & & & O O & * & & * * * * * * ; - - ; ; r ; r i i ; u v v c v c v v c c v K K v K P K P K K E _ t.F.I.G././.!.I.F.i 1 ; ; 1 r r t y M N n M M N W W 0.W W ! W /.^.^.^./././.!.I.G.H.G.G.!.!.!.!.!.!.!.!.!././.!.!././.!.!./.!././.!./.I.0 0 w q q p n N N N N V V ^ ^.^./.^.^.^.^./././././.!./.!.!.!.G.G.H.!.!.!.I.!.I.G.t.) I.~.I.I.I.G.I.~.I.I.I.I.I.I.I./.I.~.~.~.I.F.I.P.I.I.I.Q.I.I.R.Y.R.Y.I.~.I.F.I.I.R.R.Y.R.I.I.F.S.P.U.P.a.E [ a.Y.P.P.R.P.J.J.",
"r r r 0 r y x W u.y.w.w.q.;.V 0.q.w.w.q.;.j q a 0 q n n 1 & & & & * & & & O O & & * * * * * * * * - ; * ; y t ; t v v b b t 3 v v b c b b v v v v v c K E E Q ( ( a.D.F.G.I.G.!.!.!.Q.F.t ; ; ; 1 r r t y M M M B N V W W W W W ! ! ^.^./././././.!./.G.I.I.G.!.G.!.!.!.!./.I.I.G.G.W.G.!./.I.!.!.!.!.Q./.~.G.0 0 q q y M N N N N V V V t.^.^././.^./.^././.!./././.!.G.E.!.!.!.!./././.!.G.G.I.G.I.t.t.F.I.G.I.I.I.I.~.Y.P.I.I.I.I.I.I.I.I.Y.I.Q.I.I.I.I.I.I.~.Y.Y.I.P.I.R.I.Y.I.R.I.I.P.R.R.~.Y.a.S.P.P.) / [ T.U.Y.Y.Y.oXY.T.",
"r r t t n W r.y.y.y.w.;.m ;.w.w.q.w.q.m e 0 w 0 w n n M & & & & * * * O O O & & & & * * * * * & * ; * = 0 y y v E P v v v v c r u v c v v i t t v v v P E ) a.a.F.G.I.I.G.G.Q.E.I.Q.Q.F.r ; 1 1 1 r r t y y n N N N V W W W ! B ! W ^.^.^.^./.^.^./././././.I.!.G.!.!.!.I.!.G.H.G.G.G.G.G.G.!./.!.^.!.!././.F.q 0 0 q y n n N N N N V V y./.^.!./././.!.!./.!././././././.I.G.!.!.!.!./.!.I.I.I.I.~.!.I.t.t.a.~.!.~.~.~.~.~.~.Q.~.P.I.P.F.I.Q.I.I.I.F.F.P.~.I.P.S.P.~.R.P.P.I.P.Y.R.I.R.Y.Y.R.R.P.a.d.L.T./ ( ( R.~.Y.R.I.@XY.T.",
"0 r y W y.y.y.y.y.V m ;.w.w.q.q.q.;.n q e q 0 a w C N V & & & & * & O O & & & & & * * & & & * * * - ; ; r v B E v v v v v v v v t t v b v i u c c c v Q ( a.F.I.I.I.G.I.!.I.G.G.G.I.I.a.1 ; 1 1 1 r r r y y n W B V V W 8.W W B B W /.^.^.^.^./.^././.^./././.!.G.I.G.I.!.!.!.G.H.H.!.G.G.!././././.!./.Q.Q.s.q 0 y q q p n N V N N V V y./.^.^./.!.~.I./.!.I.I.!./.^./.!.!.!.I.!.!.!.!.!.~.!.I.I.I.I.G.!.F.a.( H.~./.~.~.I.~.Q.Y.Y.I.I.I.I.P.I.I.~.P.P.I.Y.Y.R.R.~.R.~.Y.I.Y.R.P.Y.P.@XP.R.Y.Y.P.L.d.J.a./ ) [ Y.I.Y.Y.R.Y.oXU.",
"y W u.y.y.y.=.=.=.;.q.w.w.:.:.=.n n n w w n p n V V C V ; & & O O O & & & & & & & * & * - - ; ; ; ; 1 v P P P B v v b v v v v v v i 3 v v c v v v v E ) a.G.!.G.G.I.I.G.I.I.G.I.G.I.I.a.r 1 1 1 1 r r t y y n N N N V W W W W W B E /.^.#X^.#X/.^.^././././.!./.!.I.G.G.I.!.!.G.G.G.H.G.G.Q.!./.!.!./.!.!.!.t.q q y y q p n N V N V V V t.^./.^.^.^./././.I.I./.!.!.!.!.I.!./.G.I.G.!.!.I.!.!.~.I.F.I.I.G.F.I.P.a.) F.I.I.!.I.~.I.I.~.I.I.~.I.~.~.Y.Y.Y.P.~.~.Y.R.I.P.R.P.R.~.@XR.R.R.Y.Y.P.Y.P.L.P.a.d.( ( ( a.R.Y.Y.$XR.R.R.R.",
"u.r.w.u.0.;.=.=.w.w.w.q.q.N q q q q q w w V ;.V m ;.V V ; & O O & & & & & & & & * * * - - * 1 * r v v E P P v v v v v v v v b c v v b 3 u v v v E _ t.a.H.!.G.G.G.I.H.G.I.G.G.I.G.I.G.a.t ; 1 1 r r r t y y y N N N V W W W W W ! ! /.^.#X#X^.^.#X^.^.^././.!./././././.!.!.!.I.I.I.G.Q.I.Q./.!.I./.!.!.^.a.B y y y y p p n N V N N V V e.^.!././././.!.!.!./.!.!.I.!.G.G.I./.!.!./.!.!.Q.~.I.!.I.I.G.G.I.I.I.~.Q.P.a.( L.I.~.~.~./.~.~.P.P.~.~.~.~.R.Y.I.I.~.P.Y.~.R.Y.R.I.Y.~.#XR.R.P.Y.Y.Y.Y.Y.L.a.E 3 Q Q T.Y.oX@X@X@XR.Y.R.",
"q.q.0.V ;.0.q.q.q.;.;.m p q q a w q j C ;.=.N m m C =.V y O & & & * & & & & & & * - * * & 3 ; u v v v v v v P P K K K v v v b b b v v v u 3 B ^ t.s.G.W.G.W.I.G.I./.!.!.!.G.I.!.E.!.~.P.t ; ; 1 r r r r y y y M M N V W W B B W B ! /.^.^.#X#X/.^./.^.^.^./././.#X/.G.#X/.!.!./.!.I.I.G.!.!.!.G.I.I.~.I.t.F.M y q q p p n C V V V V V V W ^.^././.^.!.!./.!./.!./.I.I.G.I.!.!.!.!.G.I.!.Q.Q.I.I.I.I.Q.Q.I.F.F.~.Y.Y.I.Q.a.) a.Y.~.#X/.Y.~.P.I.R.R.Y.Y.Y.P.P.P.I.R.R.~.Y.Y.P.I.Y.R.R.R.P.Y.I.Y.R.I.L.a.c 4 # # K U.Y.R.R.Y.oXR.oX",
"V V V ;.;.0.q.q.0.V n w q e e w w n ;.0.=.;.=.=.m m ;.Z y * * & & & & & & & & * * * * * 3 i v v v v v v v v P v K K P P K v v b v v v v E ! E ) H.G.I.I.G.!.!.G.G.G.Q.I.G.!.!./.!.I.Q.Q.u ; ; ; r 0 r t y y p n M M N W W M M B B ( /.^.#X^.^.^.#X^.^.^./.^.#X!.!.!././.I.I.!.!.!.G.!.I.!.!.!.!.I.!.D.) G.Q.n y q q y y n N =.8.8.V V =.8.!.^././.!.!./.!.I.!.!.!.!.G.!.G.Q.!.!.!.G.!.Q.~.Q.!.I.G.F.I.I.~.I.I.~.Y.Q.~.~.I.I.a.) a.P.~.#X/.~./.R.Y.I.Y.R.R.~.I.Y.I.R.R.Y.Y.I.R.Y.R.Y.Y.Y.P.Y.Y.P.R.R.P./ < $ $ 2 { J.T.J.J.J.L.T.",
"V 0.0.0.q.;.q.V 0 n q q q q e V q.;.;.q.;.V m V =.;.C V x & & & & & & & & * & O & ; t t c v v v v i v v v v P v P P P K v v v v v b B ^ u.t.G.( ( I.G.G.!.I.I.W.I.G.Q.I.!.G.Q.!.I.I.Q.Q.E 1 ; 1 r r r t y y p n n M V W W M M B B s.^././.^./.!./.#X/.^.#X#X^.^.^.^.^./.!.I./.!.!.I.G.G.G.G.G.Q.G.) G.G.!.t.M n y q y y n V 8.0.8.V V =.0.0.s././.^./.~.~.~./.!./.!.I././.!.!.I./.!./.I.I.!.Q.Q.I.I.I.I.I.~.I.I.~.~./.~.I.R.I.F.a._ a.P.@X~.~.~.Y.Y.P.I.Y.R.R.I.I.R.P.P.R.Y.R.~.@X~.R.Y.P.P.~.R.Y.R.R.R.K./ Q [ d.J.T.U.Y.Y.U.T.",
"q.0.u.u.0.M ; o 0 n j q q n ;.;.;.=.;.C =.q.u.0.V V m V x & & & & & * & & & ; 1 u v v v v v v v v i i c b v v K K E P P K v v v B E ^ t.H.G.G.G.H.^ H.G.G.G.I.I.I.Q.!./.Q.G.G./.!./.!.~.! 1 ; 1 0 0 r r y y y n n M V N B B B B B G././.^././././.^././.^.^.^.^.^./.^.^.^./.!.I.I./.!.G.G.G.G.a.t.!./.G.G.e.M M y q y p N =.0.0.8.=.=.=.0.0.0.q.H./.~././././././.G.G.!.G.!././.!.!./.!.~.~.Q.I.I./.I.I.I.I.I.I.~.~./.~.I.~.Q.I.I.I.a.t.a.P.I.R.R.~.~.~.R.R.~.Y.Y.R.I.I.I.I.~.R.R.~.Y.P.Y.Y.Y.~.Y.~.R.@XoXJ.J.J.d.d.a.J.J.Y.oXR.",
"0.u.u.B = O O o 0 n n n ;.=.m =.w.V ;.;.;.q.0.0.V C =.V n = & * * * * O - u i v u v v v v v v c v c v v b v v v v K K E v v B ! ) t.D.H.W.!.Q.G.!.!.t.^ G.G.W.I.I.!.Q.!.!.!.!.!.!./.~.~.E ; ; ; r 0 r 0 t y p n M N V M N B M B ! G./././.!././.!.I././.^.#X^.!.^.^././.!./.!.!./.!.I.G.I.t._ H.I.!.~.I.G.W M M y y y n V 8.0.q.q.0.8.8.0.0.0.q.0.0.t./ ( S.^./././.!.!.!.!./.^.!./.!.Q.~.Q.!.!.I.~./.I.I.I.Q.I.I.I.~.~.I.I.I.I.Y.~.Q.P.F.) ) a.P.Y.R.Y.Y.R.~.I.I.I.R.P.I.R.L.R.P.R.Y.~.Y.Y.P.I.~.P.Y.Y.R.U.J.J.T.U.Y.L.J.T.J.U.",
"^ M * o O & & ; q n m ;.;.q.=.=.w.;.:.m 0.;.V =.;.=.V V n ; - & * * 1 v v t r u v c u u c v c u i u v v v v v K P P K E E _ ( t.H.G.G.!.W.W.!.I.!.G.G.H._ H.!.!.!.!.!.Q.!.!.G././././.R.) ; ; ; r 0 r 0 t y p p n N N M V M M B W G.!./.^.I./.#X!././.G.!././.^./.^.^./.!.!.!././.!.G.!.a.t.G./.G.G.Q.G.I.M M M p p p n V 8.0.0.0.0.0.0.0.0.0.q.r.q.0.v o o u d.@X#X^././.!.!././.G.!.I.~.!.I.!.I.I.I.I.P.~.~.I.~.I./.~.Y.I.I.@X@XP.~.Y.Y.P.L._ ( S.Y.I.R.~.Y.R.~.~.Y.P.Y.I.R.Y.I.I.Y.R.@XR.R.P.Y.R.R.Y.P.R.Y.L.J.Y.oXY.U.Y.J.S.",
"O X X O O & & : q d m ;.=.;.;.;.w.;.:.0.0.m V =.m V V V x ; * * t E E b t c c u c c u u c v c i c c v v c v v v v K E ! ( t.H.G.I.I.G.W.W.G.!.I.Q.G.W.W.G._ t.!././.!.~.!.I.G.G.!././.R.L.; ; ; r r r r r y p p M M M M B B M B ^ ~./././././.^./.!.I.I.I.!./././././././.^.^./.^./.I.t.D.G.!.!.!.Q.!.G.s.N M M n p n n N V 8.0.0.0.0.0.q.q.q.q.q.q.q.q.W t P P K F.#X/././.^.!./.!.!./.!././.I.F.!.I.!./.I.~.~.~.~.@X@X~.~.~.~.I.I.Y.I.R.Y.Y.Y.a._ _ P.Y.R.R.~.R.@X~.~.~.R.R.I.I.P.R.Y.P.Y.P.P.P.P.R.Y.P.R.Y.U.L.T.J.Y.@XY.R.Y.",
"X X X o O & & : q q j ;.;.=.:.;.q.=.:.;.0.0.V V V n =.V y r t E ( E v v u c v v v u v v v v v v v c v v c b b c v P ( t.D.G.G.G.G.G.G.G.G.!.W.I.G.!.!.W.W.!.t.^ G.!.!.~././.!.!.I.!.!.~.Y.r ; ; 0 0 0 r r y y p n B B N N N M M a.!.~././././.!.!.!.!.!./.!.!./.^.^.^./.^./.!./.^.H.t.G.!././.!.!./.Q.I.e.N N M M n n M N V 8.0.0.q.q.0.q.q.q.q.q.q.r.q.0.0.y.I.~.1 _ /.^.^./././.#X^./.^./././.I.~./.!./.~.~.#X/./.~.~.~.Y.~.~.~.R.I.Y.Y.~.~.R.I.P.d.) t.Y.L.~.@X@X~.R.R.~.@X~.Y.Y.Y.P.I.Y.Y.Y.Y.Y.~.Y.@XY.Y.oXP.L.L.T.Y.R.oXoX",
"o o X o O O O = y e j q.q.;.w.;.;.;.V V V V 0.C C V M n M W e._ v K K v v v v v v v v v c v v v c c c v v v v v E ( a.H.G.I.G.!.G.G.G.I.W.!.!.!.Q.W././.!.!.W.I.) t.I.!.!.!.!.I.!.!.!.~.Y.v ; ; ; 0 r 0 r y y p n N N N W B M B F.~./.~.!././.!./././.!./.!./.^././././././.I.I.( G./././././.G.G.!.!.G.^ N V V M M M M V V V =.0.q.q.q.q.q.q.q.q.q.q.q.q.0.=.0.W v ; 3 a./.^.^.^./.^.^.^.^./././././.I.^.!.#X#X/.~./.~.~./.I./.Q.~.Y.Y./.~.~.P.Y.R.R.R.S.) a.P.I.I.I.R.@X@X$X@XY.P.I.Y.Y.R.P.@XY.Y.Y.Y.@XR.oX@XR.Y.P.Y.Y.R.@X$X",
"o o . o O O O = y j j =.w.;.C ;.V j 0.0.M ^ 0.0.B B M ( f.( B v P K v v v u v v v v v v v K v K v v v v v v E ( a.F.I.I.E.I.G.I.G.W.I.W.!.!.!.!.!.!./.!.!.!.!././.H._ !.!.!.!.!.Q.!.~.~.Q._ ; 1 ; 0 r 0 0 y p n M N N N W W B W I.@X/./.~.!././.^././././.!.!./././././.!.G.t.t././.!.!.!.!./.I.Q.!.G.t.V N V V V N M M V =.V V =.0.0.0.r.q.q.q.q.q.q.0.0.0.0.0.u.W ; - 1 t.(.(.^././.!.^./.^.^.^.#X#X/./.#X/.~.~./.@X@X#X~././.~./.~.~.@X/.R.~.~.R.R.~.~.Y.F.( _ S.Y.R.$X@X@X@X@XR.P.Y.Y.Y.@XY.I.R.Y.@XR.oX@XR.@XY.R.Y.R.R.R.oX",
"o o o o o O O = q q j =.w.;.0.=.V w.y.0.n 0.V V W e.f.( v v E K E P K v v v K v K K v v K K K K v v K P E _ t.a.I.I.I.G.G.G.Q.G.!.!.!.!.W.!./.!.!././.!.W.!./././././.t.t.^.!.!.!.!././.~.t.r ; r 0 0 0 0 y y n M N M N B B M e././././././.!./.!./.^.!./././././././.Q.H.^ H.I././.!.!.!.!.!.I.I.G.G.E M N V W W W V V V V V V V V 0.0.r.r.r.q.q.0.q.0.0.V W W B ^ E * - 1 0.y./.^.^./.^.^.Q./.^.#X#X#X/.#X/.~.#X/.#X#X#X#X~.#X#X~./.~.@X#X$X@X~.R.R.R.~.~.R.R.R.) a.R.~.@X$X@XR.@XR.R.~.R.R.Y.R.R.R.R.R.@X@XoXY.T.Y.R.Y.Y.R.@X",
"o O o o o o O & q q n =.q.0.;.;.q.V ;.0.^ 0.e.e.s.f.E E E E P P P P v v v v K v K K P K v K K K v v E _ t.D.H.G.G.I.I.G.!.!.!.I.I.!./././.!./.!./././././././././././.^.F.( I.~./././.~./.a.; ; r 0 r 0 0 y y M M V N W ! B M f././.^./.^.^./.^.^././././.^././.~./.~.t.t.G.!.!.!././.I.I.!.^.I.G.G.F.b x N V W W W W W V V V V V W 8.0.q.u.r.r.r.0.e.! u ; & * * * * - * < 1 q.q.y.H./.^./././.#X#X#X/.~.@X~.Q.~.I.#X@X~.#X#X#X#X#X~./.~.~.#X@X@X$XR.R.~.#X@X~.~.R.Y.a.a.Y.R.R.R.R.R.Y.@X@XY.~.I.R.R.U.R.@X@XoXR.@X@X@XY.Y.U.@X",
"& & & O o o o & w n q C q.;.0.V N =.V W e.a.F.a.^ E E E P v P v P P K v v v v K K K E P K v v v E _ ) t.H.G.I.G.G.Q.I.G.!././.G.G.!.!.E./.W.!./././.!.!./././././././.^./.~.) a././.^././.Y.r ; 1 0 r 0 0 y y n N V N W B B M P././.#X^.^././.~.!.~./././.!./.~./.G.( D.I.I.I.Q.G.!.I.G.I./.!.!.G.H.D.t t V W 0.8.W W W V V W W 8.0.0.0.0.e.e.e.^ M ; $ $ $ * * - - - - < < - 0 ;.w.q.(./.^.^.~.^.!./.I././././.I.#X#X~.~.@X/.~.#X@X@X~.~./.~./.R.@XR.R.@X~.~.~.~.@X~.~.L.) a.Y.~.@X@X~.@X~.R.~.~.@X@XR.R.@XoX@XR.@X$X@X@XU.P.Y.",
"* & & & & O O & 0 q q n :.;.V C W e.t.a.F.a.) ! E E E E v P P P P P K v K K v v K K E P P P E _ ) a.H.I.G.I.I.I.G.!.I.I.!.!.!./.G././.!.!././././././././.!.!./././.!.!.^.!./.F.( Q.#X#X/.I.u ; r 0 r 0 0 y y n N V N W N B B #X/.#X#X^.^.^.^.!./.^././.!.!.!.!.t.t.I.~./.!.Q.I.!.!.!.G.G.I.!.!.H.H.t.3 - B 8.0.0.e.0.W W W 0.0.0.e.0.e.W ! B i * $ $ $ $ * * ; t M B ! v * $ * n :.q.w.(././.~.!.!././.#X#X#X@X/./.#X#X/./.#X#X@X~.@X#X/.~.~.~.#X$X~.@X@X@XR.~.R./.~.@X~.@XI.a.) P.@X@X@X$X@X~.@X~.$X@X$XR.R.oXoXR.$XR.R.oXR.R.",
"- * & & & & O O : q y C C V V t.s.t.s.F.) _ ( E E E E P P E E E P E E P P P P K K P K K E ( ) a.H.H.G.E.G.H.I.G.I.!.I.I.!././.I.I.E./.!./.!./././././.!././.!.!./.^./././.!./.~.~.f.a.~.@X~.E r 0 0 0 0 0 y y n N N N B B B ( #X#X#X#X#X/.^././.^.#X/././.^.G.( G.^.#X/.Q.~./.F.G.H.G.G.!.G.G.G.!.!.F.c * ; W 0.r.r.e.0.0.0.e.^ e.W P u 1 * @ # $ $ $ # $ 1 M ^ e.0.8.0.e.W t o ; 8.q.q.y.(.E Y./.#X#X#X@X#X#X#X~.~.~.~.@X/.Q./.~.~.@X#X@X@X~.@X$X$X@X~.@X~.@X$X#X@X~.@X~.~.$X$XY.a.a.R.$X$X#X@X$X$X#X$X$X$X#X$X$X$XoXR.@X$X$X$X",
"; - = & * & & & = 0 q n C 0.y.s.a.P.t.( _ E E E E E E E E E E P P E E E E P K K E P E _ ( t.D.I.G.G.G.I.I.I.I.I.G.G.G.I.!.E.!.!.!./././././././.!./.!.!././././././.^./.^./././.~.@XP.) ~.#Xf.r 0 0 0 0 0 y y p N N N B B B d.#X#X^.#X#X#X#X#X#X/.#X/.^./.D.t.#X/./.~.I.!.~.P.P.H.H.G.!.G.I.G.G.!./.I._ * $ 1 ! e.r.r.e.e.e.^ E u 1 o o o + # # # # $ u W e.e.e.e.r.q.e.0.0.e.W M 0.0.0.r.(.e.E !./.^.^.#X/././.~.~.~././.~.~.#X@X~.~./.#X$X@X@X#X$XR.@X@X@X$X@X~.~./.@X@X~.R.@X@X@X~.a.f.L.@X$X#X#X#X#X$X%X#X$X$X$X$X%X$X%X%X$X",
"1 1 ; ; ; r t t : 0 x ^ t.t.t.s.t._ _ _ _ E E E E E E E E ! E E E E E E E P K K E ! ! ) a.F.I.I.G.I.I.G.G.!.I.I.I.G.I.I.!.I.!.!.!.!.!./.I./././.!./.!./././././.^.#X^.^.#X/.#X/.@XT.@XR.) a.a.r r 0 0 0 0 q y p N N N W ! B Y.#X#X#X#X#X#X#X#X#X/.#X^.Q.t.!.~.~.~./.I.I.I.I.F.~./.I.I.!./.!./.!./.!.G.S.Q * O & t v v x i r * o . . . X X . . . . # u E e.e.e.e.0.0.r.r.y.r.8.N V 0.=.8.y.g.r.c ( /.~././.~./././.~.#X@X@X@X~.#X@X~.#X@X@X$X@X~.$X@X$X@X@X@X#X$X@X@X~.~.@X@X~.#X@X@X$X~.R.a.) S.R.@X#X#X$X%X#X%X%X$X%X%X$X$X$X$X",
"; ; ; r r t ; = = x e.s.t.t.( ( t.( _ _ E Q E E E Q E Q E ! E P P E E E P E E Q ( ) a.S.F.F.G.I.!.!.!.G.G.G.I.G.G.H.I.I.I.I.G.G.!./.!./.~././././././.^.^.!./././.^.^./.I././.#X$XY.@X@X/.a.E r r 0 r 0 r 0 y p N N N V ! ! @X#X#X#X#X#X#X#X#X#X/.^.a.a././.I.!.!.!.Q.I.!./././././.^.^././.^./././.E.E.F.) K 1 $ @ @ O o o o + o + + . o o o o . X X * v W 0.e.e.0.0.r.y.y.0.W 8.8.q.w.g.g.(.u u F./.@X/././.#X@X~.~.~./.@X@X~.@X@X#X@X$X$X~.@X$X@X$X@X@X~.@X$X$X@X$X@X@X@X~.~.~.@XR.~.@X$X$XS._ d.#X#X=X%X#X$X#X$X#X$X$X$X$X$X",
"1 1 t 0 ; ; t 0 E a.s.t.( ! ( ( ( ( ( ( _ ( E E E E E E Q Q P P E E E E E E ( t.a.F.F.F.I.I.E.G.G.D.I.I.G.G.I.I.F.G.I.I.I.I.G.G.I.~.Q.Q.!./././.^.^.^./././.!.!.#X^././.!.^././.#XR.#X#X$X#XY.t r r 0 0 t q q p N V W W W ^ #X/.#X#X#X/.~.!.Q./.G.t.P.~.~.#X^.^.!.Q./.!.I.!./.I././.^.^./.!.^./.^.^./.!.I.a.a.a./ K c u t 1 < < * $ # o . % % . o o % o o 3 E e.e.r.e.e.r.y.y.r.q.r.r.i.g.g.(.u u _ !./.@X#X/.#X#X#X#X#XY.~.~.@X#X#X#X$X@X~.@X@X$X@X#X$X$X@X$X@X~.Y.$X$X#X$XR.@XR.~.R.R.~.@X$X$X@Xa.( a.R.$X$X$X#X#X#X$X$X$X@Xa.",
"r r ; * * 0 v ( t.t.e._ ( ( ( _ ( ( ( ( _ Q Q Q Q Q / _ E P E Q E E Q ( ( t.a.H.G.G.G.I.I.I.I.G.H.H.H.G.H.I.G.H.G.!.I.I.I.I.G.I.I.F.~.~.!.!././.^.^.#X^./././.!.^.!.!./.^././.@X@X@X~.$X#X~.~.v r r 0 0 0 q y p N V W W W a.#X/.^./.~./.^.#XQ.t.a.I./.!.I././.^.!./././.Q./.!.!.^.^././.^././././.^.^.!.I.H.a.F.S.a.a.{ ) / E P P K K K c 4 < * # % % . + o & u ! f.f.e.! E W e.0.r.r.g.g.g.e.u u E F./.~./.@X#X#X#X#X#X#X~.~./.@X#X#X#X$X$X~.~.~.R.$XR.~.@X$X$X@XI.@X@X@X/.~.@X@X$X$X~.~.R.R.@X@X@XI.J./ d.$X%X%X#X#X$XoXY.( ) ",
"; - * * t ( a.a.t.) ( ) ( _ ( ( ( _ ( _ _ _ Q _ Q _ Q Q v v E Q ! / ) a.a.H.H.I.!.I.I.I.G.G.G.G.G.H.H.H.a.G.G.H.F.Q.I.G.I.I.!.I.~.!.~./.I.Q.!.!.Q././.#X#X/.^././././.^.#X~./.~.P.Y.#X#X@X#X$X( r r r 0 y y y p N V W W W L.#X#X@X~././.~.I.t.I.Q.I././.~.Q./.!./.^.^./.I./.!.!./.!.#X/././.^.^./.^.!.H.!.I.a.F.F.a.a.a.a.a.a.{ ( Q Q E P P P P K u < + + + + o & 3 i i 5 @ X ; ! e.r.s.e.! r u u E a.I.~.@X@X~.#X@X@X/.~.@X#X#X@X#X#X@X~.~.R.P.R.@X~.~.$X~.@X~.$X@X@XR.@X$X$X$X@X~.$X$X$X@X@X@X#X#X~.@X$XP.) a.$X$X@XR.oX( a.%X",
"* * ; v a.a.a.( ( ( ( _ _ ( ( ( ( ( E ( _ E Q Q Q _ Q _ Q _ Q _ ( ) a.a.I.I.I.I.!.I.D.I.G.I.H.G.H./.Q.H.H.I.H.H.I.!.I.I.!.!.I.I.Q.I.I.I.G.I.!.~././.Q./.^./.^././.^././.#X#X#X~.~.@X=X$X#X#X$Xf.r 0 r y y y p M N V W W ! $X#X#X#X~./.~.( a.~.I.~.~././././.^././.^.^.^./.^././.!.!./.!./././.^././.!.I./.I.H.t.a.F.F.S.a.S.F.F.a.{ ( / Q / ( / / E K u 4 $ o + # + % % o . . X o & ; * o o * < t ( a.F.P.Y.Q.~.~./.~.~./.~.@XY.~.@X@X~.#X@X@X@XR.~.~.~.@X~.R.R.@X@XR.$X@XR.$X$X@X@X$X$X$X#X$X@X@X$X~.~.~.~.R.P.( ) Y.a.E T.%X$X",
"; v t.f.t.t.^ ( ( ( _ _ _ ( ( ( ( _ ( ( _ _ _ Q _ E Q E _ ( ( { ( F.F.I.!.I.!.I.I.G.G.G.G.G.H.G.G.!.G.I.!.I.F.G.I.I.I.I.I.I.I.~.G.I.I.G.I.I.Q.I.I./.~.^./.#X#X/././.~./.#X/./.#X@X#X/.@X@X%X%XJ.y 0 r r y y p M V W W W W #X#X#X$X~.F.( ~./.~.I.I.~./.~.~.~.I.Q.!./././.#X/./.^.^./.^.^.^./.^.^./.^.~.Q.~.G.!.F.F.F.F.a.a.S.S.F.a.S.a.a.( _ _ ( / / ( / P P c < $ $ $ $ $ # # + + + o o o + & ; K ( a.F.I.P.P.P.P.P.P.~.P.I.~.~.~.@X~.~.~.@XR.~.R.R.R.~.@XR.~.Y.R.@XR.@X@X@X@X@X$X$X$X$X$X$X$X$X~.~.R.~.Y.R.Y.~.R.S.P t ) $X%X$X",
"( t.( _ ( _ ( ( _ ( ( ( _ _ _ ( ( ( _ E Q E _ Q _ Q Q _ ( ) a.a.I.I.I./.Q.I.G.I.Q.F.H.H.G.G.D.H.E.G.H.D.G.I.H.F.I.G.I.I.I.I.I.I.I.F.I.I.G.I.~./.Q.~.!.!.#X^.#X/./.#X~.I./.~.~.Y.d.@X@X#X#X#X$XU.t r r y y y n N W W W ^ e.@X#X#X$X) P././.I.I.F.I.~.!.I.I.!.!./././.!./.!./.^.!./././././././.#X^./.~.I.~.!.!.I.F.F.F.F.a.a.a.L.a.a.L.a.a.a.) ) ( ( { ) ( [ [ ] P c 6 < < $ $ @ $ * * * * - u E _ _ a.F.I.P.F.P.I.P.P.Y.P.Y.~.Q.I.Y.~.Y.~.~.~.@X@XR.R.@X~.R.$X$X@X~.R.~.~.~.Y.~./.~.@X@X~.@X$X$X~.R.R.~.I.~.R.@X@XF.E ) ) ) @X@X",
"( ( ( ( _ _ ( _ E E ( ( ( _ _ _ _ _ E E E Q Q E / _ _ ( a.F.I.~./.!.G.I.Q.I.G.I.G.F.G.G.G.H.G.G.H.G.G.H.!.I.G.H.G.I.I.I.G.I.I.~.I.G.I.!.~.I.I.I.I.I.I.I./././.#X#X#X#X^.#X/.I.I.Y.@X#X@X#X@X$X@Xv 0 r y y y p N W 8.8.W f.#X#XP._ ~.@X#X~.#X/.~.~.~.~.!.Q./.!.~./.!.!.!./.!.!.I.!./.!.Q././.G./.^.E.I.~.~.I.I.~.F.F.a.a.a.S.a.S.S.S.S.S.S.a.S.a.a.) ) ) ( [ { { ( / / Q Q P K K u u u u K K Q Q _ ( a.a.L.P.P.P.Y.F.F.P.P.F.P.P.P.P.P.I.P.Y.Y.~.R.R.~.R.@X@X@X~.P.@XR.$X~.R.~.~.~.@X@X~.~.~.@X$XR.I.R.~.@X$X~.R.L.P P.@X$XS.Q Q ",
"( ( _ _ _ _ E E ! E _ _ _ ( _ ( _ E E _ ( _ E E Q ) ) a.G.!.!.!.!.I.I.H.G.!.!.G.I.G.G.H.D.H.H.D.a.I.H.D.I.I.F.I.G.F.G.I.~.I.I.~.!.Y.I./.~.I.I.I.~.I.I.!.!.~./././.~././.~./.@X/./.#X~.$X@X#X$X$XE t r y y y p N W 8.8.W d.F.t.P.#X@X~.@X#X^.~./.~.I.I.I.I.G.I.I.G.Q.I././.G.!.G.Q.!.I.!.!.!.G.!./.!.!.~.Q.!.~./.I.s.a.a.F.a.a.a.a.a.a.S.F.a.a.a.d.a.a.{ ) ) ) ) ( ( ( ) ( / [ ( / / / / Q Q / / ( a.L.a.S.P.P.P.P.P.S.a.P.S.P.a.P.P.L.L.P.P.L.I.P.P.R.R.~.@X@XR.~.@XI.~.@X~.#X~.~.R.@X@X~.R.~.~.R.R.@X~.~.@XR.P.P P.@X@X$X@X@XP.",
"E E Q E Q _ E _ ! _ E _ E E E E _ _ Q Q ( Q E _ a.( ( a.I.!.H.G.!.I.G.I.Q.!.I.G.G.G.G.I.G.a.H.G.I.I.D.s.H.I.!.~.!.I.I.I.I.F.I.~./.I.I.~.I.I.~.~.P.~.I.I.Q.~.~.~./.I.I.~././.#X@X#XQ.~.Y.Y.@X@X#Xf.y t y y y p V 8.8.8.B E v f.~.@X@XY.I.#X/.~.I.~.~.I.P.I.I.G.D.H.G.G.!.G.I.!.G./.!.I.!.!.!././.^.~.P.I.!.!.~.I.~.F.a.a.S.S.a.a.a.S.S.S.a.a.a.a.d.a.S.S.a.a.a.a.{ ( ) ( ( [ { f.) [ [ ( / ( ( ) a.P.P.F.P.L.L.P.P.P.L.a.L.L.P.a.F.T.L.P.L.a.S.S.L.P.L.I.P.P.R.~.@X~.R.a.P.R.~.Y.R.R.$X@X~.R.~.R.R.~.~.@X@X@XY.E Y.R.$X$X%X$X#X$X",
"E E E E _ ! ( _ E _ E _ E E E ( _ E E E _ ( ) a.t.) a.a.t.F.!.G.!.!.!.!.I.I.G.I.I.H.G.H.H.G.I.I.I.G.G.G.F.I.I.G.!.F.I.I.F.I.#X/./.P.Y./.I.~.I./.~.~.Y.I.I.I.I.I.~././.~.@X#X#X~.#XQ.I.Y.R.~.@X$XL.y t y y y p V 0.0.8.W ( x ( @X#X$X~.~.I.~./.~.I.I.~.I.G.~.G.I.G.G.!.!.I.I.G.G./.!.I.!.G.H.!.!.!.I.I.!.!.I.~.!.~.~.P.S.F.F.a.P.L.P.F.a.a.a.a.a.a.P.P.Y.Y.I.Y.Y.P.a.a.t.a.a.a.S.a.d.d.a.S.a.d.L.L.L.P.P.P.P.S.L.P.L.L.P.P.L.L.P.d.S.L.S.F.a.L.P.L.P.F.F.Y.Y.P.Y.R.~.R.@XR.~.I.@X$X$X#X@X~.~.I.R.R.~.@X~.@XY._ $X$X$X$X$X%X$XR.@X",
"E E E E E E E E E Q E E _ ! _ _ _ E E E ) a.F.I.Q.~.S.S.F.D.G.G.I.I.I.!.G.!.I.Q.Q.G.G.H.I.G.F.I.a.F.F.F.I.~.G.!.I.F.F.~.!.I.P.I.~.~.~.~.Q.~.I.Y.~./.I.~.F.P.P./.~./.@XY.#X#X#X@X@X@XY.~.@X$X$X$XU.i t y y y n V 0.0.W W Y.@XQ @X=X$X$X#X@X@X@X~.I.I.I.P./.I.H.G.G.G.G./.!.G.!.!.!.G.G.!.!.I.!./.!.I.G.I.~.Y.I.I.~.~.F.S.F.S.F.P.L.P.P.F.a.S.F.a.a.d.a.L.P.R.R.Y.P.Y.P.F.a.a.a.a.a.d.a.a.L.L.L.P.P.P.P.L.P.P.P.L.P.L.P.P.P.L.L.P.F.d.F.L.S.S.P.L.P.P.P.P.P.L.L.Y.I.R.~.~.I.~.~.~.@X$X@X$X$X$X@X@X~.@X@X@XS.! @X%X$X$X$X@X$X$X$X@X",
"E E E E E E E _ E E E E _ ! E E E _ ( ) a.G.G.!.!.!.I.I.D./.!.!././.I.!.G.G.!.!.!.!.I.G.G.!.I.G.G.#X#XG.G.I.~.!.I.I.I.~.~./.~.I./.I.I.I.~.Q.~.I.~.I.I.Y.I.~.I.I.I.I././.#X#X#X#X~.@X~.R.~.@XoXoXY.y t y y p n V 0.e.8.W P.$X@Xa.d.$X$X#X#X#X#X@X/.~./.Q.Q.F.a.I.I.H.G.!.G.!.I.Q.Q.I.!./././.!.^.I.P.P.P./.I.G.I.~.~.Y.P.F.S.L.L.S.L.a.a.S.S.a.a.a.a.a.L.Y.Y.Y.Y.I.R.~.R.I.P.I.P.P.Y.P.P.P.P.L.P.L.P.P.P.L.S.L.L.P.P.S.P.P.P.S.S.P.L.Y.P.L.F.L.d.S.P.P.L.P.L.a.U.P.T.P.R.R.Y.~.@X$X$X$X@X$X#X$X@X@X@XY.S.E ~.$X$X@X@X$X$X$X@X$X@X",
"E E P E E E E _ E _ E E E E E _ _ t.F.H.G.G.E.I.G.I.I.I.!.G.!.!.!.G.I.!./.!.H.I.I.!.I.G.I./.!.I.~.^.I.I.I.I.I.F.~.I.I.~.F./.I.~.~.I.P.~.~.Y.~.~.Q.I.~.~.Y.~.~.~.~.I.~.Y.#X#X~.#X#X#X~.@X@X#X$X$XU.y y t y y p N 8.0.0.W a.@X@X#XT._ L.#X#X#X#X#X/./.Q.I.G.F.D.F.F.H.!./././.!.~./././.!.~./.^.Q.I.~.I.Y.~.~.~.Q.~.I.@XP.L.L.F.a.L.S.S.a.d.a.P.a.S.L.a.P.Y.P.~.~.~.R.~.Y.~.R.R.R.R.L.P.P.P.Y.P.P.P.P.P.F.L.L.P.P.S.F.S.P.P.a.S.S.S.a.L.L.L.L.L.S.L.P.P.P.P.P.L.Y.P.P.P.Y.R.Y.@X$X#X#X$XP.Y.R.@X@X@X~.a.b Y.$X@X$X$X@X@X$X@XoX@X$X",
"E E E E E B B E B E E P E E ( ) t.F.H.G./.I.!.!.I.G.!.I.!.G./.G.G.I.G.!.G.G.G.G.G.G.G.G.G.!.E.F.I.F.I.~.I.I.G.Q.!.I.!./.~./.I./.~.~.P.Q.Q.P.~.I.~.~.~.I.P.~././.~.~.~.~./.@X~./.~.#XR.$X$X$X$X$Xd.y t t y y p N 0.0.0.0.t.$X#X#X@XP.( a.@X@X~./.Y.Y.Y.I.Q.I.I.I.!.!./.^.!.~.Q.!.!.!.~./.I.!.#X/.I.P.Y.F.F.I.~.~.~.I./.P.a.S.S.a.L.a.P.F.L.L.P.L.a.a.F.a.P.P.@X@X~.I.~./.@X/.$X~.R.R.Y.P.P.L.S.P.L.P.S.P.L.L.P.L.a.F.L.L.L.L.S.S.L.L.d.S.L.P.P.P.L.P.P.P.L.L.P.U.P.Y.R.Y.P.Y.@XR.@XR.@XR.@XY.@XR.L.t._ ~.~.$X$X%X#X@XR.$X@X@X$X@X",
"E E E E b E b E E E E _ _ ( e.t.G.H.!.G.G.!.G.!.W.G.I.E.!.I.!.G.H.G.G.G.G.I.!.!.!.I.G.G.!.!.E.H.I.!.~./.!.I.I.I.Q.I.I./.~.~.~./.~.~.~./.I.Q.~.I.~.~./.~.Y./.~./.~.~./.~.~.~.~.#X$X$X@XR.@X#X@X$Xf.i t t y y p N 8.0.0.0.^ #X#X%X#X/.#XY.Q Y.#X/.@X~.#X/.#X/./.~./.#X~.^./.~.~.!.!.H.Q./././.!.I.I.P.I.I.P.F.I.@X@X~.~.P.S.S.a.a.a.a.L.L.P.P.P.S.a.a.L.L.P.P.~.@X@X~./.@X@X#X@X@XR.@XR.Y.Y.P.F.P.P.P.P.P.L.Y.L.F.L.P.Y.L.L.F.F.L.Y.P.P.S.S.S.L.L.F.Y.P.L.P.P.S.P.R.@XoXY.Y.Y.Y.R.R.R.@XY.@XoXY.L._ B @X@X$X%X$X$X$X@X@X$X@X$X@X@X",
"E E P E E E E E E E _ _ t.H.H.G.G.G./.G.G.G.G.H.G.G.!.G.G.I.!./.!.!.H.H.H.H.I.Q.G.G.!.I.!.!.!.I./.!.~././.!.G.G.!./.~.~.I.~.~.~././.~././.~.I.~.~.I.~./.~.~././.~./.Y.~.~.~.~.@X#X$X@XI.$X$X@X$XE i t y y y p N 8.0.0.8.8.~.#X#X#X@X#X#XP._ a.~.~.@X#X@X#X#X#X/.#XI./.^.#X/./.#X#X/./.I.!.!.!.I.F.I.~.Y.P.Y.Y.@X#X~.@X~.P.a.a.d.S.L.P.P.P.P.P.P.L.a.L.L.P.Y.Y.@X@X~.@X@X@X#X@X@X@X$X$X@X~.Y.S.P.Y.P.P.F.L.L.L.Y.S.L.L.S.F.F.L.P.P.L.L.P.P.L.P.L.L.L.R.L.S.S.L.Y.R.R.@XR.Y.Y.R.U.Y.P.P.Y.P.U.L.{ _ a.R.@X@X@X@X$X@X@X@X$X$X$X@XoX",
"E E E P E B B B E ( t.t.H.I.G.Q.G.!.G.G.!.W.G.G.G.G.G.H.G.G.!.!.G.I.G.G.!.!.!.G.G.G.!.!.E.I.!.E.G.!././.~.I.~.E.E.!.!./.~.~.~.~././.#X~.#XI.~.Y.I.I.I.I.~.@X@XQ.~.~.@XI.I.~.~.Y.@X@X@X$X$X$XR.U.M y t r y y p M W 0.0.0.0.H.=X#X#X#X#XY./.#Xt.! F.~.#X/.#X#X~.#X#X^.#X#X#XI.^./././.~.Q.#X!.I./.F.I.I.Y.~.~.~.Y.Y.I.~.Y.P.F.a.a.L.Y.P.Y.P.Y.S.T.P.P.L.S.a.Y.Y.Y.R.~.~.~.@X~.@X$X$X@X@X~.$X$XR.Y.R.R.I.P.L.P.P.Y.S.L.a.a.L.L.F.L.L.L.S.P.P.P.F.L.L.L.P.L.S.S.d.d.P.Y.Y.L.J.P.T.T.J.T.J.L.L.S.a.( P.L.Y.@X@X$X@X@X@X@XoXoX@XoX$XR.",
"E P E v u E E ^ ( a.t.H.G.W.I.G.G.G.G.G.I.W.G.G.G.G.H.!.I.G.!.G.!.G.I./.!.H.I.G.!.!.!.!.^.I.I.G./.^./.I.I.I./.~././.~.~.E.I.~.~.P.Y./.~.I.~.Y.Q.I.~.I./.I.~.~.~.~./.~./././.Y.~.~.R.~.$X#X$XF.t.v i y r t y p N 8.0.0.0.0.s.=X=X#X#X#X#X#X#X#X@X( S./.#X#X#X#X#X#X#X#X#X#X/././.#X/.~.~./././.~.I.G.I.Y.Y.~.Q.~.~.~.@X~.@XP.S.L.P.L.L.Y.L.Y.P.T.L.P.Y.P.L.Y.L.P.P.~.#X@X@X~.R.@X$X@X$X#X$X$X$X@X@X$X@XP.P.P.S.P.L.L.S.F.L.S.S.S.L.P.P.L.L.L.F.L.S.L.P.L.S.S.J.L.P.T.P.P.U.J.J.J.J.J.d.d.J.( ( J.J.R.Y.XX@X@X@XR.Y.Y.@XR.Y.Y.Y.Y.",
"E E P K b E ) t.D.G.G.I.G.W.G.G.G.G.G.G.G.G.G.G.G.G.G.G.!.G.!./.!.I.I.I.S.^ !.Q./././.!.!.!.G.I.!././.~./.!.!.!.!.~.~.~././.~./.Q.~.~.~./.~.~.Y.~.I.I.~.~.Y.~.Q.~./.~.~.I.@XQ.Y.@X#X~.@XR.a.@XT.i i y r y y p N 8.r.0.8.0.s.=X#X#X#X#X/.#X#X#X/.#Xt.( /.#X#X/.#X#X#X#X#X#X#X#X/./.^././.!.!.^.~.Y.I.P.Q.~.I.~.@X@X@XY.~.Y.F.L.L.L.Y.P.Y.P.P.L.U.P.L.L.P.L.L.P.L.Y.R.@X@X@X@X$X@X#X#X$X$X$X@X$X@X$X@X@X~.Y.P.P.L.L.P.L.P.L.S.P.P.L.U.P.J.S.d.L.S.S.a.d.S.J.S.L.L.T.S.d.L.T.J.J.K.J.J.d.J.( ( J.J.T.T.U.T.U.U.oXY.Y.Y.oX@XU.P.T.Y.",
"P v v Q ( t.t.H.W.G.!.W.G.G.H.H.H.G.H.G.G.I.G.G.G.G.!.!.G.!./.G.H.D.H.F.( E I.I.Q.!.!.!.E./.!.!.!.G.^./.~.!.Q.!./.I.!.I.#XI.~.!.I.P.Y.~.~.~.Q.~.~.Q.I.~.~./.~.~.~./.~.@X/.~.Q.~.~.~.R.a.S.@X%X~.i y y t y y n N 0.r.0.0.0.Q.#X#X#X/.#X/.#X#X#X#X#X/.I.E J.~.P.#X#X#X#X#X#X#X#X/.~.~.^.@X~.^.~.~.~.Y.~.~.a.L.~.~.P.Y.@X~.~.R.P.P.P.Y.P.P.P.Y.L.Y.P.P.L.S.S.F.P.L.L.R.R.~.#X@X@X@X@X#X#X$X$X@X$X@X@X@X$X@X$XP.L.L.T.T.L.P.P.L.L.J.L.L.J.S.L.P.S.L.L.S.T.S.S.L.L.J.J.J.d.S.d.d.J.d.a.J.d.) ( d.a.T.d.T.J.T.T.T.T.U.U.T.U.R.P.T.T.U.",
"v v b ) t.t.H.H.G.H.!.G.H.H.H.G.G.G.W.G.G.t.G.G.G.G.I.G.G.I.!.t.t.D.a.t.( a.!.I.!.!./.!.!.!.!.!.I.I.I./.~.!./.!./.~.I.~.I.I.I.F.F.Y.I.~.I.~.Q.Q.I.I.I.~.~.~.~./.Y.~.I.Y.~.Y.Y.~.~.F.a.~.R.@X@X$X! y y y y p n N 0.y.r.0.0./.=X#X#X#X#X#X#X/./.#X#X#X/.I._ ) @X#X#X#X#X#X#X#X#X#X/.~.~././.~.~.I.Y.~.~.~.I.I.Q.Y.@X~.Y.~.~.Y.P.P.P.Y.P.L.P.P.P.S.S.P.L.L.S.S.F.P.P.Y.R.~.@X~.@XR.R.$X@X$X#X$X~.$X@X@XR.@X@XR.Y.P.P.L.L.P.P.L.L.T.a.L.L.P.S.P.L.T.P.L.S.S.L.P.P.L.J.d.a.a.J.{ K.d.d.d./ Q d.K.d.J.J.J.J.d.J.U.U.U.T.J.T.J.U.U.T.U.",
"E E ( e.H.G.G.I.G.!.G.H.G.H.H.H.H.G.t.G.G.G.G.H.G.G.G.G.I.D.t.H.H.t.D.H.a.G.I.G.G.H.G.I.I.!.H./.!.~.E.~.I.!.~.!.!./.I.F.G.t.t.F.Y.~.P././.~.I.Y.~.Y.I.Q.I.I.P.I.I.~.I.Q.Y.Y.Y.Y.S.a.#X@XU.a./ E v y y y y n M N 8.y.r.0.0.^.#X#X/.#X#X#X^.#X#X#X#X#X~.Q.I.F.E I.#X#X#X#X/.#X/.#X^.#X#X#X#X#XI.I.Y.Q.~.P.~.@X@X~.@X~.Y.#X@X@XY.P.I.P.F.Y.I.P.P.P.L.Y.P.S.P.a.a.P.P.Y.~.Y.@X@X=X@X@X@XR.@X$X$X$X$XR.@X@XR.$X$X@XY.Y.@XY.P.L.L.J.S.a.S.P.P.P.P.Y.L.L.L.S.L.P.L.J.d.L.J.a.d.a.{ d.a.a.Q / d.d.J.J.J.T.J.J.J.T.T.U.U.T.T.U.J.J.T.J.J.",
"^ ^ t.H.H.G.G.!.!.G.H.H.G.H.H.G.G.H.H.H.H.G.H.H.G.G.G.H.H.t.H.H.s.I.G.!.G.I.I.H.H.G.G.!.G.G.H.I.I.~.I.I./.I.I.~.I.I.I.G.I.F.I./.~.~.I.Q.@X~.Q.Y.Y.~././.I.I.P.I.~.~.Q.P.I.P.a.a.I./.@X{ - O O O M M M y p n M N 8.r.r.q.q./.#X#X#X^.#X#X/.#X#X#X=X#X/.@X#X#X@Xa.a.@X#X#X/./.#X#X/./.#X#X^.#X/.I.Q.I.P.I.~.Y.~.@X@X@X~.~.@X@XY.Y.P.P.P.Y.Y.Y.P.T.F.P.Y.L.L.L.P.P.P.P.P.P.Y.R.@X$X@X@X@X@X$X@X~.@X@XY.@X@X~.~.@XR.R.@XR.Y.Y.Y.P.L.L.Y.Y.P.P.L.L.L.L.S.d.S.L.L.S.J.L.J.a.d.a.a.{ a.Q ( J.d.d.J.K.J.J.J.J.J.d.J.U.T.U.T.J.T.J.T.J.U.",
"t.H.H.H.G.G.G.G.I.G.H.H.!.H.H.H.H.H.G.G.G.G.G.G.G.H.G.t.H.G.H.G.E.!.!.G.I.I.G.!.I.!.G.E.G.H.G.!.I.F.H.H.I.!.~.I.~.I.Q.!.I.I.I.!.!.~.Q./.~.I./.~././././.~.~.Y.~.#X~.Q.I.P.t.a./.R.R.{ * * * * t V B N n M N N N =.r.r.q.e.#X=X#X#X^.#X#X#X#X#X#X#X=X#X#X#X@X#X#XP.E P.#X#X#X#X#X#X#X#X#X/.@X/.~.Y.P.P.P.P.~.Y.~.~.@X~.~.R.~.R.R.P.Y.L.Y.Y.P.Y.P.P.P.P.P.J.P.a.P.P.P.F.P.P.P.R.@X$X@X@X@X@X$XR.@X$X#X@X@X~.@X$X$XR.@X$X~.R.Y.Y.Y.Y.Y.R.P.U.Y.L.T.U.S.J.J.L.T.J.L.J.J.d.d.{ ) ) P _ d.J.d.J.J.d.J.J.J.J.J.J.d.d.d.T.U.J.T.T.T.T.U.",
"H.G.G.H.G.G.H.t.H.H.H.H.G.H.H.H.H.G.H.G.H.G.!.H.t.G.G.H.H.G.H.D.H.I.I.H.G.G.I.G.Q.!.I.!.G.D.G.G.G.I.I.G.E.!.I.I.I.I.!.I.I.I.!.I.F.I.~.Q.~.~.!.I.#X~.I.~././.~.~.I.I.P.a.t.F.P.F.F.F.u - - - - V V W N N N V V V =.q.r.0.r.#X#X#X#X#X^.^.#X#X#X#X/.=X=X=X#X#X#X#X#X~.) a.#X@X#X#X#X#X#X#X/.Y.P.Y.~.Y.Y.Y.P.Y.~.~.~.@X~.~.@XY.Y.Y.R.R.Y.Y.R.L.L.S.P.P.P.a.L.P.P.L.P.L.L.L.P.P.P.R.~.@XR.$X@X$X~.R.~.$X$X@X~.@X@X~.R.@X~.I.R.R.R.R.$X@XY.R.Y.Y.Y.P.R.Y.P.T.P.@X@XoXa.P.J.d.d.) v / d.a.J.J.J.J.J.d.d.J.U.T.J.T.d.K.J.J.U.T.T.U.U.U.",
"H.H.H.).H.H.G.G.H.H.D.H.G.H.H.H.H.H.H.H.G.G.D.H.H.G.G.H.G.G.H.H.G.H.!.G.G.G.G.G.I.!.E.I.I.I.I.I.I.!.F.F.G.I.I.I.I.I.F.G.I.I.I.F.F.I.~.~.!.~.Q.I.#X~.I.I.I.F.I.G.F.a.( a.P.H.F.F.P.S.- ; 1 1 t ^ V W N N N =.=.8.=.q.r.0.r.#X#X=X=X#X^.#X#X#X^./.#X#X#X=X#X#X#X#X#X#X#XP.E ~.$X#X@X=X#X#X@X~.~.Y.Y.I.Y.Y.~.Y.@XQ.~.@X~.P.@X@X~.Y.Y.P.R.Y.Y.R.R.P.Y.P.P.d.d.d.Y.P.L.L.P.S.P.P.Y.Y.R.@X@X~.R.R.Y.Y.R.$XR.R.Y.R.R.R.@X@X$XR.~.R.@X@XR.@XY.R.Y.@X@XR.oXR.Y.P.P.J.L.J.T.J.J.d.{ P / d.J.K.K.J.J.a.K.T.J.T.K.J.J.J.T.J.J.J.T.J.T.T.U.U.",
"H.H.H.H.H.G.t.H.H.D.G.H.G.H.H.H.H.t.H.G.G.G.H.H.H.H.G.H.H.!.G.G.G.H.!./.G.G.!.I.G.!.G.G.!.I.I.F.F.a.a.H.H.I.G.I.I.I.I.I.I.G.F.F.I.I.G.Q.I.Q.!.Q.I.G.I.P.I.I.I.H.a.t.I.I.F.G.F.F.F.a.* - - ; t W W V N N N =.8.0.q.q.r.q.q.#X#X^.^.^./.#X#X#X#X#X#X#X#X#X#X#X#X#X#X#X#X#X~._ a.@X@X@X=X#X#X@X@X~.~.P.~.P.Q.Y.Y.Y.I.~.Y.Y.~.@XoX@X@XY.P.R.R.~.Y.P.Y.P.U.P.P.J.J.P.P.P.P.P.P.Y.P.P.Y.Y.R.R.Y.R.~.Y.P.Y.R.R.R.L.Y.@X@X$X$X@XR.R.$X@X$X$X$X$X@X@X@X$X$X$XoXY.L.T.T.U.T.S.d.{ P { J.d.J.K.K.J.T.J.J.T.T.J.J.d.J.J.T.K.J.J.J.J.U.J.J.d.",
"H.).).).t.G.G./.H.H.H.H.H.H.D.D.t.H.G.G.H.H.H.H.H.G.!.G.G.!.!.!.G.H.t.H.G.G.a.I.H.G.G.G.!.E.I.a.F.F.P.G.F.G.I.G.I.G.I.I.I.H.I.I.G.F.I.I.G.G.I.I.I.I.~./.I.I.a.( a.Q.~.I.I.F.F.a.F.a.- 1 3 t v V V N V 8.N =.0.q.q.r.r.q.q.#X#X#X#X^.^.^.#X#X#X#X#X/.#X#X#X@X#X#X#X#X#X#X#X~.a./ Y.#X#X#X#X@X@X~.#X~.~.~.I.Y.~.~.Q.~.~.P.Y.R.@XY.Y.Y.R.R.F.Y.Y.@XR.Y.Y.R.Y.Y.a.S.L.L.P.Y.P.L.P.Y.P.L.Y.@X~.@XY.P.R.Y.Y.Y.R.@XR.R.@X@X@X~.R.$X$X@X@X$X$X$X$X$X$X#X$X$X$XR.Y.U.U.T.J.a.[ E d.J.J.J.J.T.K.J.J.T.T.T.J.J.J.J.T.K.J.K.J.J.J.J.J.K.d.d.",
"H.y.).H.H.G.H.H.H.H.H.D.H.G.H.H.t.H.H.H.H.H.H.H.G.t.G.G.t.G.G.G.G.H.G.H.H.G.G.I.H.H.G.G.!.H.!.H.G.G.G.I.G.G.I.!.I.I.I.F.H.G.G.G.I.I.I.Q.G.H.G.I.I.!.I.I.I.t.t.G.I.I.I.G.I.I.I.F.F.) - - ; ; B V N N 8.8.N 8.q.q.r.r.q.q.y.^.^.^.^.#X#X#X#X#X#X#X/.@X@X@X#X#X#X@X#X#X#X=X#X#X@XY._ a./.#X#X#X@X@X@X#X~.~.~.~.~.@X~.Y.~.~.Y.Y.@X@XL.Y.@XR.R.P.P.Y.Y.P.Y.P.P.Y.P.P.S.P.Y.T.P.a.L.P.P.R.P.Y.~.R.@XP.Y.Y.Y.R.R.R.Y.$X@X@X$X#X@X@X$X$X@X$X$X%X$X$X#X%X@X$X@XR.oXU.U.T.J.d.P { J.T.J.T.K.J.J.J.J.K.J.J.J.J.K.d.J.J.J.J.J.T.d.d.J.J.K.d.",
"G.G.G.H.).H.).H.H.H.D.D.H.H.H.H.H.H.H.H.D.D.t.G.G.D.H.H.H.H.G.D.H.H.G.I.G.I.G.I.G.I.E.I.I.G.I.I.F.I.Q.F.H.H.!.!.I.H.F.F.D.D.I.G.I.F.I.I.I.I.I.G.I.G.I.F.( D.Q.~.!.!.Q.H.I.!.Q.I.L.) - 3 t 3 V N N N 8.0.N =.q.r.r.w.r.q.y./.^.^.#X#X#X#X^./.#X#X#X/.~.#X#X#X#X#X#X#X#X@X#XY.#X@XY.a._ P.I./.@X@X@X#X~.~.~.~.~.~.~.P.~.Y.~.P.$X@XR.R.Y.Y.U.P.R.Y.@XY.Y.P.S.P.Y.Y.Y.L.Y.Y.Y.Y.Y.Y.L.Y.Y.R.Y.Y.P.Y.P.P.P.R.Y.Y.@X@X$X~.$X@X@X$XY.@X$X$X#X#X$X$X$X$X$X@XoX$XoXU.U.Y.d.E d.J.d.T.U.U.T.T.J.J.J.d.d.J.J.J.d.{ K.J.J.J.T.T.K.d.d.K.J.J.",
"G.H.H.H.H.u.H.H.H.H.H.H.H.H.t.H.H.t.t.H.H.D.t.H.H.H.t.t.t.s.H.G.G.G.G.I.!.G.G.H.G.I.!.H.G.G.G.F.F.I.I.I.G.!.I.I.I.I.G.I.I.I.I.G.I.I.I.G.I.I.I.F.I.G.t.( a.G.G.!.Q.Q.!.Q.I.G.I.F.a.( ; 1 3 1 W V N N =.0.=.=.q.q.w.w.q.0.y.!.#X^.#X^.#X#X#X#X@X#X#X#X/.~.#X#X#X#X@X#X#X#X@X@X@X~.#X@XI.E a.@X@X@XY.~.~.~.~.~.~.Y.~.@X~.I.Y.R.@XR.R.R.Y.Y.P.P.R.R.R.R.R.P.T.L.L.Y.R.P.Y.P.Y.Y.P.Y.P.R.@X@XY.oXR.L.P.L.Y.R.Y.Y.@XR.Y.Y.@XR.@X$X$X$X%X%X$X$X$X$X%X@X$X@X@X$XoXoXU.d._ K.U.oXU.U.T.U.U.U.J.K.T.T.T.J.T.J.d.d.d.K.J.T.J.J.J.T.J.J.K.T.",
"H.H.H.H.G.G.H.H.H.G.H.H.H.H.H.D.t.D.t.H.H.t.H.H.H.H.H.s.H.H.H.H.H.G.G.G.!.G.H.G.G.G.G.H.I.I.D.I.I.I.!.G.I.G.F.I.I.F.I.I.I.~.I.I.F.F.I.I.I.I.I.F.a.( a.G.G.I.F.I.I.I.~.I.I.G.G.a.t._ 1 3 t r V V N =.V 0.9.9.q.q.w.r.q.0.y.G./.#X^.^.#X^.#X#X/./.^.#X/.#X#X#X#X#X#X@X#X@X/.~.@XY.Q.~.~.~.) E P.Y.@XP.I.~.~.~.@X~.P.@X/.Y.@X~.Y.Y.R.P.Y.Y.P.L.P.P.P.U.R.Y.P.P.a.P.L.Y.Y.Y.L.T.Y.Y.R.Y.R.Y.P.P.P.P.P.P.R.R.Y.R.@XR.R.Y.R.Y.Y.$X$X%X%X$X$X#X$X$XoX@X@XY.Y.XXoXU.d.Q J.U.oXR.oXU.T.T.T.J.T.T.J.d.J.J.J.d.J.d.d.d.J.T.d.d.d.T.T.J.J.T.",
"H.).H.H.).H.y.H.H.H.D.t.t.H.D.t.D.t.H.H.G.H.H.G.H.H.H.H.D.H.s.G.G.G.H.I.I.G.H.G.H.G.I.G.G.I.H.F.I.I.G.H.I.I.I.I.I.I.I.I./.~.I.G.F.I.I.I.F.F.G.t.t.G.I.I.G.I.I.I.I.Q.!.!.G.H.F.F.a.( 3 1 1 i N N N V =.8.8.8.q.q.r.r.q.q.r.(.G.!./.^.#X#X#X#X#X/./.#X/.~.#X#X#X#X#X~.~.~.@X~.~.~.~.~.Q.~.~.Y.E a.@X@X#X/.~.~.~.Y.P.Y./.I.@XR.R.~.Y.Y.P.P.P.P.P.P.P.P.S.J.U.Y.P.L.Y.P.Y.P.Y.L.P.R.Y.P.U.Y.Y.P.L.Y.Y.Y.Y.Y.Y.R.R.R.R.~.Y.@X@X@X$X%X%X$X$X$X@X@X$XY.oXY.Y.U.oXS._ XXXXU.U.R.oXoXU.U.U.J.K.K.K.J.K.d.J.J.J.J.J.J.J.T.K.K.J.K.J.T.T.J.",
"H.).H.H.H.G.H.G.H.H.H.H.t.H.H.t.D.D.H.H.H.t.t.t.D.G.H.H.a.H.H.H.G.G.G.H.D.G.H.G.G.E.G.H.F.F.I.H.I.I.G.F.G.I.I.G.~.~.!.~.!.G.I.I.I.I.I.F.I.F.( t.I.G.I.G.G.Q.!.I.I.Q.!.I.G.H.a.H.a.( - O O M M N N V 8.0.9.9.q.q.r.w.q.q.q.( G.H.I.!.~.#X#X/.^././.#X#X#X@X#X#X#X@X@X@X@X@X#XP.@X~.P.@XQ.I.Y.P.( E @X@X@X/.Y.Y.~.Q.I.P.I.Y.R.~.~.R.R.Y.P.P.Y.Y.P.P.P.P.P.Y.Y.P.J.Y.P.T.L.P.Y.P.L.R.P.U.U.Y.Y.Y.Y.Y.Y.Y.Y.P.R.Y.R.@X$XR.$X@X$X@X$X$X$X@XY.Y.oXY.U.T.Y.R.U.U.( J.oXY.R.U.oXR.U.T.U.T.U.U.T.T.K.T.J.d.J.T.T.U.K.T.J.d.K.K.d.J.T.J.T.",
"H.y.).).G.G.H.H.t.D.H.G.G.H.H.H.H.H.H.H.^ u.D.D.t.H.H.H.H.D.G.G.H.H.G.G.G.D.D.G.G.H.H.G.G.I.F.D.F.F.I.G.G.I.F.I.!.I.!.I.G.F.I.I.G.G.H.F.t.t.I.I.F.F.F.F.I.!.I.I.Q.I.I.G.G.G.D.H.t._ * O * i n n V V 0.8.9.q.q.q.q.w.r.0.0.; s.F.F.~.!./.#X#X/.^./.#X@X~.Y.@X#X#X#X@X#X#X@X@XP.#X#XY.~.Y.Y.Y.Y.P.F.E a.~.@X~.Y.Y.Y.P.a.P.~.Y.I.R.@X@XR.Y.L.L.Y.P.P.R.Y.P.L.L.Y.L.P.L.J.S.P.d.U.Y.R.P.P.S.P.Y.R.Y.Y.Y.R.@XI.R.@X$X@X$X@X@X@X@X@X$X$XoXR.R.P.U.oXXXT.P.Y.a.Q T.U.XXY.@XoXoXR.oXT.J.U.U.U.U.U.J.K.K.K.d.d.T.U.T.U.J.J.J.XXK.J.J.K.K.",
"G.G.H.).H.H.t.H.H.H.H.t.t.t.t.^ u.u.t.u.t.H.H.G.H.G.H.H.G.G.I.H.H.G.I.G.D.G.D.I.G./.I.I.I.F.G.D.a.I.I.I.I.F.F.I.!.I.~.~.I.I.I.I.G.G.s.^ t.G.G.I.I.I.I.I.I.I.I.I.!.I.~.I.G.G.H.a.) ( $ o 2 @ ; i V N 0.=.0.q.0.=.q.i.w.0.n ; D.F.H.F.H././.#X/./.~.#X#X~.~.@X#X$X@X#X#X#X#X@X#X#X@X/.@X@XI.@X~.Y.Y.P.( ( Y.Y.Y.Q.@X~.Y.~.~.@X@X~.#X@XY.U.S.T.P.P.P.P.T.J.Y.P.Y.P.L.P.S.L.T.a.U.R.Y.Y.Y.L.L.J.U.P.Y.Y.Y.~.@X@X$X%X@X@X@X@X$X@X$X$X$X@XR.Y.P.Y.R.oXU.T.d./ Y.Y.U.%X@X$XoXoXR.OXU.U.oXU.T.T.T.T.J.U.T.J.J.J.J.J.J.T.T.K.T.J.J.J.J.K.",
"H.H.G.H.H.H.G.H.t.t.t.u.^ ^ ^ ^ ^ ^ t.H.H.H.H.G.G.G.H.H.G.H.G.G.G.G.H.I.H.H.H.I.G.H.G.G.I.F.F.F.F.G.F.H.H.G.G.I.~.~.~.~.Y.I.I.!.I.t.a.Q.I.G.I.I.I.G.!.Q.I.~.I.~.Q.I.G.G.G.H.a.s.t.( # 2 } 6 $ O ; x 0.8.q.0.q.8.0.i.i.W 1 1 a.H.D.F.F.F.G./././.Q.@XY.@X#X#X#X~.#X#X#X#X#X@X/.#X#X@X@X@X~.@XY.Y.~.Q.P.a.E a.Y.~.@XY.I.Y.~.~.#X@X#X@XY.Y.Y.R.Y.Y.P.Y.P.P.J.P.P.L.L.P.P.P.Y.S.S.P.Y.Y.P.L.P.T.U.J.Y.Y.Y.R.$XY.R.R.$X$X$X@XR.~.$X@XR.R.@XoXR.Y.U.U.T.K./ P.Y.Y.U.oXoX$X$XoXR.oXoXT.T.K.K.T.T.T.J.T.U.T.T.U.U.T.J.T.T.J.K.K.J.J.K.d.",
").H.G.G.H.H.H.H.H.D.G.H.u.t.^ ^ ^ ^ ^ D.H.H.H.G.H.G.G.G.I.Q.I.H.I.H.G.G.!.G.G.I.D.G.I.H.I.I.I.G.G.G.F.D.I.I.I./.~.~./.~.Y./.G.a.t.Q.Q.~.I.~.I.I.G.s.G.~.!././.I.I.I.!.I.D.H.a.a.a.( o < < ] .X] < & y V q.8.r.q.0.y.i.y < - d.G.D.H.G.F.F.H.!.#X/.#X~.#X~./.@X~.#X/.#X#X#X#X/.#X#X@X#X@X~.Y.~.~.@XY.~.Y.Y.( { P.~.#XY.~.I.P./.~.@X@X$XY.Y.@X@XY.Y.R.Y.Y.L.L.P.L.Y.P.P.T.P.J.L.P.Y.P.J.L.Y.P.U.T.oXoX@X$X$X@X@XoX$X$X$X~.@X$XR.Y.Y.Y.R.Y.R.R.Y.U.{ _ U.@XoXU.oX@XoX@X$XOX@XR.XXU.OXXXoXU.T.T.J.T.U.T.K.T.U.J.K.J.T.T.K.U.J.J.T.T.",
"G.G.G.G.H.y.).H.H.H.H.D.^ ^ ^ ^ u.^ t.D.H.H.G.H.H.H.G.G.G.!.I.I.!.I.G.G.G.I.I.F.D.G.F.I.~.I.I.F.I.F.G.I.~.!.!./././.#X#X/.I.t.F.I.~.~.~.~.I.G.I.G.a.I.G.I.!./.~.I.I.G.G.H.H.t.a.a.( + # * $ < T P * * ; W 8.w.q.0.r.q.* * 1 ) H.D.F.H.F.F.a.F.~.~.#X@XY.~.~.Q.~./.@X~.@X/.@X~.@X#X@X~.@X@X#X~.Y.I.P.P.P.P.Y.d.E P.~.~./.#X~.@X#X@XR.$X$X@X$XR.R.Y.R.R.R.Y.Y.J.P.L.S.L.T.L.L.U.P.U.Y.J.P.P.Y.U.P.J.P.Y.$XR.@X$X$X@X$X@X@X$X$XoXoXU.U.oXoXR.Y.T.{ / d.Y.oX@X@X@X@XoX@XT.$XOXOXU.OXoXoXoXU.U.T.J.T.XXT.U.T.J.J.J.U.U.J.K.K.d.K.K.K.",
"G.G.H.H.G.H.G.H.H.H.H.t.u.t.H.t.t.H.t.H.H.G.D.H.G.I.G.G.Q.G.G.G.!.!.G.G.G.H.I.I.F.I.~.G.I.I.F.G.F.~.I.I.I./.~.#X#X~.~.~.P.t.I.G.~./.Q.!.~.I.!./.Q.I.I.I.I.!.G.!.I.I.G.G.G.D.a.a.t.( + 1 i 1 < $ * - - - ; M y.r.0.q.x * < 1 ( H.a.s.F.D.F.F.a.F.Y.Y.~.P.Q.@X~.~.Q.#X~.@X#X@XI.Q.~.I.Q.@X@X#X#X@XQ.Y.I.Y.Y.P.F.a.v ( ~.Y.@X@X~.@X~.$X@XR.@XY.~.Y.Y.U.Y.Y.L.U.P.T.L.P.P.d.S.L.L.P.S.P.P.U.L.J.U.L.T.P.Y.Y.R.@X$X$X$X$X$X@XoX$XoXY.U.U.U.T.oXT.a.( U.oXoXU.@X@X@X@XoXoXOXoXOXoXR.R.OXoXJ.U.XXU.T.U.OXXXU.U.J.J.J.d.T.T.T.K.J.T.K.K.",
").G.G.H.G.H.H.G.H.t.H.D.H.G.G.H.G.G.H.H.H.G.H.G.G.H.G.I.!.G.G.G.G.I.G.H.G.G.F.I.~./.~./.~.I.I.I.I.I.I.Q./././.!.I.Y.I.) a.~.~./.I./.^.#X~././.!.I.I.I.I.~./.I.I.H.G.F.F.G.G.s.a.t.Q @ v W M E 1 * - - - - ; W r.0.V * * 3 t a.D.F.H.s.F.a.a.F.a.a.F.~.~.~.~.~.@X/.~./.~./.~.I.I.#X/.@X@X@X$X#X@X#X@X~./.~.Y.P.P.L.( E I.Y.~.@X@X#X@XR.@XY.P.Y.P.R.Y.Y.R.P.Y.Y.L.U.Y.Y.S.P.T.P.R.R.L.P.Y.Y.U.Y.P.Y.Y.T.J.oX$X$X$X$X$X$X$X$X$XY.U.Y.Y.J.T.U.a.[ U.oX@XoXoX@XoXoXoXoXoXoXU.OXoX@XOXOXoXU.U.XXU.XXU.U.OXJ.J.J.J.U.U.K.J.T.T.K.K.K.K.",
"H.G.G.G.G.H.H.H.D.H.H.H.G.G.G.G.G.G.G.H.G.G.G.I.G.H.I.G.G.G.I.!.I./.I.!.!.I./.~.~././.!.~.F.!.G.I.~.!.~./.~.~.~./.S.a.~.#X@X#X/.~.I.#X#X#X/.~.!.I.Q.I.I.I.G.G.Q.G.H.G.F.H.G.G.a.) Q @ W 0.0.e.M r < * - < < ; B 0.t $ < 3 W a.I.F.G.a.a.a.a.a.F.a.a.d.P.P.Y.@X/.~.~.@X@X~.#X@XY./.~.~.~.@X#X~.@X#X@X~.~.Y.Y.Y.Y.F.F.t.E a.~.@X#X@X#X#X@X@X@XoXL.@X@XY.Y.Y.P.R.Y.Y.P.L.P.P.P.L.Y.Y.P.L.T.U.T.U.U.XXU.T.Y.oX$X$X$X$X$XoX$X$X$X$XY.U.d.T.d.{ ( oXoX@X$X@X$X$XY.XXU.@X$X@XoXoXU.OX$XOXoXXXXXT.U.U.oXU.oXT.J.J.U.T.U.K.U.K.U.T.U.K.U.",
"I.!.(.!.G.G.H.H.H.t.H.G.!.G.G.H.H.D.!.G.G.G.G.D.G.H.G.I.G.G.!.G.G./.!./.I.!.~./.I.G./.~./.I.!.I.I./.~.Q.I.I.~.P.a.a./.#X#X#X/.#X#X@X/.#X^.#X/.^./.!.F.I.I.H.G.G.G.G.F.F.H.G.F.a.a.P * 0.q.r.0.W W i 1 - - 1 1 1 x * * 1 i y.s.F.D.F.I.F.a.a.a.P.d.d.d.a.P.I.~./.~./.@X~.~.@X~.~.I.Q.@XY.@X~.Y.@X~.~.~.Q.Y.~.~.Y.P.P.F.P.t._ P.~.@X@X$X@X$XY.R.R.@XY.Y.T.P.P.T.Y.P.L.L.Y.S.P.L.L.Y.Y.T.U.U.U.U.U.T.T.U.U.oXR.$X$X$X$XXXR.R.oXY.@XoXY.U.[ [ XXoX$X$XoXoXoXY.oX$X@X@X$XR.R.oXOXOX@XoXoXT.OXOXoXU.U.oXJ.XXXXoXT.K.K.K.K.U.XXU.T.T.d.",
"I.!.!.G.G.G.D.G.G.H.G.G.!.G.G.H.H.G.H.I.!.G.G.t.G.I.I.G.I.G.G.G.!.G.!.!.E././././.!.!.!.I./.!.!.~.~./.~.I.I.a.a.I.~.#X#X#X#X/./.#X#X#X#XQ./././.!.I.G.I.I.Q.G.I.F.Q.H.F.I.I.F.a.) v ; 0.q.q.0.8.8.W E v 3 - 3 1 * # * - e.i.s.a.I.H.G.a.s.F.d.L.P.F.F.F.F.P.~.Q.~.~.~.~.~.#XY.~.~.@X~.@X~.@XY.Y.P.P.~.@XI.I.~.Q.~.Y.~.~.Y.a.! a.P.@X$X$X@X~.P.Y.@XY.P.U.Y.Y.Y.P.P.L.Y.Y.U.U.U.P.U.R.U.U.T.T.Y.U.J.U.U.Y.Y.@X@X$X$X$X$XoXR.@X$XoXY.S.{ [ XXoXU.Y.@XoXY.@XXXT.@XY.OXoXY.$X$XoXXXOXOXoXoXT.XXoXXXXXOXU.OXU.T.d.XXU.J.d.U.U.U.T.K.J.",
"H.Q.!.G.G.G.I.G.G.H.G.H.!.!.G.G.G.G.!.!.!.G.I.Q.H.Q.G.Q.!.G.H.I.!.I.G.G.!./././.^./.~.~.~./.G.~.Y.~.F.I.I.a.P.I.I./.#X#X#X#X#X#X/.#X#X/./.~./.!.~./.I.I.I./.!.Q.F.I.G.H.I.I.H.s.t.u t 8.0.0.q.0.0.8.0.0.i 1 < 2 < $ * i i.g.y.H.P.F.G.I.F.F.P.L.P.F.F.I.F.F.F.a.~.#X@XY.~.P.P.d.P.P.@X~.~.Y.Y.Y.Y.Q.Y.Y.I./.~.~.Y.~.~.Y.~.P.P._ _ Y.$X$X$XR.Y.Y.Y.P.Y.R.R.Y.Y.Y.@XP.P.Y.Y.L.Y.P.J.U.P.U.T.Y.U.U.U.T.XXoXY.@X@X@X$X$X$X@X$X@XXXT.d.) [ XXOXY.@XoXoXU.U.XX@XU.oXU.U.@XoXU.OX$XOXXXoXoX$XU.OXoXoXoXoXU.oXU.U.J.T.U.K.U.XXK.XXU.T.K.",
"Q.G.G.I.G.G.G.H.G.!./.!.!.!.I.G./.!.G.G.G.G.I.!.G.H.I./.!.G.!.G.Q.I.!.F.!././././././.~./.~.#X~.F.P.F.t.( ~.~.I.~.~.@X@X#X/.#X#X@X#X#X/./././.I.~.~.!.I.Q.I.!.!.G.G.G.H.F.F.D.a.t.u t W =.=.r.r.0.0.q.q.W v 1 < 4 * * W i.(.s.G.P.a.F.I.F.F.P.a.P.F.F.F.F.F.a.F.P.I.@X#XY.P.Q.P.P.P.@XY.Y.~.I.Y.~.~.~.Y.~.~.~.~.Y.~.Y.Y.~.Y.P.P.S.E L.@X$X@XR.R.P.Y.P.Y.Y.@XR.Y.R.Y.@XY.U.Y.P.Y.S.J.Y.U.T.U.J.Y.oXT.U.oXY.R.@X@X$X$X$XR.@X@XoX$Xa.{ XXXX$XOX@XoXY.T.Y.U.oX@X@XoXoXoXOXJ.OX@XoXT.J.oX@XOXoXoXoXoXT.U.XXT.U.T.U.U.T.U.d.U.K.U.XXJ.",
"G.G.G.W.G.H.G.G.H.!.!.!./.G.I.H.!.!.G.G.G.I./.!.!.!.I.!.G.I.!.I.G.!.I.!.!./.~.!.~.I.~.~./.!.~.~.I.P.a.S.Y.Y.~.I.Y.P./.#X#X#X#X#X#X#X#X/.!.I.~./.~./.!.G.I.F.Q.!.!.~.I.G.F.F.a.t.a.t 1 ! V =.y.r.8.0.0.r.q.e.E 1 2 > 1 0.A.(.s.s.H.F.G.F.F.P.L.L.d.F.a.F.d.a.F.a.a.L.Y.~.Q.Y.P.P.I.P.I.Y.P.Y.Q.P.Y.P.P.Y.~.Y.P.Y.P.P.I.Y.Y.~.P.Y.Y.Y.) ) $XR.R.R.R.Y.Y.Y.Y.Y.P.Y.Y.Y.P.Y.Y.Y.Y.Y.Y.d.U.T.P.U.XXoXY.U.U.U.Y.R.R.@X@X$X@XU.@X@XoXa.d.U.OXoXoXXXU.oXT.U.Y.Y.Y.Y.R.oXOXU.T.U.OXU.T.U.J.U.$XOXXXOXOXOXXXK.OXoXU.OXoXXXU.U.T.XXU.K.XXU.",
"H.H.H.H.G.G.I.G.G.!.!.!.G.G.I.!.!.G.!.!.!.!.H.H.G.I.G.I.G.G.G.D.H.G.G.I.G.!.!.!.I.I.~.~.I.I.~.~.a.F.Y.~.~.~.~.Q.Q.Y.#X#X/.#X#X#X#X#X#X~./.I.G.Q.!.G.H./.I.G./.Q.Q.I.F.Q.G.F.F.a.) u - u M 8.i.i.V =.8.q.r.y.r.v > < u 0.A.g.y.H.G.I.G.F.F.F.P.F.P.I.P.P.a.d.F.d.a.d.L.L.P.R.Y.I./.Y.~.~.P.F.Y.Q.P.Q.Y.P.P.F.F.Y.~.P.Q.Y.~.R.I.~.@XQ.R.S._ a.R.R.P.@XR.Y.L.Y.L.Y.Y.R.Y.U.Y.R.R.U.Y.T.U.T.T.U.U.U.T.oXU.Y.U.R.oXR.@XoXoX@XoX@Xa.d.T.XXOXXXXXXX@XY.T.Y.@XY.T.oXoXoXoXY.U.R.OXU.J.oXT.J.OXoXOX$X$XOXU.U.XXoXoXK.U.oXOXXXoXOXK.T.U.T.",
"0 _ G.!.G.G.!.!.G.G./.!.!.G.G./.!.G.!.!./.G.G./.!.G.G.G.G.I.G.G.I.I.I.!.G.I.I.I.Q./.^.G.I.I.Y.D.F.I.I.~.Y.Y.#X@X/.@X#X#X#X#X#X#XI.~.~.I./.I.I.I.~./.~./.Q.I.G.G./.G.!.I.~.P.F.a.) u * @ i =.i.i.m N =.=.q.y.y.8.1 * t 8.i.i.y.H.F.G.F.F.a.F.P.P.P.P.I.F.F.P.F.a.P.F.d.L.S.P.L.P.I.Y.~.~.~.Y.~.~.Y.I.P.P.Q.I.F./.Y.~.~.~.~.~.F.@X@X/.~.@XR.) ) L.Y.oXR.Y.Y.Y.L.L.@X@XY.R.oXoXR.U.Y.U.U.U.U.T.oXY.U.U.U.Y.T.J.oXoXY.U.oXoXY.{ a.P.U.XXXXU.%XoXY.oXU.oX@XT.OXoXoXoXU.oXU.oXU.T.OXOXoXoXU.U.OXoXoXU.oXU.oX$XXXoXT.oXoXU.K.$XOXU.XXXX",
"( x t.G.G.H.G.!./././.!.G.!./.!./.G.!.G./.I.!.G.G.H.G.H.I.I.G.G.I.I.!.!.!.I.~.!.I.I.~.!.I.t.F./.I.~.~./.@XQ./.~./.#X#X#X#X#X#X#X~.P.Y.G.I.I.I.~./.~.~.I.~.!.!.G.I.I.I./.I.F.F.a.) u < o * V i.g.=.=.=.n =.=.0.0.v * r 8.w.w.0.e.H.H.H.P.F.F.a.P.P.P.P.d.P.P.P.L.P.P.F.L.L.F.L.d.P.Y.I.I.P.P.I.P.Y.~.I.a.I.~.@X@X#X@X@XQ.Y.I.R.@X~.@X#X#X$X@XU.( U.@XR.Y.Y.Y.R.U.@XR.U.R.R.Y.Y.@XU.Y.U.U.oXJ.oXoXU.U.U.U.T.U.U.Y.Y.R.@XT.{ a.R.@XoXU.XXOXXXXXXXoXoX@XU.XXXXXXY.Y.J.T.oXoXoXXXoXOXXXXXoXOXoXXXU.K.oXOXOXoXoXoXU.U.U.T.U.OXOXXXXXXX",
"H.( x H.G.W./.!./././.G.!.!.!.!.G.I.G.G.!.!.G.G.G././.H.!.!.G.I.I.H.H.I.I.I.~./.I.I.F.F.a.F.~././.~.I.#X~.~.#X~.~.@X@X@X#X/.#X/.~.Y././.Q./.~.~./././.Q./.~.I.G.I.I.Q.I.I.G.F.a.) u < # o M 0.r.8.q.y.n m C C N W $ r 0.w.0.W ^ G.H.F.a.P.F.d.P.P.d.L.P.P.P.L.P.Y.P.L.S.S.d.F.a.P.P.P.L.P.I.~.P.Y.I.I.F.P.I.I.~.~.~.#X~.Y.@X@X#X#X@X#X$X$X@X@X@X) ( Y.Y.Y.Y.Y.Y.~.R.Y.U.R.R.R.oXU.U.U.Y.Y.Y.U.XXXXU.U.d.T.T.U.U.Y.T.U.[ T.R.@XOXoXOXOXXXXXU.XXXXXX$XU.U.XXU.XXoXOXU.oXoXoXXXU.OXU.U.XXU.T.OX$XXXT.U.oXU.oXOX$XOXoXU.XXXXXXOX$XOX",
"D.a.b x H.G.!.G././.!.!.!./.!.Q.!.I.G.G.!.I.!.!.G.I.G.G.G.G.I.Q.F.I.G.I.Q./.F.F.I.F.t.I.@X~.~.@X/.#X@X/.~.~.~.I.~.#X/./.#X/.~.~.@X@X/.Q.~./.~.F.~.~.I.!.Q./.!.I.I.I.!.I.I.H.F.S.a.u 3 $ o t ^ 0.8.i.(.=.q.q.V 0.r.* M 0.w.y.0.^ Q.G.I.a.a.a.F.F.P.P.L.P.P.F.P.d.S.L.L.F.S.a.d.d.F.P.Y.Y.R.R.@XP.R.I.~.I.I.~.Y.Y.Y.I.~.#X#X@X@X@X#XY.R.@X$X@XY.R.~.T.Q P.oXU.P.Y.Y.Y.@XY.P.@XoXXXY.Y.Y.oXoX@X@X@XoXU.U.T.U.R.U.R.Y.K./ J.XX@XOXoXOXU.XXOXoXT.U.XXoXoXU.OXoXT.XXOXU.XXU.OXOXoXXXU.oXU.T.XXU.XXXXOXU.XXOXOXoXoXOXOXXXXX$XoXOXU.OX$X",
"F.F.S.E B H.H.G././.G././.!.G.I.Q.I.G./.I.!.G.G.I.G.G.I.G.I.I./.~.G.G.F.H.!.G.s.a.( F.~.Q./.~././.#XQ.#X#X@X~.~.~.#X~.I.$X/./.#X@X~.#X~.I.Y.~.~.Y.P././././.~.I.G.G.I.I.I.F.F.a.) v u 1 @ o t y 8.i.i.=.w.i.=.r.r.v 0.0.w.i.i.e.P.I.I.F.I.P.P.P.F.d.d.L.P.P.Y.Y.P.P.L.F.d.F.a.d.F.a.L.P.Y.@X@X@XP.I.I.I.I.I.I.P.Y.P.~.@X@X~.@X@X#X@X~.$X$XR.#X@X$X@XR.( ( Y.Y.L.R.@XoXR.P.@XoXoXoXoXXXoXY.oX@XoXXXY.XXU.T.U.U.oXa./ U.oXY.oXR.oX%XoXXX$X%XXXXX@X$XoXOXOXoXXXOXU.XXoXoXoXXXT.$XOXXXU.U.oXU.U.U.T.oXU.oXoXoXOXoXOXOXoXoX%X%XOXXXOX",
"I.H.H.D.b E t.W./.G.G.!.!.!.!.F.!.I.!.!.H.G.G.!.I.!.G.I.I.G.!.!.!.H.G.G.G.F.F.( a.Q.~.I.!./.I.#X#X#X/./.I.~.I.Y./././.#X#X@XI.#X~./.#X~.~.Y./.^./.!.#X#X~.I.~./.I.I.!.E.!.F.H.S.a.P 5 5 * o X r r.(.r.q.i.i.:.w.y.e.r.=.q.r.i.r.a.G.a.F.I.I.P.a.P.P.P.Y.P.S.S.Y.S.L.L.a.S.a.a.d.F.L.S.a.P.oXR.~.Y.~.Y.P.P.I.P.Y.Y.~.~.~.@XI./.#X@X@X@X@X@X@X$X@X$X@X@XP.) Q T.T.R.@X@X@X@X$X@X@X$XoX@XoXU.oX@XoXoX$XoXXXU.T.K.a./ d.XXOXU.oX$X$X$XOXU.OX%X$XOXoXOXoXOX$X$X$X@XoXU.XX$XOXoXOXOXOXU.U.oXoXT.U.XXOXXXU.T.oXoXoXoXOXOXOXoX$X%X$XOX$X",
"G.H.H.H.D.x B H./.!.Q.G.G.!./.F.F.F././.!.!.!.!.!.I.G.I.I.!./.!.!.!.I.I.G.t.( F./.I.!.I././.Q.~.Q.~.~.Y.@X/.I.~.I.I.~.R.~./.~.~.Y.I.~.Q./.I./.#X^.Q./.~.~././.~./././.G.I.G.F.a.a.Q 2 u < # o 1 y.(.g.i.i.i.q.i.i.r.i.i.(.(.i.r.a.F.H.P.P.P.P.P.P.P.P.Y.P.P.P.P.L.L.L.F.a.a.a.a.a.d.d.a.L.P.I.I.Y.Y.R.R.I.I.~.Y./.Y.~.Y.~.Q./.#X~.~.Y.R.@X@XR.$X$XR.~.$XoXY.( Q P.R.R.@X@X$X@XoX@XoX@XoXY.@XoXoXoXoXoXXXT.T.a./ d.K.U.T.K.XXR.OXOXXXoX$XOX%XXXT.K.OX$XXX$X$X$X@XoXU.oXoXXXoXOXOXU.OXXXXXU.oXoXU.XXU.oX$XoXoXoXU.OX%X$XoX$X%X$X%X"
};
