/* XPM */
static char *f2183b05432447f4877b3e5ef195956efWpKG3TBuqsaHlPg[] = {
/* columns rows colors chars-per-pixel */
"20 20 35 1 ",
"  c #FF00FF",
". c black",
"X c #F4F4F4",
"o c #606060",
"O c gray52",
"+ c gray9",
"@ c gray61",
"# c gray68",
"$ c #1D1D1D",
"% c gray30",
"& c gray83",
"* c #ECECEC",
"= c #C6C6C6",
"- c #F8F8F8",
"; c #5A5A5A",
": c gray39",
"> c #E6E6E6",
", c #565656",
"< c gray14",
"1 c #DADADA",
"2 c #353535",
"3 c gray50",
"4 c gray88",
"5 c gray24",
"6 c gray17",
"7 c gray45",
"8 c gray55",
"9 c gray25",
"0 c gray19",
"q c gray80",
"w c #282828",
"e c #777777",
"r c gray58",
"t c #111111",
"y c gray28",
/* pixels */
"                    ",
"                    ",
"                    ",
"      X8o:= =o:=:oo1",
"     -3..#  #t=X+..&",
"    -3..#   ## X+..&",
"   -3..#    *  >t.$4",
"  -3..#       *;.$q ",
" -3..#       *;.$q  ",
"-3..#       *;.$q   ",
"&...<wwwwwy #..,  >1",
"&.........2 #.., >9&",
"4OOOOOO:..2 #..,49.&",
"       =..2 >qq&&qq*",
"       =..2         ",
"       =..2         ",
"       X***         ",
"                    ",
"                    ",
"                    "
};
