/* XPM */
static char *_59706103fd6405ae81726d9da608193RVSXXPtDcg6xivy8[] = {
/* columns rows colors chars-per-pixel */
"312 83 190 2 ",
"   c None",
".  c #3F577E",
"X  c #445676",
"o  c #4A5775",
"O  c #475977",
"+  c #4D5976",
"@  c #415679",
"#  c #455A7D",
"$  c #4B5D7D",
"%  c #505A77",
"&  c #515D7A",
"*  c #4D617F",
"=  c #52617D",
"-  c #5B647D",
";  c #61687F",
":  c #465C80",
">  c #4A5E81",
",  c #4D6182",
"<  c #536381",
"1  c #586783",
"2  c #5D6984",
"3  c #536A8E",
"4  c #696780",
"5  c #666E84",
"6  c #6B6D84",
"7  c #667187",
"8  c #687187",
"9  c #677289",
"0  c #68738A",
"q  c #757188",
"w  c #797589",
"e  c #73788E",
"r  c #7D798D",
"t  c #757186",
"y  c #6D7B95",
"u  c #6D7E99",
"i  c #727D93",
"p  c #827C8E",
"a  c #857F90",
"s  c #8A7F90",
"d  c #75839D",
"f  c #7B859A",
"g  c #7D8699",
"h  c #7C8AA2",
"j  c #858192",
"k  c #8E8494",
"l  c #818698",
"z  c #84899A",
"x  c #8B8898",
"c  c #908696",
"v  c #918897",
"b  c #938B99",
"n  c #93909E",
"m  c #838EA4",
"M  c #8390A6",
"N  c #8C93A3",
"B  c #8495AD",
"V  c #8C96AA",
"C  c #8B99AD",
"Z  c #9896A2",
"A  c #979AA7",
"S  c #9B9AA6",
"D  c #959CAD",
"F  c #9D9DA9",
"G  c #9597A4",
"H  c #8F9CB1",
"J  c #959FB1",
"K  c #9EA0AB",
"L  c #96A2B5",
"P  c #9DA3B3",
"I  c #95A5BA",
"U  c #A1A2AC",
"Y  c #A8A5AF",
"T  c #A4A9B4",
"R  c #A9ACB5",
"E  c #A6ACBA",
"W  c #A8AEBA",
"Q  c #B1AEB7",
"!  c #B2AFB8",
"~  c #AEB0B7",
"^  c #ACB2BD",
"/  c #B4B5BB",
"(  c #BDB6BD",
")  c #BFB8BF",
"_  c #C0B7BF",
"`  c #C0B8BF",
"'  c #ADB4C1",
"]  c #B2B7C1",
"[  c #B5BAC5",
"{  c #BBBDC5",
"}  c #B9BEC8",
"|  c #C3BCC3",
" . c #BDC2CB",
".. c #BDCBDA",
"X. c #BAC5D4",
"o. c #C5C0C6",
"O. c #C3C5CC",
"+. c #CCC6CB",
"@. c #C7C8CF",
"#. c #CBCACF",
"$. c #D0C7CB",
"%. c #D0C8CC",
"&. c #C4C7D0",
"*. c #C5C9D1",
"=. c #CDCED2",
"-. c #C0CBD8",
";. c #D2CBD0",
":. c #CFD0D5",
">. c #C4D1DE",
",. c #CED2DA",
"<. c #D2D0D5",
"1. c #D2D5DC",
"2. c #D9D5D9",
"3. c #D5D8DE",
"4. c #DDDADE",
"5. c #E0DADF",
"6. c #C7D3E0",
"7. c #CDD8E4",
"8. c #D1D7E0",
"9. c #D3DAE2",
"0. c #DDDEE3",
"q. c #D4DFEA",
"w. c #E2DCE1",
"e. c #DBE0E7",
"r. c #DEE4EB",
"t. c #E4E4E7",
"y. c #EBE4E7",
"u. c #EAE2E6",
"i. c #E4E4E8",
"p. c #E4E5E8",
"a. c #E5E5E8",
"s. c #E5E5E9",
"d. c #E5E6E9",
"f. c #E6E5E8",
"g. c #E1E5EB",
"h. c #EDE6EA",
"j. c #E7E9ED",
"k. c #EAEAED",
"l. c #F1ECEE",
"z. c #E6EBF2",
"x. c #EEEDF2",
"c. c #F1EEF1",
"v. c #ECF1F6",
"b. c #EFF3F8",
"n. c #F2F1F4",
"m. c #FBF3F6",
"M. c #F2F3F8",
"N. c #F1F4F9",
"B. c #F3F4F9",
"V. c #F4F4F9",
"C. c #F5F4F9",
"Z. c #F5F5F9",
"A. c #F6F4F9",
"S. c #F5F4FA",
"D. c #F4F5FA",
"F. c #F5F5FA",
"G. c #F4F4FA",
"H. c #F6F5FA",
"J. c #F7F5FA",
"K. c #F6F4FA",
"L. c #F5F6FB",
"P. c #F6F6FB",
"I. c #F5F7FC",
"U. c #F6F5FA",
"Y. c #F9F5FA",
"T. c #FAF6FA",
"R. c #FAF5F9",
"E. c #FCF6FA",
"W. c #FAF5FA",
"Q. c #F6F8FC",
"!. c #F5F9FC",
"~. c #F6F8FD",
"^. c #F9F8FB",
"/. c #F9F9FB",
"(. c #F8F8FB",
"). c #FAF9FB",
"_. c #FCF9FB",
"`. c #F9F9FC",
"'. c #F9F9FC",
"]. c #FAF9FC",
"[. c #FBF9FC",
"{. c #F9FAFD",
"}. c #FAFAFC",
"|. c #FBFAFC",
" X c #FBFAFD",
".X c #FAFAFD",
"XX c #F9FAFE",
"oX c #FDFAFC",
"OX c #FCF9FC",
"+X c #FBF9FC",
/* pixels */
"                                                                                                                                                                                                                                                                                                                                                                                                                                                                                                                                                                                                                                                ",
"                                                                                                                                                                                                                                                                                                                                                                                                                                                                                                                                                                                                                                                ",
"                      # $ $ $ $ $ $ $ $ $ $ $ $ $ $ $ $ $ $ $ $ $ $ $ $ $ $ $ >                                               $ $ $ $ $ $ $ $ $ $ $ $                                             $ $ $ $ $ $ $ $ $ $ > $                                               # $ $ $ $ $ $ $ $ $ $ $ $ # # $ $ $ # # $ # $ $ $ # # $ # # $ $ $ $ $ $ $ $ $ $ $ $ >                                                               # $ $ $ $ $ $ $ $ $ $ $ $ $ $ $ $ $ $ $ $ $ $ $ # $ $ $ $ >                                             # $ # # # $ $ $ $ $ $ # # $ # # # # # $ # # # $ $ $ $ $ $ # $ $ $ $ $ $ $ >                                 ",
"                    : : @ @ @ @ @ @ @ @ @ @ @ @ @ @ @ @ @ @ @ @ @ @ @ @ @ @ # > >                                           > # @ @ @ @ @ @ @ @ @ # # >                                         : > # @ @ @ @ @ @ @ @ # > >                                           : : # @ @ @ @ @ @ @ @ @ @ @ @ @ @ @ @ @ @ @ @ @ @ @ @ @ @ @ @ @ @ @ @ @ @ @ @ @ @ @ @ > >                                                           : : # @ @ @ @ @ @ @ @ @ @ @ @ @ @ @ @ @ @ @ @ @ @ @ @ @ @ @ # : $                                       : : # @ @ @ @ @ @ @ @ @ @ @ @ @ @ @ X X @ @ @ @ @ @ @ @ @ @ @ @ @ @ @ @ @ # , :                               ",
"                  > , ^ t.i.t.i.i.i.i.i.i.i.i.t.t.i.i.i.i.i.i.i.i.i.i.t.i.i.=.$ :                                         > > P i.i.i.t.t.i.t.i.i.i.F > >                                     > , T t.i.i.i.t.t.t.t.t.t.e >                                         , , D i.i.i.i.i.i.i.i.i.i.t.i.i.i.i.i.t.i.i.i.i.t.t.i.i.t.t.t.t.i.i.t.i.i.i.i.i.i.i.i.t.R , ,                                                         : > *.i.i.t.i.i.i.i.t.t.i.i.i.i.t.t.i.i.i.t.t.t.i.i.t.t.t.t.O.$ #                                       # $ :.i.i.i.t.t.i.i.i.i.i.i.i.i.i.i.i.i.i.i.i.i.i.i.i.i.i.i.i.i.i.i.i.i.i.t.l >                               ",
"                  > > 3.{.{.{.{.{.{.{.^.{.{.{.^.{.^.^.{.{.^.^.^.^.{.{.{.{.oXl.+ $                                         : , } {.{.{.{.^.{.{.{.oXoX{ > $                                     > , *.Q.{.{.{.{.{.{.{.oX_.n > #                                       > , } {.{.{.{.{.{.{.oXoX{.^.{.{.{.{.^.^.{.{.{.{.{.{.{.{.^.^.{.{.^.{.^.{.{.oX{.{.^.{.oX_.+., ,                                                         : $ D.{.{.^.{.{.{.^.^.^.^.{.{.{.^.^.^.^.^.^.^.^.{.oX{.^.{._.y.# #                                       # $ D.{.{.{.{.^.{.{.{.{.{.{.{.{.{.{.{.{.^.{.{.{.^.{.^.^.{.^.{.^.{.{.{.{.oXoXU > #                             ",
"                  > > 1.I.D.D.D.D.D.D.D.D.D.D.D.D.C.D.D.D.D.D.D.D.D.D.D.Y.E.h.+ #                                         : , } Q.I.D.D.D.D.D.D.Y.Y.{ $ #                                     > , *.Q.D.D.D.D.D.D.Y.Y.E.b $ #                                       > , [ Q.D.D.D.D.D.D.D.D.D.D.D.D.D.D.D.D.Y.D.D.D.D.D.D.D.D.D.D.D.D.D.D.D.D.D.D.D.D.D.Y.E.+.$ ,                                                         : $ D.Q.D.D.D.D.D.D.D.D.D.D.D.D.D.D.D.D.D.D.C.M.D.D.D.D.Y.Y.y.# #                                       # $ M.Q.D.D.D.D.D.D.D.D.D.D.D.D.D.D.D.D.D.D.D.D.D.D.D.D.D.D.D.D.D.D.D.D.Y.E.U $ #                             ",
"                  > > 1.I.D.D.D.D.D.D.D.D.D.D.D.D.D.D.D.D.D.D.D.D.D.D.D.Y.E.h.o #                                         # , } Q.I.D.D.D.D.D.D.Y.Y.| $ #                                     > , *.I.D.D.D.D.D.D.D.Y.E.b $ #                                       > , [ Q.D.D.D.D.D.D.D.D.D.D.D.D.D.D.D.D.D.D.D.D.D.D.D.D.D.D.D.D.D.D.D.D.D.D.D.D.D.Y.Y.E.+., ,                                                         : $ D.I.D.D.D.D.D.D.D.D.D.D.D.D.D.D.D.D.D.D.D.M.D.D.D.D.Y.Y.u.# #                                       # = D.Q.D.D.D.D.D.D.D.D.D.D.D.D.D.D.D.D.D.D.D.D.D.D.D.D.D.D.D.D.D.D.D.Y.Y.E.K $ #                             ",
"                  # $ 1.I.D.D.D.D.D.D.D.D.D.D.D.D.D.D.D.D.D.D.D.D.D.D.D.Y.E.h.o #                                         : , } Q.I.D.D.D.D.D.D.Y.Y.` $ #                                     : , *.D.D.D.D.D.D.D.D.Y.E.c $ #                                       > , [ {.I.D.D.D.D.D.D.D.D.D.D.D.D.D.D.D.D.D.D.D.D.D.D.D.D.D.C.C.D.D.C.D.D.D.D.D.D.D.Y.E.+.$ ,                                                         # # b.I.D.D.D.D.D.D.D.C.D.D.D.D.C.D.D.D.C.M.M.M.D.D.D.D.Y.E.u.# #                                       # & b.Q.D.D.D.D.D.D.D.D.D.D.D.D.D.D.D.D.D.D.D.D.D.D.D.D.D.D.D.D.D.D.D.Y.Y.E.U $ #                             ",
"                  : $ 1.I.D.D.D.D.D.D.D.D.D.D.D.D.D.D.D.D.D.D.D.D.D.D.D.Y.E.h.o #                                         : , } Q.D.D.D.D.D.D.D.Y.Y.| $ #                                     : , *.I.I.D.D.D.D.D.D.Y.E.b $ #                                       > , [ {.D.D.D.D.D.D.D.D.D.D.D.D.D.D.D.D.D.D.D.D.D.D.D.D.D.D.D.D.D.D.C.C.D.D.D.D.D.D.Y.E.+.$ $                                                         : $ b.I.D.D.D.D.D.D.D.D.D.D.D.D.D.D.D.D.D.C.M.D.D.D.D.D.Y.E.u.# #                                       # & b.Q.D.D.D.D.D.D.D.D.D.D.D.D.D.D.D.D.D.D.D.D.D.D.D.D.D.D.D.D.D.D.D.Y.Y.E.K $ #                             ",
"                  : $ 1.I.D.D.D.D.D.D.D.D.D.D.D.D.D.D.D.D.D.D.D.D.D.D.D.Y.E.h.o #                                         : , } I.I.D.D.D.D.D.D.Y.Y.` $ #                                     : < *.I.I.D.D.D.D.D.D.E.E.v $ #                                       > , [ {.I.D.D.D.D.D.D.D.D.D.D.D.D.D.D.D.D.D.D.D.D.D.D.D.D.D.D.D.D.D.D.D.D.D.D.D.D.Y.Y.E.#.$ $                                                         # # b.I.D.D.D.D.D.D.D.D.D.D.D.D.D.D.D.D.D.D.C.M.D.Y.Y.D.Y.Y.h.# #                                       # = D.Q.I.D.D.D.D.D.D.D.D.D.D.D.D.D.D.D.D.D.D.D.D.D.D.D.D.D.D.D.D.D.D.Y.Y.E.U $ @                             ",
"        : > > > > > $ ,.I.D.D.D.D.D.D.D.D.D.D.D.D.D.D.D.D.D.D.D.D.D.D.D.Y.E.h.o # $ # $ $ #                               # , } Q.I.D.D.D.D.D.D.Y.Y.| $ #                                     : , *.I.I.D.D.D.D.D.D.Y.E.c $ #                                       > , [ {.I.D.D.D.D.D.D.D.D.D.D.D.D.D.D.D.D.D.D.D.D.D.D.D.D.D.D.D.D.D.D.D.D.D.D.D.D.D.Y.E.+.$ $ > $ # #                                       # # # > , > # b.I.D.D.D.D.D.D.D.D.D.D.D.D.D.D.D.D.D.D.D.D.D.Y.D.D.Y.E.u.# # $ $ # #                               # $ v.Q.I.D.D.D.D.D.D.D.D.D.D.D.D.D.D.D.D.D.D.D.D.D.D.D.D.D.D.D.D.D.D.Y.Y.E.U $ # $ $ $ $                     ",
"      # , , , , , , $ ,.I.D.D.D.D.D.D.D.D.D.D.D.D.D.D.D.D.D.D.D.Y.Y.D.Y.Y.Y.f.o $ $ > > > , $                             : , } Q.I.D.D.D.D.D.D.Y.E._ $ #                                     : , *.Q.I.D.D.D.D.D.D.E.E.c $ #                                       > , [ {.I.D.D.D.D.D.Y.Y.D.D.Y.Y.Y.Y.D.D.Y.D.D.D.D.D.Y.D.D.D.D.D.D.D.D.D.Y.D.Y.Y.Y.Y.Y.E.( * , , > , , $                                   : > , , , , , $ z.I.D.D.D.D.D.D.D.D.D.D.D.D.D.D.D.D.D.D.D.C.D.Y.Y.Y.Y.E.w.$ * $ $ $ , $                             # # 7.{.I.D.D.D.D.D.D.D.D.D.D.D.Y.D.D.D.D.D.Y.D.D.D.D.D.D.D.D.D.D.D.Y.Y.Y.Y.Z $ $ > , , , $ #                 ",
"      > y =.:.=.=.=.=.k.D.D.D.Y.Y.^.^.^.^.^.^.^.^.^.Y.^._.^._._._._.^.^.E.Y.c.=.=.:.=.=.=.z , $                           # , } Q.I.D.D.D.D.D.D.Y.E.` $ #                                     : , *.I.D.D.D.D.D.D.D.E.E.k $ #                                       > , [ {.I.D.D.D.D.Y.D.Y.Y.Y._._._._.Y.E.^.Y._.^.^.^.^.^._._._.^.Y._.^._.oX_._.^.Y.Y.Y.E.w.=.=.=.=.=.A , >                               > > f =.:.:.=.:.:.D.I.Y.Y.Y.^.^.^.Y.Y.^._.^.^.Y.Y.E.^.^.Y.Y.Y.^.^.Y.Y.D.Y.l.=.=.=.=.=.{ $ >                           # # >.{.D.D.D.D.D.Y.D.Y.Y._._._.oX_._.^.^._.^._._._._.^.^.^.^._.^.Y.D.Y.Y.{.2.=.<.:.=.:.=.e $ #               ",
"    # > E {.{.{.oXoX{.^.D.D.Y.Y.#.#.#.#.#.#.#.#.#.#.#.#.#.#.#.#.#.#.#.#.k.{.^.oXoXoXoXoXoX/ , :                           : , } Q.I.D.D.D.D.D.Y.Y.E._ $ #                                     : , *.I.D.D.D.D.D.D.D.E.E.k $ #                                       > , [ Q.I.D.D.D.D.Y.Y.Y.E.t.=.=.#.#.#.#.#.#.#.#.#.#.=.#.#.#.#.#.#.#.#.#.#.#.1.Q.D.D.Y.Y.Y._._.oXoX_.#., $                               # , ] .XoX{.{.^.{.Y.Y.Y.h.#.=.#.#.#.#.#.#.#.#.#.#.#.#.#.#.#.#.#.t.Y.D.D.D.{.oXoXoXoXoXc.+ >                           # # 9.{.I.D.D.D.D.Y.Y.Y.m.=.=.#.=.#.#.#.#.#.#.#.#.#.#.#.#.#.#.#.0.D.I.Y.Y.Y.^.oXoXoXoX_._.S $ $               ",
"    . > E Q.I.D.D.D.D.D.D.D.Y.Y.6 * = * * * = = * = * = * * * * = = < < =.D.D.D.D.D.Y.Y.E./ , :                           # , } Q.I.D.D.D.D.D.D.Y.E.` $ #                                     : , *.I.I.D.D.D.D.D.D.E.E.k $ #                                       > , [ Q.I.D.D.D.D.Y.Y.Y.Y.{ < * * = * = * * * * * * * $ * * * * * * * * * , N I.D.D.D.Y.Y.Y.D.Y.Y.E.+., >                               # , ] {.D.D.D.D.D.D.Y.Y.4.$ * * = = * * * * * * * * * * * , * , ] I.D.D.D.D.Y.D.D.Y.E.c.+ #                           # & b.{.D.D.D.D.D.Y.D.Y.E.5 * * * * * * * * * * * * * * * * * , ^ D.D.D.D.D.D.D.Y.D.Y.Y.E.S $ $               ",
"    . > W Q.I.D.D.D.D.D.D.Y.Y.Y.p $ $ $ $ $ $ $ $ $ $ $ $ $ $ $ $ $ $ > *.I.D.D.D.D.D.Y.E./ , >                           # , } Q.I.D.D.D.D.D.D.Y.E._ $ #                                     : < *.I.I.D.D.D.D.D.Y.E.E.c $ #                                       $ < [ Q.I.D.D.D.D.D.Y.Y.Y.| * $ $ $ $ $ $ $ $ $ $ $ $ $ $ $ $ $ $ $ $ $ $ $ m Q.I.D.D.D.D.D.D.D.E.E.+., $                               # , ] Q.D.D.D.D.D.D.Y.Y.5.# $ $ $ $ $ $ $ $ $ $ $ $ $ $ $ $ $ , } I.D.D.D.D.D.D.Y.Y.E.c.+ #                           # = D.Q.D.D.D.D.D.D.Y.E.E.5 $ $ $ $ $ $ $ $ $ $ $ $ $ $ $ $ $ $ ^ Q.I.D.D.D.D.D.D.D.Y.Y.E.S $ $               ",
"    . > E Q.I.D.D.D.D.D.D.Y.Y.E.j $ -                               $ $ =.I.D.D.D.D.Y.Y.E./ , >                           # , } Q.I.D.D.D.D.D.D.E.E._ $ #                                     : < *.I.I.D.D.D.D.D.Y.Y.Y.c $ #                                       $ , [ Q.I.D.D.D.D.D.Y.E.E.| $ #                                         = > M Q.I.D.D.D.D.D.D.D.Y.E.+., $                               # , ] Q.D.D.D.D.D.D.Y.Y.5.# $                               # , } I.D.D.D.D.D.D.Y.Y.E.c.+ #                           # = b.Q.D.D.D.D.D.D.Y.E.E.5 $ &                             $ > ^ Q.D.D.D.D.D.D.D.D.D.E.E.F $ $               ",
"    @ > W Q.D.D.D.D.D.D.D.Y.Y.E.k $                                 # > ,.I.D.D.D.Y.D.Y.E./ , >                           # , } Q.I.D.D.D.D.D.D.Y.E.( $ #                                     : , *.I.I.D.D.D.D.D.D.Y.E.c $ #                                       > , [ Q.I.D.D.D.D.D.Y.Y.E.| $ #                                           > V Q.I.D.D.D.D.D.D.D.Y.E.#.* $                               # , ] Q.D.D.D.D.D.D.Y.E.w.# #                               # , } I.D.D.D.D.D.D.Y.Y.E.c.+ $                           # = D.Q.D.D.D.D.D.D.Y.E._.5 $                               $ > ^ Q.I.D.D.D.D.D.D.D.Y.E.E.S $ $               ",
"    # > E Q.I.D.D.D.D.D.D.Y.Y.E.k $                                 # > ,.I.D.D.D.D.D.Y.E./ , >                           # , } Q.I.D.D.D.D.D.D.Y.E.( $ #                                     : , *.I.I.D.D.D.D.D.D.Y.E.c $ #                                       > , [ Q.I.D.D.D.D.D.D.Y.E.| $ #                                           > J Q.I.D.D.D.D.D.D.D.Y.E.+.* $                               # , ] Q.D.D.D.D.D.D.Y.E.w.# #                               # , } Q.D.D.D.D.D.D.Y.Y.E.c.+ #                           # = D.Q.D.D.D.D.D.D.Y.E.E.5 $                               $ > ^ Q.I.D.D.D.D.D.Y.D.Y.Y.E.F $ $               ",
"    @ > E Q.I.D.D.D.D.D.D.Y.Y.E.j $                                 : > 1.I.D.D.D.D.Y.E.E./ , >                           # , } Q.I.D.D.D.D.D.Y.Y.E.( $ #                                     : , =.D.I.D.D.D.D.D.Y.Y.E.k $ #                                       $ , [ Q.I.D.D.D.D.Y.Y.Y.E.| $ #                                           > T {.I.D.D.D.D.D.D.D.Y.E.+.* $                               # , ] {.D.D.D.D.D.D.Y.E.w.$ #                               # , } Q.D.D.D.D.D.D.Y.Y.E.c.+ $                           # = D.Q.D.D.D.D.Y.Y.Y.E._.5 $                               # > ] {.I.D.D.D.D.D.Y.D.Y.Y.E.S $ $               ",
"    # , E Q.I.D.D.D.D.D.D.Y.Y.E.a $                                 : > 1.I.Y.Y.Y.Y.Y.E.E./ , >                           # , } Q.I.D.D.D.D.D.D.Y.Y.( $ #                                     : , *.I.I.D.D.D.D.D.Y.Y.E.k $ #                                       $ , [ Q.I.D.D.D.D.Y.D.Y.m.| $ #                                           > P {.I.D.D.D.D.D.D.D.Y.E.+.* $                               # , ] {.Y.D.D.D.D.Y.Y.E.w.$ $                               # , } Q.D.D.D.D.D.D.Y.Y.E.c.+ #                           # = D.Q.D.D.D.D.D.Y.Y.E._.5 $                               # , ] {.{.Y.Y.D.D.D.Y.Y.Y.Y.Y.S $ $               ",
"    # > W Q.I.D.D.D.D.D.D.Y.Y.E.j $                                 > , ,.{.{.oXoXoXoX_._./ > $                           # , } Q.I.D.D.D.D.D.D.Y.E.( $ #                                     : , *.I.I.D.D.D.D.D.Y.E.E.k $ #                                       > , [ Q.I.D.D.D.D.Y.Y.Y.E.| $ #                                           > P Q.I.D.D.D.D.D.D.Y.E.E.+.* $                               : , ] {.{.^.^.^.^._._.Y.0.$ $                               # , } I.D.D.D.D.D.D.Y.Y.E.c.+ $                           # = D.{.D.D.D.D.D.Y.Y.E._.5 $                               > , ^ {.{.oXoX^.Y.D.D.D.D.Y.E.Z $ $ $ $ $ $       ",
"    # > E Q.I.D.D.D.D.D.D.Y.Y.E.a $                                 , , N { { { { { | | { r $ $                           # , } Q.I.D.D.D.D.D.D.Y.E.( $ #                                     : , *.I.I.D.D.D.D.D.Y.E.E.k $ #                                       $ , [ Q.I.D.D.D.D.Y.Y.E.E.| $ #                                           > D Q.I.D.D.D.D.D.C.Y.E.E.+.* $                               , , g { { { { | | | | o.Y , $                               # , } Q.D.D.D.D.D.D.Y.Y.E.c.+ $                           # = D.Q.D.D.D.D.D.Y.Y.E._.5 $                               > , i { | | | { k.D.Y.D.D.Y.Y.R z z l z 2 , $     ",
"    # > E Q.I.D.D.D.D.D.D.Y.Y.Y.p $                                   > > > $ $ $ $ $ $ $ $ $                             : , [ Q.I.D.D.D.D.D.Y.Y.E.( $ #                                     : , &.I.I.D.D.D.D.Y.Y.E.E.k $ #                                       $ , [ Q.Q.I.D.D.D.D.Y.E.E.| $ #                                           > V Q.Q.D.D.D.D.D.D.Y.E.E.+.* $                                 > , , $ $ $ $ $ $ $ $ $ > -                               # , } Q.D.D.D.Y.D.D.Y.Y.E.c.% $                           # $ b.Q.I.D.D.D.D.Y.Y.E.E.5 $                                 , > , $ * , $ 1.Q.^.D.D.Y.E._.oXoXoXoX+., $     ",
"    # > J I.Q.D.D.D.D.D.D.Y.Y.Y.w $                                     = = = = = = = = = =                               # > H Q.I.D.D.D.D.D.Y.E.E.( $ #                                     : ,  .I.I.D.D.D.D.Y.Y.E.E.p $ #                                       $ , E Q.Q.D.D.D.D.D.Y.E.E.| $ #                                           , h Q.Q.I.D.D.D.D.C.Y.Y.E.#.* $                                   = = & = = & = = = = =                                   # , E Q.Y.D.D.D.D.D.Y.Y.E.c.+ #                           # # r.Q.D.D.D.D.D.Y.Y.E.E.5 $                                   = * & $ $ # 1.I.^.D.D.D.Y.Y.Y.Y.Y._.+., $     ",
"    # > C I.I.D.D.D.D.D.D.Y.E.E.t $                                                                                       # , L D.I.D.D.D.D.D.Y.Y.E.( $ #                                     : , ] I.I.D.D.D.D.D.Y.E.E.4 $ #                                       $ , I I.Q.I.D.D.D.Y.Y.Y.E.( $ #                                           , d I.Q.D.D.D.D.Y.D.D.Y.E.#.* $                                                                                           # > J Q.D.D.D.D.Y.D.D.Y.E.c.o $                           # # q.Q.D.D.D.D.D.D.Y.E._.5 $                                           # # 9.Q.I.D.D.D.D.D.D.Y.Y.E.%., $     ",
"    # , T Q.I.D.D.D.D.D.D.Y.E.E.w $                                                                                       # , ] Q.I.D.D.D.D.D.D.E.E.( $ #                                     : ,  .Q.I.D.D.D.D.D.Y.E.E.p $ #                                       $ , ' I.Q.D.D.D.D.Y.Y.Y.E.) $ #                                           , V I.I.D.D.D.D.D.C.C.Y.E.#.* $                                                                                           # , ^ Q.D.D.D.D.D.D.D.Y.E.c.o $                           # $ z.Q.D.D.D.D.D.D.Y.E._.5 $                                           # # g.Q.I.D.D.D.D.D.D.Y.Y.E.%., $     ",
"    : , W Q.I.D.D.D.D.D.D.Y.E.E.w $                                                                                       # , } Q.D.D.D.D.D.D.Y.Y.E.( $ #                                     # , *.I.I.I.D.D.D.D.Y.E.E.b $ #                                       > , [ Q.Q.D.D.D.D.Y.Y.Y.E.| $ #                                           , P Q.I.D.D.D.D.D.D.D.Y.E.#., $                                                                                           # , } Q.D.D.D.D.D.D.D.Y.E.c.+ $                           # - D.Q.D.D.D.D.D.D.Y.E._.6 $                                           # # r.Q.I.D.D.D.D.D.D.Y.Y.E.%.* #     ",
"    # , W Q.I.D.D.D.D.D.D.Y.Y.Y.r $                                                                                       # ,  .Q.I.D.D.D.D.D.D.Y.E.( $ #                                     : , *.Q.I.I.I.D.D.D.D.E.E.b $ #                                       > , [ Q.Q.D.D.D.D.Y.D.Y.E.| $ #                                           , P Q.I.D.D.D.D.D.D.D.Y.E.#.* $                                                                                           # , } Q.D.D.D.D.D.D.D.Y.E.c.+ $                           # = D.Q.D.D.D.D.D.Y.Y.E._.6 $                                           # # g.Q.I.D.D.D.D.D.D.D.Y.E.%.* #     ",
"    # , W Q.I.D.D.D.D.D.D.D.Y.E.p $                                                                                       # , } Q.I.D.D.D.D.D.Y.Y.E.( $ #                                     : , *.Q.I.D.D.D.D.D.Y.Y.E.b $ #                                       > , [ Q.I.D.D.D.D.D.D.Y.E.| $ #                                           > P Q.I.D.D.D.D.D.D.Y.Y.E.#.* #                                                                                           # , } Q.D.D.D.D.D.D.D.Y.E.c.+ $                           # - D.Q.D.D.D.D.D.Y.Y.E._.5 $                                           # # g.{.I.D.D.D.D.D.D.D.Y.E.%.* $     ",
"    # , E Q.I.D.D.D.D.D.D.Y.Y.Y.p $                                                                                       # , } Q.I.D.D.D.D.D.D.Y.E.( $ #                                     : , *.I.I.D.D.D.D.D.Y.Y.E.b $ #                                       $ , [ Q.Q.D.D.D.D.D.D.Y.E.| $ #                                           , P Q.I.D.D.D.D.D.D.Y.Y.E.#.* $                                                                                           # , } Q.D.D.D.D.D.D.Y.Y.E.c.+ #                           # = D.Q.D.D.D.D.D.Y.Y.E._.5 $                                           # # g.{.I.D.D.D.D.D.D.D.Y.E.$.* #     ",
"    # > E Q.I.D.D.D.D.D.D.Y.Y.Y.p $                                                                                       # , } Q.I.D.D.D.D.D.Y.E.E.( $ #                                     : , =.I.I.D.D.D.D.D.Y.Y.E.v $ #                                       $ , [ Q.Q.D.D.D.D.Y.Y.Y.E.| $ #                                         , , D Q.I.D.D.D.D.D.D.Y.E.E.#.* $                                                                                           > , } I.D.D.D.D.D.D.Y.Y.E.c.+ $                           # = D.Q.D.D.D.D.D.Y.Y.E.E.5 $                                           # @ i.Q.I.D.D.D.D.D.Y.Y.Y.E.$.* $     ",
"    # , E Q.I.D.D.D.D.D.D.Y.Y.Y.p $                                                                                       # , } Q.I.D.D.D.D.D.Y.E.E.( $ #                                     : , =.I.D.D.D.D.D.D.Y.Y.E.v $ #                                       $ , } {.I.D.D.D.D.Y.D.Y.Y.( * $ $ $ # # # # # # # # # # # # # : : # > > > , m Q.I.D.D.Y.Y.Y.Y.Y.E.E.+.* $                                                             # > : # : : : : : # # # # # > , < } Q.D.D.D.D.Y.D.Y.Y.E.c.+ $                           # = D.Q.D.D.D.D.D.Y.Y.E.E.5 $                                           # @ g.Q.^.D.D.D.D.D.D.Y.Y.E.$.* #     ",
"    # , E Q.I.D.D.D.D.D.D.Y.Y.Y.p $                                                                                       # , } Q.I.D.D.D.D.D.D.Y.E.( $ #                                     : , *.Q.I.D.D.D.D.D.Y.Y.E.c $ #                                       $ , [ Q.I.D.D.D.D.D.D.Y.Y./ 0 5 7 5 7 7 7 5 7 7 7 7 7 7 0 8 0 0 0 0 8 0 0 0 N Q.D.D.Y.E.c.h.h.k.k.h./ , $                                                             > > 5 7 0 0 0 0 0 0 0 0 7 0 7 7 0 [ I.D.Y.Y.Y._.Y.E.E.E.c.+ $                           # = M.Q.D.D.D.D.Y.Y.Y.E.E.5 $                                           # # e.{.^.D.D.D.D.D.D.Y.Y.m.$.* $     ",
"    # , E Q.I.D.D.D.D.D.D.Y.Y.Y.q $                                                                                       # > ' Q.I.D.D.D.D.D.D.Y.E.( $ #                                     : , } I.I.D.D.D.D.D.Y.E.E.k $ #                                       $ , V Q.I.D.D.D.D.Y.D.Y.^.Y.^.^.^.^.^.^.^.^.^.^.^.^.^.^.^.^.^.^.^.^.^.^.^.^.^.{.D.Y.Y.E.| X O o o X $ $ &                                                           # , ] D.!.^.^.^.^.^.^.^.^.^.^.!.!.^.{.D.D.Y.Y.h.+.+.+.+.@./ # $                           # # 7.Q.D.D.D.D.D.Y.Y.E.m.; $                                           : # ,.Q.^.D.D.D.D.D.D.Y.Y.E.+.$ $     ",
"    # > P Q.I.D.D.D.D.D.Y.Y.E.E.6 $                                                                                       # > C D.I.D.D.D.D.D.Y.Y.E.( $ #                                     : , E D.I.D.D.D.D.D.Y.Y.E.s $ #                                       > , M Q.Q.D.D.D.D.D.Y.D.Y.Y.^.{._.oXY.Y.^.{.^.^.Y.Y.^.Y.Y.Y.Y.^.Y.^.Y.Y.^.^.Y.Y.D.Y.Y.E.+.$ $ $ $ $ $ =                                                             # , *.Q.^.^.^.Y.Y.Y.Y.Y.Y.Y.Y.Y.D.Y.^.Y.Y.Y.Y.5.$ * $ $ $ $ $ =                           # # ..!.D.D.D.D.D.Y.Y.E.m.- $                                           : # -.Q.I.D.D.D.D.D.Y.Y.Y.E.$.* $     ",
"    # > m Q.I.D.D.D.D.D.Y.Y.E.E.w $                                                                                       # > T !.D.D.D.D.D.D.Y.Y.E.( $ #                                     : ,  .D.I.D.D.D.D.D.Y.Y.E.k $ #                                       $ , ' Q.I.D.D.D.D.Y.D.D.Y.D.D.D.D.Y.D.D.D.D.D.D.D.D.D.D.D.D.D.D.D.D.D.D.D.D.D.Y.D.Y.Y.E.+.$ =                                                                       # , *.D.D.D.D.D.D.D.D.D.D.D.D.C.C.D.Y.D.D.Y.E.u.# $ * = = - -                             # # g.{.D.D.D.D.D.D.Y.E.E.5 $                                           : # e.Q.I.D.D.D.D.D.D.Y.Y.E.+.* $     ",
"    # > E Q.I.D.D.D.D.D.D.Y.Y.E.r $                                                                                       # ,  .{.D.D.D.D.D.D.Y.Y.E.( $ #                                     : , *.I.I.D.D.D.D.D.D.Y.E.v $ #                                       $ , [ Q.Q.D.D.D.D.D.D.D.D.D.D.D.D.D.D.D.Y.Y.D.D.D.D.D.D.D.D.D.D.D.D.D.D.D.D.D.D.D.Y.Y.E.+.* $                                                                       # , *.I.D.D.D.D.D.D.D.D.D.D.D.D.M.D.D.D.D.Y.E.h.o #                                       # = D.Q.D.D.D.D.D.D.Y.E._.5 $                                           # # i.Q.D.D.D.D.D.D.D.Y.E.E.+.* $     ",
"    @ > W Q.I.D.D.D.D.D.D.Y.Y.Y.r $                                                                                       # ,  .Q.D.D.D.D.D.D.D.Y.E.( $ #                                     : , *.Q.I.D.D.D.D.D.D.E.E.v $ #                                       > , [ Q.I.D.D.D.D.D.D.D.D.D.D.D.D.D.D.D.D.D.D.D.D.D.D.D.D.D.D.D.D.D.D.D.D.D.D.D.D.Y.Y.E.+.> $                                                                       # , *.D.D.D.D.D.D.D.D.D.D.D.D.D.D.D.D.D.Y.Y.Y.y.o #                                       # = D.{.D.D.D.D.D.Y.Y.E._.5 $                                           # # g.Q.I.D.D.D.D.D.D.Y.Y.E.+.* #     ",
"    @ > E Q.I.D.D.D.D.D.D.Y.Y.Y.p $                                                                                       # ,  .Q.I.D.D.D.D.D.D.Y.E.( $ #                                     > , *.Q.I.D.D.D.D.D.Y.Y.E.v $ #                                       $ , [ Q.I.D.D.D.D.D.D.D.D.D.D.D.D.D.D.D.Y.Y.D.D.D.D.D.D.D.D.D.D.D.D.D.D.D.D.D.D.D.Y.E.E.+.$ $                                                                       # , *.I.D.D.D.D.D.D.D.D.D.D.D.D.C.D.D.D.D.Y.Y.y.o #                                       # = D.Q.D.D.D.D.D.D.Y.Y._.5 $                                           # # g.Q.I.D.D.D.D.D.Y.Y.Y.E.$.* $     ",
"    # > E Q.I.D.D.D.D.D.D.Y.Y.Y.p $                                                                                       # ,  .Q.I.D.D.D.D.D.D.Y.Y.( $ #                                     > , *.Q.I.D.D.D.D.D.D.Y.E.c $ #                                       $ < [ Q.I.D.D.D.D.D.D.D.D.D.D.D.D.D.D.D.D.D.D.D.D.D.D.D.D.D.D.D.D.D.D.D.D.D.D.D.D.Y.E.E.+.$ $                                                                       # , *.I.D.D.D.D.D.D.D.D.D.D.D.D.D.D.D.D.D.Y.E.h.o #                                       # = D.Q.D.D.D.D.D.Y.Y.E._.5 $                                           # # g.Q.^.D.D.D.D.D.D.Y.Y.E.+.* $     ",
"    # > E Q.I.D.D.D.D.D.D.Y.Y.Y.p $                                                                                       # ,  .Q.I.D.D.D.D.D.Y.Y.E.( $ #                                     > , *.Q.I.D.D.D.D.D.Y.E.E.k $ #                                       $ , [ Q.I.I.D.D.D.D.Y.Y.D.D.Y.D.D.D.D.D.Y.Y.D.D.D.D.D.D.D.D.D.D.D.D.D.D.D.D.I.^.D.Y.Y.E.+.* $                                                                       # , &.I.D.D.D.D.D.D.D.D.D.D.D.D.D.D.Y.D.Y.Y.Y.h.o #                                       # = D.Q.D.D.D.D.D.D.Y.Y.oX5 $                                           : # r.Q.I.D.D.D.D.D.Y.Y.Y.E.$.* $     ",
"    # > E Q.I.D.D.D.D.D.D.Y.Y.E.a $                                                                                       # ,  .Q.I.D.D.D.D.D.D.Y.E.( $ #                                     > , *.I.I.D.D.D.D.D.Y.E.E.c $ #                                       $ < [ Q.I.D.D.D.D.Y.D.Y.Y.Y.D.D.D.D.D.D.Y.Y.D.D.D.D.D.D.D.D.D.D.D.D.D.D.D.Y.Y.Y.Y.Y.Y.E.+.$ $ $ $ $ $                                                               # , *.D.D.D.D.D.D.D.D.D.D.D.D.C.D.D.Y.Y.D.Y.E.u.# $ $ # # $                               # = D.Q.D.D.D.D.Y.D.D.Y.E.5 $                                           : # r.Q.D.D.D.D.D.D.D.Y.Y.E.+.* #     ",
"    # > W Q.I.D.D.D.D.D.D.Y.Y.Y.j $                                                                                       # ,  .{.I.D.D.D.D.D.Y.E.E.( $ #                                     : , *.I.^.D.D.D.D.D.Y.Y.E.c $ #                                       # , [ {.I.D.D.D.D.D.Y.Y.Y.E.{.{.oXoX^.^._.oX_._._._.^.^.Y.Y._._.E._.^.^.^.oXoXE.Y.Y.Y.Y.o.< < < < < > $                                                             # , @.{.Y.^.^.^.Y.^.Y.^.^.^.^.Y.Y.^.^.Y.Y.Y.Y.w.$ < < < < , > $                           # = D.Q.D.D.D.D.D.D.Y.Y.E.5 $                                           # # g.Q.D.D.D.D.D.D.D.Y.Y.E.+.* $     ",
"    # > E Q.I.D.D.D.D.D.D.Y.Y.Y.p $                                                                                       # ,  .{.I.D.D.D.D.D.D.E.E.( $ #                                     > , O.I.I.D.D.D.D.D.Y.Y.E.k $ #                                       $ , [ {.I.D.D.D.D.D.Y.E.Y.c.h.h.l.l.l.l.l.l.l.l.l.l.l.l.l.l.l.l.l.l.l.l.h.w.f.{.Y.Y.Y.Y.t.@.#.#.#.@.N , >                                                           > , W n.c.l.l.l.l.l.l.l.l.l.l.l.h.i.k.Y.Y.Y.Y.h.#.#.#.#.#./ $ >                           # $ b.{.D.D.D.D.D.Y.Y.E._.5 $                                           : # r.Q.I.D.D.D.D.D.D.Y.Y.E.+.* $     ",
"    # > V Q.I.D.D.D.D.D.D.Y.Y.E.p $                                                                                       # > } Q.I.D.D.D.D.D.D.Y.E.( $ #                                     > , E I.I.D.D.D.D.D.D.Y.E.k $ #                                       $ , ] Q.^.D.D.D.D.D.D.Y.Y.( # O o o # O # # # O # # # # O O # o # # # # O # f Q.D.D.D.Y.^._.oXoXoX_.+., $                                                             , $ # # # O O # # # # # O O O O # ] I.D.D.Y.{.oXoXoX_._.c.+ $                           # # >.Q.Y.D.D.D.D.Y.Y.E._.5 $                                           : # 1.Q.I.D.D.D.D.D.Y.Y.Y.E.+., $     ",
"    # > u I.I.D.D.D.D.D.D.Y.Y.Y.p $                                                                                       # > H Q.I.D.D.D.D.D.D.Y.E.( $ #                                     > , ' I.I.D.D.D.D.D.D.Y.E.s $ #                                       $ , ] Q.I.D.D.D.D.D.D.Y.E.| * $ $ $ $ $ > > > $ > > > > $ > > > > > > > $ $ g {.D.D.D.Y.D.D.D.Y.Y.E.+., $                                                             < > > > > > > > > > > > > > $ $ $ ] I.D.D.D.D.Y.D.Y.Y.E.c.+ #                           # # ..Q.I.D.D.D.D.Y.Y.E._.5 $                                           : # X.I.^.D.D.D.D.D.D.Y.Y.E.$.* $     ",
"    @ $ h Q.I.D.D.D.D.D.D.Y.Y.E.a $                                                                                       # > B D.I.D.D.D.D.D.Y.Y.E.( $ #                                     : , } I.I.D.D.D.D.D.Y.E.E.s $ #                                       > , ] Q.I.I.D.D.D.D.Y.E.E.| * $                                         < > f {.I.D.D.D.D.Y.D.Y.Y.E.+., $                                                                                           $ > [ I.D.D.D.Y.D.D.Y.Y.E.c.+ #                           # # 6.Q.D.D.D.D.D.Y.Y.Y._.5 $                                           : # 8.Q.I.D.D.D.D.D.D.Y.Y.E.$.* $     ",
"    # > W Q.I.D.D.D.D.D.D.Y.E.Y.a $ *                                                                                     # ,  .Q.I.D.D.D.D.D.Y.Y.Y.( $ #                                     : , O.I.I.D.D.D.D.D.Y.E.E.k $ #                                       $ , [ Q.I.D.D.D.D.D.Y.E.Y.| $ $                                           , V Q.^.D.D.D.D.D.D.Y.Y.E.+., $                                                                                           # , } Q.D.D.D.D.D.D.Y.Y.E.c.+ #                           # $ b.{.D.D.D.D.D.Y.Y.Y._.5 $                                           : # g.Q.I.D.D.D.D.D.D.Y.Y.E.+.* $     ",
"    # , E Q.I.D.D.D.D.D.D.Y.Y.E.j $                                                                                       # ,  .Q.I.D.D.D.D.D.Y.E.E.( $ #                                     : , O.I.I.D.D.D.D.D.Y.E.E.k $ #                                       > , [ Q.I.I.D.D.D.D.Y.Y.E.| $ $                                           , D {.I.D.D.D.D.D.D.Y.Y.E.+., #                                                                                           @ , } Q.D.D.D.D.D.D.D.Y.Y.c.+ #                           # = D.Q.D.D.D.D.D.Y.Y.E._.5 $                                           : # r.Q.I.D.D.D.D.D.D.Y.Y.E.%.* $     ",
"    # , E Q.I.D.D.D.D.D.D.Y.Y.E.a $ *                                                                                     # ,  .Q.I.D.D.D.D.D.Y.E.Y.( $ #                                     : , *.I.I.D.D.D.D.D.Y.E.E.k $ #                                       $ , [ Q.Q.D.D.D.D.Y.Y.Y.E.| $ #                                           , P {.I.D.D.D.D.D.D.Y.Y.E.+.* #                                                                                           # , } Q.D.D.D.D.D.D.Y.Y.Y.c.+ #                           # = M.Q.D.D.D.D.D.D.Y.E._.5 $                                           : # r.Q.I.D.D.D.D.D.D.D.Y.E.#.* $     ",
"    # , E Q.I.D.D.D.D.D.D.Y.Y.Y.a $ ,                                                                                     # ,  .Q.I.D.D.D.D.D.Y.E.E.( $ #                                     : , *.I.I.D.D.D.D.D.Y.Y.E.k $ #                                       # , [ Q.Q.D.D.D.D.Y.D.Y.E.| $ #                                           , P {.I.D.D.D.D.Y.D.D.Y.E.+., #                                                                                           # , } Q.D.D.D.D.D.D.Y.Y.E.c.+ #                           # = D.Q.D.D.D.D.D.Y.Y.E._.5 $                                           : # r.I.I.D.D.D.D.D.D.Y.Y.E.%., $     ",
"    # , E Q.I.D.D.D.D.D.D.Y.Y.Y.p $                                                                                       # ,  .Q.I.D.D.D.D.D.Y.E.Y.( $ #                                     : , *.I.I.D.D.D.D.D.D.Y.E.k $ #                                       # , [ Q.I.D.D.D.D.Y.D.Y.Y.| $ #                                           , P {.I.D.D.D.D.D.D.D.Y.E.+.* #                                                                                           # , } Q.D.D.D.D.D.D.Y.Y.E.c.% #                           # & D.Q.D.D.D.D.D.Y.Y.E._.5 $                                           : # e.I.Y.D.D.D.D.D.D.D.Y.E.%., $     ",
"    . , E Q.I.D.D.D.D.D.Y.Y.Y.Y.p $                                                                                       # , } Q.I.D.D.D.D.D.Y.E.E.( $ #                                     # , *.Q.I.D.D.D.D.D.Y.Y.E.k $ #                                       $ , [ Q.Q.I.D.D.D.D.D.Y.E.| $ #                                           , P {.I.D.D.D.D.D.D.D.Y.E.+.* #                                                                                           # , } Q.D.D.D.D.D.D.Y.Y.E.c.% #                           # & D.Q.D.D.D.D.D.D.Y.Y._.5 $                                           : $ e.Q.I.D.D.D.D.D.D.Y.Y.E.%., $     ",
"    @ > W Q.I.D.D.D.D.D.Y.Y.E.Y.p $                                                                                       # , } Q.I.D.D.D.D.D.Y.Y.Y.( $ #                                     : , *.Q.I.D.D.D.D.D.D.Y.Y.c $ #                                       $ , [ Q.I.D.D.D.D.D.D.E.E.| $ #                                           > P {.I.D.D.D.D.D.D.D.Y.E.+.* $                                                                                           # , } Q.D.D.D.D.D.D.Y.Y.E.c.% #                           # = D.{.D.D.D.D.D.Y.Y.E._.5 $                                           > $ 0.Q.^.D.D.D.D.D.D.D.Y.E.%.* #     ",
"    @ > W Q.I.D.D.D.D.D.D.Y.Y.Y.a $                                                                                       # , } Q.I.D.D.D.D.D.Y.Y.E.( $ #                                     : , *.Q.^.D.D.D.D.D.Y.E.E.v $ #                                       $ < [ {.I.D.D.D.D.D.Y.E.E.| $ #                                           > K {.I.D.D.D.D.D.D.Y.E.E.+., $                                                                                           # , } Q.D.D.D.D.D.D.Y.Y.E.c.+ $                           # = D.Q.I.D.D.D.D.Y.Y.E._.5 $                                         < > $ 9.Q.^.D.D.D.D.D.Y.Y.Y.E.%., #     ",
"    # > V D.I.D.D.D.D.D.D.Y.Y.E.p $ $                                 > > , , , , , , , , > $                             # , } Q.I.D.D.D.D.D.Y.Y.Y.( $ #                                     : , O.I.I.D.D.D.D.D.Y.Y.E.k $ #                                       $ < [ {.I.D.D.D.D.D.Y.Y.E.| $ #                                           > m Q.I.D.D.D.D.D.D.Y.E.E.+.* #                                 : > , , , , , , , , , , $                                 # , [ Q.D.D.D.D.D.D.Y.Y.E.c.+ $                           # $ v.{.D.D.D.D.D.Y.Y.E._.5 $                                 # > , , , , > 1.{.^.D.D.D.Y.E.oXoX_._.;., #     ",
"    # > 3 x.I.D.D.D.D.D.D.Y.Y.E.p $ $                               > , f R W R R R R R T 2 >                             # , [ Q.I.D.D.D.D.D.Y.Y.E.( $ #                                     : , E I.I.D.D.D.D.D.Y.E.E.k $ #                                       > , B b.Q.D.D.D.D.D.Y.Y.Y.| $ #                                           > y I.I.D.D.D.D.D.D.Y.E.E.+.* #                                 > 0 R R R R R R R R R z , $                               # , L I.D.D.D.D.D.D.Y.Y.Y.c.+ $                           # @ -.Q.D.D.D.D.D.D.Y.E._.5 $                                 > 0 R R R R R e.Q.I.D.D.Y.E.4.<.2.2.2.S , $     ",
"    . > D I.I.D.D.D.D.D.Y.Y.Y.E.p $ >                               : , 1..XoXoXoXoXoXoXoX/ > #                           # , } Q.D.D.D.D.D.D.D.Y.E.( $ #                                     > , L D.I.D.D.D.D.D.Y.Y.E.k $ #                                       > , P Q.I.D.D.D.D.D.D.Y.Y.| $ #                                           > d Q.I.D.D.D.D.D.D.D.Y.E.+.$ #                               # , ] {..XoX{.oXoXoXoXoX0.$ #                               # , ' Q.D.D.D.D.D.D.Y.Y.E.c.% #                           # @ X.Q.I.D.D.D.D.D.Y.E._.5 $                               # , ^ .XoXoXoXoX{.Y.Y.D.D.Y.E.S * $ # $ , > =     ",
"    @ > W {.I.D.D.D.D.D.Y.Y.Y.Y.a $                                 : > 1.{.Y.Y.D.Y.Y.E._./ > #                           # , } Q.I.D.D.D.D.D.D.Y.E.( $ #                                     : ,  .Q.D.D.D.D.D.D.Y.E.E.k $ #                                       > , ] Q.Q.D.D.D.D.D.Y.E.E.| $ #                                           > P Q.I.D.D.D.D.D.D.Y.Y.E.+.* $                               # , ] {.Y.D.D.D.Y.Y.Y.Y.5.# #                               # , } Q.D.D.D.D.D.D.Y.Y.E.c.% #                           # + z.{.D.D.D.D.D.D.Y.E._.5 $                               # , ^ {.^.Y.Y.Y.D.D.Y.D.D.Y.Y.F $ + + $ * -       ",
"    # > W Q.I.D.D.D.D.D.D.Y.Y.Y.a $                                 # > 1.Q.D.D.D.D.Y.E.E./ $ #                           : , } Q.D.D.D.D.D.D.D.Y.E.( $ #                                     : , @.I.I.D.D.D.D.D.Y.Y.E.c $ #                                       > , [ Q.I.D.D.D.D.D.Y.Y.Y.| $ #                                           > P {.I.D.D.D.D.D.C.C.Y.E.+.* $                               # , ] {.Y.D.D.D.D.D.Y.Y.5.# #                               # , } I.D.D.D.D.D.D.D.Y.E.c.% #                           # = D.Q.D.D.D.D.D.D.Y.E._.5 $                               # , ^ Q.I.D.D.D.D.D.D.D.D.Y.Y.S $ =               ",
"    # , E Q.I.D.D.D.D.D.D.D.Y.Y.a $                                 : > 1.I.D.D.D.D.Y.Y.E./ $ #                           : , [ Q.D.D.D.D.D.D.D.Y.E._ $ #                                     : , &.I.D.D.D.D.D.D.D.Y.E.c $ #                                       > , [ Q.I.D.D.D.D.D.Y.Y.E.| $ #                                           , P {.I.D.D.D.D.D.C.Y.Y.E.+.* #                               # , ] Q.D.D.D.D.D.D.Y.Y.5.$ #                               # , } Q.D.D.D.D.D.D.D.Y.E.c.% $                           # = D.{.D.D.D.D.D.D.Y.E.E.5 $                               # , W Q.I.D.D.D.D.D.D.D.D.Y.Y.S $ +               ",
"    # , W Q.D.D.D.D.D.D.D.Y.Y.Y.p $                                 # > 1.I.D.D.D.D.D.Y.E./ > #                           # , } Q.D.D.D.D.D.D.D.E.E.( $ #                                     : , &.I.I.D.D.D.D.D.Y.Y.E.k $ #                                       > < [ Q.Q.D.D.D.D.Y.Y.Y.E.| $ #                                           > P {.I.D.D.D.D.D.C.C.Y.E.+.* $                               # , ] {.D.D.D.D.D.D.Y.Y.5.# #                               # , } Q.D.D.D.D.D.D.Y.Y.E.c.% $                           # = D.{.I.D.D.D.D.Y.Y.E.E.5 $                               # > ^ Q.I.D.D.D.D.D.Y.D.D.Y.Y.S $ $               ",
"    : , W Q.I.D.D.D.D.D.D.Y.Y.E.p $ <                               : > ,.I.D.D.D.D.Y.Y.E./ > #                           # , } Q.I.D.D.D.D.D.Y.E.E.( $ #                                     > ,  .I.I.D.D.D.Y.D.Y.E.E.c $ $                                       > , [ Q.Q.D.D.D.D.Y.D.Y.E.| $ #                                           , P {.^.D.D.D.D.D.D.D.Y.E.+., $                               # , ] {.I.D.D.D.D.D.Y.E.w.# #                               # , } Q.D.D.D.D.Y.D.Y.Y.E.c.% #                           # & D.Q.I.D.D.D.D.D.Y.E.E.5 $                               # , ^ Q.I.D.D.D.D.D.Y.D.D.Y.Y.S $ $               ",
"    # , W Q.I.D.D.D.D.D.D.Y.Y.E.w $ &                               $ > *.I.D.D.D.D.Y.Y.E./ > #                           # , [ Q.I.D.D.D.D.D.Y.E.E.( $ #                                     , , ] D.D.D.D.D.D.D.Y.E.E.k $ #                                       > , [ {.I.D.D.D.D.D.D.Y.E.| $ #                                         > > D {.^.D.D.D.D.D.D.Y.Y.E.#.* $                               # , ] {.Y.D.D.D.D.D.Y.Y.5.# #                               $ , } Q.D.D.D.Y.Y.Y.Y.Y.E.c.% $                           # $ b.{.D.D.D.D.D.Y.Y.E._.5 $                               # , E Q.I.D.D.D.D.Y.^.D.Y.Y.E.S $ $               ",
"    # , E Q.I.D.D.D.D.D.D.D.Y.Y.6 $ $ # # # # # # # # # # # # # # > $ ,  .I.D.D.D.Y.Y.Y.E./ > #                           # , } Q.D.D.D.D.D.D.D.Y.E./ $ # # # # # # # # # # # # # # # # # # > > , E I.D.D.D.D.Y.D.Y.E.E.k $ #                                       > , [ {.Q.D.D.D.D.D.Y.Y.Y.( , $ # # # # # # # # # # # # # # # # # # # $ > > m Q.D.D.D.D.D.Y.D.Y.Y.E.#.* $                               # , ] {.^.D.D.D.D.D.Y.Y.4.# $ # # # # # # # # # # # # # # # $ , ] I.D.D.D.D.Y.Y.Y.Y.Y.c.% $                           # $ b.Q.D.D.D.D.D.Y.Y.E._.5 $ # # # # # # # # # # # # # # # $ > T Q.I.D.D.D.D.D.Y.Y.Y.Y.E.S $ $               ",
"    # , W {.I.D.D.D.D.D.D.D.Y.Y.- + + + + $ + + + $ + $ + $ $ $ $ $ + & [ D.D.D.D.Y.Y.Y.E./ , $                           : , [ Q.D.D.D.D.D.D.Y.Y.Y.Y + + + + + + + + + $ + + + + + $ + + $ $ + $ W D.Y.Y.D.Y.Y.Y.Y.Y.E.b $ $                                       > < ] {.I.D.D.D.D.D.D.Y.Y.Q * $ & + + + $ $ $ $ $ $ $ + + + $ $ + $ $ $ + + f {.D.D.D.Y.Y.Y.D.Y.Y.E.#.* $                               : , ] {.Y.D.D.D.Y.Y.Y.Y.2.# + + + $ $ + + $ $ & + $ $ $ + $ + $ W I.D.D.D.Y.Y.Y.Y.Y.E.c.% $                           # $ b.{.I.D.D.D.Y.Y.Y.E.n.- + + + + + + + $ + + $ $ + $ $ $ + $ T Q.I.D.D.D.D.Y.Y.Y.Y.Y.E.S $ $               ",
"    # , W {.{.{.^.{.{.{.D.Y.Y._.k.k.k.k.k.k.k.k.k.k.k.k.k.k.k.k.k.k.k.k.n.Y.^._.oXoX_._.oX! , $                           : , ] {.oXoX^.^.^.Y.Y.Y._.k.k.k.k.k.k.k.k.k.k.k.k.k.k.k.k.k.k.k.k.k.k.k.x.D.Y.Y.^.{._._._._.oXx $ $                                       $ , ^ Q.Q.D.D.D.D.Y.Y.Y._.c.k.k.k.k.k.k.k.h.k.k.k.k.k.k.k.k.k.k.k.k.k.k.k.k.k.{.D.Y.Y.Y._._._._._.E.+., $                               # , ] {.oXoX^.oXoXoXY.Y.n.k.k.k.k.k.k.k.k.k.k.k.k.k.k.k.k.k.k.k.n.{.D.Y.Y.{.oX_._._._.c.+ $                           # = b.{.{.D.D.D.D.Y.Y.E.Y.k.k.k.k.h.k.k.k.k.k.k.k.k.k.k.k.k.k.k.x.{.^.Y.Y.Y.^.oXoXoX_._._.S $ $               ",
"      , 0 / / / / / / t.Y.D.D.Y.Y.Y.Y.Y.^.Y.Y.Y.Y.Y.Y.Y.^.^.Y.Y.^.^.Y.Y.Y.Y.h./ / / / / / 0 $ =                           > , 9 / / / / / / 4.^.Y.Y.Y._._._._.E.^.Y.Y.{._.Y.Y.Y.Y._.^.Y.Y.Y.Y.Y.Y.Y.Y.Y.Y.<./ / / / / R $ $                                         > , C Q.I.D.D.D.D.Y.Y.Y.Y.E.Y.Y.^.^.Y.Y.^._._.^.Y.Y._.E.Y.Y.Y.Y.Y.Y.Y.Y.E.E.Y.Y.D.Y.Y.E.2./ / / / / g $ $                                 , 0 / / / / / / x.Y.Y.Y.Y.Y.Y.Y.Y.Y.Y.^.^.Y.Y.Y.Y.Y.Y.Y.Y.Y.^._.Y.Y.Y.Y.h./ / / / / S $ $                           # $ x.{.^.D.D.D.D.Y.Y.Y.Y.Y._._._._.^.^.^.^.^.^.^._.Y.Y._._._.^.Y.Y.Y.Y.Y.E.O./ / / / / ~ 2 $                 ",
"      , , , , , * , * :.I.D.D.D.Y.D.D.D.D.C.C.C.C.C.D.D.D.D.C.D.D.D.Y.D.Y.Y.u.o $ * $ * * $ $                               > > , $ $ * $ , O.I.Y.Y.Y.D.D.Y.Y.Y.C.C.D.D.Y.D.C.D.D.D.D.C.C.C.C.D.D.D.D.Y.Y.( , * $ $ $ $ $ $                                         > , ] Q.{.D.D.D.D.Y.Y.Y.Y.Y.Y.D.D.D.D.Y.Y.Y.Y.Y.D.C.Y.Y.D.Y.D.Y.D.Y.D.Y.D.D.D.Y.D.Y.Y.m.o.* $ $ $ $ $ $                                   , , , $ * * , $ g.I.D.D.D.D.D.D.C.C.D.Y.D.D.D.C.D.D.C.C.C.C.D.Y.Y.Y.Y.Y.w.# $ $ $ $ $ $ -                           # = b.Q.D.D.D.D.D.D.D.Y.Y.Y.D.Y.Y.Y.D.D.D.D.D.D.D.D.C.C.Y.D.D.D.D.D.D.Y.E.E.F , $ $ $ * * $ +                 ",
"        5 1 < < < $ $ ,.I.D.D.D.D.D.D.D.D.D.D.D.D.D.D.D.D.D.D.D.D.D.D.Y.Y.E.y.o $ < < = = -                                   2 1 < < < # $  .Q.Y.D.D.D.D.D.D.D.D.D.D.D.Y.D.D.D.D.D.D.D.D.D.D.D.D.D.D.Y.E.{ $ $ - - - - -                                           > , [ Q.{.I.D.D.D.D.D.D.D.D.D.D.D.D.D.D.D.D.D.Y.D.D.D.D.D.D.D.D.Y.D.D.D.D.D.D.D.D.Y.Y.E.+.$ $ = - - -                                         < < < < $ # g.I.D.D.D.D.D.D.D.D.D.D.D.D.D.D.D.D.D.D.D.C.D.Y.D.D.Y.E.u.# # = < = -                               # & b.Q.^.D.D.D.D.D.D.D.D.D.D.D.D.Y.D.D.D.D.D.D.D.D.D.D.D.D.D.D.D.D.D.Y.E.E.U $ $ < = - = -                   ",
"                  # $ 1.I.D.D.D.D.D.D.D.D.D.D.D.D.D.D.D.D.D.D.D.D.D.D.Y.E.E.h.o #                                                       # >  .Q.Y.D.D.D.D.D.D.D.D.D.D.D.D.D.D.D.D.D.D.D.D.D.D.D.D.D.D.Y.E.| $ $                                                     > , ] Q.Q.D.D.D.D.D.D.D.D.D.D.D.D.D.D.D.Y.Y.D.D.D.D.D.D.D.D.D.D.D.D.D.D.D.D.D.D.D.Y.Y.E.+.$ *                                                         # # z.I.D.D.D.D.D.D.D.D.D.D.D.D.D.D.D.D.D.D.D.D.D.Y.Y.Y.Y.E.h.o #                                       # $ b.Q.Q.D.D.D.D.D.D.D.D.D.D.D.D.D.D.D.D.D.D.D.D.D.D.D.D.D.D.D.D.D.D.Y.E.E.F $ #                             ",
"                  # $ 1.I.D.D.D.D.D.D.D.D.D.D.D.D.D.D.D.D.D.D.D.D.D.D.D.E.E.h.o #                                                       # ,  .Q.D.D.D.D.D.D.D.D.D.D.D.D.D.D.D.D.D.D.D.D.D.D.D.D.D.D.D.Y.E.| $ $                                                     $ < ] Q.{.D.D.D.D.D.D.D.D.D.D.D.D.D.D.D.Y.Y.D.D.D.D.Y.D.D.D.D.D.D.D.D.D.D.D.D.D.D.Y.Y.E.#.$ *                                                         # # z.I.D.D.D.D.D.D.D.D.D.D.D.D.D.D.D.D.D.D.D.D.D.D.D.Y.Y.Y.h.X #                                       # & b.Q.I.D.D.D.D.D.D.D.D.D.D.D.D.D.D.D.D.D.D.D.D.D.D.D.D.D.D.D.D.D.Y.Y.Y.E.U $ #                             ",
"                  # $ 1.Q.D.D.D.D.D.D.D.D.D.D.D.D.D.D.D.D.D.D.D.D.D.D.D.Y.E.h.o #                                                       # , O.Q.Y.D.D.D.D.D.D.D.D.D.D.D.D.D.D.D.D.D.D.D.D.D.D.D.D.D.D.Y.E.| $ $                                                     $ , ] Q.Q.D.D.D.D.D.D.D.D.D.D.D.D.Y.D.D.Y.D.D.D.D.D.D.D.D.D.D.D.D.D.D.D.D.D.D.D.D.Y.Y.E.+.$ $                                                         # # x.I.D.D.D.D.D.D.D.D.D.D.D.D.D.D.D.D.D.D.D.D.D.D.D.Y.Y.Y.h.o #                                       # $ b.Q.Q.D.D.D.D.D.D.D.D.D.D.D.D.D.D.D.D.D.D.D.D.D.D.D.D.D.D.D.D.D.Y.Y.Y.E.U $ #                             ",
"                  > $ 1.I.D.D.D.D.D.D.D.D.D.D.D.D.D.D.D.D.D.D.D.D.D.D.Y.Y.E.h.o #                                                       # ,  .Q.^.D.D.D.D.D.D.D.D.D.D.D.D.D.D.D.D.D.D.D.D.D.D.D.D.D.D.Y.E.| $ $                                                     $ < ] Q.{.D.D.D.D.D.D.D.D.D.Y.D.D.Y.D.D.Y.D.D.D.D.D.Y.D.D.D.D.D.D.Y.D.D.D.Y.D.Y.Y.Y.Y.E.#.$ $                                                         # # v.I.D.D.D.D.D.D.D.D.D.D.D.D.D.D.D.D.D.D.D.D.D.Y.D.D.Y.E.h.X #                                       # = D.Q.I.D.D.D.D.D.D.D.D.D.D.D.Y.D.D.D.D.D.D.D.D.D.D.D.D.D.D.D.D.D.Y.Y.E.E.U $ #                             ",
"                  > $ 1.Q.D.D.D.Y.D.D.D.D.D.D.D.D.D.D.D.Y.D.D.D.D.Y.Y.Y.Y.E.h.o #                                                       # ,  .Q.Y.Y.D.D.D.D.Y.D.D.D.D.Y.D.D.D.D.D.D.D.D.D.D.D.Y.D.D.D.Y.E.| $ $                                                     $ , [ Q.{.D.D.D.D.D.D.D.D.D.D.D.D.D.D.D.D.Y.Y.Y.D.D.D.D.D.D.D.D.D.Y.D.Y.Y.Y.^.Y.Y.Y.Y.E.+.$ $                                                         # # v.I.D.D.D.D.D.D.D.D.D.Y.D.D.D.D.D.D.D.D.D.D.D.Y.Y.Y.Y.Y.h.X #                                       # = D.Q.I.D.D.D.Y.Y.D.Y.Y.Y.D.Y.Y.D.D.D.D.D.D.Y.D.D.D.D.D.D.D.D.Y.Y.^.Y.E.E.U $ #                             ",
"                  : $ 3.{.{.^.{.oX{.^.{.{.^.^.^.{.^.^.^.oX^.^.^.{.oXoX_._._.h.# #                                                       : , O.{.oX{.^.{.{.{.oXoXoX^.{.oX{.^.^.{.{.oX{.^.^.^._.{.^.Y.Y._.E.o.$ $                                                     > < [ {.{.oX{.{.{.{.{.{.{.{.oXoXoXoX{.{.oXoXoXoX{.{.oX{.{.{.{.^.oX{.oXoXoXoXoXoXoXoXoXE.+., $                                                         # $ b.{.{.^.^.{.^.^.Y.^.^.oX^.^.^.Y.Y.^.Y.^.Y.Y.^.oX_.Y.E.E.h.# #                                       $ - {.{.{.{.{.^.oXoXoX^.{.{.{.oXoX{.{.{.{.oXoXoX_.^.{.{.{.oXoXoXoXoXoXoXoX_.U $ $                             ",
"                  > ,  .x.x.x.c.x.x.x.c.x.x.x.c.x.x.c.c.c.c.c.c.c.c.c.c.c.c.4.# $                                                       > , W n.c.c.x.c.c.c.c.c.c.x.c.c.c.c.c.c.c.c.c.c.c.c.c.c.c.x.x.c.c.Q , $                                                     , , D x.n.c.c.c.c.c.c.c.c.c.c.c.c.c.c.c.c.c.c.c.c.c.c.c.c.c.c.c.c.c.c.c.c.c.c.c.c.c.c.c./ , $                                                         : $ 0.x.x.x.x.c.c.c.x.x.c.c.c.c.c.c.c.c.c.x.c.c.c.c.c.c.c.c.4.$ $                                       $ $ 0.n.n.c.c.c.c.c.c.c.c.c.c.c.c.c.c.c.c.c.c.c.c.c.c.c.c.c.c.c.c.c.c.c.c.c.G $ +                             ",
"                    , # + + + + + + + + + + + + + + + + + + + + + + + + + % o $ $                                                         > $ + + + o + + + + + + + + + + + + + + + + + + + + + + + + + & $ $                                                         > $ + + + + + + + + + + + + + + + + + + + + + + + + o + + + + + + + + + + + + + + + + # $                                                           > , # + + + + + + + + + + + + + + + + + + + + + + + + + + + + $ $                                       > , # + + + + + + + + + + + + + + + + + o + + + + + + + + + + + + + + + + & # $                               ",
"                    < $ $ $ + + $ + $ $ $ $ $ $ $ # $ $ $ $ $ $ + + $ $ + + $ =                                                           < $ $ $ + $ + $ $ $ + $ $ $ $ $ + $ $ $ # # + $ + $ + + + + + + $ =                                                           $ $ $ + + + + + + + $ $ # $ $ + # $ + + # # # # + + + # $ $ + + # $ $ $ + $ + + + + + =                                                             = $ $ $ $ $ + + + $ $ # # $ # $ + + $ $ $ $ $ $ # $ $ $ $ $ +                                           = $ $ $ $ + $ $ $ $ $ # # # # # # # + + # # # + # $ # $ # $ $ # $ # $ $ $ + -                               ",
"                                                                                                                                                                                                                                                                                                                                                                                                                                                                                                                                                                                                                                                ",
"                                                                                                                                                                                                                                                                                                                                                                                                                                                                                                                                                                                                                                                "
};
