/* XPM */
static char *ae19e48f2a7f4fadf01bca1fe814fe46JlGaTr8FPs6eTNrM[] = {
/* columns rows colors chars-per-pixel */
"276 76 250 2 ",
"   c #FF00FF",
".  c #01010E",
"X  c #010111",
"o  c #01011D",
"O  c #01081E",
"+  c #020524",
"@  c #040927",
"#  c #03062A",
"$  c #060A2B",
"%  c #080B2E",
"&  c #080627",
"*  c #030431",
"=  c #060C33",
"-  c #0A0C33",
";  c #060B39",
":  c #0C0D3B",
">  c #00023C",
",  c #110E3D",
"<  c #071133",
"1  c #091236",
"2  c #04123B",
"3  c #0C143C",
"4  c #0D183E",
"5  c #12173D",
"6  c #06112F",
"7  c #2C2E3C",
"8  c #222435",
"9  c #0E0D42",
"0  c #0D084B",
"q  c #110E43",
"w  c #140E4B",
"e  c #051543",
"r  c #0E1542",
"t  c #0E1A43",
"y  c #0D144C",
"u  c #0D1E4B",
"i  c #06144B",
"p  c #111544",
"a  c #111A45",
"s  c #13144B",
"d  c #121C4B",
"f  c #19174C",
"g  c #110E5A",
"h  c #0E1451",
"j  c #0D1C52",
"k  c #121453",
"l  c #141C53",
"z  c #121259",
"x  c #171D5B",
"c  c #181D5D",
"v  c #1A1B58",
"b  c #0F0C59",
"n  c #0D204F",
"m  c #1E2445",
"M  c #11204E",
"N  c #19264A",
"B  c #0D2152",
"V  c #0A2558",
"C  c #132254",
"Z  c #15225A",
"A  c #19225D",
"S  c #1D2655",
"D  c #1A335C",
"F  c #222949",
"G  c #2C3356",
"H  c #383B57",
"J  c #2A2D52",
"K  c #1A1D62",
"L  c #1D1B69",
"P  c #221D70",
"I  c #1A2162",
"U  c #1B3B64",
"Y  c #2B316A",
"T  c #231A4D",
"R  c #42387D",
"E  c #384B77",
"W  c #3C4F67",
"Q  c #4B4D58",
"!  c #474965",
"~  c #595C67",
"^  c #555B77",
"/  c #484F72",
"(  c #5E6068",
")  c #576378",
"_  c #60626B",
"`  c #666873",
"'  c #656879",
"]  c #787A7E",
"[  c #6F737E",
"{  c #4D3C88",
"}  c #385B92",
"|  c #575B82",
" . c #53499E",
".. c #58499E",
"X. c #454180",
"o. c #6A6D83",
"O. c #6E7286",
"+. c #747786",
"@. c #747793",
"#. c #4F4CA2",
"$. c #5D46A2",
"%. c #594AA2",
"&. c #4953A8",
"*. c #485DB3",
"=. c #634BA5",
"-. c #6B4EA9",
";. c #6D52AC",
":. c #7C59B6",
">. c #7E5CB9",
",. c #7457B4",
"<. c #7153B1",
"1. c #53619B",
"2. c #735DC2",
"3. c #6B5EC2",
"4. c #5D75CB",
"5. c #596BC7",
"6. c #6C62C4",
"7. c #656AC8",
"8. c #7963C7",
"9. c #6872D8",
"0. c #6F79E0",
"q. c #815DBA",
"w. c #846ACB",
"e. c #8D72D1",
"r. c #9679D7",
"t. c #8B6FD0",
"y. c #79859B",
"u. c #648BAE",
"i. c #6387D4",
"p. c #7293E6",
"a. c #76B8EC",
"s. c #78AAEC",
"d. c #5E97CC",
"f. c #78C8ED",
"g. c #7ACDEE",
"h. c #868897",
"j. c #8D919B",
"k. c #92959E",
"l. c #97999D",
"z. c #82848D",
"x. c #9395A0",
"c. c #979AA4",
"v. c #998BBC",
"b. c #9493AC",
"n. c #A59BBB",
"m. c #A08FBD",
"M. c #96A3B2",
"N. c #AAABAC",
"B. c #A3A5AA",
"V. c #A4A5B4",
"C. c #ABADBB",
"Z. c #A7A9B8",
"A. c #ADB1BC",
"S. c #AFB1B6",
"D. c #B2B5BC",
"F. c #A485DD",
"G. c #A888DF",
"H. c #A69ACA",
"J. c #BCBEC2",
"K. c #B6B9C5",
"L. c #B6BBD5",
"P. c #ABAEC7",
"I. c #8D9AE2",
"U. c #9C84EA",
"Y. c #A98BE1",
"T. c #A58AE6",
"R. c #AB96F0",
"E. c #8FB1E8",
"W. c #AEBDE9",
"Q. c #ACBBE8",
"!. c #B1BFEB",
"~. c #B9BCE6",
"^. c #B8A7F6",
"/. c #B4B1EF",
"(. c #9D99D9",
"). c #C4B6F7",
"_. c #C4AFEC",
"`. c #BEC0C3",
"'. c #BCC3DD",
"]. c #BDC5D8",
"[. c #A9CDD5",
"{. c #97CFE9",
"}. c #B5C3EC",
"|. c #B9C6EE",
" X c #BDC9EE",
".X c #BDC6E1",
"XX c #BECAF0",
"oX c #BBC7F3",
"OX c #BDDCFB",
"+X c #BBDBFA",
"@X c #A7D8EE",
"#X c #8CEDFD",
"$X c #86EBFB",
"%X c #93EDFC",
"&X c #9AEBFB",
"*X c #97F0FD",
"=X c #A6E7FB",
"-X c #B5E4F9",
";X c #BCF2F6",
":X c #B4F2F8",
">X c #B0EBF4",
",X c #8DC0D9",
"<X c #C3C4CA",
"1X c #CACCD5",
"2X c #C3C7D7",
"3X c #CED1D7",
"4X c #D3D4D9",
"5X c #D2D3D8",
"6X c #D0CFDC",
"7X c #C1CDEE",
"8X c #C4C9E3",
"9X c #C3D1EE",
"0X c #CBD2E7",
"qX c #D6DAE7",
"wX c #C3CDF1",
"eX c #C8C8F7",
"rX c #C6D1F2",
"tX c #CBD5F3",
"yX c #CED9F5",
"uX c #C2D5FC",
"iX c #C1D9FB",
"pX c #D2DCF6",
"aX c #D5DEF8",
"sX c #D7DCF5",
"dX c #DCE3F5",
"fX c #D7E1F9",
"gX c #DBE4FA",
"hX c #DEE8FC",
"jX c #D5E0F7",
"kX c #C3F3F6",
"lX c #CAF3F6",
"zX c #CAF4F8",
"xX c #DCF2F7",
"cX c #D3F3F6",
"vX c #DCE1EB",
"bX c #E4E7ED",
"nX c #E2EEF7",
"mX c #E5EAF5",
"MX c #E9EBF4",
"NX c #E0E6FB",
"BX c #E4EBFD",
"VX c #E9EFFE",
"CX c #E2E5F4",
"ZX c #E2F1F7",
"AX c #EBF1FE",
"SX c #EAF0FA",
"DX c #F2F6FE",
"FX c #F6F9FE",
"GX c #FBFCFE",
"HX c #F2F4F6",
/* pixels */
"                                                                                                                                                                                                                                                                                                                                                                                                                                                                                                                                                                        ",
"                                                                                                                                                                                                                                                                                                                                                                                                                                                                                                                                                                        ",
"                                                                                                                                                                                                                                                                                                                                                                                                                                                                                                                                                                        ",
"                                                                                                                                                                                                                                                                                                                                                                                                                                                                                                                                                                        ",
"                                    $X$Xg.$X$X$X$X$X$X$X$X$X$X$X$X$X#X$X#X$X$X#X$X#X#X#X#X#X#X#X#X#X#X#X#X#X#X#X#X#X#X#X#X%X#X#X#X#X#X#X%X#X#X%X#X%X%X%X%X%X%X#X#X%X%X%X%X%X%X%X%X%X%X%X%X%X%X%X%X%X%X%X%X%X%X%X#X#X#X%X%X%X%X%X%X%X%X%X%X%X%X%X%X%X%X%X&X%X%X*X%X%X*X%X*X&X&X&X&X&X&X&X&X&X&X=X=X=X=X=X=X=X=X=X=X=X=X=X=X=X=X-X-X-X-X-X-X-X-XOX+X-XOXOXOXOXOXOXOXOXOXOXOXOXOXOXOXOXOXOXOXOXOXOXOXOXOXOXiXiXOXOXOXOXiXiXOXiXiXiX+XOXiXiXiXiXiXiXiXuXuXuXuXuXuXuXuXuXuXuXuXuXuXuXiXuXuXuXuXuXuXuXuXuXuXuXuXuXuXuXoXuXuXuXoXoXoXoX/././.                                  ",
"                              %X*X=X:X:X:X:X:X:X:X:X:X:X:X:X:X:X:X;X:X;X;X;X;X:X;X;X;X;X;X;X;X;X;X;X;X;X;X;X;X;X;X;X;X;X;XkXkX;X;X;XkX;XkXkXkXkX;XkXkXkXkXkXkX;XkX;XkXkXkXkXkXkXkXkXkXkXkXkXkXkXkXkXkXkXkXkXkXkXkXkXkXkXkXkXkXkXkXkXkXkXlXkXlXkXkXkXzXkXzXzXlXlXlXzXzXzXzXzXlXlXlXlXzXlXlXlXlXlXcXcXcXcXcXcXcXcXcXcXcXxXxXxXxXxXxXxXxXxXxXxXxXxXxXxXxXxXxXxXZXxXxXZXZXZXZXZXZXZXZXZXZXZXZXZXZXZXZXZXZXZXZXZXZXZXnXnXnXZXZXZXZXnXnXnXZXZXnXnXnXnXnXnXnXnXnXnXnXnXnXnXMXnXnXMXnXMXnXMXnXnXMXnXnXnXMXnXnXnXBXnXmXmXmXmXmXBXmXnXmXBXNXNXNXNXaXeX                            ",
"                          %X:X;X[.y.) V e e 2 2 2 2 2 2 2 2 2 2 2 2 2 2 2 2 2 2 e 2 e e 2 e 2 e e e e e e e e e e e e e e e e e e e e e e e e e e e e e e e e 2 e e e e e e e e e e e e e e e e e e e e e e e e e e e e e e e e e e e e e e e e e e e e e e e e e y e e e e e e e e e e y y y y r r r i i y y i i i y y y y y y y y h y y h k k h h h k h h h h k h k h h h h h k k k k k k k k h h h k h k h k k k k k k k k k k z z z k k k k z z z z z z z z z z z z z z z b z z z z z z z z z z z g g g g g g g g g b b g g L X.@.b.K.CXBXtX                        ",
"                      $X*X:XM.U V V B B n n u u u u u u u u u u n n B B B B B B B B B B B B B B B B B B B B B B B B B B B V B B B B B V B B B B B B B B B B B B B B B B B B B B B B C C B C B C C C B C C C C C Z Z C C C Z Z Z C Z Z Z Z C Z Z Z Z Z Z Z C C C C C C C C C C C C C C C C C Z Z Z Z Z Z Z Z Z Z Z Z Z Z Z Z Z Z Z Z A Z Z Z A A Z Z Z Z Z Z Z Z I I Z Z A A I I A A A A A A I I A A A A c c I I I I I I I I I I I I K I I I I I I I I I I I I I K K I I I K I K K K K K K K K K K K K K K K K K K K K K K K K K L K L L P Y b.CXgX|.                    ",
"                    #X=X[.E V V B n u u u u u u u u u u u u u u u n n n n n B B B B B B B B B B B B B B B B B V B B B B B B B B B B B C C B B B B B B B B B B n n B B B C C C C C B C B B B B C C C B B C C C C C C C C C C C C C C C C C C C C C C C C C C C C C C C C C C C C C C C C C C C C C C C C C C C C Z Z Z Z Z Z Z Z Z Z A Z Z Z Z A Z Z Z Z Z Z Z Z A Z Z Z Z Z A A Z Z Z A A A A A Z A A A A A A c A A A K K A A I I I K K I K I I I K I I I I I I K K K I K K K K K K K K K K K K K K K c c c c c c c v c v v c c c c K K L P P R L.VXtX                  ",
"                  g.:X[.D V V B n u t t t t t e t t t t t t t t u u u u u u u u u B B B B B B B B B B B B B B B B B B B B B B B B n B B n n u u u u u u u u u u u u u u d M d d n d u d M M n M M M d n C M C C C C C C C C C C C C C C C C C C C C C C C C C C C C C l l l l C C C l l l l C C l l C C C C l l l l C C C Z C Z Z Z Z Z Z Z Z Z Z Z Z Z Z Z Z Z Z Z Z Z Z Z Z Z Z Z x Z Z Z Z Z Z x Z x x x x x x x Z x x x c x A A x x x c c A c c c c c c c c x x K K c c K K K K c c c c c c c c x x v v v v l l l l l l l l v v c c L L L P P A.VX7X                ",
"                g.=X[.D B V u u u t 4 4 4 4 4 3 3 4 t t t t t t u u u u u u u u u u B B B B B n B B B B B B B B B B u u B n j u u u u n u u u u u u u d u u u u u u u u u d u u d d u u d M d M d d d u M M M M M M M M C C l C C C C C C M C C C C C C C C l M d d d d d d d d d d d d d d d l l d l l C l l l l l C C C C C l C C Z C Z Z C Z Z Z x Z Z Z x Z Z Z Z Z Z x Z Z Z x x Z x Z l l x C l l l l l x x x x x x x x x x c x x x c c c x c x x c c c c x x x c x c x x x x x x c x c x c v v v l l l l k l l l k k k k l l l v c K L L P P P.VX~.              ",
"                #X-XU V B u u t t 4 3 3 3 3 3 3 3 3 4 t t t t t t u u u u u u u u u B B B B B j B B B B B B B B B B u u n n u u u u u u u u u u u u u t t u u t u u u u u t u u u d t t u d d d d d u d d d d M d d d M M d d d d d C C d d d C C C C d d d d d d d d d d d d d d d d d d d d d d d d d l d d l l l l l l C l l C C C C C C C C C Z C l l l x Z Z Z Z x Z Z Z x x C l l l l l l l l l l l l l l l l x x x x x x Z x x x x x x x x x x x x x x x x x x x x x c x x x x x x x x x x x v l l l l l l k d d s s s s s s k k l v c L L P P 6XdX              ",
"              g.:Xy.V B u t t t 3 3 3 3 3 3 3 3 2 3 4 4 t t t t t u u u u u u u u n B B B B B B B B B B B B B B B B B B B B u u u u u u u u u u t t t t t t t t t t t t t t t t t a a t a d d d d d u d d d d d d d d M d d d d d M C C d d d l C C C l d d d d d d d d d d d d d d d d d d d d d d d d d d d d l l C C l C C C C C C C C C C C C C C l C C Z Z Z Z Z Z Z Z Z l C C l C l l l l l l l l l l l l l l l x x x x x Z Z x x x x x x x x x x x x x x x x x x x x x x x x x x x x x x x x l l l l l l d d d d s s s s s s s s k k v K K L P o.VX~.            ",
"              $X@XB B u u t 3 3 3 3 2 3 3 3 3 3 2 3 4 4 t t t t u u u u u u B B B B V Z V Z Z C Z Z Z Z C C C C C C C C C C C C C C C C M u u u t t t a t t t t t a t t t t t t a a t t a a d d d d t d d d d d d d d d d d d d d M C C C C C C C C C C C d d d d d d d d d d d d d d d d d d d d d d d d d d d l C C Z Z A A A A A A A A A A A A A A Z A A A A A A A A A A A Z Z C S S l C l l l l l l l l l l C Z Z Z Z A A A A A A A A A A A A A A A A A A A A A A A A A A A x x c c x x c x x x l l l l l k d d d d s s s s s p s s s s k v v K L P <XpX            ",
"              =XM.V u u t 4 3 3 3 1 1 1 1 1 3 2 2 3 3 4 t t t u u u u u B C n N G ) h.j.j.k.k.k.k.x.x.k.x.x.x.x.x.x.k.x.k.x.x.k.k.k.x.c.O.u t t t t t t t t t t t a a a t t t t a a a t a a a a a a t t a a a a a a d d d d d d d H c.x.x.k.c.c.c.c.c.c.! d d d d d d d d d a d d d d d d d d d d d d d d d d d d O.k.x.k.k.k.k.k.k.x.k.x.k.k.x.k.x.k.x.k.k.k.k.x.k.k.k.k.j.h.o.Y S S S C C l l d d d d d d d d +.k.x.x.x.x.x.x.k.x.x.x.x.x.x.k.x.k.x.k.k.k.k.x.x.x.x.k.k.j.j.@./ S S A I A A A x x l l l l k d d d d d s s p p p p p p s s k k k c K L @.BX(.          ",
"            f.;X) B u t t 3 2 2 1 1 1 1 1 1 2 2 3 4 4 t t t u u n B B S O.S.4XMXFXGXGXGXGXGXGXGXGXGXGXGXGXGXGXGXGXGXGXGXGXGXGXGXGXGXGXGXK.a t t t t t t t t t t a t a t t t t t a a a t a a a a a t t t a a a a a a d d d d d d d _ GXGXGXGXGXGXGXGXGXGXO.u d d d d d d a a a d a a a a a d d d d d d d d d d d d <XGXGXGXGXGXGXGXGXGXGXGXGXGXGXGXGXGXGXGXGXGXGXGXGXGXGXGXGXGXGXFXMX1Xc.! C l l d d d d d d d d 4XGXGXGXGXGXGXGXGXGXGXGXGXGXGXGXGXGXGXGXGXGXGXGXGXGXGXGXGXGXGXGXGXHXqX<XB.o.G I A x x l l l l d d s d d r p p p p r p p p s s k k v v K P sX~.          ",
"            f.-XU u u t 3 2 2 1 1 1 1 1 1 1 2 2 3 3 3 t t u u B M ) J.bXGXGXGXGXGXFXFXFXFXFXFXFXDXFXDXFXFXDXDXDXDXDXDXDXDXDXDXDXDXDXFXFXK.t t t t t t t t t t t t t t t t t t t t a t t a a a a a a t a a a a a a a a a d d d d d _ GXGXFXFXFXFXFXFXFXGXO.d d d d d d d a a a a d d a a a a d d d a d d d d d d d <XGXGXFXGXGXFXFXFXFXFXFXFXFXFXFXFXFXFXFXFXFXFXFXFXFXFXFXGXGXGXGXGXGXGXHXD.G C d d d d f f d a 4XGXFXFXFXFXFXFXFXFXFXFXFXFXFXFXFXFXFXFXFXFXFXFXFXFXFXFXFXFXFXGXGXGXGXGXGXGXbXK.' Z A x l l l k d d d s p r r p p r p p p p s s s k k v K 2XeX          ",
"            g.>Xi u t 4 2 2 1 1 1 1 1 1 1 1 3 3 2 3 t t u u B ^ 1XFXGXGXFXAXAXAXVXVXVXVXVXVXAXVXVXVXVXVXVXVXVXVXVXVXVXVXVXVXVXVXVXVXAXAXD.t t t t t t t t t t t t t t t t t t t t a a t t t t a a a a a a a a a a a a a a a a a a _ GXDXAXAXAXAXAXAXAXFXo.t d d d d d d a a a a a a a a a a a d a a a a d a d d d <XDXAXAXAXAXAXAXAXAXAXAXAXAXAXAXAXAXAXAXAXAXAXAXAXAXAXAXAXAXAXDXDXFXFXGXGXbX~ C d d d f d d a 4XDXAXAXAXAXAXAXAXAXAXAXAXAXAXAXAXAXAXAXAXAXAXAXAXAXAXVXVXVXVXAXAXAXAXDXDXGXGXGXFX1X' Z x l l l d d d s r r r p r r r r p p p s s k k v K <XeX          ",
"            g.@Xe t t 4 3 1 1 1 1 1 1 1 1 3 3 3 3 3 t t u n c.HXGXFXDXAXVXVXVXVXVXVXVXVXVXVXVXVXVXVXVXVXVXVXVXVXVXVXVXVXVXVXVXVXVXVXVXAXD.r t t t t t t t t t t t t t t t t a a t a t t t a t a a t t a a a a a a a a a a a a a a _ GXAXAXAXAXAXAXAXAXDXo.t a a a d d a a a a a a a a a a a a a a a a a d a a d a <XDXAXAXAXAXAXAXAXAXAXAXAXAXAXAXAXAXAXAXAXAXAXAXAXAXAXAXAXAXAXAXAXAXAXDXGXGXvXG d d d d d d a 4XDXAXAXAXAXAXAXAXAXAXAXAXAXAXAXAXVXVXVXVXVXVXVXAXAXVXVXVXVXVXAXAXVXVXAXAXAXAXDXGXGXHXA.G x l k k d d s p r r r p r p p r r r s s s k k v J.eX          ",
"            g.@X2 t 4 3 2 1 1 1 1 1 1 1 1 3 3 3 3 4 t u B S.GXGXDXVXBXBXVXVXVXVXVXVXBXVXBXBXBXBXBXVXVXVXVXVXVXBXBXBXVXVXBXVXVXVXVXVXVXAXD.3 t t t t t t t t t t t t a t t t t a t a a t t a a a a a t a a a a a a a a a a a a a a _ GXAXAXAXAXAXAXVXAXDXo.t t a a a a a a a a a a a a a a a a a a a a a a a a a a <XAXVXVXVXVXAXVXVXVXVXVXVXVXVXVXVXVXVXVXVXVXVXVXVXAXAXAXAXAXAXAXAXAXAXAXAXFXGXS.C d d d f d a 4XDXAXVXAXVXVXVXVXVXVXAXVXVXVXVXVXVXVXVXVXVXVXVXVXVXVXVXVXVXVXVXVXVXVXVXVXVXVXVXVXDXGXGX4XH l l d d d s r r r r p p p p r r r p p s s k v K.eX          ",
"            g.@X; t 3 2 1 1 1 1 1 1 1 1 1 3 3 3 3 t u n c.GXFXAXBXVXBXBXBXBXBXBXBXBXBXBXBXBXBXBXBXBXBXBXBXBXBXBXBXBXBXBXBXBXBXBXBXBXVXVXD.3 r t t t t t t t t t t t a t t 4 t a a a t t t t a a a t t a a a a a a a a a a a a a t ( GXAXAXVXAXVXVXVXVXDXo.r t a a a a a a a a a a a a a a a a a a a a a a a a a a <XAXVXVXVXVXVXVXVXVXVXVXVXVXVXVXVXVXVXVXVXVXVXVXVXVXVXVXVXVXVXVXAXVXAXAXAXAXFXHXF d d d d d a 5XDXAXVXVXVXVXVXVXVXVXVXVXVXVXVXVXVXVXVXVXBXBXBXVXVXVXBXBXVXBXVXVXVXVXVXVXVXBXVXVXVXAXDXFXqXH l f d d p r r r r p r r r r r r r p s s k v P.).          ",
"            f.@X; t 3 2 1 1 1 1 < < 1 1 1 3 2 3 e t u ! HXGXVXBXBXBXBXBXBXBXBXBXBXhXhXhXhXhXhXhXhXhXhXhXhXhXhXhXhXhXhXhXhXhXhXhXBXBXBXBXK.3 t t t t t t t t t t t t t t 4 t 4 a t a a t a t t a a t t a a a a a a a a a a a a a t ( FXAXVXVXVXVXVXVXVXAXO.r t a a a a a a a a a a a a a a a a a a a a a a a a a a <XVXVXBXBXBXBXBXBXBXBXBXVXVXVXVXVXVXVXVXBXVXVXVXVXVXVXVXVXVXVXVXVXVXVXVXVXVXAXFXh.d d a d a a 5XAXVXVXVXVXVXBXVXVXVXVXBXVXBXBXBXBXBXBXBXBXBXBXBXBXBXBXBXBXBXVXVXBXBXBXBXBXBXBXBXBXBXVXAXFX4XS d d d p r r r r 3 3 3 3 3 3 p r p s s s k P.).          ",
"            f.@X; 4 3 3 1 1 < < < < < 1 1 3 2 2 t t u D.FXAXhXBXhXBXBXBXhXBXBXBXhXhXgXhXBXdXmXmXmXmXmXmXmXmXmXmXmXmXmXmXmXmXmXmXmXmXmXmXA.3 4 t t t t t t t t t t t t t t t 4 t t a a t t t t t a a t t a a a a a a a a a a a a a ( FXAXVXVXVXVXVXBXVXAXo.t a a a a a a a a a a a d a a a a a a a a a a a a a a a <XMXMXmXmXMXMXmXmXmXmXmXMXmXmXmXmXMXMXMXmXmXmXMXMXmXmXVXBXVXVXVXVXVXVXVXVXVXVXAXA.a a a a a a 5XAXVXVXBXBXVXVXBXBXVXVXMXmXmXmXmXmXmXmXmXmXmXmXmXmXmXmXCXmXBXhXBXBXBXBXBXBXBXBXBXBXBXBXBXAXDXV.l d d p r r r 4 3 3 3 3 3 3 3 r r p p s k P.).          ",
"            f.{.* 3 3 3 1 1 < < < < < 1 1 1 2 3 t t G mXDXhXhXhXhXhXhXhXhXhXhXhXBXvXK.b.@.E I x j y y i i i i i i i i i i i y y i i i y ; 3 4 t t t t t t t t t t t a t t 4 4 4 t a 4 t t t t t a t t t t a a a a a a a a a a a t ( FXVXVXBXVXBXBXBXBXAXo.e t a a a a a a a a a a d d a d a a a a a a a a a a r p r y i i y h y h h h h h h h h h h h h h h h h k x I / @.1XVXVXVXVXBXVXBXBXBXVXAX<Xp a a a a p 3XAXBXBXBXBXBXBXBXBXVXA.k k k h h i i y k h h h h h h x Y O.j.K.0XmXBXBXBXBXBXBXBXBXBXhXhXBXDXHX! d d r r r r 4 3 3 3 3 3 3 3 r r r r s s C.).          ",
"            f.{.* 3 3 3 1 < < < < < < 1 1 3 2 3 t u ' FXVXgXgXhXgXhXhXhXhXhXhXvXh.Y Y C ; # # # # # # # # # # # # # # # # # # # # # # = ; 1 4 t t t t t t t t t t t a t t t t 4 t a a 4 t t t a a t t a a a a a a a a a a a a a t _ FXVXBXBXBXBXBXBXBXAXo.r t a a a a a a a a d d d d d d d d a a a a a a a a r r : ; * # * # # # # * # * * # * * * * * * * # * * # * ; p ! MXVXBXBXBXBXBXBXBXBXVX<X4 a a a a p 3XAXBXBXBXBXBXBXBXBXVXA.; ; * * * * * * * * * * # # # * ; ; p S I | K.mXhXhXhXhXNXgXgXgXNXhXBXDXV.d p r r r r 3 3 3 3 3 3 3 3 3 r r r s s C.).          ",
"            f.@X* 3 3 1 1 < < < < < < 1 1 2 3 3 t u M.DXhXgXgXgXgXgXgXgXgXgXqX/ A * * * * * * * * = * * * = = = = = * * = = = = = = ; 1 1 4 4 t t t a a a a a a a a a t t t t a a a 4 t t t t t a t a a a a a a a a a a a a a t t _ FXVXBXBXBXBXBXBXBXAXo.r t d d d d d d d d d d d d d d d d d d a a a a a t r r 3 ; ; ; = = = = ; ; ; ; ; ; ; ; ; ; ; ; ; ; ; ; ; ; = ; # bXVXBXBXBXBXBXBXBXBXBX<X3 p a a a p 3XAXBXBXBXBXBXBXNXBXBXA.3 ; ; ; ; ; ; ; = = ; ; ; ; = = ; ; ; * * ; S ^ qXhXhXhXhXhXgXdXhXhXhXVXqX3 r r r 3 4 3 3 3 3 3 3 3 3 3 r r r s s Z.).          ",
"            a.{.* 3 3 1 < < < < < < < 1 1 1 3 3 e u S.AXgXgXgXgXfXgXfXgXgXhXj.d * = = ; ; ; 1 1 1 1 ; ; 1 1 1 1 1 1 1 ; 1 1 1 1 1 1 1 4 4 r t t a F F F F F F F F F F m a t t 4 a a a a t t t a a m F m m F F F F F F F a t a a t _ FXVXBXBXBXBXBXBXBXAXO.m m m m m m m m F F m m m m m m m d M d a a d a a a a r r r 3 3 3 3 3 3 3 3 3 3 3 3 3 3 3 3 3 3 3 3 3 3 r 3 3 : * bXVXBXBXBXBXBXBXBXBXBX`.3 p p a a p 3XVXBXBXBXNXNXNXgXBXBXA.3 3 3 3 3 3 3 3 3 3 3 3 ; ; : 1 ; ; ; ; ; ; * r ! qXgXhXhXhXfXfXfXgXfXhXMXG r r r 3 3 3 3 3 3 3 3 3 3 3 r r r s s Z.).          ",
"            a.{.* 3 1 1 < < < < < < < < 1 1 3 3 3 u C.VXjXjXjXfXjXjXjXjXjXmXG * ; ; ; 1 1 1 1 3 1 1 1 1 1 1 3 1 3 3 1 3 4 4 4 4 4 4 4 4 t t t t ' FXFXFXFXFXFXFXFXFXFX5X4 t t t a a a a a t t t a D.FXFXFXFXFXFXFXFXFXHXF t a a t _ FXVXBXBXBXBXhXNXBXAXFXFXFXFXFXFXFXFXFXFXFXFXFXFXFXFXHXMXqX1XB.! a d d a a a p r r r r r r r r r r r r r r r r r r r r r p a r r r r r * bXVXBXBXBXBXBXhXhXhXBX`.3 r p a r p 3XVXgXNXBXNXgXgXgXhXBXA.r r r r r r 3 r 4 4 4 4 3 3 3 4 3 3 3 : : ; ; = r x.BXhXhXgXfXfXfXfXfXgXmX+.r r r 3 3 3 3 3 3 3 3 3 3 3 3 r 9 q s Z.).          ",
"            a.{.* 3 1 1 1 < < < < < < < < 1 3 3 3 t A.BXjXjXjXjXjXjXjXjXjXnX8 ; 1 1 1 1 1 1 3 3 3 3 3 1 3 3 3 3 3 3 3 4 4 4 4 4 4 4 4 4 a t t a ' GXDXDXDXDXDXDXDXDXDX4X4 4 4 4 4 a a a t t t t a <XFXFXFXFXDXDXDXDXFXFXF r a a t _ FXBXhXhXhXhXhXhXBXVXAXDXDXDXDXDXDXDXDXDXDXDXDXDXDXDXDXFXGXGXGXHX<X! d a a a a p a a r r r r a a a r a a a a a p p a p a a a a a p r r > bXVXBXBXgXgXgXgXhXhXBXV.3 4 r p r r 3XVXgXhXgXgXgXgXgXgXBXA.r 4 r r r r 4 r 4 r r 4 3 3 3 r 3 4 3 3 3 3 : ; ; ! mXhXfXfXfXfXfXjXfXfXNXh.r 3 4 3 3 3 3 3 3 3 3 3 3 3 3 3 9 9 s Z.).          ",
"            a.{.* 2 1 1 < < < < = < < < < 1 1 3 3 t A.BXpXjXpXjXpXaXjXjXjXnX8 ; 1 1 3 3 3 3 3 3 3 3 3 3 3 3 3 3 3 3 3 3 4 4 4 4 4 4 4 4 a a t t ` DXBXhXhXhXhXhXBXBXVX5X1 4 4 4 4 4 a 4 t t t t a <XAXBXBXBXBXBXBXBXVXDXF 4 r t t _ FXBXgXgXgXgXgXgXgXhXhXhXhXhXhXNXBXNXBXhXgXhXhXhXNXhXhXgXBXVXAXFXGXMX+.a a a a a a a a p a a a a a a a a a a a a a a a a a a a a a a r ~ VXBXNXhXgXgXgXgXgXhXnXO.3 r r p r r 3XVXgXgXgXgXgXgXgXdXNXA.r 4 p p r r r r r r p r 3 3 4 r 4 3 4 3 3 3 3 3 ; ; mXgXfXfXfXfXfXaXaXjXdXM.3 3 3 3 3 3 3 3 3 3 3 3 3 3 3 3 9 9 s Z.).          ",
"            a.{.* 2 1 1 1 < < < = < < < < 1 1 3 3 t A.BXpXpXpXpXpXpXpXpXjXmX8 1 1 3 3 3 1 3 3 3 3 3 3 1 3 3 3 3 3 3 3 4 4 4 4 4 4 4 4 4 4 4 t t ` DXhXgXgXgXgXgXgXgXBX5X1 4 4 5 4 4 4 4 t a r r a `.AXBXgXhXhXhXgXhXBXSX7 4 r r 4 _ DXBXgXgXgXgXgXgXgXgXgXgXhXgXgXgXhXhXhXgXgXgXgXgXgXhXgXgXgXgXgXBXAXGXbXH a p a a a a p r r t a a a a d d d d d d d d d d d d d d d d N <XAXBXgXgXgXgXgXgXgXhXqX5 1 r r r r r 1XVXgXgXgXfXdXfXfXfXgXA.3 4 p r p 4 4 r r p p r 3 3 3 3 4 4 4 3 3 3 3 3 3 * mXBXfXfXfXaXjXaXaXaXfXZ.: 3 3 3 3 3 3 1 3 : 3 3 3 3 3 3 : 9 p Z.^.          ",
"            a.{.* 2 1 1 < < < < = < 6 < < 1 1 1 3 4 A.hXyXpXyXyXpXpXyXpXaXmX8 1 3 3 3 3 3 3 3 3 3 3 3 3 3 3 3 3 3 3 3 3 4 4 4 4 4 4 4 4 4 4 4 t ` AXgXgXgXgXgXgXgXgXBX4X; 4 4 4 4 4 4 4 4 4 r r a <XVXBXgXgXgXgXgXgXBXSX7 4 4 4 4 _ DXhXgXgXgXfXfXfXfXgXgXgXgXgXfXfXgXgXgXgXfXfXfXfXfXfXfXfXdXdXdXgXgXVXFXS.a p r a a a r p a t a J A.C.C.C.V.V.V.V.V.V.V.V.V.V.V.V.A.<XbXDXVXhXdXfXfXfXfXfXfXNXh.3 3 r 4 r r 4 1XBXfXfXfXfXfXfXfXfXgXC.4 4 r p r 4 r 5 r 5 4 r 3 3 3 3 3 4 3 3 3 4 3 3 3 * mXBXfXjXaXaXaXaXaXaXfXC.; 3 3 3 3 3 3 1 1 1 3 : : : 3 : : 9 p Z.^.          ",
"            s.{.* 1 1 1 < < 6 6 = < < < < 1 1 1 3 t A.hXyXyXyXyXyXyXyXyXaXmX8 1 3 3 3 3 1 1 3 3 3 3 3 1 3 3 3 3 3 3 3 3 3 4 3 4 4 3 4 4 5 4 4 t ` AXgXfXfXfXgXfXgXgXBX5X= 3 4 4 4 4 4 4 4 4 4 4 a `.VXhXgXgXgXgXgXgXhXSX7 4 r r 4 _ DXhXfXfXfXfXfXfXfXfXfXfXfXfXfXfXfXgXfXfXfXfXfXfXfXfXfXfXfXfXfXfXfXgXAXvX; 4 r r p r r r r p p Q FXFXFXFXFXFXFXFXFXFXFXFXFXFXFXGXFXDXDXVXgXgXfXfXfXfXfXfXgXC.f ; 3 r r r r 3 1XBXfXfXfXfXfXfXfXfXgXC.4 r r p p 4 3 5 r r 4 4 4 3 3 3 3 3 3 3 3 3 r r 3 * mXhXaXaXaXaXaXaXpXaXaXA.1 3 1 1 1 3 1 1 1 1 1 1 3 3 3 3 : 9 p Z.^.          ",
"            s.{.# 1 1 1 < = $ 6 $ $ < < < < 1 1 2 4 A.hXyXyXyXyXyXyXyXyXpXmX8 1 1 3 3 3 1 1 3 3 3 3 3 1 3 3 3 3 3 3 3 3 3 3 3 4 4 4 4 4 4 4 4 t ` AXgXfXfXfXfXfXfXfXgX5X= 3 4 4 4 4 4 4 4 5 4 5 a `.VXgXfXgXfXfXfXfXgXSX7 4 r 4 4 _ DXhXfXfXfXfXfXfXfXfXNXgXgXNXgXgXNXBXNXgXgXgXgXfXfXfXfXfXfXfXfXfXfXfXBXMXN 3 4 r r r r p p r r Q DXNXfXfXfXfXfXfXfXfXfXfXfXfXfXfXfXfXfXfXfXfXfXfXfXfXfXqXj.l = 3 r p 4 r 4 4 1XBXfXfXfXjXjXaXaXaXfXC.4 3 r r p 5 5 5 4 4 4 4 3 3 3 3 3 3 3 3 3 3 4 4 3 * mXhXaXaXaXaXpXpXpXpXaXA.; 1 1 1 3 3 1 1 - 1 1 - - : 3 : : p q Z.^.          ",
"            s.{.# 1 1 1 < = < 6 $ 6 $ < < < 1 1 2 4 A.gXtXtXtXtXtXyXtXyXpXmX8 1 3 3 3 3 1 1 3 3 1 3 3 1 1 3 3 3 3 3 3 3 3 4 3 4 4 4 4 4 4 4 4 t ` AXfXjXjXjXjXjXfXjXgX5X= 1 4 4 4 4 4 4 4 4 4 4 a `.VXfXfXfXfXfXfXfXfXVX7 3 4 4 4 ( AXgXjXjXfXjXfXaXaXgXy.| | | | | | ^ | | | o.j.V.qXfXfXfXaXaXaXjXjXjXgXSX_ 3 4 4 r r 4 p r 4 4 Q SXfXjXaXjXfXjXfXfXfXfXfXfXfXaXaXaXjXfXfXfXjXaXaXfXdXC./ l = ; 3 r p 4 p 4 3 1XBXjXaXjXaXaXaXaXaXfXC.4 4 r r r 4 5 5 4 4 4 4 3 3 4 4 4 4 3 3 3 3 3 3 3 * mXhXaXaXpXpXpXpXpXpXpXA.; 1 3 1 1 1 1 1 1 1 1 - - : : 3 : 9 p Z.^.          ",
"            p.{.# 1 1 1 < = = 6 $ 6 $ = < < 1 1 2 4 A.gXtXtXtXtXtXtXtXtXyXmX8 1 3 1 3 1 1 1 1 3 1 3 1 1 1 1 3 3 3 3 3 3 3 4 4 4 4 4 4 4 4 4 4 4 ` AXfXaXaXaXaXaXaXjXgX5X= 3 4 4 4 4 4 4 4 4 4 4 a `.BXfXfXfXjXjXfXfXfXVX7 1 4 4 4 _ AXgXaXaXaXaXaXaXaXNXo.; ; ; * ; * * * = = ; 3 a H qXaXaXaXaXaXaXaXaXfXAX+.3 3 4 4 4 4 4 4 4 4 Q AXfXaXaXaXaXaXaXaXaXaXaXaXaXaXaXaXaXaXaXaXaXaXdXK.+.A ; ; : 3 3 4 4 5 4 4 3 1XBXaXaXaXaXpXaXaXaXaXC.4 3 r 4 4 4 4 3 4 4 4 4 3 3 3 4 4 3 4 3 3 3 3 3 3 * CXhXaXpXpXpXpXyXyXyXpXA.; 1 1 1 1 1 1 1 1 1 1 - - : : : : 9 q n.^.          ",
"            p.{.# 1 1 < < < 6 6 $ $ $ 6 < < < 1 3 4 C.gXrXrXrXrXrXtXrXrXyXmX8 1 1 1 3 1 3 3 1 1 3 1 3 1 1 3 3 3 3 3 3 3 3 3 4 3 3 3 4 4 4 4 4 4 ` AXjXaXpXaXaXaXaXaXfX5X= 1 4 4 4 4 4 4 4 4 4 3 a J.BXfXaXjXaXaXaXaXfXVX7 1 4 4 4 _ AXfXaXaXaXaXaXaXaXNX[ = = = = = = * * = * = * * = B.fXaXaXaXaXaXaXaXjXVX] 1 3 4 4 4 4 4 4 4 3 Q VXfXpXpXpXpXaXaXpXaXaXaXaXaXaXpXpXaXpXpXaXaXaXfXnXSXMX1Xc.G p r r p 4 4 4 3 1XBXaXpXaXpXpXpXpXaXaXC.3 3 r p r 4 4 4 5 4 5 5 3 3 3 3 3 3 3 3 3 3 3 3 3 * CXhXpXpXyXpXpXyXyXyXpXA.; 1 1 ; ; - 1 - 1 1 1 1 1 1 3 : : 9 q n.^.          ",
"            p.E.# 1 1 < < < 6 6 $ $ 6 6 < < < 1 3 4 A.fXrXrXrXrXrXrXrXrXyXmX8 1 1 1 1 1 1 1 1 1 3 1 1 1 3 3 3 3 3 3 3 3 3 4 3 3 3 3 3 4 4 4 4 4 ` AXaXpXpXpXpXaXaXpXfX3X= 1 3 4 4 4 4 4 4 3 3 3 a J.gXjXaXaXaXaXaXaXfXVX7 1 4 3 3 _ AXfXpXpXpXpXaXpXaXNXo.; ; ; ; ; ; ; ; ; ; ; ; = = l.NXaXaXaXpXpXpXpXaXmX] 1 3 4 4 4 4 4 4 3 3 Q nXaXpXpXpXpXpXpXpXpXpXpXpXpXpXpXpXpXpXpXpXpXpXaXaXfXBXVXDXMXc.r r 4 4 4 3 3 1XgXpXpXpXpXpXpXpXpXaXC.3 4 4 4 4 3 3 3 3 5 4 4 3 3 3 3 3 3 3 3 3 3 3 3 3 * mXfXpXyXyXyXyXyXyXyXpXA.= 1 1 ; ; - ; ; 1 1 < 1 - 1 : : : 9 p n.^.          ",
"            p.E.$ 1 1 < < < = 6 $ $ $ 6 < < 1 1 3 4 A.jX9XrXrXrX9XrX9XrXyXdX8 1 1 1 1 3 1 1 1 1 1 1 1 1 3 3 3 3 3 3 1 3 3 3 3 3 3 3 4 4 4 4 4 4 ` VXaXpXpXpXpXpXpXpXaX3X$ 1 3 4 4 4 4 4 4 3 4 3 4 `.gXaXaXaXpXpXpXpXaXnX7 1 3 3 3 _ AXjXpXpXpXpXpXpXpXgXo.; 1 1 1 1 1 1 3 1 1 1 1 ; ; l.NXaXpXpXpXpXpXpXaXBX] 1 3 4 4 4 4 3 3 3 3 Q mXyXyXyXyXyXyXyXyXyXyXyXyXyXyXyXyXyXyXpXpXpXpXpXpXpXpXpXBXVXSXS.3 4 3 4 4 4 1XgXpXpXpXpXpXpXyXpXaXC.4 3 4 4 4 3 3 3 4 4 3 4 3 3 3 3 3 3 3 3 3 3 3 3 3 * mXfXyXyXyXyXyXyXtXyXpXA.= 1 ; ; ; - - = = - < - - - - : : 9 p n.^.          ",
"            p.E.# 1 1 < < = $ $ $ $ $ = < < < 1 3 4 C.jX9X9X9X9X9X9X9XrXtXdX8 1 1 1 1 1 1 1 1 1 1 1 1 1 3 3 3 3 3 3 3 3 3 3 3 3 3 3 4 4 4 4 3 4 ` VXpXyXyXpXpXpXpXpXaX3X$ 1 3 4 4 4 4 4 4 4 3 3 4 J.gXaXpXpXpXpXpXpXaXmX7 1 3 3 1 _ AXjXpXpXpXpXpXyXpXgXo.; 1 1 3 3 1 1 3 3 3 3 1 1 1 l.NXpXpXpXpXpXpXpXpXBX] 1 3 4 4 3 3 4 3 3 3 J C.V.V.V.V.V.V.V.V.V.V.V.V.V.V.V.Z.P.J.0XsXpXpXpXpXyXpXyXyXpXBXVXz.p 4 4 4 4 2XgXpXpXpXpXpXyXyXyXaXC.3 3 3 4 3 3 3 3 4 4 4 4 3 3 3 3 3 3 3 3 3 3 3 3 3 # CXfXyXyXyXyXyXtXtXtXyXC.= 1 ; ; ; ; = = = = = ; - 1 ; : : : 9 n.^.          ",
"            p.E.# 1 < < = $ $ $ $ $ $ $ < < < 1 3 4 Z.pX9X9X9X9X9X9X9X9XrXdX8 1 1 1 3 1 1 1 1 1 1 1 1 1 3 3 3 3 3 3 1 1 3 3 3 3 3 3 3 3 3 4 3 4 ` VXpXyXyXyXpXyXpXyXaX3X% 1 4 4 4 4 4 4 4 3 3 3 4 J.gXaXpXpXpXpXpXpXpXmX7 1 1 3 3 _ VXaXpXyXpXyXyXyXyXdXO.1 1 3 3 3 3 3 3 3 3 3 1 1 3 c.NXpXpXpXpXpXpXyXpXBX] ; 1 3 3 3 3 4 3 3 3 3 r r r r r r r p r r r r p r p p r s l S z.aXpXpXyXyXyXyXyXyXpXNX3X4 3 4 4 3 1XfXyXyXyXyXyXyXyXyXpXC.1 3 4 4 4 3 3 3 4 4 3 3 1 1 3 3 3 3 3 3 3 3 3 3 3 * CXaXtXtXtXtXtXtXtXtXyXC.; 1 ; ; = = < = = - - - ; - ; : : : q n.^.          ",
"            p.E.# 1 < = = $ $ $ $ $ $ $ < < < 1 1 4 C.pX7X9X XXX9X9X9X9XrXdX8 1 1 1 1 1 1 1 1 1 1 1 1 1 1 3 3 1 3 3 1 1 3 3 3 3 3 3 3 3 4 4 4 4 ` VXpXyXyXyXyXyXyXyXaX3X$ 1 3 4 4 4 4 4 4 4 4 3 p J.gXpXyXyXyXpXyXyXpXmX7 1 1 1 1 ( VXaXyXyXyXyXyXyXyXfXO.2 3 3 4 4 3 3 3 3 3 3 3 1 3 l.gXpXyXyXyXyXyXyXyXgX] ; 3 3 3 3 3 4 4 3 3 1 ; * * * # * # # * * * * * * * * * * * # = 2XpXyXyXyXyXyXyXtXyXpXmXH 1 3 3 3 1XfXyXyXyXyXyXyXyXyXpXC.3 3 4 4 3 3 3 4 3 4 3 3 3 3 3 3 3 3 3 1 1 3 3 3 3 * CXaXtXtXtXtXrXrXrXrXyXV.; ; ; = = = < = = = = = = ; ; : : : 9 n.R.          ",
"            p.E.# 1 < = $ $ $ $ $ $ $ 6 $ < < < 1 4 Z.pX X X X X X X X XrXdX8 < 1 1 1 1 1 1 1 1 1 1 1 1 1 3 1 1 1 3 1 1 3 3 3 3 3 3 3 3 4 3 4 4 ` BXyXtXtXyXyXyXyXyXpX1X$ 1 3 3 3 3 3 4 4 3 3 3 4 J.fXpXyXyXyXyXyXyXpXBX7 1 1 1 1 ( VXpXyXyXyXyXyXyXyXfXO.; 1 3 4 4 3 3 3 3 3 3 3 1 3 l.gXpXyXyXyXyXyXtXyXgX] ; 1 3 3 3 3 3 3 3 3 3 1 ; ; ; ; ; ; = = = = ; ; ; ; ; - - ; = ; V.aXyXtXtXtXtXtXtXtXyXdXO.; 3 1 3 1XfXyXyXyXyXtXtXtXtXyXC.1 3 4 3 3 3 3 3 3 3 3 3 1 1 3 3 3 3 3 ; 3 1 3 3 3 r dXaXrXrXrXrXwXwXwXwXrXV.= = = = = = = = = = = = = ; ; : ; : 9 n.R.          ",
"            p.E.# 1 = = $ $ $ $ $ $ $ $ $ 6 < < 1 4 Z.pX X X X X X X X XrXdX8 < 1 1 1 1 1 1 1 1 1 3 1 1 1 1 1 1 3 3 1 1 3 3 3 3 3 3 4 4 4 4 4 4 ` BXyXtXtXtXtXtXyXtXyX1X$ 1 3 4 3 3 4 4 4 3 3 3 4 J.fXyXyXyXyXyXyXyXyXBX7 1 1 1 1 ( VXpXyXyXyXtXtXtXyXfXO.; 1 3 4 4 3 3 3 3 3 3 3 1 3 l.gXyXyXtXyXtXtXtXyXdX] ; 1 3 3 3 3 3 3 3 3 3 3 3 3 1 1 1 1 1 ; ; 1 1 1 1 1 ; ; ; 1 ; ; B.fXyXtXtXtXrXrXrXrXtXaXk.; 1 3 3 1XjXtXtXtXtXtXtXrXtXyXC.1 3 4 4 3 3 3 3 3 3 3 3 1 ; 3 3 3 3 3 1 1 3 3 3 3 ^ NXyXrXwXrXwXwXwXwXwXrXc.= = = = = = = = = = = = = - ; : : : 9 n.R.          ",
"            0.I.$ 1 < < 6 $ $ $ $ $ $ $ $ $ = = 1 4 Z.yX X X X X X X X X XdX8 < 1 1 1 1 1 1 1 1 1 3 1 1 1 1 1 1 1 3 1 1 3 3 3 3 3 3 3 4 3 3 3 4 ` hXtXrXrXrXtXtXtXtXyX1X= 1 1 3 3 4 3 3 4 3 3 3 4 J.aXyXyXyXtXtXtXtXyXmX7 1 1 1 1 ( VXpXtXtXtXtXtXtXtXaXO.; 1 3 3 3 3 3 3 3 3 3 3 1 4 l.gXyXrXrXrXrXtXrXtXfX] ; 1 3 3 4 3 3 3 3 3 3 3 3 3 3 3 3 3 1 1 3 3 3 3 3 3 1 3 3 3 3 3 B.fXtXrXrXrXrXrXrXrXrXaXl.; ; 1 1 2XaXrXrXtXrXrXrXrXrXtXC.1 3 3 3 3 3 3 3 3 3 3 3 1 ; 3 3 3 3 3 1 1 3 3 3 r h.gXtXwXwXwXwXwX7XwXwXrXz.= = = = = = = = = = = = = ; ; ; : : 9 m.R.          ",
"            0.I.@ 1 < < $ $ $ $ $ $ $ $ $ $ $ = < 4 V.yX X|.|. X X X X X XjXH < 1 1 1 1 1 1 1 1 1 1 1 1 1 1 1 1 1 1 1 1 3 3 3 3 3 3 3 4 3 3 3 4 _ hXtX9XrXrXrXrXrXrXtX1X= 1 1 1 3 3 4 3 4 4 3 3 4 J.aXtXtXtXtXtXtXtXyXmX7 1 1 1 1 ( VXyXrXrXrXtXtXrXrXaXO.; 1 3 3 3 3 3 4 4 3 3 3 3 4 l.dXtXrXrXrXrXrXrXrXfX] ; 1 3 3 4 3 3 3 3 3 4 4 3 3 3 3 3 3 3 3 3 3 3 3 3 3 3 3 3 3 3 4 B.fXrXrXrXrXrXrXrXrXrXpXl.; ; 3 3 2XpXrXrXrXrXrXrXwXwXtXZ.1 3 3 3 4 3 3 3 3 3 3 3 3 ; 3 3 3 3 3 1 3 3 3 r r 1XfXwXwX7X7X7X X XXXXXyX' = = = = % = = % % % = = = = ; : : : 9 v.R.          ",
"            0.I.$ 1 = = $ $ $ $ $ $ $ $ $ $ $ $ = 3 B.yX}.}.}.}.}.|.}.}. XtXc.1 1 1 1 1 1 1 1 1 1 1 1 1 1 1 3 3 1 1 1 1 3 3 3 3 3 3 3 3 3 3 3 3 ` gXrX9XrXrXrXrXrXrXtX1X= 1 3 3 3 4 4 4 4 3 3 1 4 J.aXtXtXtXrXrXrXrXyXdX7 1 1 1 1 ~ BXyXrXrXrXrXrXrXrXaXO.; 1 3 3 3 3 3 3 3 4 3 3 3 r c.fXrXrXrXrXrXrXrXrXaX[ ; 1 1 3 3 3 4 3 3 3 3 3 3 3 3 3 3 3 3 3 3 3 3 3 3 3 3 3 3 3 3 r Z.pXrXwXwXwXwXwXwX7XwXpXl.; ; 1 3 2XpXrXrXrXrXrXwXwXwXtXZ.3 3 3 3 3 3 3 3 3 3 3 4 1 3 3 3 3 3 3 3 3 r r r c.NXtXwX X X X X X X X XyX- $ = % % % % = % = % = = = = = - ; : 9 m.R.          ",
"            0.I.# 1 = = $ $ $ $ $ $ $ $ $ $ $ $ $ ; O.pX|.}.}.}.}.}.}.}.}.rXqX( 1 3 1 1 1 1 1 1 1 3 3 1 1 3 3 3 1 3 1 1 3 3 3 3 3 3 3 3 3 3 3 3 ` gXrX7X7XwXwXwXrXrXtX0X5 1 3 4 3 4 3 3 3 3 4 3 4 J.aXtXrXrXrXrXrXrXtXdX7 1 1 1 1 ~ BXtXrXwXwXrXrXrXrXpXO.1 3 3 4 3 3 3 4 4 4 4 4 4 1 1XaXrXwXwXrXrXwXwXrXaX[ ; 1 3 3 4 4 4 3 3 3 3 3 3 3 3 3 3 3 3 3 3 3 3 3 3 4 4 4 3 3 4 5 0XpXwXwX7X7XwXwX7X7XwXyXl.; ; 1 1 2XpXwXwXrXwXwXwXwXwXrXZ.3 3 3 3 3 3 3 3 3 3 3 3 3 3 3 3 3 3 3 3 r r H D.NXpX X X X X|.|.|. X X|.L.@ = = % % % % % % % % = % = = = - - : 9 v.R.          ",
"            0.I.# ; = = $ $ $ $ $ $ $ $ $ $ $ $ $ = H tX X}.}.}.}.}.}.}.}. XtXdXS.~ 5 3 t t r r t r r r 4 4 4 4 r 4 4 4 4 t t t r r r t 4 3 1 1 _ gXwX7X7X7X7X7XwXwXrXfXh.4 t a a a a r t t t t a J.aXrXrXrXrXrXrXrXrXdX7 1 1 1 1 ~ BXtXwXwXrXwXrXwXrXpXO.r a a a a a p a a a a 4 a c.NXpXwXwXwXwXwXwXwXrXpX^ ; 1 1 3 p a a p p p p a p a p p a a a p p p p p a a a a p 4 J D.fXrX7X7X7X7X7X7X7X X7XyXk.= ; 1 ; 2XyXwXwXwXwXwXwXwXwXrXZ.r r p p r r r r p p p p r r p p p 4 5 F +.K.vXgXyX X|.|.|.|.|.|.|.|.|.7Xz.$ = = = % = = % % % % % = = = ; ; ; : 9 v.R.          ",
"            9.I.# ; = = $ $ $ $ $ $ @ $ $ $ $ $ $ $ ; L.}.}.}.}.}.}.}.}.}.}. XyXpXdXqX1XA.N.N.N.N.N.N.N.N.N.N.N.N.N.N.N.N.N.N.N.N.N.N.N.+.1 1 1 _ fX7X X X X7X7X7X7X7XtXCX1XS.N.N.N.N.N.N.N.N.N.N.4XyXrXwXwXwXwXrXrXrXdX7 1 1 1 < _ BXtXwXwXwXwXwXwXwXpXK.N.N.N.N.N.N.N.N.N.N.N.J.qXBXjXwXwXwXwXwXwXwXwXrXyXr = 1 1 3 j.N.N.N.N.N.N.N.N.N.N.N.N.N.N.N.N.N.N.N.N.N.N.N.K.3XCXgXpXwX7X7X7X7X X X X X XyXo.= ; 1 1 2XyX7XwXwXwXwX7X7X7XyX2XN.N.N.N.N.N.N.N.N.N.N.N.N.N.N.N.A.1X0XCXBXgXaXwX|.|.|.|.|.}.}.}.}.}.}.'.m $ = $ $ % % % % % % % % % = = = ; - : 9 v.T.          ",
"            9.I.# ; = = $ $ $ $ $ $ $ $ $ $ $ $ $ $ = o.tX}.}.}.}.}.}.}.}.}.}.}.wXyXpXaXfXfXgXgXgXhXBXBXBXBXBXBXBXBXBXBXBXBXBXBXBXBXBXBXD.1 1 1 H pX X X X X X X7X X7XwXyXaXgXBXBXBXBXBXBXBXBXgXgXaXtXrXwXwXwXwXwXwXrXdX7 ; 1 1 = ( BXrXwX7X7X7XwX7XwXyXgXBXBXBXBXVXBXBXVXBXmXBXgXgXpXwX7X7XwXwXwX7XwXwXwX2X+ = ; 1 ; 2XBXBXmXnXmXmXmXnXnXnXBXnXBXBXVXVXmXmXBXmXBXBXNXgXgXjXtXwX X X X X X X X X X XpXJ $ ; 1 1 2XyX7XwXwXwX X X XwXtXaXgXBXBXBXBXBXBXBXBXBXBXBXBXBXBXgXgXfXfXaXyXwX|.|.|.|.}.}.}.}.}.}.}.}.7X' ; $ $ % $ $ $ % % % % % % % = = = - : : 9 v.T.          ",
"            9.I.# ; = = $ $ $ $ $ @ $ $ $ $ $ @ $ @ $ 3 Z.}.}.!.W.W.W.}.}.}.}.}.}.}.}.|.|. X X7X XXX7XwXwX7XwX7X7XwXwXwXwXwXwXwXwXwXrXrXC.< = < # 0X X X|. X X X X X X X X7XwXwXwXwXwXwXwXrXrXwXwXwXwXwX7XwXwXwX7XwXwXfX7 ; 1 < = ( gXrX X X X XXX X XwXrXrXrXrXrXrXrXrXrXrXrXwXwXwXwXXX7X XXXwX X X7XwXwXC.$ = = 1 = ].pXtXrXrXrXrXrXrXrXrXwXrXrXrXrXwXrXrXrXwXwXwXwXwXwXXXXXXX X X X X X X X X X|.2X< = = ; ; 2XrX X X X X X X X XwXwXwXwXwXwXwXwXwXwXwXwXwXwXwXwXwX X X|.|.|.|.|.}.}.}.}.}.}.}.}.}.}.}.7Xj.p @ $ $ $ $ $ $ $ % % % % % % % = = ; - : 9 v.T.          ",
"            9.I.# ; = = $ $ $ $ $ $ @ $ $ $ $ $ @ @ @ @ F ].}.W.W.W.W.W.W.}.}.}.}.}.}.}.}.}.}.}.}.}.}.}.}.}.}.}.}.}.}.}.}.}.}.|.|.|.|.|.Z.= = = < C. X|.|.|.|.|. X|. X X X X X X X X X X X X X X X X X X X XXX X X XwXfX7 = ; < = ( fXwX X X X X X X XXXXXXXXXXX X X XXXXXXX XXX XXXXX X X X X X X X XXXyX! $ = ; ; $ '.wXXX X X X X X X X X X X X X XXX XXX X X X X X X X X X X X X|. X|.|.|.|. X Xx.- = = ; = ].rX|. X X|.|.|.|.|. X|.|.|.|.|.|.|.|.|.|.|.|.|.|.|.|.}.}.}.}.}.}.}.}.}.}.}.}.}.}.}.!.!.7Xj.s # $ % $ % $ $ $ $ $ $ % % % % % - = - - : q v.U.          ",
"            9.I.# ; = = $ $ $ $ $ $ $ $ $ $ @ @ @ @ @ @ = G L.}.W.W.W.W.W.W.W.W.}.}.}.}.}.}.}.}.}.}.}.}.}.}.}.}.}.}.}.}.}.}.}.}.}.}.|.}.Z.= = $ $ ~ 9X|.}.|.|.|.|.|. X|. X X X X X X X X X X|. X X X X X X X X X X XXXfX7 = = = = ~ fXwX X X X X X X X X X XXXXX X XXXXXXXXX XXX XXXXX X X X X X X X XrXc.; $ = = ; $ '.wXXX X X X X X X X XXX X X X XXX X X X X X|. X X X X|.|.|.|.|.|.|.|.|.|.|.].m $ $ = = = ].wX|.|.|.|.|.|.|.|.|.|.|.|.|.|.|.|.|.}.|.|.}.}.|.|.}.}.}.}.}.}.}.}.}.}.}.}.}.!.!.!.!.8X@.s + @ % % $ $ $ @ $ $ @ $ % % % $ % - = ; : : 9 v.U.          ",
"            9.I.* ; ; = = $ $ $ $ @ @ $ $ $ $ @ @ @ @ @ + $ S M. XW.W.W.W.W.W.W.W.W.}.}.}.}.}.}.}.}.}.}.}.}.}.}.}.}.}.}.}.}.}.}.}.}.}.}.Z.$ $ $ @ = j.7X}.|.}.|.|.}.|.|.|.|.|.|.|.|.|.|.|.|.|. X|. X X X X X X X X XXXfX7 $ = = = ( jXXX|. X X X X|. X XXX X X X X XXXXXXX XXX X X XXX X X|. X X X XrXZ.f # $ = = = $ '.XX X X X X|.|.|.|. X|.XX X X XXX X|.|.|.|.|.|.|.|.|.|.|.|.|.|.|.|.|.|. X'.! - @ % = = = 2XXX|.|.|.|.|.}.}.}.|.|.}.}.}.}.}.}.}.}.}.}.}.}.}.}.}.}.}.}.}.}.}.}.}.}.}.}.!.!.Q. XP.W s + @ @ $ $ $ $ @ @ @ $ @ @ @ @ $ $ % - - - : : 9 v.U.          ",
"            9.I.; 3 ; ; = $ $ $ $ $ @ @ $ $ $ @ @ @ @ @ @ + + d | P. XQ.Q.W.W.W.W.W.W.W.}.}.}.}.}.}.}.}.}.}.}.}.}.}.}.}.}.}.}.}.}.}.}.}.Z.$ $ $ @ + 1 x.7X}.}.}.}.}.}.}.|.|.|.|.|.|.|.|.|.|.|.|.|.|.|.|.|.|.|.|.|.|.XXsX7 $ % $ = ~ jXXX|.|.|.|.|.|.|.|.|.|.|.|.|.|.|.|.XXXX|.|.|.|.|.|.|.|.|.|.wX2X@.v @ @ $ = = = $ L.XX|.|.|.|.|.|.|.|.|.|.|.|.|.|.|.|.|.|.|.|.|.|.|.|.|.}.|.|.}.}.|.|.|.0XZ.Y - + $ $ = = = ].XX}.}.}.}.}.}.}.}.}.}.}.}.}.}.}.}.}.}.}.}.}.}.}.}.}.}.!.}.}.}.}.!.!.!.!.!.!.7XL.o.k - # # @ @ @ @ $ $ @ @ @ @ @ @ @ @ $ $ % - - : : 9 9 v.U.          ",
"            9.E.> r ; ; = $ $ $ $ @ @ @ $ $ $ @ @ @ @ @ @ @ + + ; v | P..X X}.Q.Q.Q.W.W.!.}.W.}.!.}.}.}.}.}.}.}.}.}.}.}.}.}.}.}.}.}.}.W.Z.@ @ @ @ + + 3 ^ P.9X X}.!.}.}.}.}.}.}.}.|.}.}.}.|.}.}.|.}.|.|.|.|.|.|.|.|.|.pX7 $ % $ % ~ aX|.|.|.|.|.|.|.|.|.|.|.|.|.|.|.|.|.|.|.|.|.|.}.}.}.|.wX9XL.h.J p + @ @ $ % % = $ L.}.}.}.|.}.}.}.}.}.}.|.|.|.|.}.|.|.|.|.|.|.|.|.|.|.}.}.}.!.}.|.7X2XM.W S @ + @ $ $ % $ @ ].}.}.}.}.}.}.}.}.}.}.}.}.}.}.}.}.}.}.}.}.}.}.}.}.}.}.!.!.!.!.!.W.Q.!.|.7X'.Z.^ A p + + @ @ @ @ @ @ @ @ @ @ @ $ @ @ $ % % % % - - : : 9 q v.U.          ",
"            5.Q.k r ; ; = = $ $ $ $ $ $ $ $ $ $ @ @ @ @ @ @ + + + o 3 l y ^ h.M.P.L.'.'.'.'.'.'.'.'.'.'.'.'.'.'.'.'.'.'.'.'.'.'.'.'.'.'.M.@ @ @ @ @ + + = f G y.V.P.L.'.'.'.'.'.'.'.'.'.'.'.'.'.'.'.'.'.'.'..X'.'.'..X0X8 $ $ $ $ Q 0X'.'.'.'.'.'.'.'.'.'..X'..X'.'.'.8X2X'..X8X.XL.P.Z.M.@.Y l s + + @ @ $ $ % = % @ P.'.'.'.'.'.'.'.'.'.'.'.'.'.'.'.'.'.'.'.'.'.'.'.'..X.X'.L.P.V.h./ l v - + + @ @ $ $ % $ @ K.'.'.'.'.'.'.'.'.'.'.'.'.'.'.'.'.'.'.'.'.'.'.'.'.'.'.'.'.'.'.L.P.Z.M.@.Y v v : + + + + @ @ @ @ @ @ @ @ @ @ @ @ @ @ @ % % % % - - : : q w H.U.          ",
"            5.}./ r 3 ; ; = = $ $ $ @ @ @ $ $ @ @ @ @ @ @ @ @ @ + + + o o @ 3 a a r y s y y y d k d y y y y y y y d d d y y k k d y y k 1 @ @ @ @ @ + + + + + - a f d s s s k k k d l l k k d y y k k k s k k k s k l s + $ $ $ % $ s y y y y y y y y y y h k k k k y y y h h k s y f l a - + o + + + @ $ $ % $ % $ $ : s i y y s y y y k k k k k k k k k k k k k k s s y y r p f f 3 @ o + + + @ @ $ % @ @ @ @ p s s y y y y y y s y s k k k s d k k s s s s s y s s s y y y s s f f : + o + + + + + + @ @ @ @ @ @ @ @ @ @ @ @ @ @ @ $ % % - - - : : q q H.r.          ",
"            } E.y.s r : ; ; = $ $ $ @ $ $ $ $ $ @ $ @ @ @ @ @ @ @ + + + + + + o o o o o o o o o o o o o o o o o o o o o o o o o o o o o + @ @ @ @ @ @ @ + + + + + o o o o o o o o o o o o o o o o o o o o o o o o o o + @ @ $ @ $ @ + + o o o o o o o o o o o o o + o o o o o o + o + + + + + + + + @ $ $ % $ % $ $ $ + + + o o + o + o + + o + o o o o o o o o o o o o o o o o o + + + + + + + @ @ @ $ @ @ @ @ + + o o o o o o o o o o o o o o o o o o o o o o o o o o o o o o o + + + + + + + + + @ @ @ @ @ @ @ @ @ @ @ @ @ @ @ @ @ @ % - - - - : 9 q 0 _.w.          ",
"              s.,Xy y r : 2 ; = = $ $ $ $ $ $ $ $ $ $ $ $ $ @ @ @ @ @ @ + + + + + + + + + + + + + + + + + + + + + + + + + + + + + + + + + @ @ @ @ @ @ @ @ + + + + + + + + + + + + + + + + + + + + + + + + + + + + + + + @ @ $ $ @ @ @ + + + + + + + + + + + + + + + + + + + + + # + + @ @ @ @ @ @ @ @ $ % % % % $ $ $ @ @ + # + + + + + + + + + + + + + + + + + + + + + + + + + + + # @ @ @ @ @ @ @ % % @ @ @ @ @ @ + + + + + + + + + + + + + + + + + + + + + + + + + + + + + + + + + + + @ @ @ @ @ @ @ @ @ @ @ @ @ @ @ @ @ @ @ @ @ @ % % - - : : : 9 w | ).;.          ",
"              d.@XE k y r 3 ; ; ; = $ $ $ $ $ $ $ $ $ $ $ $ @ @ @ @ @ @ @ @ @ @ @ @ + + + + + + + + + + + + + + + @ + + @ @ @ @ @ @ @ @ @ @ @ @ @ @ @ @ @ @ @ @ @ @ + + + + @ @ @ + + + @ @ + + @ @ @ + @ @ @ @ @ @ @ @ @ @ @ $ @ @ @ @ @ @ @ @ @ @ @ @ @ @ @ @ @ @ @ @ @ @ @ $ $ @ @ @ $ $ $ $ $ $ % % % % % % $ % % $ $ $ $ $ % % $ @ @ @ @ $ @ @ @ @ @ @ @ @ @ @ @ @ @ @ @ @ @ @ @ @ @ @ @ @ @ @ % $ @ @ @ @ @ @ @ @ @ @ @ @ @ @ @ @ @ @ @ @ @ @ @ @ @ @ @ @ @ @ @ @ + # + + + @ @ @ @ @ @ @ @ @ @ @ @ @ @ @ @ @ @ @ @ @ @ @ @ @ $ % - - - : : 9 q w P.T.            ",
"              } {.,Xk k y r 3 1 2 ; = = = = $ $ $ $ $ $ $ $ @ $ $ $ @ @ @ @ @ @ @ @ @ @ @ @ @ @ @ @ @ + + @ @ @ @ @ @ @ @ @ @ @ @ @ @ @ @ @ @ @ @ @ @ @ @ @ @ @ @ @ @ @ @ @ @ @ @ @ @ @ @ @ @ @ @ @ @ @ @ @ @ @ @ @ @ @ $ $ $ $ $ $ $ $ $ $ @ @ $ $ $ $ @ @ @ $ $ $ $ @ $ $ $ $ $ $ $ % % % - - % % % - - - % - - - - % % % % % % % % $ $ % $ % $ $ $ $ $ $ $ $ $ $ $ $ @ @ @ $ $ @ @ @ $ % % % % % % % % % % $ % % $ @ @ @ @ @ $ % @ @ @ @ @ @ @ @ @ @ @ @ $ @ @ @ @ @ @ @ @ @ @ @ @ @ @ @ @ $ @ @ @ @ @ @ @ @ @ @ @ @ @ @ $ $ $ $ $ % - - : : : q w ! eX8.            ",
"                d.=Xy.v k y r r 2 2 ; ; 1 = = % $ $ $ $ $ $ @ $ $ $ $ @ @ @ @ @ @ @ @ @ @ @ @ @ @ @ @ @ @ @ @ @ @ @ @ @ @ @ @ @ @ @ @ @ @ @ @ @ @ @ @ @ @ @ @ @ @ @ @ @ @ @ @ @ @ @ @ @ @ @ @ @ @ @ @ @ @ @ @ @ @ $ @ $ $ % $ % $ $ $ $ $ $ $ $ $ $ % $ $ $ $ $ % % $ $ $ % % - % % % % - - - - - - - - - - - - - - - - - - - - - = - - - - % - - % % % % % % - - % % % % % % % % % $ % % % % % % % % % $ % % % % % % @ @ @ @ @ % % @ @ @ @ $ @ $ @ @ @ @ @ $ $ @ @ @ @ @ @ @ @ @ @ @ @ @ @ @ @ @ @ @ @ @ @ @ @ $ @ @ @ @ @ $ % $ $ $ - - - : : 9 w w L.R.{             ",
"                D a.@XE v k y y r r 2 ; 2 1 1 = = = = = $ $ $ $ $ $ $ $ $ @ $ $ $ $ @ @ @ @ @ @ @ @ @ @ @ @ @ @ @ @ @ @ @ $ @ @ @ @ @ $ $ @ @ @ @ @ @ @ @ @ @ @ @ @ @ @ @ @ @ @ @ @ $ @ @ @ @ @ @ @ @ @ @ $ @ @ @ $ $ $ $ @ $ % % % % % % % % % % % - % % % % - - - - - - - - - - - - - - ; ; ; - - - - - - - - - - - ; - - - - = ; - - - - - = - - - - - - - - - - - - % - - - % % % % % % % % % % % % % % % % % % % $ $ % % % % % $ @ @ @ % % $ % % $ $ % % % @ @ @ $ % @ @ @ @ @ $ @ @ @ @ @ $ @ @ @ @ @ @ @ @ @ @ % @ @ $ $ - % - - - : : 9 q w b._.,.              ",
"                  } g.@X/ x x h y e 2 2 3 2 2 1 ; ; = = = $ $ $ $ $ $ $ % $ % $ $ $ $ $ @ @ @ @ $ $ @ @ @ @ @ @ @ $ @ @ $ $ @ $ @ @ $ $ $ @ @ @ @ @ @ @ @ @ @ @ @ $ @ @ @ @ @ $ $ @ $ $ % % % % % % % $ % % % % % % % % % % % % % % - - % % - - - - - - - - - - = - - - - - - - - - - - - - : - - ; - : : : : ; - ; : : : : : : : : : - : - - - - - ; - - - - - - - - - - - - - - = - % - - - - - - = - - % % % % % % % % % % % % % % % % % % % % % % $ % % % % @ @ $ $ % @ @ @ $ $ $ $ $ @ $ $ $ $ $ @ % @ @ % $ % % % $ $ $ - - - - - : : 9 w w b.).w.f               ",
"                    } a.@Xu.v x h y e r e e 3 2 2 2 1 1 1 < = = = = = = $ $ $ $ $ $ $ $ $ $ $ $ $ $ $ $ $ $ $ $ $ @ @ @ $ $ $ $ $ $ $ $ % % $ $ @ $ % $ % % % % % % $ % $ $ $ $ $ % % % % % % % % % % % - - - - - - - - - - - - - - = = - - - - - ; - - - - - ; : : : : : : : : : : : : : : : : : : , , : : : : : : : : : : : : : : q , : : : : : : : : : : : : : : : : : : : : - - - ; - - - - = - ; - - - - - = - - - - - - - - - - - % % - % - - % - - - % % $ $ % % % % % $ $ $ % % $ $ % % % % % % $ $ % % % - - - $ * - - - - - : : q w J H._.w.S                 ",
"                    1 E a.{.,X1.k k h y y y e e 3 2 2 2 2 1 1 1 1 1 1 1 < = = = = = = = $ $ = $ $ = = $ $ $ $ $ $ $ $ $ = % % $ $ % % % = % % $ % % % % % % % % % = = % % % % % = = = - = - - = - = - - - - - - - ; ; ; - ; ; ; ; ; - - - - - - : : : : : : : : : : : : : : : q q 9 q q q p p q q q q q p q q q q q p q q p q q q p p q q q q q p q q q q q q q q q : : : : , , : : : : : : : : : - : - - : - - - - - - - - - ; - - - - - - - = - - - - - - - - - % - - - - - % $ % - % - - - - - - - - - - - - - - - - - - - - - : : : , w h._.T.,.T                   ",
"                        N u.a.{.,Xu.} U x j y y e e e 2 3 2 2 1 1 2 1 1 ; 1 ; ; ; ; 1 = = = = = = = = = = = = = = = = = = = = = = = = = - = = = = = = = = = = = - - - = = - ; = - - - - - - - : : - : : : : : : : : : : , : , : , , , , , , , , , q q q q q q p q q q q p p s s s p s w s w s s s s s f s s f s w f f f f s s s f f f f s s s s s s s s s s s w s s s w p p p p q p q p p q q q q , p q , , , , , , , , , , : : , , : : : : : : : : - - - - : - - - - - - - - - - - - - - - - - - - - - - - - - - : - - - - - : q T H | m.^.T.w.{ %                     ",
"                          @ U u.p.E.E.s.s.p.i.i.i.i.i.i.4.4.4.4.4.4.4.4.4.4.5.7.7.7.7.7.7.7.7.7.7.7.7.7.7.7.6.6.6.6.6.6.6.6.6.6.6.6.6.6.6.6.3.3.6.6.6.6.6.6.6.6.8.8.8.8.8.8.8.8.8.8.8.8.8.8.8.8.8.8.8.w.w.w.w.w.w.w.w.w.w.t.t.t.t.t.e.e.e.e.e.e.r.r.r.r.r.r.r.r.F.F.F.F.F.Y.G.G.G.G.G.G.G.G.Y.Y.G.G.G.Y.G.Y.Y.Y.Y.Y.Y.Y.Y.Y.Y.Y.Y.Y.Y.Y.Y.Y.Y.Y.Y.Y.Y.Y.Y.Y.G.Y.G.G.G.F.F.F.F.r.F.r.r.r.r.r.r.r.e.e.e.e.e.e.e.t.t.t.w.w.w.w.w.w.w.w.8.8.8.8.8.8.8.2.2.2.2.2.8.2.2.2.2.2.2.2.2.2.2.,.,.,.2.2.2.2.2.2.2.2.2.2.2.2.2.2.8.8.8.8.w.t.e.r.r.F.t.,.{ , &                       ",
"                            6 + 4 E &.*.*.*.*.*.*.*.*.*.*.*.&.&.&.&.&.&.&.&.&.&.&.&.&.&.&.#.#.#.#.#.#.#.#.#.#.#.#.#.#.#. . . . . . . . . . . . . . . . . . . . . .....................%.%.%.%.%.%.%.%.%.=.=.=.=.=.=.=.=.=.=.=.-.-.-.-.;.;.;.;.;.<.<.<.<.<.<.<.<.<.<.<.,.:.:.:.:.:.:.>.>.>.>.>.>.:.:.:.:.:.:.:.>.>.>.>.>.q.>.>.>.>.q.q.>.>.>.q.>.:.:.:.:.:.:.:.:.,.:.,.,.:.,.,.,.,.,.<.<.<.<.;.-.-.-.<.-.-.-.-.-.=.=.=.=.=.=.=.=.=.=.=.=.=.=.=.=.=.=.=.$.$.$.=.=.$.$.$.$.$.$.$.$.$.$.$.$.$.$.$.$.$.$.$.$.$.$.$.$.$.$.$.$.$.$.$.$.$...{ R T & +                           ",
"                                $ @ O X X X X X X X X X X . . . . . . . . . . . . . . . . . . . . . . . . . X . . . . . . . . . . . . . X . . . . . . . . . . . . . . . . . . . . . . X . . . . . . . . X X . . . . . . . . . . . . . X . . . X X X X X X X . X X X X X X X X X X X X X X X X X X X X X X X X . X X X X X X X X X X X . X . X X . X . . . X X X X X X X X X X X X X X X X X X X X X X X . . . X X X X . . . . . . X . . . X X X X . . . X X X X . . . . . . . . . . . . . X . . . . . . . . . . . X . X . X X X X X X o + &                             ",
"                                        + O o O O X X X X X X X X X X X X X X X X X X X X X . . . X . . . . X . . . . . X X . X . . . . X . . . . . . . . . . . . X X . . . . . . . . X X . . . X . . . . X . X X X X . X X X . . . X X . X X . X X X X X X X X X X . . . X X X X X X X X X X X X X X X X X X X X X X X X X X X X X X X X X X X X X . X X X X X X . X X X X X X X X X X X X X X X X X X X X X X X X X X X X X X X X . X X X X X X X X X X X X X . . X X X X X . X X X X X X X X X X X X X X X X X X X X X X X o o o                                     ",
"                                                                                                                                                                                                                                                                                                                                                                                                                                                                                                                                                                        ",
"                                                                                                                                                                                                                                                                                                                                                                                                                                                                                                                                                                        ",
"                                                                                                                                                                                                                                                                                                                                                                                                                                                                                                                                                                        "
};
