/* XPM */
static char *door_xpm[] = {
"32 32 4 1",
"0 c #2b1d14",
"1 c #5a3a28",
"2 c #8a5a3c",
"3 c #aaaaaa",
"00000000000000000000000000000000",
"01111111111111111111111111111110",
"01222222222222222222222222222210",
"01211111111111111111111111111210",
"01222222222222222222222222222210",
"01211111111111111111111111111210",
"01222222222222222222222222222210",
"01211111111111111111111111111210",
"01222222222222222222222222222210",
"01211111111111111111111111111210",
"01222222222222222222222222222210",
"01211111111111111111111111111210",
"01222222222222222222222222222210",
"01211111111111111111111111111210",
"01222222222222222222222222222210",
"01211111111111111111111111111210",
"01222222222222222222222222222210",
"01211111111111111111111111111210",
"01222222222222222222222222222210",
"01211111111111111111111111111210",
"01222222222222222222222222222210",
"01211111111111111111111111111210",
"01222222222222222222222222222210",
"01211111111111111111111111111210",
"01222222222222222222222222222210",
"01211111111111111111111111111210",
"01222222222222222222222222222210",
"01111111111111111111111111111110",
"00000000000000000000000000000000",
"00000000000000000000000000000000",
"00000000000000000000000000000000",
"00000000000000000000000000000000"
};