/* XPM */
static char *_7b9281b1d144893afd7eff80d2ea4b47tkL2IoLCcCxC0Zg[] = {
/* columns rows colors chars-per-pixel */
"64 64 83 1 ",
"  c #27120D",
". c #29130E",
"X c #2E150F",
"o c #311710",
"O c #321810",
"+ c #361A12",
"@ c #381C13",
"# c #3A1C14",
"$ c #3D1D15",
"% c #411F16",
"& c #432017",
"* c #452217",
"= c #442218",
"- c #45241A",
"; c #482318",
": c #49251A",
"> c #4C261A",
", c #4F2B1E",
"< c #50271C",
"1 c #50281B",
"2 c #532A1D",
"3 c #542A1C",
"4 c #572C1F",
"5 c #582B1E",
"6 c #592D1E",
"7 c #5C2E1F",
"8 c #582E20",
"9 c #5D2E20",
"0 c #4C3428",
"q c #4D3A2D",
"w c #5E3022",
"e c #5F3526",
"r c #543528",
"t c #543A2B",
"y c #633222",
"u c #653323",
"i c #653423",
"p c #643324",
"a c #613727",
"s c #653424",
"d c #6A3726",
"f c #6A3826",
"g c #663B2A",
"h c #623D2D",
"j c #6C3928",
"k c #6B3C29",
"l c #6F3D2B",
"z c #713E2B",
"x c #6F402B",
"c c #72402D",
"v c #76422E",
"b c #674533",
"n c #794632",
"m c #7D4933",
"M c #675131",
"N c #6C5734",
"B c #655833",
"V c #6E5835",
"C c #745E38",
"Z c #6E6038",
"A c #7C643C",
"S c #804C35",
"D c #854F38",
"F c #87513A",
"G c #8E6E44",
"H c #827042",
"J c #8E7B49",
"K c #94744A",
"L c #917D4A",
"P c #9B7D4C",
"I c #95804C",
"U c #9B854F",
"Y c #A48651",
"T c #A38E5B",
"R c #A98B59",
"E c #AC8E59",
"W c #AA9157",
"Q c #AD9459",
"! c #AE975F",
"~ c #B49A5D",
"^ c #B49560",
"/ c #BDA365",
"( c #C7AD6E",
/* pixels */
" O++++++++++++++++++++++++++++++++++++++++++O++++oo+++O+++++++O ",
" 3yyyyyyyyyyyyyyyyyyyyyyyyyyyyyyyyyyyyyyyyyyyyyyyyyyyyyyyyyyyy4 ",
" 3yy6***$%==$:*****************,,$*************************4yy4 ",
" 3yy1X<<<<<<<<<<<<<<<<<<<<<<<<<<<<<<<<<<<<<<<<<<<<<<<<<<<<o>yy4 ",
" 3yy1X<9999999999999999999999999999999999999999999999996<<o>yy4 ",
" 3yy1X<yyyyyyyyyyyyyyyyyyyyyyyyyyyyyyyyyyyyyyyyyyyyyyyy9<<o>yy4 ",
" 3yy1X<yyyyyyyyyyyyyyyyyyyyyyyyyyyyyyyyyyyyyyyyyyyyyyyy9<<o>yy4 ",
" 3y9;X<yyyyyyiF8>>>>>>>>>>>>>>>>>>>>>>>>>>>>>>>>= 6yyyy9<<o>yy4 ",
" 3y6&X<yyyyyyiFf323333333333333333333333333333236 6yuyy9<<o>yy4 ",
" 3ycgX<yyyyyyiFf36uuuuuuuuuuuuuuuuuuuuuuuuuuudw36 6yyyy9<<o>yy4 ",
" 3yu2X<yyyyyyiFf36yyyyydsusyuuyyyyyyyyyyyyyyydw37 6yyyy9<<o>yy4 ",
" 3ys3X<yyyyyyiFf36yyyydfssjfuyyyyyyyyyyuyyy8wdw37 6yyyy9<<o>yy4 ",
" 3ylaX<yyyyyyiFf36uuyydiysduyyyyyyyyyyyyyyyfsdw36 6yuyy9<<o>yy4 ",
" 3yy1X<yyyyyyiFf38uuyyyyysdyyyyyyyyyyyyyyyyyydw36 6yuyy9<<o>yy4 ",
" 3yy1X<yyyyyyiFf3<5uyyyyyyyyyyyyyyyyyyyyyujuydw36 6yyyy9<<o>yy4 ",
" 3yy1X<yyyyyyiFf59ddyyysiyyyyyvh0rfyyyyyyyyyydw36 6yyyy9<<o>yy4 ",
" 3yy1X<yyyyyyiFf3663yyydsyyyyymbqtfyyyyyyyuyydw36 6yyyy9<<o>yy4 ",
" 3yy1X<yyyyyyiFf36usyyyyyidyyyssssyyyyyyyujuydw36 6yyyy9<<o>yy4 ",
" 4uy1X<yyyyyyiFf56yyyyysuuu6yyyyyyyyyyyyyysyydw36 6yyyy9<<o>yy4 ",
" 3yy1X<yyyyyyiFf36yyyyyyy9aSuyyyyyyyyyyyyujuydw36 6yyuy9<<o>yy4 ",
" 8sy1X<yyyyyyiFf36uuuyyyysfyyyyyyyyyyyyyyujuydw36 6yssy9<<o>yy4 ",
" 8sy1X<yyyyyyiFf36yyyyyyyyyyyyyyyyyyyyyuuyyyydw36 6ussy9<<o>yy4 ",
" 3yy1X<yyyyyyiFf36yyyyyyyyyyyyyyyyyyyyyyyyyyydw36 6yyyy9<<o>yy4 ",
" 3yy1X<yyyyyyiFf3wdyyyyyyyyyyyyyyyyyyyysdyyyydw37 7uyyy9<<o>yy4 ",
" 3yy1X<yyyyyyiFf39spyyyyyyyyyyyyyyyyyyysdyyyydw36 6yyuy9<<o>yy4 ",
" 3yy1X<yyyyyyiFf36usyyyyyyyyyyyyyyyyyyyyyyyyydw36 6yyyy9<<o>yy4 ",
" 4uy1X<yyyyyyiFf36yyyyyyyyyyyyyyyyyyyyyyyyyyydw36 6yyyy9<<o>yy4 ",
" 3yy1X<yykccxiFf36yyyyyyyyyyyyyyyyyyyyyyyyyyydw36 6yyyy9<<o>yy4 ",
" 8sy1X<y3K//EiFf36yyyyyyyyyyyyyyyyyyyyyyyyyyydw36 6yssy9<<o>yy4 ",
" 8sy1X<y3GUIYiFf36yyyyyyyyyyyyyyyyyydiyyyyyyydw36 6yssy9<<o>yy4 ",
" 3yy1X<y3<<8diFf36yuyyyyyyyyyyyyyyujuyysdyyyudw36 6yyyy9<<o>yy4 ",
" 3yy1X<ydduyyiFf56uuyyyyisyyyyyyyyyduyyyyyyyydw36 6yyyy9<<o>yy2 ",
" 3yy1X<yyyyyyiFf36yyyyyyuuyyyyyyyyyyyyyyyyyyydw36 6yyyy9<<o>yjc ",
" 3yy1X<yyyyyyiFf36yyyyyysdyyyyyyyyyyyyyyyyyyydw36 6yuyy9<<o>y9: ",
" 3yy1X<<R(((^iFf36yyyyyy63yyydduyyyyyyyyyyyyydw36 7yyyy9<<o>yse ",
" 3ys4X<<PQWQYiFf56yyyyyy98yyyydsyyyyyyyyyyyyydw36 6yuyy9<<o>yy4 ",
" 3ys3X<<VL!TCiFf36yyyduysdyyydjsyyyyuyyyyyyyydw36 6yuyy9<<o>yy4 ",
" 3ud4X<<CJIJAiFf36yyy8yyyyyyysfsyyyyiuyyyyyyydw36 6yyyy9<<o>yy4 ",
" 3dj4X<<P~~~YiFf36yyyyyyyyyyyydsyyyydiyyyyyyydw36 6yyyy9<<o>yy4 ",
" 3yu2X<<PHBHYiFf36yyyyyyyyyyyyyyyyyydiyyyyyyydw36 6yyyy9<<o>yy4 ",
" 3yu2X<<P~~~YiFf36yyyyyyyyyyyyyyyyyyduyyyy9yydw36 6yyyy9<<o>yy4 ",
" 3sf4X<<MZZZNiFf36yyyyyyyyyyyyyyyyyyy36yyy<29dw36 6yyyy9<<o>yy4 ",
" 3yu2X<666666iFf966666666666666666666666666666676 6yyyy9<<o>yy4 ",
" 3yy1X<yyyyyyuSDDDDDDDDDDDDDDDDDDDDDDDDDDDDDDDDDDDsyyyy9<<o>yy4 ",
" 3yy1X<yyyyyyyyyyyyyyyyyyyyyyyyyyyyyyyyyyyyyyyyyyyyyyyy9<<o>yy4 ",
" 3yy1X<yyyyyyyyiuyyyyyisuyyyyyusuyyyyyuuyyyyyssyysfjduy9<<o>yy4 ",
" 3yy1X<yyyyyyyydjsyyyyyyyyyyyyyyyyyyyyyyyyyyyyyyyyyyyyy9<<o>yy4 ",
" 3yy1X<yyyyyyyyyyyyyyyyyyyyyyyyyyyyyyyyyyyyyyyyyyyyyy969<<o>yy4 ",
" 3yy1X<yyyyyyiF-+++++++++++++++++++++++++++++++++ 6yyyw6<<o>yy4 ",
" 3yy1X<yyyyyyiFf522222222222222222222222222222236 6yyuzn<<o>yy4 ",
" 3yy1X<yyyuiyiFf38sssswpssssssssssdjdssssdjdsdw36 6yuuy9<<o>yy4 ",
" 3yy1X<yyysdyiFf36sduyduyyyyyyyyyyyyyyddysDsydw36 6yddy9<<o>yy4 ",
" 3ss1X<yysfduiFf36sduyyssyyyduyyyyyyyyddyyyyydw36 6yddy9<<o>yy4 ",
" 3uu1X<yydjdyiFf36sdyyysddysduyyyyyyydjdyyyyydw36 6yyuu9<<o>yy4 ",
" 3ds1X<yydsyyiFf36yyyyydsyujjuyyyyyyydjdufyyydw36 6yysd9<<o>yy4 ",
" 8sy1X<yydsyyiFf36yyyduuuyujjuyyyyyyyyuuufyyydw36 6yyuu9<<o>yy4 ",
" 3ss1X<yyyyyyiFf36yuyfjiyyufiyyyyyyufiyyufyyydw36 6yyyy9<<o>yy4 ",
" =ys1X<yyssyyiFf39fdyfjiyifjjuyyidujjissyyyyydw36 6uyyus<<o>yy4 ",
" gju1X<yyiddyiFf33w9669w88969669wwwwwww966w669436 6yyyy9<<o>yu8 ",
" 3yy1X<yyyyyyiFjdsddssssssssssssssssssssssssssssyO9uyyis<<o>yiw ",
" 3yy1X<yyuuyyyjjjjjjjjjjjjjjjjjjjjjjjjjjjjjjjjjjjjuyyyis<<o>y9> ",
" 3yy1X<yudjfsyzzdyyysssuyuuuyyyyyyyyyyyyyysfddsusyisuyy9<<o>ydg ",
" 3ds1X<yydsyyyyyyyyyyyyysjdufuyyyyyyyyyyyyyyyyyyyyyyyyy9<<o>y9; ",
" #&&@.++++++++++++++++++++++++++++++++++++++++++++++++++++.+&&$ "
};
