/* XPM */
static char *d3d21789dfa7443fd60b6eeff711afa02INl3xXvTPVHDixj[] = {
/* columns rows colors chars-per-pixel */
"155 38 9 1 ",
"  c #FF00FF",
". c #1F0E1C",
"X c #3E2137",
"o c #647D34",
"O c #17434B",
"+ c #584563",
"@ c #C0C741",
"# c #8C8FAE",
"$ c #F5EDBA",
/* pixels */
"                                                                                                                                                           ",
"                    ....................................................................................................................                   ",
"                   .$$$$$$$$$$$$$$$$$$$$$$$$$$$$$$$$$$$$$$$$$$$$$$$$$$$$$$$$$$$$$$$$$$$$$$$$$$$$$$$$$$$$$$$$$$$$$$$$$$$$$$$$$$$$$$$$$$$$.                  ",
"                  .##..................................................................................................................##.                 ",
"                 .##.XXXXXXOOOOOOOOOOOOXXXOOOOOXXXXXXXXXXXXXOOOOOOOOOOOOOOOOOOOOOOOOOOOOOOOOOOOOXXXXXXXXXXXXXOOOOOXXXOOOOOOOOOOOOXXXXXX.##.                ",
"                .##.X++++++XXOOOOOooO++++++oOO+++++++++++++++++++ooOOooOOOOoOOOOoOOOOooOOoo+++++++++++++++++++OOo++++++OooOOOOOXX++++++X.##.               ",
"               .##.O+++###+++OooOOooO++####+o+++#############+++++oo+o@+OOoooOOoooOO+@o+oo+++++#############+++o+####++OooOOooO+++###+++O.##.              ",
"              .##.Oo+++#####+oooOooo++######++###########$$$$#####+@+@+++O@ooOOoo@O+++@+@+#####$$$$###########++######++oooOooo+#####+++oO.##.             ",
"             .##.X#o##+#####++@oOooO+######################$$$$$########+++@oooo@+++########$$$$$######################+OooOo@++#####+##o#X.##.            ",
"            .##.X#####+##$$##++@oooO###########################$$$$########+@oo@+########$$$$###########################Oooo@++##$$##+#####X.##.           ",
"           .##.X+##$$#####$$##++@o@O#########################################@@#########################################O@o@++##$$#####$$##+X.##.          ",
"          .##.X++##$########$##+@oO+####################################################################################+Oo@+##$########$##++X.##.         ",
"         .##.X##++#############+@oO###################$$$$$$$###$$$$$####$$$$##$$$$$$$$$$$$$$$$$$$#######################Oo@+#############++##X.##.        ",
"        .##.X###################@o+##################$$$$$$$$$##+$$$$#####$$$##+$$$$$+++$$$$$$$$$$#######################+o@###################X.##.       ",
"       .##.X+###################@o+#################$$$$$$$$$$$##+$$$#####$$$###+$$$+##+++$$$$++$$#######################+o@###################+X.##.      ",
"      .##.X+++##################@o+################$$$$$+++$$$$$##$$$#####$$$####$$$######$$$$##++#######################+o@##################+++X.##.     ",
"     .##.X+######################@+################$$$$+###+$$$$##$$$#####$$$####$$$######$$$$###########################+@######################+X.##.    ",
"    .##.X++#++###################+#################$$$+#####+$$$##$$$#####$$$####$$$######$$$$############################+###################++#++X.##.   ",
"   .##.X+o+#+@###################+#################$$$#######$$$##$$$#####$$$####$$$######$$$$############################+###################@+#+o+X.##.  ",
"   .##.OOo+#+@+##########+#########################$$$#######$$$##$$$#####$$$####$$$######$$$$####################################+##########+@+#+oOO.##.  ",
"    .##.Oo+#+o@##########@+########################$$$#######$$$##$$$#####$$$####$$$######$$$$###################################+@##########@o+#+oO.##.   ",
"     .##.O+++oo#########+@+########################$$$#######$$$##$$$#####$$$####$$$######$$$$###################################+@+#########oo+++O.##.    ",
"      .##.X++Oo+########@@+########################$$$$#####$$$$##$$$#####$$$####$$$######$$$$###################################+@@########+oO++X.##.     ",
"       .##.X+Oo+##$####+o@++#$$####################$$$$$###$$$$$##$$$$###$$$$####$$$######$$$$###############################$$#++@o+####$##+oO+X.##.      ",
"        .##.XOoo##$####+o@++##$$###################+$$$$$$$$$$$+##$$$$$$$$$$$####$$$######$$$$##############################$$##++@o+####$##ooOX.##.       ",
"         .##.OOo+#$$###+oo@++##$$#+#################+$$$$$$$$$+###+$$$$$$$$$+###$$$$$#####$$$$###########################+#$$##++@oo+###$$#+oOO.##.        ",
"          .##.OOo##$$##+Ooo@++####+##################+$$$$$$$+#####+$$$$$$$+###$$$$$$$####$$$$###########################+####++@ooO+##$$##oOO.##.         ",
"           .##.OO+#####+Oooo++###+++##################+++++++#++####+++++++####+++++++####++++####$#####################+++###++oooO+#####+OO.##.          ",
"            .##.X++###++OooooO###@@++#+#################$$###+@+############################+@+###$$#################+#++@@###OooooO++###++X.##.           ",
"             .##.X++++++OOooooO+ooo@++++##############$$$###+@o+############################+o@+###$$$##############++++@ooo+OooooOO++++++X.##.            ",
"              .##.X++++XOOoooooOooooo+@++#########$$$$$###++@ooo++++####################++++ooo@++###$$$$$#########++@+oooooOoooooOOX++++X.##.             ",
"               .##.X+++XOOOoooOOoooooOo@++++############+++oooOooX++++++++++++++++++++++++XooOooo+++############++++@oOoooooOOoooOOOX+++X.##.              ",
"                .##.XXXOOOOOOOOOooooOoooO+++++++#####++++OooooOOooooo++++++++++++++++++oooooOOooooO++++#####+++++++OoooOooooOOOOOOOOOXXX.##.               ",
"                 .##.XOOOOOOOOOOOOOOOOoooOOXXXXXXXXXXXXOOOOOOOOOOOOOOOXXXXXXXXXXXXXXXXOOOOOOOOOOOOOOOXXXXXXXXXXXXOOoooOOOOOOOOOOOOOOOOX.##.                ",
"                  .##..................................................................................................................##.                 ",
"                   .$$$$$$$$$$$$$$$$$$$$$$$$$$$$$$$$$$$$$$$$$$$$$$$$$$$$$$$$$$$$$$$$$$$$$$$$$$$$$$$$$$$$$$$$$$$$$$$$$$$$$$$$$$$$$$$$$$$$.                  ",
"                    ....................................................................................................................                   ",
"                                                                                                                                                           "
};
