/* XPM */
static char *secret_xpm[] = {
"32 32 5 1",
"0 c #2b1d14",
"1 c #5a3a28",
"2 c #8a5a3c",
"3 c #aaaaaa",
"4 c #444444",
"00000000000000000000000000000000",
"01111111111111111111111111111110",
"01222222222222222222222222222210",
"01211111111111111111111111111210",
"01222222222222222222222222222210",
"01211111111111111111111111111210",
"01222222222222222222222222222210",
"01211111111111111111111111111210",
"01222222222222222222222222222210",
"01222222222222222222222222222210",
"01211111111113333311111111111210",
"01222222222223333332222222222210",
"01211111111333333333111111111210",
"01222222223333333333322222222210",
"01211111111333333333111111111210",
"01222222222223333332222222222210",
"01211111111113333311111111111210",
"01211111111111111111111111111210",
"01222222222222222222222222222210",
"01211111111111111111111111111210",
"01222222222222222222222222222210",
"01211111111111111111111111111210",
"01222222222222222222222222222210",
"01211111111111111111111111111210",
"01222222222222222222222222222210",
"01211111111111111111111111111210",
"01222222222222222222222222222210",
"01111111111111111111111111111110",
"00000000000000000000000000000000",
"00000000000000000000000000000000",
"00000000000000000000000000000000",
"00000000000000000000000000000000"
};