/* XPM */
static char *c5e1f446074844aecc3db803c8b13ad2B8XK7JdCm7VqCY2[] = {
/* columns rows colors chars-per-pixel */
"32 32 1 1 ",
"  c #00e1ff",
/* pixels */
"                                ",
"                                ",
"                                ",
"                                ",
"                                ",
"                                ",
"                                ",
"                                ",
"                                ",
"                                ",
"                                ",
"                                ",
"                                ",
"                                ",
"                                ",
"                                ",
"                                ",
"                                ",
"                                ",
"                                ",
"                                ",
"                                ",
"                                ",
"                                ",
"                                ",
"                                ",
"                                ",
"                                ",
"                                ",
"                                ",
"                                ",
"                                ",
};