/* XPM */
static char *fib_wall[] = {
/* columns rows colors chars-per-pixel */
"64 64 8 1 ",
"A c #1A1A2E",
"B c #16213E",
"C c #0F3460",
"D c #533483",
"L c #E94560",
"G c #2ECC71",
"W c #AAAAAA",
"X c #555566",
/* pixels */
"CXXXXXXCXXXXXXCXXXXXXCXXXXXXCXXXXXXCXXXXXXCXXXXXXCXXXXXXCXXXXXXC",
"XAAAAACABBBBBCBBXAAACAAABBBCBBBBXACAAAAABCBBBBBBCAAAAAACBBBBBBCB",
"XAAAACAABBBBCBBBXAACAAAABBCBBBBBXCAAAAAACBBBBBBCXAAAAACABBBBBCBB",
"XAADDDAABDDDBBBDDDCAADDDBCBBBBBBCAAAAAACBBBBBBCBXAAAACAABBBBCBBB",
"XADCAADADBCBDBDBXCDADAAADBBBBBBCXAAAAACABBBBBCBBXAAACAAABBBCBBBB",
"XACAAADABCBBDBBBCADAAAACDBBBBBCBXAAAACAABBBBCBBBXAACAAAABBCBBBBB",
"XCAADDAACBDDBBBCDDAAAADDBBBBBCBBXAAACAAABBBCBBBBXACAAAAABCBBBBBB",
"CAAADAACBBDBBBCBDAAAACDABBBBCBBBXAACAAAABBCBBBBBXCAAAAAACBBBBBBC",
"XBBBBBCBAAAAACAAXBBBCBBBAAACAAAAXBCBBBBBACAAAAAACBBBBBBCAAAAAACA",
"XBBBDCBBAADACAAADBBCBBDBAACAAAAAXCBBBBBBCAAAAAACXBBBBBCBAAAAACAA",
"XBBBCBBBAAACAAAAXBCBBBBBACAAAAAACBBBBBBCAAAAAACAXBBBBCBBAAAACAAA",
"XBBCBBBBAACAAAAAXCBBBBBBCAAAAAACXBBBBBCBAAAAACAAXBBBCBBBAAACAAAA",
"XBCBBBBBACAAAAAACBBBBBBCAAAAAACAXBBBBCBBAAAACAAAXBBCBBBBAACAAAAA",
"XCBBBBBBCAAAAAACXBBBBBCBAAAAACAAXBBBCBBBAAACAAAAXBCBBBBBACAAAAAA",
"CBBBBBBCAAAAAACAXBBBBCBBAAAACAAAXBBCBBBBAACAAAAAXCBBBBBBCAAAAAAC",
"XBBBBBCBAAAAACAAXBBBCBBBAAACAAAAXBCBBBBBACAAAAAACBBBBBBCAAAAAACA",
"XXXXXCXXXXXXCXXXXXXCXXXXXXCXXXXXXCXXXXXXCXXXXXXCXXXXXXCXXXXXXCXX",
"XAAACAAABBBCBBBBXACAAAAABCBBBBBBCAAAAAACBBBBBBCBXAAAACAABBBBCBBB",
"XAACAAAABBCBBBBBXCAAAAAACBBBBBBCXAAAAACABBBBBCBBXAAACAAABBBCBBBB",
"XACAAAAABCBBBBBBCAAAAAACBBBBBBCBXAAAACAABBBBCBBBXAACAAAABBCBBBBB",
"XXXXXXXXXXXXXXXXXXXXXXXXXXXXXXXXXXXXXXXXXXXXXXXXXXXXXXXXXXXXXXXX",
"CAAAAAACBBBBBBCBXAAAACAABBBBCBBBXAACAAAABBCBBBBBXCAAAAAACBBBBBBC",
"XAAAAACABBBBBCBBXAAACAAABBBCBBBBXACAAAAABCBBBBBBCAAAAAACBBBBBBCB",
"XAAAGCAABBBBCGBBXAACAWWWBBCBBGGGGCAAAAAACBBBBBBCXAAAAACABBBBBCBB",
"XBBGGBBBAAACGGAAXBCBWBBBWCAAAAAACGBBBBBCAAAAAACAXBBBBCBBAAAACAAA",
"XBBCGBBBAACAAGAAXCBBBBBBWAAAAAACXGBBBBCBAAAAACAAXBBBCBBBAAACAAAA",
"XBCBGBBBACAAAGAACBBBBBWWAAAAAAGGGBBBBCBBAAAACAAAXBBCBBBBAACAAAAA",
"XCBBGBBBCAAAAGACXBBBBBWBAAAAACAAXGBBCBBBAAACAAAAXBCBBBBBACAAAAAA",
"CBBBGBBCAAAAAGCAXBBBBCBBAAAACAAAXGBCBBBBAACAAAAAXCBBBBBBCAAAAAAC",
"XBBGGGCBAAAAGGGAXBBBCBWBAAACAGGGGBCBBBBBACAAAAAACBBBBBBCAAAAAACA",
"XBBBBCBBAAAACAAAXBBCBBBBAACAAAAAXCBBBBBBCAAAAAACXBBBBBCBAAAAACAA",
"XBBBCBBBAAACAAAAXBCBBBBBACAAAAAACBBBBBBCAAAAAACAXBBBBCBBAAAACAAA",
"XXXCXXXXXXCXXXXXXCXXXXXXCXXXXXXCXXXXXXCXXXXXXCXXXXXXCXXXXXXCXXXX",
"XACAAAAABCBBBBBBCAAAAAACBBBBBBCBXAAAACAABBBBCBBBXAACAAAABBCBBBBB",
"XCAAAAAACBBBBBBCXAAAAACABBBBBCBBXAAACAAABBBCBBBBXACAAAAABCBBBBBB",
"CAAAAAACBBBBBBCBXAAAACAABBBBCBBBXAACAAAABBCBBBBBXCAAAAAACBBBBBBC",
"XAAAAACABBBBBCBBXAAACAAABBBCBBBBXACAAAAABCBBBBBBCAAAAAACBBBBBBCB",
"XAAAACAABBBBCBBBXAACAAAABBCBBBBBXCAAAAAACBBBBBBCXAAAAACABBBBBCBB",
"XAAACAAABBBCBBBBXACAAAAABCBBBBBBCAAAAAACBBBBBBCBXAAAACAABBBBCBBB",
"XAACAAAABBCBBBBBXCAAAAAACBBBBBBCXAAAAACABBBBBCBBXAAACAAABBBCBBBB",
"XBCBBBBBACAAAAAACBBBBBBCAAAAAACAXBBBBCBBAAAACAAAXBBCBBBBAACAAAAA",
"XCBBBBBBCAAAAAACXBBBBBCBAAAAACAAXBBBCBBBAAACAAAAXBCBBBBBACAAAAAA",
"XXXXXXXXXXXXXXXXXXXXXXXXXXXXXXXXXXXXXXXXXXXXXXXXXXXXXXXXXXXXXXXX",
"XBBBBBCBAAAAACAAXBBBCBBBAAACAAAAXBCBBBBBACAAAAAACBBBBBBCAAAAAACA",
"XBBBBCBBAAAACAAAXBBCBBBBAACAAAAAXCBBBBBBCAAAAAACXBBBBBCBAAAAACAA",
"XBBWWWBBAAACWWWAXBCBBBLBACLLLLAACBBBBBBCAAAAAACAXBBBBCBBAAAACAAA",
"XBWCBBWBAACWAAAWXCBBBLLBCAAAAALCXBBBBBCBAAAAACAAXBBBCBBBAAACAAAA",
"XBCBBBWBACAAAAAWCBBBBBLCAAAAAALAXBBBBCBBAAAACAAAXBBCBBBBAACAAAAA",
"XCXXWWXXCXXXXWWCXXXXXXLXXXXLLLXXXXXXCXXXXXXCXXXXXXCXXXXXXCXXXXXX",
"CAAAWAACBBBBBWCBXAAAACLABBBBCBLBXAACAAAABBCBBBBBXCAAAAAACBBBBBBC",
"XAAAAACABBBBBCBBXAAACALABBBCBBLBXACAAAAABCBBBBBBCAAAAAACBBBBBBCB",
"XAAAWCAABBBBCWBBXAACALLLBBLLLLBBXCAAAAAACBBBBBBCXAAAAACABBBBBCBB",
"XAAACAAABBBCBBBBXACAAAAABCBBBBBBCAAAAAACBBBBBBCBXAAAACAABBBBCBBB",
"XAACAAAABBCBBBBBXCAAAAAACBBBBBBCXAAAAACABBBBBCBBXAAACAAABBBCBBBB",
"XACAAAAABCBBBBBBCAAAAAACBBBBBBCBXAAAACAABBBBCBBBXAACAAAABBCBBBBB",
"XCAAAAAACBBBBBBCXAAAAACABBBBBCBBXAAACAAABBBCBBBBXACAAAAABCBBBBBB",
"CBBBBBBCAAAAAACAXBBBBCBBAAAACAAAXBBCBBBBAACAAAAAXCBBBBBBCAAAAAAC",
"XBBBBBCBAAAAACAAXBBBCBBBAAACAAAAXBCBBBBBACAAAAAACBBBBBBCAAAAAACA",
"XBBBBCBBAAAACAAAXBBCBBBBAACAAAAAXCBBBBBBCAAAAAACXBBBBBCBAAAAACAA",
"XBBBCBBBAAACAAAAXBCBBBBBACAAAAAACBBBBBBCAAAAAACAXBBBBCBBAAAACAAA",
"XBBCBBBBAACAAAAAXCBBBBBBCAAAAAACXBBBBBCBAAAAACAAXBBBCBBBAAACAAAA",
"XBCBBBBBACAAAAAACBBBBBBCAAAAAACAXBBBBCBBAAAACAAAXBBCBBBBAACAAAAA",
"XCBBBBBBCAAAAAACXBBBBBCBAAAAACAAXBBBCBBBAAACAAAAXBCBBBBBACAAAAAA",
"CBBBBBBCAAAAAACAXBBBBCBBAAAACAAAXBBCBBBBAACAAAAAXCBBBBBBCAAAAAAC"
};